/* XPM */
static char *deesser_stereo[] = {
/* columns rows colors chars-per-pixel */
"256 256 256 2 ",
"   c #0A0A0C",
".  c #060707",
"X  c #16130E",
"o  c #0D0E11",
"O  c #0B1511",
"+  c #0E1914",
"@  c #091816",
"#  c #131213",
"$  c #1B1516",
"%  c #15161B",
"&  c #1C151A",
"*  c #16191D",
"=  c #18191E",
"-  c #131917",
";  c #0D100D",
":  c #2A1B1C",
">  c #311B16",
",  c #28291B",
"<  c #26271A",
"1  c #353313",
"2  c #141523",
"3  c #161A21",
"4  c #1B1C22",
"5  c #161F2A",
"6  c #1B1D28",
"7  c #0C1822",
"8  c #231D24",
"9  c #2D1E24",
"0  c #261D2A",
"q  c #2F1E2F",
"w  c #1F2026",
"e  c #1D212B",
"r  c #17242C",
"t  c #162534",
"y  c #1C2535",
"u  c #1E273A",
"i  c #1C2A3C",
"p  c #182B37",
"a  c #19343B",
"s  c #0D282D",
"d  c #232324",
"f  c #23252C",
"g  c #26282F",
"h  c #2B2727",
"j  c #342428",
"k  c #252731",
"l  c #272830",
"z  c #292B34",
"x  c #2D2F38",
"c  c #292537",
"v  c #312B33",
"b  c #372737",
"n  c #2F303A",
"m  c #253538",
"M  c #31333D",
"N  c #3F393C",
"B  c #3B343A",
"V  c #323428",
"C  c #17211C",
"Z  c #4B3017",
"A  c #4A2B27",
"S  c #48383B",
"D  c #553839",
"F  c #4F2E2F",
"G  c #6C3430",
"H  c #4C1C1A",
"J  c #37492D",
"K  c #5A5900",
"L  c #555503",
"P  c #4A4A0D",
"I  c #6F6E05",
"U  c #544E32",
"Y  c #695624",
"T  c #6F4B35",
"R  c #655C1E",
"E  c #1B2C42",
"W  c #193846",
"Q  c #113754",
"!  c #252C45",
"~  c #392745",
"^  c #253445",
"/  c #353742",
"(  c #363844",
")  c #393B46",
"_  c #3B3D4A",
"`  c #3C3748",
"'  c #243558",
"]  c #383957",
"[  c #322E54",
"{  c #263A69",
"}  c #313D6C",
"|  c #1F3458",
" . c #463B46",
".. c #493C46",
"X. c #4A3E49",
"o. c #453946",
"O. c #543B45",
"+. c #553E49",
"@. c #583B46",
"#. c #492856",
"$. c #483B55",
"%. c #543C54",
"&. c #4B2852",
"*. c #6B364F",
"=. c #592B64",
"-. c #592A66",
";. c #51346A",
":. c #653D69",
">. c #66396A",
",. c #693072",
"<. c #401F49",
"1. c #194955",
"2. c #174953",
"3. c #3E414E",
"4. c #3C4256",
"5. c #2A4B51",
"6. c #1C5967",
"7. c #104C70",
"8. c #284379",
"9. c #37497B",
"0. c #344967",
"q. c #136774",
"w. c #256B79",
"e. c #4D424E",
"r. c #494248",
"t. c #534246",
"y. c #5C4345",
"u. c #5B434C",
"i. c #54454C",
"p. c #424454",
"a. c #4E4451",
"s. c #464857",
"d. c #424559",
"f. c #474959",
"g. c #4A4C5C",
"h. c #4D4657",
"j. c #514553",
"k. c #544856",
"l. c #554B59",
"z. c #594E5C",
"x. c #5B4455",
"c. c #5B505F",
"v. c #5B5057",
"b. c #49535A",
"n. c #634545",
"m. c #6C4945",
"M. c #684A49",
"N. c #714C48",
"B. c #775349",
"V. c #654855",
"C. c #6B5053",
"Z. c #484964",
"A. c #4E5162",
"S. c #525465",
"D. c #5D5261",
"F. c #56586B",
"G. c #514A72",
"H. c #6B466F",
"J. c #5B6372",
"K. c #646578",
"L. c #59684F",
"P. c #8D3333",
"I. c #A7382F",
"U. c #8E5632",
"Y. c #B26931",
"T. c #9F6024",
"R. c #D87729",
"E. c #CC712D",
"W. c #E37B28",
"Q. c #D76525",
"!. c #893658",
"~. c #993A62",
"^. c #8B5347",
"/. c #AC4A4B",
"(. c #AE476F",
"). c #A1685F",
"_. c #C85B5F",
"`. c #D83F32",
"'. c #888900",
"]. c #D0813A",
"[. c #773086",
"{. c #0B4E95",
"}. c #0C5697",
"|. c #0E548A",
" X c #334D8F",
".X c #13748C",
"XX c #27738D",
"oX c #185BAA",
"OX c #1D5FB1",
"+X c #3B53A8",
"@X c #325AB3",
"#X c #0865A8",
"$X c #0B6CB8",
"%X c #2464BA",
"&X c #3668B3",
"*X c #4B5090",
"=X c #6E518E",
"-X c #4755A6",
";X c #4E57AE",
":X c #7058AA",
">X c #4161A7",
",X c #4C63B8",
"<X c #696BA1",
"1X c #0478C9",
"2X c #2C6AC5",
"3X c #3765C8",
"4X c #3274D6",
"5X c #326CD4",
"6X c #3B7CE5",
"7X c #316EEC",
"8X c #3B5EC1",
"9X c #4F5DC3",
"0X c #4666C9",
"qX c #4A69DC",
"wX c #476AD8",
"eX c #5769D7",
"rX c #5666C9",
"tX c #6869D1",
"yX c #4A6DE5",
"uX c #576DE6",
"iX c #4871E9",
"pX c #4B76F8",
"aX c #5375FA",
"sX c #5370EE",
"dX c #696CEA",
"fX c #685ACC",
"gX c #313D80",
"hX c #8C3799",
"jX c #8A3797",
"kX c #8C3499",
"lX c #982FA6",
"zX c #A934B8",
"xX c #8A518F",
"cX c #905FA2",
"vX c #D14C83",
"bX c #BB43CB",
"nX c #BA46D5",
"mX c #865BC9",
"MX c #C646D2",
"NX c #D748E8",
"BX c #B43FCD",
"VX c #088795",
"CX c #21859A",
"ZX c #0499A7",
"AX c #2394AC",
"SX c #00AAB9",
"DX c #01A7B5",
"FX c #23A3BC",
"GX c #0382DB",
"HX c #0189E8",
"JX c #0095FB",
"KX c #018FF2",
"LX c #13AEC2",
"PX c #4E8BFC",
"IX c #5F82A2",
"UX c #8D9161",
/* pixels */
"4 4 4 4 4 4 4 4 4 4 4 4 4 4 4 4 4 4 4 4 4 4 4 4 4 4 4 4 4 4 4 4 4 4 4 4 4 4 4 4 4 4 4 4 4 4 4 4 4 4 4 4 4 4 4 4 4 4 4 4 4 4 4 4 4 4 4 4 4 4 4 4 4 4 4 4 4 4 4 4 4 4 4 4 4 4 4 4 4 4 4 4 4 4 4 4 4 4 4 4 4 4 4 4 4 4 4 4 4 4 4 4 4 4 4 4 4 4 4 4 4 4 4 4 4 4 4 4 4 4 4 4 4 4 4 4 4 4 4 4 4 4 4 4 4 4 4 4 4 4 4 4 4 4 4 4 4 4 4 4 4 4 4 4 4 4 4 4 4 4 4 4 4 4 4 4 4 4 4 4 4 4 4 4 4 4 4 4 4 4 4 4 4 4 4 4 4 4 4 4 4 4 4 4 4 4 4 4 4 4 4 4 4 4 4 4 4 4 4 4 4 4 4 4 4 4 4 4 4 4 4 4 4 4 4 4 4 4 4 4 4 4 4 4 4 4 4 4 4 4 4 4 4 4 4 4 ",
"4 4 4 4 4 4 4 4 4 4 4 4 4 4 4 4 4 4 4 4 4 4 4 4 4 4 4 4 4 4 4 4 4 4 4 4 4 4 4 4 4 4 4 4 4 4 4 4 4 4 4 4 4 4 4 4 4 4 4 4 4 4 4 4 4 4 4 4 4 4 4 4 4 4 4 4 4 4 4 4 4 4 4 4 4 4 4 4 4 4 4 4 4 4 4 4 4 4 4 4 4 4 4 4 4 4 4 4 4 4 4 4 4 4 4 4 4 4 4 4 4 4 4 4 4 4 4 4 4 4 4 4 4 4 4 4 4 4 4 4 4 4 4 4 4 4 4 4 4 4 4 4 4 4 4 4 4 4 4 4 4 4 4 4 4 4 4 4 4 4 4 4 4 4 4 4 4 4 4 4 4 4 4 4 4 4 4 4 4 4 4 4 4 4 4 4 4 4 4 4 4 4 4 4 4 4 4 4 4 4 4 4 4 4 4 4 4 4 4 4 4 4 4 4 4 4 4 4 4 4 4 4 4 4 4 4 4 4 4 4 4 4 4 4 4 4 4 4 4 4 4 4 4 4 4 4 ",
"4 4 4 4 4 4 4 4 4 4 4 4 4 4 4 4 4 4 4 4 4 4 4 4 4 4 4 4 4 4 4 4 4 4 4 4 4 4 4 4 4 4 4 4 4 4 4 4 4 4 4 4 4 4 4 4 4 4 4 4 4 4 4 4 4 4 4 4 4 4 4 4 4 4 4 4 4 4 4 4 4 4 4 4 4 4 4 4 4 4 4 4 4 4 4 4 4 4 4 4 4 4 4 4 4 4 4 4 4 4 4 4 4 4 4 4 4 4 4 4 4 4 4 4 4 4 4 4 4 4 4 4 4 4 4 4 4 4 4 4 4 4 4 4 4 4 4 4 4 4 4 4 4 4 4 4 4 4 4 4 4 4 4 4 4 4 4 4 4 4 4 4 4 4 4 4 4 4 4 4 4 4 4 4 4 4 4 4 4 4 4 4 4 4 4 4 4 4 4 4 4 4 4 4 4 4 4 4 4 4 4 4 4 4 4 4 4 4 4 4 4 4 4 4 4 4 4 4 4 4 4 4 4 4 4 4 4 4 4 4 4 4 4 4 4 4 4 4 4 4 4 4 4 4 4 4 ",
"4 4 4 4 4 4 4 4 4 4 4 4 4 4 4 4 4 4 4 4 4 4 4 4 4 4 4 4 4 4 4 4 4 4 4 4 4 4 4 4 4 4 4 4 4 4 4 4 4 4 4 4 4 4 4 4 4 4 4 4 4 4 4 4 4 4 4 4 4 4 4 4 4 4 4 4 4 4 4 4 4 4 4 4 4 4 4 4 4 4 4 4 4 4 4 4 4 4 4 4 4 4 4 4 4 4 4 4 4 4 4 4 4 4 4 4 4 4 4 4 4 4 4 4 4 4 4 4 4 4 4 4 4 4 4 4 4 4 4 4 4 4 4 4 4 4 4 4 4 4 4 4 4 4 4 4 4 4 4 4 4 4 4 4 4 4 4 4 4 4 4 4 4 4 4 4 4 4 4 4 4 4 4 4 4 4 4 4 4 4 4 4 4 4 4 4 4 4 4 4 4 4 4 4 4 4 4 4 4 4 4 4 4 4 4 4 4 4 4 4 4 4 4 4 4 4 4 4 4 4 4 4 4 4 4 4 4 4 4 4 4 4 4 4 4 4 4 4 4 4 4 4 4 4 4 4 ",
"4 4 4 4 4 4 4 4 4 4 4 4 4 4 4 4 4 4 4 4 4 4 4 4 4 4 4 4 4 4 4 4 4 4 4 4 4 4 4 4 4 4 4 4 4 4 4 4 4 4 4 4 4 4 4 4 4 4 4 4 4 4 4 4 4 4 4 4 4 4 4 4 4 4 4 4 4 4 4 4 4 4 4 4 4 4 4 4 4 4 4 4 4 4 4 4 4 4 4 4 4 4 4 4 4 4 4 4 4 4 4 4 4 4 4 4 4 4 4 4 4 4 4 4 4 4 4 4 4 4 4 4 4 4 4 4 4 4 4 4 4 4 4 4 4 4 4 4 4 4 4 4 4 4 4 4 4 4 4 4 4 4 4 4 4 4 4 4 4 4 4 4 4 4 4 4 4 4 4 4 4 4 4 4 4 4 4 4 4 4 4 4 4 4 4 4 4 4 4 4 4 4 4 4 4 4 4 4 4 4 4 4 4 4 4 4 4 4 4 4 4 4 4 4 4 4 4 4 4 4 4 4 4 4 4 4 4 4 4 4 4 4 4 4 4 4 4 4 4 4 4 4 4 4 4 4 ",
"4 4 4 4 4 4 4 4 4 4 4 4 4 4 4 4 4 4 4 4 4 4 4 4 4 4 4 4 4 4 4 4 4 4 4 4 4 4 4 4 4 4 4 4 4 4 4 4 4 4 4 4 4 4 4 4 4 4 4 4 4 4 4 4 4 4 4 4 4 4 4 4 4 4 4 4 4 4 4 4 4 4 4 4 4 4 4 4 4 4 4 4 4 4 4 4 4 4 4 4 4 4 4 4 4 4 4 4 4 4 4 4 4 4 4 4 4 4 4 4 4 4 4 4 4 4 4 4 4 4 4 4 4 4 4 4 4 4 4 4 4 4 4 4 4 4 4 4 4 4 4 4 4 4 4 4 4 4 4 4 4 4 4 4 4 4 4 4 4 4 4 4 4 4 4 4 4 4 4 4 4 4 4 4 4 4 4 4 4 4 4 4 4 4 4 4 4 4 4 4 4 4 4 4 4 4 4 4 4 4 4 4 4 4 4 4 4 4 4 4 4 4 4 4 4 4 4 4 4 4 4 4 4 4 4 4 4 4 4 4 4 4 4 4 4 4 4 4 4 4 4 4 4 4 4 4 ",
"4 4 4 4 4 4 4 4 4 4 4 4 4 4 4 4 4 4 4 4 4 4 4 4 4 4 4 4 4 4 4 4 4 4 4 4 4 4 4 4 4 4 4 4 4 4 4 4 4 4 4 4 4 4 4 4 4 4 4 4 4 4 4 4 4 4 4 4 4 4 4 4 4 4 4 4 4 4 4 4 4 4 4 4 4 4 4 4 4 4 4 4 4 4 4 4 4 4 4 4 4 4 4 4 4 4 4 4 4 4 4 4 4 4 4 4 4 4 4 4 4 4 4 4 4 4 4 4 4 4 4 4 4 4 4 4 4 4 4 4 4 4 4 4 4 4 4 4 4 4 4 4 4 4 4 4 4 4 4 4 4 4 4 4 4 4 4 4 4 4 4 4 4 4 4 4 4 4 4 4 4 4 4 4 4 4 4 4 4 4 4 4 4 4 4 4 4 4 4 4 4 4 4 4 4 4 4 4 4 4 4 4 4 4 4 4 4 4 4 4 4 4 4 4 4 4 4 4 4 4 4 4 4 4 4 4 4 4 4 4 4 4 4 4 4 4 4 4 4 4 4 4 4 4 4 4 ",
"4 4 4 4 4 4 4 4 4 4 4 4 4 4 4 4 4 4 4 4 4 4 4 4 4 4 4 4 4 4 4 4 4 4 4 4 4 4 4 4 4 4 4 4 4 4 4 4 4 4 4 4 4 4 4 4 4 4 4 4 4 4 4 4 4 4 4 4 4 4 4 4 4 4 4 4 4 4 4 4 4 4 4 4 4 4 4 4 4 4 4 4 4 4 4 4 4 4 4 4 4 4 4 4 4 4 4 4 4 4 4 4 4 4 4 4 4 4 4 4 4 4 4 4 4 4 4 4 4 4 4 4 4 4 4 4 4 4 4 4 4 4 4 4 4 4 4 4 4 4 4 4 4 4 4 4 4 4 4 4 4 4 4 4 4 4 4 4 4 4 4 4 4 4 4 4 4 4 4 4 4 4 4 4 4 4 4 4 4 4 4 4 4 4 4 4 4 4 4 4 4 4 4 4 4 4 4 4 4 4 4 4 4 4 4 4 4 4 4 4 4 4 4 4 4 4 4 4 4 4 4 4 4 4 4 4 4 4 4 4 4 4 4 4 4 4 4 4 4 4 4 4 4 4 4 4 ",
"4 4 4 4 4 4 4 4 4 4 4 4 4 4 4 4 4 4 4 4 4 4 4 4 4 4 4 4 4 4 4 4 4 4 4 4 4 4 4 4 4 4 4 4 4 4 4 4 4 4 4 4 4 4 4 4 4 4 4 4 4 4 4 4 4 4 4 4 4 4 4 4 4 4 4 4 4 4 4 4 4 4 4 4 4 4 4 4 4 4 4 4 4 4 4 4 4 4 4 4 4 4 4 4 4 4 4 4 4 4 4 4 4 4 4 4 4 4 4 4 4 4 4 4 4 4 4 4 4 4 4 4 4 4 4 4 4 4 4 4 4 4 4 4 4 4 4 4 4 4 4 4 4 4 4 4 4 4 4 4 4 4 4 4 4 4 4 4 4 4 4 4 4 4 4 4 4 4 4 4 4 4 4 4 4 4 4 4 4 4 4 4 4 4 4 4 4 4 4 4 4 4 4 4 4 4 4 4 4 4 4 4 4 4 4 4 4 4 4 4 4 4 4 4 4 4 4 4 4 4 4 4 4 4 4 4 4 4 4 4 4 4 4 4 4 4 4 4 4 4 4 4 4 4 4 4 ",
"4 4 4 4 4 4 4 4 4 4 4 4 4 4 4 4 4 4 4 4 4 4 4 4 4 4 4 4 4 4 4 4 4 4 4 4 4 4 4 4 4 4 4 4 4 4 4 4 4 4 4 4 4 4 4 4 4 4 4 4 4 4 4 4 4 4 4 4 4 4 4 4 4 4 4 4 4 4 4 4 4 4 4 4 4 4 4 4 4 4 4 4 4 4 4 4 4 4 4 4 4 4 4 4 4 4 4 4 4 4 4 4 4 4 4 4 4 4 4 4 4 4 4 4 4 4 4 4 4 4 4 4 4 4 4 4 4 4 4 4 4 4 4 4 4 4 4 4 4 4 4 4 4 4 4 4 4 4 4 4 4 4 4 4 4 4 4 4 4 4 4 4 4 4 4 4 4 4 4 4 4 4 4 4 4 4 4 4 4 4 4 4 4 4 4 4 4 4 4 4 4 4 4 4 4 4 4 4 4 4 4 4 4 4 4 4 4 4 4 4 4 4 4 4 4 4 4 4 4 4 4 4 4 4 4 4 4 4 4 4 4 4 4 4 4 4 4 4 4 4 4 4 4 4 4 4 ",
"4 4 4 4 4 4 4 4 4 4 4 4 4 4 4 4 4 4 4 4 4 4 4 4 4 4 4 4 4 4 4 4 4 4 4 4 4 4 4 4 4 4 4 4 4 4 4 4 4 4 4 4 4 4 4 4 4 4 4 4 4 4 4 4 4 4 4 4 4 4 4 4 4 4 4 4 4 4 4 4 4 4 4 4 4 4 4 4 4 4 4 4 4 4 4 4 4 4 4 4 4 4 4 4 4 4 4 4 4 4 4 4 4 4 4 4 4 4 4 4 4 4 4 4 4 4 4 4 4 4 4 4 4 4 4 4 4 4 4 4 4 4 4 4 4 4 4 4 4 4 4 4 4 4 4 4 4 4 4 4 4 4 4 4 4 4 4 4 4 4 4 4 4 4 4 4 4 4 4 4 4 4 4 4 4 4 4 4 4 4 4 4 4 4 4 4 4 4 4 4 4 4 4 4 4 4 4 4 4 4 4 4 4 4 4 4 4 4 4 4 4 4 4 4 4 4 4 4 4 4 4 4 4 4 4 4 4 4 4 4 4 4 4 4 4 4 4 4 4 4 4 4 4 4 4 4 ",
"4 4 4 4 4 4 4 4 4 4 4 4 4 4 4 4 4 4 4 4 4 4 4 4 4 4 4 4 4 4 4 4 4 4 4 4 4 4 4 4 4 4 4 4 4 4 4 4 4 4 4 4 4 4 4 4 4 4 4 4 4 4 4 4 4 4 4 4 4 4 4 4 4 4 4 4 4 4 4 4 4 4 4 4 4 4 4 4 4 4 4 4 4 4 4 4 4 4 4 4 4 4 4 4 4 4 4 4 4 4 4 4 4 4 4 4 4 4 4 4 4 4 4 4 4 4 4 4 4 4 4 4 4 4 4 4 4 4 4 4 4 4 4 4 4 4 4 4 4 4 4 4 4 4 4 4 4 4 4 4 4 4 4 4 4 4 4 4 4 4 4 4 4 4 4 4 4 4 4 4 4 4 4 4 4 4 4 4 4 4 4 4 4 4 4 4 4 4 4 4 4 4 4 4 4 4 4 4 4 4 4 4 4 4 4 4 4 4 4 4 4 4 4 4 4 4 4 4 4 4 4 4 4 4 4 4 4 4 4 4 4 4 4 4 4 4 4 4 4 4 4 4 4 4 4 4 ",
"4 4 4 4 4 4 4 4 4 4 4 4 4 4 4 4 4 4 4 4 4 4 4 4 4 4 4 4 4 4 4 4 4 4 4 4 4 4 4 4 4 4 4 4 4 4 4 4 4 4 4 4 4 4 4 4 4 4 4 4 4 4 4 4 4 4 4 4 4 4 4 4 4 4 4 4 4 4 4 4 4 4 4 4 4 4 4 4 4 4 4 4 4 4 4 4 4 4 4 4 4 4 4 4 4 4 4 4 4 4 4 4 4 4 4 4 4 4 4 4 4 4 4 4 4 4 4 4 4 4 4 4 4 4 4 4 4 4 4 4 4 4 4 4 4 4 4 4 4 4 4 4 4 4 4 4 4 4 4 4 4 4 4 4 4 4 4 4 4 4 4 4 4 4 4 4 4 4 4 4 4 4 4 4 4 4 4 4 4 4 4 4 4 4 4 4 4 4 4 4 4 4 4 4 4 4 4 4 4 4 4 4 4 4 4 4 4 4 4 4 4 4 4 4 4 4 4 4 4 4 4 4 4 4 4 4 4 4 4 4 4 4 4 4 4 4 4 4 4 4 4 4 4 4 4 4 ",
"4 4 4 4 4 4 4 4 4 4 4 4 4 4 4 4 4 4 4 4 4 4 4 4 4 4 4 4 4 4 4 4 4 4 4 4 4 4 4 4 4 4 4 4 4 4 4 4 4 4 4 4 4 4 4 4 4 4 4 4 4 4 4 4 4 4 4 4 4 4 4 4 4 4 4 4 4 4 4 4 4 4 4 4 4 4 4 4 4 4 4 4 4 4 4 4 4 4 4 4 4 4 4 4 4 4 4 4 4 4 4 4 4 4 4 4 4 4 4 4 4 4 4 4 4 4 4 4 4 4 4 4 4 4 4 4 4 4 4 4 4 4 4 4 4 4 4 4 4 4 4 4 4 4 4 = 4 4 4 4 4 4 4 4 4 4 4 4 4 4 4 4 4 4 4 4 4 4 4 4 4 4 4 4 4 4 4 4 4 4 4 * * 4 4 4 4 4 4 4 4 4 4 4 = 4 4 4 4 4 4 4 4 4 4 4 4 4 4 4 4 4 4 3 4 4 4 4 4 4 4 4 4 4 4 4 4 4 4 4 4 4 4 4 4 4 4 4 4 4 4 4 4 4 4 4 ",
"4 4 4 4 4 4 4 4 4 4 4 4 4 4 4 4 4 4 4 4 4 4 4 4 4 4 4 4 4 4 4 4 4 4 4 4 4 4 4 4 4 4 4 4 4 4 4 4 4 4 4 4 4 4 4 4 4 4 4 4 4 4 4 4 4 4 4 4 4 4 4 4 4 4 4 4 4 4 4 4 4 4 4 4 4 4 4 4 4 4 4 4 4 4 4 4 4 4 4 4 4 4 4 4 4 4 4 4 4 4 4 4 4 4 4 4 4 4 4 4 4 4 4 4 4 4 4 4 4 4 4 4 4 4 4 4 4 4 4 4 4 4 4 4 4 4 4 4 4 4 4 4 4 4 4 r 4 4 4 4 4 4 4 4 4 4 4 4 4 4 4 4 4 4 4 4 4 4 4 4 4 4 4 4 4 4 4 4 4 4 d 3.3.w = * f s.* = = 4 * = z 4 4 4 * * 3 = * 4 = = = = 3 4 = * f z = 4 4 4 4 4 4 4 4 4 4 4 4 4 4 4 4 4 4 4 4 4 4 4 4 4 4 4 4 4 4 4 ",
"4 4 4 4 4 4 4 4 4 4 4 4 4 4 4 4 4 4 4 4 4 4 4 4 4 4 4 4 4 4 4 4 4 4 4 4 4 4 4 4 4 4 4 4 4 4 4 4 4 4 4 4 4 4 4 4 4 4 4 4 4 4 4 4 4 4 4 4 4 4 4 4 4 4 4 4 4 4 4 4 4 4 4 4 4 4 4 4 4 4 4 4 4 4 4 4 4 4 4 4 4 4 4 4 4 4 4 4 4 4 4 4 4 4 4 4 4 4 4 4 4 4 4 4 4 4 4 4 4 4 4 4 4 4 4 4 4 4 4 4 4 4 4 4 4 4 4 4 4 4 4 4 4 = 1.W = 4 4 4 4 4 4 4 4 4 4 4 4 4 4 4 4 4 4 4 4 4 4 4 4 4 4 4 4 4 4 4 4 % _ p.w 6 ( _ z p.f p.n d s.) F.p.* f p.s.l n p.z ) _ f p.) f 3.M _ F.f 4 4 4 4 4 4 4 4 4 4 4 4 4 4 4 4 4 4 4 4 4 4 4 4 4 4 4 4 4 4 4 ",
"4 4 4 4 4 4 4 4 4 4 4 4 4 4 4 4 4 4 4 4 4 4 4 4 4 4 4 4 4 4 4 4 4 4 4 4 4 4 4 4 4 4 4 4 4 4 4 4 4 4 4 4 4 4 4 4 4 4 4 4 4 4 4 4 4 4 4 4 4 4 4 4 4 4 4 4 4 4 4 4 4 4 4 4 4 4 4 4 4 4 4 4 4 4 4 4 4 4 4 4 4 4 4 4 4 4 4 4 4 4 4 4 4 4 4 4 4 4 4 4 4 4 4 4 4 4 4 4 4 4 4 4 4 4 4 4 4 4 4 4 4 4 4 4 4 4 4 4 4 4 4 4 & 2.1.$ 4 4 4 4 4 4 4 4 4 4 4 4 4 4 4 4 4 4 4 4 4 4 4 4 4 4 4 4 4 4 4 4 4 = g g.M x S.g.g._ g.f.S.g.M 4 f.l % n g.z s.f./ ( A.g.g.g.w p.g.A.s._ = 4 4 4 4 4 4 4 4 4 4 4 4 4 4 4 4 4 4 4 4 4 4 4 4 4 4 4 4 4 4 4 ",
"4 4 4 4 4 4 4 4 4 4 4 4 4 4 4 4 4 4 4 4 4 4 4 4 4 4 4 4 4 4 4 4 4 4 4 4 4 4 4 4 4 4 4 4 4 4 4 4 4 4 4 4 4 4 4 4 4 4 4 4 4 4 4 4 4 4 4 4 4 4 4 4 4 4 4 4 4 4 4 4 4 4 4 4 4 4 4 4 4 4 4 4 4 4 4 4 4 4 4 4 4 4 4 4 4 4 4 4 4 4 4 4 4 4 4 4 4 4 4 4 4 4 4 4 4 4 4 4 4 4 4 4 4 4 4 4 4 4 4 4 4 4 4 4 4 4 4 4 4 4 4 4 4 r 1.p 4 4 4 4 4 4 4 4 4 4 4 4 4 4 4 4 4 4 4 4 4 4 4 4 4 4 4 4 4 4 4 4 4 4 4 * f.g.f.z n s.A.( l g.f % f.d % x p.4 f.p.f _ s.z f x s.g.3.g ( _ % 4 4 4 4 4 4 4 4 4 4 4 4 4 4 4 4 4 4 4 4 4 4 4 4 4 4 4 4 4 4 4 ",
"4 4 4 4 4 4 4 4 4 4 4 4 4 4 4 4 4 4 4 4 4 4 4 4 4 4 4 4 4 4 4 4 4 4 4 4 4 4 4 4 4 4 4 4 4 4 4 4 4 4 4 4 4 4 4 4 4 4 4 4 4 4 4 4 4 4 4 4 4 4 4 4 4 4 4 4 4 4 4 4 4 4 4 4 4 4 4 4 4 4 4 4 4 4 4 4 4 4 4 4 4 4 4 4 4 4 4 4 4 4 4 4 4 4 4 4 4 4 4 4 4 4 4 4 4 4 4 4 4 4 4 4 4 4 4 4 4 4 4 4 4 4 4 4 4 4 4 4 4 4 4 4 4 & y W 4 4 4 4 4 4 4 4 4 4 4 4 4 4 4 4 4 4 4 4 4 4 4 4 4 4 4 4 4 4 4 4 4 = x p.p.z p._ n _ M f.M n A.M 3.p.% z F.g.M _ z f f.) n 3.p.n f.( z g.l 3 4 4 4 4 4 4 4 4 4 4 4 4 4 4 4 4 4 4 4 4 4 4 4 4 4 4 4 4 4 4 ",
"4 4 4 4 4 4 4 4 4 4 4 4 4 4 4 4 4 4 4 4 4 4 4 4 4 4 4 4 4 4 4 4 4 4 4 4 4 4 4 4 4 4 4 4 4 4 4 4 4 4 4 4 4 4 4 4 4 4 4 4 4 4 4 4 4 4 4 4 4 4 4 4 4 4 4 4 4 4 4 4 4 4 4 4 4 4 4 4 4 4 4 4 4 4 4 4 4 4 4 4 4 4 4 4 4 4 4 4 4 4 4 4 4 4 4 4 4 4 4 4 4 4 4 4 4 4 4 4 4 4 4 4 4 4 4 4 4 4 4 4 4 4 4 4 4 4 4 4 4 4 4 4 4 4 = = 4 4 4 4 4 4 4 4 4 4 4 4 4 4 4 4 4 4 4 4 4 4 4 4 4 4 4 4 4 4 4 4 4 4 4 f 6 * 4 g 4 4 = f f = f d 4 f * x p.4 4 4 4 = w f 4 f 4 * d f 4 w w 4 4 4 4 4 4 4 4 4 4 4 4 4 4 4 4 4 4 4 4 4 4 4 4 4 4 4 4 4 4 4 ",
"4 4 4 4 4 4 4 4 4 4 4 4 4 4 4 4 4 4 4 4 4 4 4 4 4 4 4 4 4 4 4 4 4 4 4 4 4 4 4 4 4 4 4 4 4 4 4 4 4 4 4 4 4 4 4 4 4 4 4 4 4 4 4 4 4 4 4 4 4 4 4 4 4 4 4 4 4 4 4 4 4 4 4 4 4 4 4 4 4 4 4 4 4 4 4 4 4 4 4 4 4 4 4 4 4 4 4 4 4 4 4 4 4 4 4 4 4 4 4 4 4 4 4 4 4 4 4 4 4 4 4 4 4 4 4 4 4 4 4 4 4 4 4 4 4 4 4 4 4 4 4 4 4 4 4 4 4 4 4 4 4 4 4 4 4 4 4 4 4 4 4 4 4 4 4 4 4 4 4 4 4 4 4 4 4 4 4 4 4 4 4 = 4 4 4 = 4 4 4 3 4 4 4 4 4 4 = z ( % 4 4 4 4 4 = 4 = 4 4 4 3 4 4 4 4 4 4 4 4 4 4 4 4 4 4 4 4 4 4 4 4 4 4 4 4 4 4 4 4 4 4 4 4 4 4 ",
"4 4 4 4 4 4 4 4 4 4 4 4 4 4 4 4 4 4 4 4 4 4 4 4 4 4 4 4 4 4 4 4 4 4 4 4 4 4 4 4 4 4 4 4 4 4 4 4 4 4 4 4 4 4 4 4 4 4 4 4 4 4 4 4 4 4 4 4 4 4 4 4 4 4 4 4 4 4 4 4 4 4 4 4 4 4 4 4 4 4 4 4 4 4 4 4 4 4 4 4 4 4 4 4 4 4 4 4 4 4 4 4 4 4 4 4 4 4 4 4 4 4 4 4 4 4 4 4 4 4 4 4 4 4 4 4 4 4 4 4 4 4 4 4 4 4 4 4 4 4 4 4 4 4 4 4 4 4 4 4 4 4 4 4 4 4 4 4 4 4 4 4 4 4 4 4 4 4 4 4 4 4 4 4 4 4 4 4 4 4 4 4 4 4 4 4 4 4 4 4 4 4 4 4 4 4 4 4 4 4 4 4 4 4 4 4 4 4 4 4 4 4 4 4 4 4 4 4 4 4 4 4 4 4 4 4 4 4 4 4 4 4 4 4 4 4 4 4 4 4 4 4 4 4 4 4 ",
"= = = = = = = = = = = = = = = = = = = = = = = = = = = = = = = = = = = = = = = = = = = = = = = = = = = = = = = = = = = = = = = = = = = = = = = = = = = = = = = = = = = = = = = = = = = = = = = = = = = = = = = = = = = = = = = = = = = = = = = = = = = = = = = = = = = = = = = = = = = = = = = = = = = = = = = = = = = = = = = = = = = = = = = = = = = = = = = = = = = = = = = = = = = = = = = = = = = = = = = = = = = = = = = = = = = = = = = = = = = = = = = = = = = = = = = = = = = = = = = = = = = = = = = = = = = = = = = = ",
"n n n n n n n n n n n n n n n n n n n n n n n n n n n n n n n n n n n n n n n n n n n n n n n n n n n n n n n n n n n n n n n n n n n n n n n n n n n n n n n n n n n n n n n n n n n n n n n n n n n n n n n n n n n n n n n n n n n n n n n n n n n n n n n n n n n n n n n n n n n n n n n n n n n n n n n n n n n n n n n n n n n n n n n n n n n n n n n n n n n n n n n n n n n n n n n n n n n n n n n n n n n n n n n n n n n n n n n n n n n n n n n n n n n n n n n n n n n n n n n n n n n n n n n n n n n n n n n n ",
"z z z z z z z z z z z z z z z z z z z z z z z z z z z z z z z z z z z z z z z z z z z z z z z z z z z z z z z z z z z z z z z z z z z z z z z z z z z z z z z z z z z z z z z z z z z z z z z z z z z z z z z z z z z z z z z z z z z z z z z z z z z z z z z z z z z z z z z z z z z z z z z z z z z z z z z z z z z z z z z z z z z z z z z z z z z z z z z z z z z z z z z z z z z z z z z z z z z z z z z z z z z z z z z z z z z z z z z z z z z z z z z z z z z z z z z z z z z z z z z z z z z z z z z z z z z z z z z z ",
"= = = = = = = = = = = = = = = = = = = = = = = = = = = = = = = = = = = = = = = = = = = = = = = = = = = = = = = = = = = = = = = = = = = = = = = = = = = = = = = = = = = = = = = = = = = = = = = = = = = = = = = = = = = = = = = = = = = = = = = = = = = = = = = = = = = = = = = = = = = = = = = = = = = = = = = = = = = = = = = = = = = = = = = = = = = = = = = = = = = = = = = = = = = = = = = = = = = = = = = = = = = = = = = = = = = = = = = = = = = = = = = = = = = = = = = = = = = = = = = = = = = = = = = = = = = = = = = = ",
"4 4 4 4 4 4 4 4 4 4 4 4 4 4 4 4 4 4 4 4 4 4 4 4 4 4 4 4 4 4 4 4 4 4 4 4 4 4 4 4 4 4 4 4 4 4 4 4 4 4 4 4 4 4 4 4 4 4 4 4 4 4 4 4 4 4 4 4 4 4 4 4 4 4 4 4 4 4 4 4 4 4 4 4 4 4 4 4 4 4 4 4 4 4 4 4 4 4 4 4 4 4 4 4 4 4 4 4 4 4 4 4 4 4 4 4 4 4 4 4 4 4 4 4 4 4 4 4 4 4 4 4 4 4 4 4 4 4 4 4 4 4 3 4 4 4 4 4 4 4 4 4 4 4 4 4 4 4 4 4 4 4 4 4 4 4 4 4 4 4 4 4 4 4 4 4 4 4 4 4 4 4 4 4 4 4 4 4 4 4 4 4 4 4 4 4 4 4 4 4 4 4 4 4 4 4 4 4 4 4 4 4 4 4 4 4 4 4 4 4 4 4 4 4 4 4 4 4 4 4 4 4 4 4 4 4 4 4 4 4 4 4 4 4 4 4 4 4 4 4 4 4 4 4 4 4 ",
"4 4 4 4 4 4 4 4 4 4 4 4 4 4 4 4 4 4 4 4 4 4 4 4 4 4 4 4 4 4 4 4 4 4 4 4 4 4 4 4 4 4 4 4 4 4 4 4 4 4 4 4 4 4 4 4 4 4 4 4 4 4 4 4 4 4 4 4 4 4 4 4 4 4 4 4 4 4 4 4 4 4 4 4 4 4 4 4 4 4 4 4 4 4 4 4 4 4 4 4 4 4 4 4 4 4 4 4 4 4 4 4 4 4 4 4 4 4 4 4 4 4 4 4 4 4 4 4 4 4 4 4 4 4 4 4 4 4 f f 4 f g 4 4 4 4 4 4 4 4 4 4 4 4 4 4 4 4 4 4 4 4 4 4 4 4 4 4 * 4 4 * = 4 * 4 4 4 4 4 4 4 * = * = = 3 4 = = 4 4 4 4 4 4 4 4 4 4 4 4 4 4 4 4 4 4 4 4 4 4 4 4 4 4 4 4 4 4 4 4 4 4 4 4 4 4 4 4 4 4 4 4 4 4 4 4 4 4 4 4 4 4 4 4 4 4 4 4 4 4 4 4 ",
"4 4 4 4 4 4 4 4 4 4 4 4 4 4 4 4 4 4 4 4 4 4 4 4 4 4 4 4 4 4 4 4 4 4 4 4 4 4 4 4 4 4 4 4 4 4 4 4 4 4 4 4 4 4 4 4 4 4 4 4 4 4 4 4 4 4 4 4 4 4 4 4 4 4 4 4 4 4 4 4 4 4 4 4 4 4 4 4 4 4 4 4 4 4 4 4 4 4 4 4 4 4 4 4 4 4 4 4 4 4 4 4 4 4 4 4 4 4 4 4 4 4 4 4 4 4 4 4 4 4 4 4 4 4 4 4 = l s.p.K.p.p./ % 4 4 4 4 4 4 4 4 4 * = 4 4 4 4 f 4 4 4 4 4 4 4 w x d 4 x l d x d 4 d 4 d 4 f z l z z l f = z g = f 4 4 w 4 4 4 4 4 4 4 4 4 4 4 4 4 4 4 4 4 4 4 4 4 4 4 4 4 4 4 4 4 4 4 4 4 4 4 4 4 4 4 4 4 4 4 4 4 4 4 4 4 4 4 4 4 4 4 4 4 4 4 ",
"4 4 4 4 4 4 4 4 4 4 4 4 4 4 4 4 4 4 4 4 4 4 4 4 4 4 4 4 4 4 4 4 4 4 4 4 4 4 4 4 4 4 4 4 4 4 4 4 4 4 4 4 4 4 4 4 4 4 4 4 4 4 4 4 4 4 4 4 4 4 4 4 4 4 4 4 4 4 4 4 4 4 4 4 4 4 4 4 4 4 4 4 4 4 4 4 4 4 4 4 4 4 4 4 4 4 4 4 4 4 4 4 4 4 4 4 4 4 4 4 4 4 4 4 4 4 4 4 4 4 4 4 4 4 4 4 = l s.J.g.J.( / * 4 4 4 4 4 4 4 4 4 ) p.z 4 4 4 f * 4 = 4 4 4 % ) p.3.( f.f p.p.p.x p.% 3.n s.( M A._ p.( / p.p.l g._ g ) * 4 4 4 4 4 4 4 4 4 4 4 4 4 4 4 4 4 4 4 4 4 4 4 4 4 4 4 4 4 4 4 4 4 4 4 4 4 4 4 4 4 4 4 4 4 4 4 4 4 4 4 4 4 4 4 4 4 4 ",
"4 4 4 4 4 4 4 4 4 4 4 4 4 4 4 4 4 4 4 4 4 4 4 4 4 4 4 4 4 4 4 4 4 4 4 4 4 4 4 4 4 4 4 4 4 4 4 4 4 4 4 4 4 4 4 4 4 4 4 4 4 4 4 4 4 4 4 4 4 4 4 4 4 4 4 4 4 4 4 4 4 4 4 4 4 4 4 4 4 4 4 4 4 4 4 4 4 4 4 4 4 4 4 4 4 4 4 4 4 4 4 4 4 4 4 4 4 4 4 4 4 4 4 4 4 4 4 4 4 4 4 4 4 4 4 4 3 f <X/ . _ J.x = 4 4 4 4 4 4 4 * / 3.w 4 z p.n n ( s./ = 4 4 % ) p._ / s.f 3.6 z s._ * _ s.z % % ) f n M p.* g p.) g./ / = 4 4 4 4 4 4 4 4 4 4 4 4 4 4 4 4 4 4 4 4 4 4 4 4 4 4 4 4 4 4 4 4 4 4 4 4 4 4 4 4 4 4 4 4 4 4 4 4 4 4 4 4 4 4 4 4 4 4 ",
"4 4 4 4 4 4 4 4 4 4 4 4 4 4 4 4 4 4 4 4 4 4 4 4 4 4 4 4 4 4 4 4 4 4 4 4 4 4 4 4 4 4 4 4 4 4 4 4 4 4 4 4 4 4 4 4 4 4 4 4 4 4 4 4 4 4 4 4 4 4 4 4 4 4 4 4 4 4 4 4 4 4 4 4 4 4 4 4 4 4 4 4 4 4 4 4 4 4 4 4 4 4 4 4 4 4 4 4 4 4 4 4 4 4 4 4 4 4 4 4 4 4 4 4 4 4 4 4 4 4 4 4 4 4 4 4 = f J.S.w J.J.x * 4 4 4 4 4 4 4 % 3.g M 3.g s.s.) p.l p.4 4 4 % ) g._ x p.4 p.w n p.3.% 3.s.n % = 3.l M M p.4 z 3.( n F./ * 4 4 4 4 4 4 4 4 4 4 4 4 4 4 4 4 4 4 4 4 4 4 4 4 4 4 4 4 4 4 4 4 4 4 4 4 4 4 4 4 4 4 4 4 4 4 4 4 4 4 4 4 4 4 4 4 4 4 ",
"4 4 4 4 4 4 4 4 4 4 4 4 4 4 4 4 4 4 4 4 4 4 4 4 4 4 4 4 4 4 4 4 4 4 4 4 4 4 4 4 4 4 4 4 4 4 4 4 4 4 4 4 4 4 4 4 4 4 4 4 4 4 4 4 4 4 4 4 4 4 4 4 4 4 4 4 4 4 4 4 4 4 4 4 4 4 4 4 4 4 4 4 4 4 4 4 4 4 4 4 4 4 4 4 4 4 4 4 4 4 4 4 4 4 4 4 4 4 4 4 4 4 4 4 4 4 4 4 4 4 4 4 4 4 4 4 * z ) g.K.<XcX3.% 4 4 4 4 4 4 4 * n p.z g.f.s.f.) 3.f s.4 4 4 % ( l ( _ f.z 3.s.p.d ) p.) f f._ 6 ) g _ ) x p.p.f _ 4 s._ % 4 4 4 4 4 4 4 4 4 4 4 4 4 4 4 4 4 4 4 4 4 4 4 4 4 4 4 4 4 4 4 4 4 4 4 4 4 4 4 4 4 4 4 4 4 4 4 4 4 4 4 4 4 4 4 4 4 4 ",
"4 4 4 4 4 4 4 4 4 4 4 4 4 4 4 4 4 4 4 4 4 4 4 4 4 4 4 4 4 4 4 4 4 4 4 4 4 4 4 4 4 4 4 4 4 4 4 4 4 4 4 4 4 4 4 4 4 4 4 4 4 4 4 4 4 4 4 4 4 4 4 4 4 4 4 4 4 4 4 4 4 4 4 4 4 4 4 4 4 4 4 4 4 4 4 4 4 4 4 4 4 4 4 4 4 4 4 4 4 4 4 4 4 4 4 4 4 4 4 4 4 4 4 4 4 4 4 4 4 4 4 4 4 4 4 4 3 f s./ ) _ K./ % 4 4 4 4 4 4 4 4 3 n _ z x / z l z 6 z 4 4 4 4 4 4 4 4 f f 4 g 4 3 4 f 4 = 6 f 4 4 4 d d = f d 3 4 4 4 4 4 4 4 4 4 4 4 4 4 4 4 4 4 4 4 4 4 4 4 4 4 4 4 4 4 4 4 4 4 4 4 4 4 4 4 4 4 4 4 4 4 4 4 4 4 4 4 4 4 4 4 4 4 4 4 4 4 4 4 ",
"= = = = = = = = = = = = = = = = = = = = = = = = = = = = = = = = = = = = = = = = = = = = = = = = = = = = = = = = = = = = = = = = = = = = = = = = = = = = = = = = = = = = = = = = = = = = = = = = = = = = = = = = = = = = = = = = = = = = = = = = = = = = = = 4 4 4 4 4 4 4 4 4 4 4 4 4 4 4 3 % = 4 4 4 4 4 4 4 4 4 4 * % = = * = = = 4 = 4 4 4 4 4 4 4 = * * = % = = = * = = = % = = = * * 3 * * = = = = = = = = = = = = = = = = = = = = = = = = = = = = = = = = = = = = = = = = = = = = = = = = = = = = = = = = = = = = = = = = ",
"l l l l l l l l l l l l l l l l l l l l l l l l l l l l l l l l l l l l l l l l l l l l l l l l l l l l l l l l l l l l l l l l l l l l l l l l l l l l l l l l l l l l l l l l l l l l l l l l l l l l l l l l l l l l l l l l l l l l l l l l l l l l l l d 3 4 4 4 4 4 4 4 4 4 4 4 f z l 6 4 4 4 4 4 4 4 4 4 4 4 4 4 4 4 4 4 4 4 4 4 4 4 4 4 4 4 4 g z l l z l l l z l l l z l l l l l l z l l l l l l l l l l l l l l l l l l l l l l l l l l l l l l l l l l l l l l l z z l l l l l l l l l l l l l l l l l l l l l l l l ",
"M M M M M n M M M M M n M M M M n M M M n M M n n M n n M M M M M M M M M M M M M M M M M M M M n n M M M n n M M M M M M n n M M M M M M M n n M M M M M n M M M M M n M M M n n M M M n M M n n M M n M M M M M M M M M M M M M M M M M M M M n n M M M M / M 4 4 4 4 4 4 4 4 4 3 z / n M n 4 4 4 4 4 4 4 4 4 4 4 4 4 4 4 4 4 4 4 4 4 4 4 4 4 4 f / M n M M M M M M M M M M M n M M M M M M M M M M M M M n n M M M M M M M M M M M M M n M M M M M M M M M M M M M n n M n n M M M M M M M M M M n M M M M M M M M M M M M M ",
"= = = = = 3 = = = = = 3 = = = = 3 = = = 3 = = = = = = 4 = = = = = = = = = = = = = = = = = = = = = = = = = = = = = = = = = = = = = = = = = = = = = = = = = 3 = = = = = 3 = = = = = = = = 3 3 = = 3 = = 4 = = = = = = = = = = = = = = = = = = = = = = = = = = 4 M n 3 4 4 4 4 4 4 4 = M g % 4 / 4 4 4 4 4 4 4 4 4 4 4 4 4 4 4 d 4 4 4 4 4 4 4 4 4 f ( f = = = = = = = = = = = = = 3 = = = = = = = = = = = = = = 3 = = = = = = = = = = = = = 3 = = = = = = = = = = = = = 3 3 * 0 4 * = = = = = = = = = 3 = = = = = = = = = = = = * ",
"4 4 4 4 4 l 4 4 4 4 4 l 4 4 4 4 l 4 4 4 l 4 4 f f = f l 4 4 4 4 4 4 4 4 4 4 4 4 4 4 4 4 4 4 4 4 g d 4 4 3 j 8 4 4 4 4 4 4 f f 4 4 4 4 4 4 3 h d 4 4 4 4 4 l 6 4 4 4 4 l 4 4 4 f f 4 4 4 l i 4 d g 4 6 z 4 4 4 4 4 4 4 4 4 4 4 4 4 4 4 4 4 4 4 4 f f 4 4 4 4 4 4 / f 4 4 4 4 4 4 4 = M l = w / 4 4 4 4 4 4 4 4 4 3 , T.T.T.T.K I T.T.T.P 2 4 4 = n z * 4 4 4 4 4 4 4 4 4 4 4 4 4 l 4 4 4 4 4 4 4 4 4 4 4 4 4 f g 4 4 4 4 4 4 4 4 4 4 4 4 4 l 4 4 4 4 4 4 4 4 4 4 4 4 4 l g O hX=.+ 4 4 4 4 4 4 4 4 4 l 4 4 4 4 4 4 4 4 4 4 4 4 % ",
"4 4 4 4 4 l 4 4 4 4 4 l 4 4 4 4 l 4 4 4 l 4 4 f f = f l = 4 4 4 4 4 4 4 4 4 4 4 4 4 4 4 4 4 4 3 f d 4 4 3 j 8 4 4 4 4 4 3 f d 4 4 4 4 4 4 3 h d 3 4 4 4 4 g 6 4 4 4 4 l 4 4 4 f f 3 4 4 l i 4 w g = 6 z 4 4 4 4 4 4 4 4 4 4 4 4 4 4 4 4 4 4 4 4 f f 4 4 4 4 4 = M z = 4 4 4 4 4 4 = M g = 6 / 4 4 4 4 4 4 4 4 4 3 h Y Y Y Y U Y Y Y Y V 3 4 4 4 / d 4 4 4 4 4 4 4 4 4 4 4 4 4 4 l 4 4 4 4 4 4 4 4 4 4 4 4 3 f g = 4 4 4 4 4 4 4 4 4 4 4 4 g 4 4 4 4 4 4 4 3 4 4 4 4 = g f O hX=.+ 4 4 4 4 4 4 4 4 4 l 4 4 4 4 4 4 4 4 4 4 4 4 % ",
"4 4 4 4 4 l 4 4 4 4 4 l 4 4 4 4 g 4 4 4 l 4 4 f f = d l = 4 4 4 4 4 4 4 4 4 4 4 4 4 4 4 4 4 4 3 f w 4 4 3 j 8 4 4 4 4 4 3 f d 4 4 4 4 4 4 3 h d 3 4 4 4 4 g 6 4 4 4 4 l 4 4 4 f f 3 4 4 l i 4 w g = 6 z 4 4 4 4 4 4 4 4 4 4 4 4 4 4 4 4 4 4 4 4 f f 4 4 4 4 4 = n z = 4 4 4 4 4 4 = M z = d / 4 4 4 4 4 4 4 4 4 = E 7X7X7X7X@X5X7X7X7X8.$ 4 4 4 / w 4 4 4 4 4 4 4 4 4 4 4 4 4 4 l 4 4 4 4 4 4 4 4 4 4 4 4 3 f g = 4 4 4 4 4 4 4 = c [.-.#.x = 8 4 4 * 8 0 #.0 * 0 = ~ ~ b ~ jX=.+ 4 4 4 4 4 4 4 4 4 g 4 4 4 4 4 4 4 4 4 4 4 4 % ",
"4 4 4 4 4 l 4 4 4 4 4 l 4 4 4 4 l 4 4 4 l 4 4 f f = f l = 4 4 4 4 4 4 4 4 4 4 4 4 4 4 4 4 4 4 3 f w 4 4 3 j 8 4 4 4 4 4 3 f d 4 4 4 4 4 4 3 h d 3 4 4 4 4 g 6 4 4 4 4 l 4 4 4 f f 3 4 4 l i 4 w g = 6 z 4 4 4 4 4 4 4 4 4 4 4 4 4 4 4 4 4 4 4 4 f f 4 4 4 4 4 = n z = 4 4 4 4 4 4 = n ) / ( ( 4 4 4 4 4 4 4 4 4 = E @X@X@X@X X+X@X@X@X{ & 4 4 4 / w 4 4 4 4 4 4 4 4 4 4 4 4 4 4 l 4 4 4 4 4 4 4 4 4 4 4 4 3 f g = 4 4 4 4 4 4 4 4 - #.b ,.,.<.,.<.,.-.,.c ,.,.~ -.=.&.,.,.#.jX-.+ 4 4 4 4 4 4 4 4 4 g 4 4 4 4 4 4 4 4 4 4 4 4 % ",
"4 4 4 4 4 l 4 4 4 4 4 l 4 4 4 4 l 4 4 4 l 4 4 f f = f l = 4 4 4 4 4 4 4 4 4 4 4 4 4 4 4 4 4 4 3 f w 4 4 3 j 8 4 4 4 4 4 3 f d 4 4 4 4 4 4 3 h d 3 4 4 4 4 g 6 4 4 4 4 l 4 4 4 f f 3 4 4 l i 4 w g = 6 z 4 4 4 4 4 4 4 4 4 4 4 4 4 4 4 4 4 4 4 4 f f 4 4 4 4 4 = n z = 4 4 4 4 4 4 = M l 4 d / 4 4 4 4 4 4 4 4 4 = E 5X7X5X7X+X5X7X5X7X8.$ 4 4 4 / w 4 4 4 4 4 4 4 4 4 4 4 4 4 4 l 4 4 4 4 4 4 4 4 4 4 4 4 3 f g = 4 4 4 4 4 4 4 4 - =.~ #.$.-.<.&.,.<.=.&.#.<.,.~ #.=.[.~ &.jX-.+ 4 4 4 4 4 4 4 4 4 g 4 4 4 4 4 4 4 4 4 4 4 4 % ",
"4 4 4 4 4 l 4 4 4 4 4 l 4 4 4 4 l 4 4 4 l 4 4 f f = f l = 4 4 4 4 4 4 4 4 4 4 4 4 4 4 4 4 4 4 3 f w 4 4 3 j 8 4 4 4 4 4 3 f d 4 4 4 4 4 4 3 h d 3 4 4 4 4 g 6 4 4 4 4 l 4 4 4 f f 3 4 4 l i 4 w g = 6 z 4 4 4 4 4 4 4 4 4 4 4 4 4 4 4 4 4 4 4 4 f f 4 4 4 4 4 = n z = 4 4 4 4 4 4 = M g * 6 / 4 4 4 4 4 4 4 4 4 = E @X@X@X@X X@X@X@X@X{ & 4 4 4 / w 4 4 4 4 4 4 4 4 4 4 4 4 4 4 l 4 4 4 4 4 4 4 4 4 4 4 4 3 f g = 4 4 4 4 4 4 4 4 * &.b <.#.&.~ q -.~ =.#.~ ~ ~ =.#.~ =.,.~ jX-.+ 4 4 4 4 4 4 4 4 4 g 4 4 4 4 4 4 4 4 4 4 4 4 % ",
"4 4 4 4 4 l 4 4 4 4 4 l 4 4 4 4 l 4 4 4 l 4 4 f f = f l = 4 4 4 4 4 4 4 4 4 4 4 4 4 4 4 4 4 4 3 f w 4 4 3 j 8 4 4 4 4 4 3 f d 4 4 4 4 4 4 3 h d 3 4 4 4 4 g 6 4 4 4 4 l 4 4 4 f f 3 4 4 l i 4 w g = 6 z 4 4 4 4 4 4 4 4 4 4 4 4 4 4 4 4 4 4 4 4 f f 4 4 4 4 4 = n z = 4 4 4 4 4 4 = M l = w / 4 4 4 4 4 4 4 4 4 = E 5X5X5X5X X3X5X5X7X8.$ 4 4 4 / w 4 4 4 4 4 4 4 4 4 4 4 4 4 4 l 4 4 4 4 4 4 4 4 4 4 4 4 3 f g = 4 4 4 4 4 4 4 4 4 4 4 4 g = 4 = 4 8 4 = 4 4 = 4 4 * f g O hX=.+ 4 4 4 4 4 4 4 4 4 g 4 4 4 4 4 4 4 4 4 4 4 4 % ",
"4 4 4 4 4 l 4 4 4 4 4 l 4 4 4 4 l 4 4 4 l 4 4 f f = f l = 4 4 4 4 4 4 4 4 4 4 4 4 4 4 4 4 4 4 3 f w 4 4 3 j 8 4 4 4 4 4 3 f d 4 4 4 4 4 4 3 h d 3 4 4 4 4 g 6 4 4 4 4 l 4 4 4 f f 3 4 4 l i 4 w g = 6 z 4 4 4 4 4 4 4 4 4 4 4 4 4 4 4 4 4 4 4 4 f f 4 4 4 4 4 = n z = 4 4 4 4 4 4 = M l = w / 4 4 4 4 4 4 4 4 4 = E %X2X%X2X X@X2X@X3X{ $ 4 4 4 / w 4 4 4 4 4 4 4 4 4 4 4 4 4 4 l 4 4 4 4 4 4 4 4 4 4 4 4 3 f g = 4 4 4 4 4 4 4 4 4 4 4 4 l 4 4 4 4 4 4 4 4 4 4 4 4 3 l f O hX=.+ 4 4 4 4 4 4 4 4 4 g 4 4 4 4 4 4 4 4 4 4 4 4 % ",
"4 4 4 4 4 l 4 4 4 4 4 l 4 4 4 4 l 4 4 4 l 4 4 f f = f l = 4 4 4 4 4 4 4 4 4 4 4 4 4 4 4 4 4 4 3 f w 4 4 3 j 8 4 4 4 4 4 3 f d 4 4 4 4 4 4 3 h d 3 4 4 4 4 g 6 4 4 4 4 l 4 4 4 f f 3 4 4 l i 4 w g = 6 z 4 4 4 4 4 4 4 4 4 4 4 4 4 4 4 4 4 4 4 4 f f 4 4 4 4 4 = n z = 4 4 4 4 4 4 = M l = w / 4 4 4 4 4 4 4 4 4 = i 3X3X3X3X X@X3X3X5X{ $ 4 4 4 / w 4 4 4 4 4 4 4 4 4 4 4 4 4 4 l 4 4 4 4 4 4 4 4 4 4 4 4 3 f g = 4 4 4 4 4 4 4 4 4 4 4 4 l 4 4 4 4 4 4 4 4 4 4 4 4 = g f O hX=.+ 4 4 4 4 4 4 4 4 4 g 4 4 4 4 4 4 4 4 4 4 4 4 % ",
"4 4 4 4 4 l 4 4 4 4 4 l 4 4 4 4 l 4 4 4 l 4 4 f f = f l = 4 4 4 4 4 4 4 4 4 4 4 4 4 4 4 4 4 4 3 f w 4 4 3 j 8 4 4 4 4 4 3 f d 4 4 4 4 4 4 3 h d 3 4 4 4 4 g 6 4 4 4 4 l 4 4 4 f f 3 4 4 l i 4 w g = 6 z 4 4 4 4 4 4 4 4 4 4 4 4 4 4 4 4 4 4 4 4 f f 4 4 4 4 4 = n z = 4 4 4 4 4 4 = M l = w / 4 4 4 4 4 4 4 4 4 4 6 y y y y y y y y y e 4 4 4 4 / w 4 4 4 4 4 4 4 4 4 4 4 4 4 4 l 4 4 4 4 4 4 4 4 4 4 4 4 3 f g = 4 4 4 4 4 4 4 4 4 4 4 4 l 4 4 4 4 4 4 4 4 4 4 4 4 = g f O hX=.+ 4 4 4 4 4 4 4 4 4 g 4 4 4 4 4 4 4 4 4 4 4 4 % ",
"4 4 4 4 4 l 4 4 4 4 4 l 4 4 4 4 l 4 4 4 l 4 4 f f = f l = 4 4 4 4 4 4 4 4 4 4 4 4 4 4 4 4 4 4 3 f w 4 4 3 j 8 4 4 4 4 4 3 f d 4 4 4 4 4 4 3 h d 3 4 4 4 4 g 6 4 4 4 4 l 4 4 4 f f 3 4 4 l i 4 w g = 6 z 4 4 4 4 4 4 4 4 4 4 4 4 4 4 4 4 4 4 4 4 f f 4 4 4 4 4 = n z = 4 4 4 4 4 4 = M l = w / 4 4 4 4 4 4 4 4 4 4 4 y y y y e y y y y e 4 4 4 4 / w 4 4 4 4 4 4 4 4 4 4 4 4 4 4 l 4 4 4 4 4 4 4 4 4 4 4 4 3 f g = 4 4 4 4 4 4 4 4 4 4 4 4 l 4 4 4 4 4 4 4 4 4 4 4 4 = g f O hX=.+ 4 4 4 4 4 4 4 4 4 g 4 4 4 4 4 4 4 4 4 4 4 4 % ",
"4 4 4 4 4 l 4 4 4 4 4 l 4 4 4 4 l 4 4 4 l 4 4 f f = f l = 4 4 4 4 4 4 4 4 4 4 4 4 4 4 4 4 4 4 3 f w 4 4 3 j 8 4 4 4 4 4 3 f d 4 4 4 4 4 4 3 h d 3 4 4 4 4 g 6 4 4 4 4 l 4 4 4 f f 3 4 4 l i 4 w g = 6 z 4 4 4 4 4 4 4 4 4 4 4 4 4 4 4 4 4 4 4 4 f f 4 4 4 4 4 = n z = 4 4 4 4 4 4 = M l = w / 4 4 4 4 4 4 4 4 4 4 4 u u u u y u u u i e 4 4 4 4 / w 4 4 4 4 4 4 4 4 4 4 4 4 4 4 l 4 4 4 4 4 4 4 4 4 4 4 4 3 f g = 4 4 4 4 4 4 4 4 4 4 4 4 l 4 4 4 4 4 4 4 4 4 4 4 4 = g f O hX=.+ 4 4 4 4 4 4 4 4 4 g 4 4 4 4 4 4 4 4 4 4 4 4 % ",
"4 4 4 4 4 l 4 4 4 4 4 l 4 4 4 4 l 4 4 4 l 4 4 f f = f l 3 4 4 4 4 4 4 4 4 4 4 4 4 4 4 4 4 4 4 4 f d 4 4 3 j 8 4 4 4 4 4 4 f f 4 4 4 4 4 4 3 h d 3 4 4 4 4 g 6 4 4 4 4 l 4 4 4 f f 4 4 4 l i 4 w g 3 6 z 4 4 4 4 4 4 4 4 4 4 4 4 4 4 4 4 4 4 4 4 f f 4 4 4 4 4 = n z = 4 4 4 4 4 4 = M l = w / 4 4 4 4 4 4 4 4 4 4 4 y y y y e y y y y e 4 4 4 4 / w 4 4 4 4 4 4 4 4 4 4 4 4 4 4 l 4 4 4 4 4 4 4 4 4 4 4 4 4 f g 3 4 4 4 4 4 4 4 4 4 4 4 4 l 4 4 4 4 4 4 4 4 4 4 4 4 3 g f O hX=.+ 4 4 4 4 4 4 4 4 4 l 4 4 4 4 4 4 4 4 4 4 4 4 % ",
"= 4 4 4 3 g 4 4 4 3 4 g = 4 3 4 g = 4 4 g 3 = d f * d l * 4 4 4 4 4 4 4 4 4 4 4 4 4 4 4 4 4 4 = f w = 4 3 j 8 3 4 4 4 4 = f d = 4 4 4 4 4 3 h d 3 4 4 4 = g 4 = 4 4 3 g 4 4 = d f = 4 = g p = 6 f * 4 z = 4 4 4 4 4 4 4 4 4 4 4 4 4 4 4 4 4 4 = f f = 4 4 4 4 = n z = 4 4 4 4 4 4 = M l = w / 4 4 4 4 4 4 4 4 4 4 4 u i u i y u i u i e 4 4 4 4 / w 3 4 4 4 4 4 4 4 4 4 4 4 4 = g 4 3 4 4 4 4 4 4 4 4 4 4 = f f * 4 4 4 4 4 4 4 4 4 4 4 4 g 4 4 4 4 4 4 4 4 4 4 4 4 * g f O hX=.O 4 4 4 4 4 4 4 3 4 g = 4 4 4 4 4 4 4 4 4 4 4 # ",
"d f f f f z f f f f f z d f f f z d f f z f d l l w g x d f f f f f f f f f f f f f f f f f f d z f d f e j h e f f f f d l g d f f f f f e V h e f f f d z f f f f f z f f d g l d f d z E d f z d f x d f f f f f f f f f f f f f f f f f f d l l d f f f f = n z = 4 4 4 4 4 4 = M l = w / 4 4 4 4 4 4 4 4 4 4 4 y y y y e y y y y e 4 4 4 4 / w 6 f f f f f f f f f f f f d z f f f f f f f f f f f f d l z d f f f f f f f f f f f f z f f f f f f f f f f f f d z z - hX-.C f f f f f f f f f z d f f f f f f f f f f f 4 ",
"f f f f f z f f f f f z f f f f z f f f z f f l z d l x f f f f f f f f f f f f f f f f f f f f z g f f e j h f f f f f f z l f f f f f f f V h f f f f f z f f f f f z f f f l z f f f z W f g z f g n f f f f f f f f f f f f f f f f f f f f l l f f f f f = n z = 4 4 4 4 4 4 = M l = w / 4 4 4 4 4 4 4 4 4 4 4 u u u u y u u u u e 4 4 4 4 / w w f f f f f f f f f f f f f z f f f f f f f f f f f f f z z f f f f f f f f f f f f f z f f f f f f f f f f f f f z z C hX-.C f f f f f f f f f z f f f f f f f f f f f f 4 ",
"= 4 4 4 3 g 4 3 4 3 4 g = 4 = 4 g = 4 4 g = = d f * w l * 4 4 4 4 4 4 4 4 4 4 4 4 4 4 4 4 4 4 = f 6 = 4 * j 8 3 4 4 4 4 = f d = 4 4 4 4 4 3 h d 3 4 4 4 = g 4 = 4 4 = g 4 4 = d f = 4 = g p = 6 f * 4 z = 4 4 4 4 4 4 4 4 4 4 4 4 4 4 4 4 4 4 = d f = 4 4 4 4 = n z = 4 4 4 4 4 4 = M l = w / 4 4 4 4 4 4 4 4 4 4 4 y y y y e y y y y e 4 4 4 4 / w 3 4 4 4 4 4 4 4 4 4 4 4 4 = g 4 3 4 4 4 4 4 4 4 4 4 4 * f f * 4 4 4 4 4 4 4 4 4 4 3 4 g 3 4 4 4 4 4 4 4 4 4 4 4 * f f O hX=.O 4 4 4 4 4 4 4 = 4 g = 4 4 4 4 4 4 4 4 4 4 4 # ",
"4 4 4 4 4 l 4 4 4 4 4 l 4 4 4 4 l 4 4 4 l 4 4 f f = f l 3 4 4 4 4 4 4 4 4 4 4 4 4 4 4 4 4 4 4 4 f d 4 4 3 j 8 4 4 4 4 4 4 f f 4 4 4 4 4 4 2 w w 3 4 4 4 4 g 6 4 4 4 4 l 4 4 4 f f 4 4 4 l i 4 w g 3 6 z 4 4 4 4 4 4 4 4 4 4 4 4 4 4 4 4 4 4 4 4 f f 4 4 4 4 4 = n z = 4 4 4 4 4 4 = M l = w / 4 4 4 4 4 4 4 4 4 4 4 y u u u e y u u u e 4 4 4 4 / w 4 4 4 4 4 4 4 4 4 4 4 4 4 4 l 4 4 4 4 4 4 4 4 4 4 4 4 4 f g 3 4 4 4 4 4 4 4 4 4 4 4 4 l 4 4 4 4 4 4 4 4 4 4 4 4 3 l g O hX=.+ 4 4 4 4 4 4 4 4 4 l 4 4 4 4 4 4 4 4 4 4 4 4 % ",
"4 4 4 4 4 l 4 4 4 4 4 l 4 4 4 4 l 4 4 4 l 4 4 f f = f l = 4 4 4 4 4 4 4 4 4 4 4 4 4 4 4 4 4 4 3 f w 4 4 3 j 8 4 4 4 4 4 3 f d 4 4 4 4 4 3 A Y U 4 3 4 4 4 g 6 4 4 4 4 l 4 4 4 f f 3 4 4 l i 4 w g = 6 z 4 4 4 4 4 4 4 4 4 4 4 4 4 4 4 4 4 4 4 4 f f 4 4 4 4 4 = n z = 4 4 4 4 4 4 = M l = w / 4 4 4 4 4 4 4 4 4 4 4 u u u u y y u u u e 4 4 4 4 / w 4 4 4 4 4 4 4 4 4 4 4 4 4 4 l 4 4 4 4 4 4 4 4 4 4 4 4 3 f g = 4 4 4 4 4 4 4 4 4 4 4 4 l 4 4 4 4 4 4 4 4 4 4 4 4 = g f O hX=.+ 4 4 4 4 4 4 4 4 4 g 4 4 4 4 4 4 4 4 4 4 4 4 % ",
"4 4 4 4 4 l 4 4 4 4 4 l 4 4 4 4 l 4 4 4 l 4 4 f f = f l = 4 4 4 4 4 4 4 4 4 4 4 4 4 4 4 4 4 4 3 f w 4 4 3 j 8 4 4 4 4 4 3 f d 4 4 4 4 4 Y E.T.Y.T.d 3 4 4 g 6 4 4 4 4 l 4 4 4 f f 3 4 4 l i 4 w g = 6 z 4 4 4 4 4 4 4 4 4 4 4 4 4 4 4 4 4 4 4 4 f f 4 4 4 4 4 = n z = 4 4 4 4 4 4 = M l = w / 4 4 4 4 4 4 4 4 4 4 4 y y y y e y y y y e 4 4 4 4 / w 4 4 4 4 4 4 4 4 4 4 4 4 4 4 l 4 4 4 4 4 4 4 4 4 4 4 4 3 f g = 4 4 4 4 4 4 4 4 4 4 4 4 l 4 4 4 4 4 4 4 4 4 4 4 4 = g f O hX=.+ 4 4 4 4 4 4 4 4 4 g 4 4 4 4 4 4 4 4 4 4 4 4 % ",
"4 4 4 4 4 l 4 4 4 4 4 g 4 4 4 4 g 4 4 4 l 4 4 f f = d l = 4 4 4 4 4 4 4 4 4 4 4 4 4 4 4 4 4 4 4 f d 4 4 3 j 8 4 4 4 4 4 4 f d 4 4 3 3 T.E.P < 1 T.T.3 4 4 g 4 4 4 4 4 l 4 4 4 d f 4 4 4 l i 4 w g = 4 z 4 4 4 4 4 4 4 4 4 4 4 4 4 4 4 4 4 4 4 4 f f 4 4 4 4 4 = n z = 4 4 4 4 4 4 = M l = w / 4 4 4 4 4 4 4 4 4 4 4 u u u u y u u u u e 4 4 4 4 / w 4 4 4 4 4 4 4 4 4 4 4 4 4 4 l 4 4 4 4 4 4 4 4 4 4 4 4 3 f g = 4 4 4 4 4 4 4 4 4 4 4 4 l 4 4 4 4 4 4 4 4 4 4 4 4 = g f O hX=.+ 4 4 4 4 4 4 4 4 4 g 4 4 4 4 4 4 4 4 4 4 4 4 % ",
"4 4 4 4 3 k 4 4 4 3 4 k 3 4 3 4 k 3 4 4 k 3 3 f f * e k 3 4 4 4 4 4 4 4 4 4 4 4 4 4 4 4 4 4 4 3 f 6 3 4 3 9 8 3 4 4 4 4 3 f f 4 2 d T.E.Z < K 1 1 E.U.2 4 k 6 3 4 4 3 k 4 4 3 e f 3 4 3 k i 3 6 f 3 6 z 3 4 4 4 4 4 4 4 4 4 4 4 4 4 4 4 4 4 4 3 f f 3 4 4 4 4 = n z = 4 4 4 4 4 4 = M l = w / 4 4 4 4 4 4 4 4 4 4 4 y y y y e y y y y e 4 4 4 4 / w 4 4 4 4 4 4 4 4 4 4 4 4 4 4 l 4 4 4 4 4 4 4 4 4 4 4 4 4 f g = 4 4 4 4 4 4 4 4 4 4 4 4 l 4 4 4 4 4 4 4 4 4 4 4 4 3 g f O hX=.+ 4 4 4 4 4 4 4 4 4 g 4 4 4 4 4 4 4 4 4 4 4 4 % ",
"< < , , , V , , , , , V < , , , V < , , V , < h V < h V < , , , , , , , , , , , , , , , , , , < V , < , < 1 , < , , , , < V h C Z E.R.Z 1 1 K P 1 R W.Y C V , < , , < V , , < h V < , , V m < , V < , V < , , , , , , , , , , , , , , , , , , < V V < , , , , = n z = 4 4 4 4 4 4 = M l = w / 4 4 4 4 4 4 4 4 4 4 4 u i u i y u i u i e 4 4 4 4 / w 4 4 4 4 4 4 4 4 4 4 = 4 = 4 l 4 4 4 4 4 4 4 4 4 4 4 4 = f g = 4 4 4 4 4 4 4 = 3 4 = 4 l 4 4 4 4 4 4 4 4 4 = 4 4 = g f O hX=.+ 4 4 4 4 4 4 3 = 4 g 4 4 4 4 4 4 4 4 4 4 4 4 % ",
"^ k = w 4 l w 4 4 4 w l = w 4 d g = 4 w l 4 = f f = d l = w 4 4 4 4 4 4 4 4 4 4 4 4 4 4 4 4 w = g d = w 4 j d 4 w w w w : f e Y W.Y.h < K 1 1 1 P P U.W.G r d = 4 4 = l w 4 = d h = 3 * l i = d g = d z = w 4 4 4 4 4 4 4 4 4 4 4 4 4 4 4 4 w = f f = w 4 4 w = n z = 4 4 4 4 4 4 = M l = w / 4 4 4 4 4 4 4 4 4 4 4 y y y y e y y y y e 4 4 4 4 / w 4 6 = = 4 4 4 4 4 4 l 6 l 4 l 4 4 4 4 4 4 4 4 4 4 6 f w f g = 4 4 4 4 4 4 4 g f 4 l 6 g 4 4 4 4 4 4 4 4 w l 4 4 6 g f O hX=.+ 4 4 4 4 d 6 f f 4 l 4 4 4 4 4 4 4 4 4 4 4 4 % ",
"yX X# 6 4 l 4 4 4 4 4 l 4 4 4 4 k 3 4 4 l 4 3 f f = f l 3 4 4 4 4 4 4 4 4 4 4 4 4 4 4 4 4 4 4 3 f w 4 4 3 j 8 3 4 & & * 7 V Y.W.U.5 r L Z 1 Z Z , P P T.W.T 7 4 4 4 4 l 4 4 3 f f 3 T G k i 3 w f 3 6 z 3 4 4 4 4 4 4 4 4 4 4 4 4 4 4 4 4 4 4 3 f f 3 4 4 4 4 = n z = 4 4 4 4 4 4 = M l = w / 4 4 4 4 4 4 4 4 4 4 4 u u u u y u u u u e 4 4 4 4 / w 4 l l l 4 4 4 4 = / x x _ z f 4 4 4 4 4 4 4 4 * ) ( ) / f g = 4 4 4 4 4 4 4 x ) M / 4 l 4 4 4 4 4 4 4 = f ) z M ( f g O hX=.+ 4 4 4 = _ x l _ f f 4 4 4 4 4 4 4 4 4 4 4 4 % ",
"sX X$ 4 4 l 4 4 4 4 4 l 4 4 4 4 g 4 4 4 l 4 4 f f = d l = 4 4 4 4 4 4 4 4 4 4 4 4 4 4 4 4 4 4 4 f 8 = & % > : 3 e E Q | U.R.Y.XX}..XXX.X}.q.6.5.d : 1 L Y.W.T 2 3 4 4 l 4 4 4 e e T.W.W.T t 4 w g = 6 z 4 4 4 4 4 4 4 4 4 4 4 4 4 4 4 4 4 4 4 4 f f 4 4 4 4 4 = n z = 4 4 4 4 4 4 = M l = w / 4 4 4 4 4 4 4 4 4 4 4 y y y y e y y y y e 4 4 4 4 / w 4 _ _ ) f 3 4 4 d _ / ) f / f 4 4 4 4 4 4 4 4 z 3.n _ ( f g = 4 4 4 4 4 4 4 f _ _ / f g 4 4 4 4 4 4 4 d % z / _ n f g O hX=.+ 4 4 6 4 z x % / f g 4 4 4 4 4 4 4 4 4 4 4 4 % ",
"aX+X# 6 4 l 4 4 4 4 4 l 4 4 4 4 l 4 4 4 l 4 4 f f 3 f z 3 4 4 4 4 4 4 4 4 4 4 = = = & & $ $ & & g y p W ' 0.8.|.}.}.*X].R.T W W U U m W W 1.6.|.}.|.Q V L T.W.T.h 7 2 k 4 4 2 6 T.W.( U.Y.Q t e g = 6 z 4 4 4 4 4 4 4 4 4 4 4 4 4 4 4 4 4 4 4 4 f f 4 4 4 4 4 = n z = 4 4 4 4 4 4 = M l = w / 4 4 4 4 4 4 4 4 4 4 4 u u u u y y u u u e 4 4 4 4 / w 4 3.M M l = 4 f M / / p.M M f 4 4 4 4 4 4 4 x / 3.s./ ( l f = 4 4 4 4 4 g n w ) _ M M f 4 4 4 4 4 4 4 x n _ z p._ f g O hX=.+ 4 3 z l z x M / 4 l 4 4 4 4 4 4 4 4 4 4 4 4 % ",
"yXwXk = 4 g 4 4 4 4 4 g = = = 4 g = = = h & & d d $ 8 h $ & & $ $ $ $ & & 4 6 e t i E Q Q 7.7.|.}.}.|.9.Z.$.$.( U Y.W.T.V J U U J v l l g e V V W 7.|.}.7.5.Y R.R.U.A z 4 4 A Y.R.r.E 5.B.1.Q E k 3 6 z 4 4 4 4 4 4 4 4 4 4 4 4 4 4 4 4 4 4 4 4 f f 4 4 4 4 4 = n z = 4 4 4 4 4 4 = M l = w / 4 4 4 4 4 4 4 4 4 4 4 y u u u e y u u u e 4 4 4 4 / w 4 x g l f 4 4 4 = l M f / w l 4 4 4 4 4 4 4 4 * w g M z f g 4 4 4 4 4 4 4 4 / x f / w l 4 4 4 4 4 4 4 = x ) f 4 f g k O hX=.+ 6 4 4 = f f M / f g 4 4 4 4 4 4 4 4 4 4 4 4 % ",
" X+X} # 6 k 3 3 5 5 5 k 5 r r t E t t t E t t W W E Q | Q Q Q 7.7.7.7.|.|.|.|.}.}.}.|.|.7.7.7.1.5.m V F > H H U.R.Y.R J J U m p p S m p p m m m r r r W 7.#X}.6.B.E.W.E.Y.Y.R.].b.p 2.Q W Q E Q a * w l * = = 3 3 3 3 3 3 2 2 2 2 2 2 2 2 2 3 % 6 e % 3 2 2 2 % n z = 4 4 4 4 4 4 = M l = w / 4 4 4 4 4 4 4 4 4 4 4 y y y y e y y y y e 4 4 4 4 / w * % % % % * * * * % % % # % f = % * * * * * * * % % % # w f % * * * * * * * % % % # % f * * * * * * * * % # % * # f d   jX=.O = * * * % % # # = f % * * * * * * * * * * = # ",
"XX&X&XXXXXXXXXXXXXXXXXXXXXXXXXXXXXXXXXXXXXXXXXXXXXXXXXXXXXw.w.w.w.J.L.L.L.L.L.U U U U U U U U U U U T D F /.G G T N M / ^ ^ ^ ^ ^ t.( / ( y.D S o.@.@.D G *.c.*X+X+X<X).).).).B.T B.L.^ |.$XQ 3.U Y Y Y Y Y Y Y Y Y Y Y Y Y Y Y Y Y Y Y Y Y Y Y Y Y Y Y Y Y Y Z x z = 4 4 4 4 4 4 = M l = w / 4 4 4 4 4 4 4 4 4 4 4 u u u u y u u u u e 4 4 4 4 ( 4 _ F.S.S.S.S.S.S.S.S.S.S.S.S.F.S.S.S.S.S.S.S.S.S.S.S.S.S.S.F.S.S.S.S.S.S.S.S.S.S.S.S.S.F.S.S.S.S.S.S.S.S.S.S.S.S.S.F.F.b.zX=Xb.S.S.S.S.S.S.S.S.S.F.S.S.S.S.S.S.S.S.S.S.S.S.A.",
"U.H.*XS S e.o.S S S S ..S S S S D F F F D A A F F Z A F A A A A A A A A A A A A A F F F F F F F S F G P.H P.H A F F F F F D G G G I.P.P.I.I.P.P.P.P.P.P.P.G G G G F ~ ] ~ ~ F F F F ] E Q 7.E 0.Z.o.S t.S S S S S S S S S S S S S S S S S S S S S S S S S S U h x z = 4 4 4 4 4 4 = M l = w / 4 4 4 4 4 4 4 4 4 4 4 y y y y e y y y y e 4 4 4 4 / 6 f n x x x x x x x x x x x x / x x x x x x x x x x x x z M / z x x x x x x x x x x x x / x x x x x x x x x x x x z / / r hX>.g x x x x x x x x n / x x x x x x x x x x x x / ",
"xXfX9X*X*X;X-X*X*X-X-X-X-X-X-X-X-X-X-X-X-X-X-X-X-X-X-X;X-X-X-X-X-X-X-X-X-X-X-X-X-X-X-X-X-X-X-X-X-X-X=XxXH.#.;.=X*X-X-X-X:X:X:X:X:X:X;X-X;X;X-X-X+X-X-X-X-X+X+X+X+X+X-X-X-X-X X+X-X+X+X@X|.7. X3XwX,X+X-X+X+X+X+X+X+X+X+X+X+X+X+X+X+X+X+X+X+X+X+X-X-X+X+X+X+X;X{ z z = 4 4 4 4 4 4 = M l = w / 4 4 4 4 4 4 4 4 4 4 4 u i u i y u i u i e 4 4 4 4 / w = * * * * * * * * * * * * % f = * * * * * * * * * * * % d f % * * * * * * * * * * * * f * * * * * * * * * * * * % f f ; jX=.O = * * * * * * * = f % * * * * * * * * * % f g ",
"eXuXaXsXqXaXsXaXyXqXwXqXqXqXqXqXqXqXqXqXqXqXqXqXqXqXqXqXqXqXqXqXqXqXqXqXqXqXqXqXqXwXaXyXqXqXwXeXtXdXwX,X;X:X:XfXeXqXwXwXwXwXwX5XwXpXqXqXqXqXqXqXeXeXwXsXuXeXqXqXqXqXqXqXwXyXaXqXqXqXwX3X3X0X0XiXaXyXqXqXqXqXqXqXqXqXqXqXqXqXqXqXqXqXqXqXqXqXqXqXqXqXqXqXqXwXiX Xh z = 4 4 4 4 4 4 = M l = w / 4 4 4 4 4 4 4 4 4 4 4 y y y y e y y y y e 4 4 4 4 / w 4 4 4 4 4 4 4 4 4 4 4 4 4 4 l 4 4 4 4 4 4 4 4 4 4 4 4 4 f g 4 4 4 4 4 4 4 4 4 4 4 4 4 l 4 4 4 4 4 4 4 4 4 4 4 4 4 l g O hX=.+ 6 4 4 4 4 4 4 4 4 l 4 4 4 4 4 4 4 4 4 4 g M * ",
"`.!.-X*X~ uX-XrXeX] j B : 9 : 9 j : : 9 j : : j j : j j : : : : : : : : : : : : 9 > ;XG.: 8 G R.E.Y : A G P.P.F 9 = = = & d d % : 9X` Z F F Z C j G A *XeXG.$ = = = * g X { 0X4 d = = = t U.Y.yXpX Xr ^ r r t t t t t t t t t t t t t t t t t t i i t t t t t 5 n z = 4 4 4 4 4 4 = M l = w / 4 4 4 4 4 4 4 4 4 4 4 u u u u y u u u i e 4 4 4 4 / w 4 4 4 4 4 4 4 4 4 4 4 4 4 4 l 4 4 4 4 4 4 4 4 4 4 4 4 3 f g = 4 4 4 4 4 4 4 4 4 4 4 4 l 4 4 4 4 4 4 4 4 4 4 4 4 = g f O hX=.+ 4 4 4 4 4 4 4 4 4 g 4 4 4 4 4 4 4 4 = f M w % ",
"/.I.:.*X] dXfXtXaXG.-X-X: 9 9 j b 9 9 9 b 9 9 j j 9 j b 9 9 9 9 9 9 9 9 9 9 9 9 9 : 9X-X> Y.W.U.b A P.P.G A 4 3 3 4 4 4 3 e h 8 8 eX$.Z F A F V Z *X*X-XaX-X$ 4 4 4 4 z $ } qX8 d % 3 4 y U W.eXpX+Xt ^ 8.' r t p p p p p p p p p p p p p p p t i i t p p t p 5 n z = 4 4 4 4 4 4 = M l = w / 4 4 4 4 4 4 4 4 4 4 4 y y y y e y y y y e 4 4 4 4 / w 4 4 4 4 4 4 4 4 4 4 4 4 4 4 l 4 4 4 4 4 4 4 4 4 4 4 4 3 f g = 4 4 4 4 4 4 4 4 4 4 4 4 l 4 4 4 4 4 4 4 4 4 4 4 4 = g f O hX=.+ 4 4 4 4 4 4 4 4 4 g 4 4 4 4 4 4 4 3 f M w 4 % ",
"/.`._.;X-XmXeXeXuX*X,X;X: 9 9 j b 9 9 9 b 9 j $.j 9 j b 9 9 9 9 9 9 9 9 9 9 9 : 9 9 9XxXR.E.G H I.I.A 8 7 h 8 $ 4 4 6 : $ F G j e eX$.Z A = F D Z -X*X;XaX-X= 4 = = = z $ } pX*X-X[ Z = w n R.cXpX@Xt ^ 3X8.@X| t p p p p p p p p p p p p p p t i i t p p t p 5 n z = 4 4 4 4 4 4 = M l = w / 4 4 4 4 4 4 4 4 4 4 4 u u u u y y u u u e 4 4 4 4 / w 4 4 4 4 4 4 4 4 4 4 4 4 4 4 l 4 4 4 4 4 4 4 4 4 4 4 4 3 f g = 4 4 4 4 4 4 4 4 4 4 4 4 l 4 4 4 4 4 4 4 4 4 4 4 4 = g f O hX=.+ 4 4 4 4 4 4 4 4 4 g 4 4 4 4 4 4 3 f M d 4 4 % ",
"O././.dXsXxXtXtXfX;X9X;X: 9 9 j b 9 9 9 b 9 ~ eXb 9 j j 9 9 9 9 j j 9 9 9 9 H ..c A Y.R.U.G P.(.cX$.@ 6 4 > c *X4 4 X $.$.;XrXG.j sX%.=X*X3 V G Z +X;X,XaX,X$ ' +X! c g 6 9XaXaXaXeX:X+.}  XE.).pX3Xt ^ 3X XiX' r p t t t t t t t t t t t t p t i i t p t t p 5 n z = 4 4 4 4 4 4 = M l = w / 4 4 4 4 4 4 4 4 4 4 4 y u u u e y u u u e 4 4 4 4 / w 4 4 4 4 4 4 4 4 4 4 4 4 4 4 l 4 4 4 4 4 4 4 4 4 4 4 4 3 f g = 4 4 4 4 4 4 4 4 4 4 4 4 l 4 4 4 4 4 4 4 4 4 4 4 4 = g f O hX=.+ 4 4 4 4 4 4 4 4 4 g 4 4 4 4 4 3 f M d 4 4 4 % ",
"o.D +.eXdX!.$././.fXuX;X9 9 9 j b 9 9 9 ` -X] eX~ : j H.j P.G : *X;.: 9 9 : :.dXH.Q.E.xX~.I.A 0XaX*X$ > k *X[ yXy * ' yX+XwXaX*XF sXk.;XaX0Xn V > ;X;X,XaX,X# } aXqXsX0.! aXeXG.eXpXiXeXaXiXcXE.pX3Xr ^ 3X+XpX' t p t t t t t t t t t t t t p t i i t p t t p 5 n z = 4 4 4 4 4 4 = M l = w / 4 4 4 4 4 4 4 4 4 4 4 y y y y e y y y y e 4 4 4 4 / w 4 4 4 4 4 4 4 4 4 4 4 4 4 4 l 4 4 4 4 4 4 4 4 4 4 4 4 3 f g = 4 4 4 4 4 4 4 4 4 4 4 4 l 4 4 4 4 4 4 4 4 4 4 4 4 = g f O hX=.+ 4 4 4 4 4 4 4 4 4 g 4 4 4 4 3 f M f 3 4 4 4 % ",
"O.S ` eX(./.9 I.`.xXaX;X9 9 9 j b 9 9 9 ] rX;.uX~ : b eXb =X=X$ ;X*X> j j : *X).R._.(.cXmXP.y eXaX*X@.H.u qX} yX! $ 0XaX,XsXaXyX*XsXG.,XaXaX_ $ 9.aX,XrXpX0X$ 8.aXsXaXqX+XtXn.< ,XaXsXsXsXpXtXR.tX5X} ' wX+XpX{ 3 p p t t t t t t t t t t t p t i i t p t t p 5 n z = 4 4 4 4 4 4 = M l = w / 4 4 4 4 4 4 4 4 4 4 4 u u u u y u u u u e 4 4 4 4 / w 4 4 4 4 4 4 4 4 4 4 4 4 4 4 l 4 4 4 4 4 4 4 4 4 4 4 4 3 f g = 4 4 4 4 4 4 4 4 4 4 4 4 l 4 4 4 4 4 4 4 4 4 4 4 4 = g f O hX=.+ 4 4 4 4 4 4 4 4 4 g 4 4 4 3 f M f 3 4 4 4 4 % ",
"O...O.G.I./.z P.`.P.cX,Xj 9 j > v 9 9 > %.tX=XdX;.: ~ eX;XeXeXj ;X*XI.G 2 G E.W.(.xXH.yXpX*Xc uXpXeXsX,Xc qX9.aX' 3 rX:XsXeXsXaXrXuX;XuXsXaXZ.$ -XaXrXeXaX0X$  XrXyXaXsXqX;XF B ,XaXwXyXrXpXsXR.cX7XpX XwX@XpX{ { E t p t t t t t t t t t t p t i i t p t t p 5 n z = 4 4 4 4 4 4 = M l = w / 4 4 4 4 4 4 4 4 4 4 4 y y y y e y y y y e 4 4 4 4 / w 4 4 4 4 4 4 4 4 4 4 4 4 4 4 l 4 4 4 4 4 4 4 4 4 4 4 4 3 f g = 4 4 4 4 4 4 4 4 4 4 4 4 l 4 4 4 4 4 4 4 4 4 4 4 4 = g f O hX=.+ 4 4 4 4 4 4 4 4 4 g 4 4 4 w M f 3 4 4 4 4 4 % ",
"O.O.@.j I./.S G G j D ,Xc 9 I.%.v 9 8 F cXeXtXuXuXb [ uXdXeXrX~ ;XtX`.P.U.W.E.`.cXaX XqXaX-X! 0X-XaX+XeXeXyX*XaX' y 9XG.aX-XsXaXeXsX0X0XyXaXG.X -XaXsX,X$.0X$ +XK.rXuXsXaX=XD X.*XaX*X-X-XaXpX).Y.iXpX+XyX8XpX8.yX{ r p t t t t t t t t t t p t i i t p t t p 5 n z = 4 4 4 4 4 4 = M l = w / 4 4 4 4 4 4 4 4 4 4 4 u u u i y u i u i e 4 4 4 4 / w 4 4 4 4 4 4 4 4 4 4 4 4 4 4 l 4 4 4 4 4 4 4 4 4 4 4 4 3 f g = 4 4 4 4 4 4 4 4 4 4 4 4 l 4 4 4 4 4 4 4 4 4 4 4 4 = g f O hX=.+ 4 4 4 4 4 4 4 4 4 g 4 4 w M f 3 4 4 4 4 4 4 % ",
"O.O.@.S *.N.O.S B j ~ ,Xc H /.uX` H P.[ aX,XeXeXdX] ] dXuXfX,X*.:XaX_.R.W.`.cX/.~.sX9.qX;XqX X,Xh  X' yXaXyX-XaX9X{ ;XZ.iX XaX-XsXsXwX-X-XaX*XS eXpXaX*X/ 0XB sXG.0XrXsXsXV.D e. .qX*X> G.sXyXcXR.eXpX3XiX3XpX XyX Xt i p t t t t t t t t t p t i i t p t t p 5 n z = 4 4 4 4 4 4 = M l = w / 4 4 4 4 4 4 4 4 4 4 4 y y y y e y y y y e 4 4 4 4 / w 4 4 4 4 4 4 4 4 4 4 4 4 4 4 l 4 4 4 4 4 4 4 4 4 4 4 4 3 f g = 4 4 4 4 4 4 4 4 4 4 4 4 l 4 4 4 4 4 4 4 4 4 4 4 4 = g f O hX=.+ 4 4 4 4 4 4 4 4 4 l = 6 M f 3 4 4 4 4 4 4 4 % ",
"O.O.@.O.O.u.@.o.o.S F rXc H cXdX] O.(.$.uXG.rXtXdX*XG.dXuXrX;XxXtXcXR.Q./.fX;X/.I.(.Z.eX9.iX,X;XB < 5 yXaXsXrXrXyX X-X] yXZ.H.~ sXqXsX*Xv -XeXeXsX=XaX$.o.rX*XrX..:X<XpXuX$. .e. .wX*Xh j.=Xh.e.W.<X7XwXpX3XpX XyX X@XE r p p p p p p p p p p t i i t p p p p 5 n z = 4 4 4 4 4 4 = M l = w / 4 4 4 4 4 4 4 4 4 4 4 u u u u y u u u i e 4 4 4 4 / w 4 4 4 4 4 4 4 4 4 4 4 4 4 4 l 4 4 4 4 4 4 4 4 4 4 4 4 4 f g 3 4 4 4 4 4 4 4 4 4 4 4 4 l 4 4 4 4 4 4 4 4 4 4 4 4 3 l g O hX=.+ 4 4 4 4 4 4 4 4 4 g 4 M f 3 4 4 4 4 4 4 4 4 % ",
"O.O.O.O.O.u.@.o.S O.D fX*X} :XcX] *XeX;.*XF uX=X=XeXeXuXuX;X;XcX).W.Q.xX,XpX] F /.P.X.eX9.yXwX;XD B B eXaXaXeX=XpXsX-X] yX .j ! sX,XaX*Xj +.uXpXqXh.sXZ. .qXaX;XS G G.pX;X..o.X...0XG.v t.M.D B E.).5XqXwXwXpX3XiX3XiXwX' r t t t t t t t t t t i i t t t t t 5 n z = 4 4 4 4 4 4 = M l = w / 4 4 4 4 4 4 4 4 4 4 4 y y y y e y y y y e 4 4 4 4 / w 3 4 4 3 3 3 3 3 3 3 3 3 4 = g 4 3 3 3 3 3 3 3 3 3 3 4 * f f * 4 3 3 3 3 3 3 3 3 3 3 4 g 3 4 3 3 3 3 3 3 3 3 3 4 * f f O hX=.O 4 3 3 3 3 3 3 3 4 z M f * 4 3 3 3 3 3 3 3 4 # ",
"+.u.u.u.u.x.u.+...u.@.:XaXeX=X=XG.*XtX*X*XD :XV.X.eXuXtXsX,X^.R.Q.(.dXpXsX-Xo._ /.G u.rXG.sXsX;XT O.u.eXpXaXeXT 9XaX*Xx.:Xe.M $.sX*XuX*X....9.aXeXZ.yXZ.r.eXsXG.X. .j.D.m.e.e.a.j.$.e. .x.C.n.X.T.E.*X,X-XiXiXpXpXpXwX&X+Xp ^ ^ ^ ^ ^ ^ ^ ^ ^ ! ^ ^ ! ^ ^ ^ ^ r x z = 4 4 4 4 4 4 = M l = w / 4 4 4 4 4 4 4 4 4 4 4 u u u u y u u u u e 4 4 4 4 / 6 d g f f f f f f f f f f f f x g f f f f f f f f f f f f z x f f f f f f f f f f f f f x f f f f f f f f f f f f f x x C hX>.w g f f f f f f f f / n f g f f f f f f f f g w ",
"@.@.@.@.@.u.@.+...+.O.=XtXdXG.*XG.;XtXrX*XD F O.u.eXtXtXtX).W._.*.] ] =XyXj .._ /.G y.y.X.:XaX<XT M.T rXsX=XG.D G.aX*XD U.e.B $.uXd.m.V.X. .} pXG.h.yXh.S wX0XA e.X...U X.X.X.e.a.B  ...j.C.n.M.B.W.C.' 0.pXyXpXpXpX@X8.+Xr i p i i i i i i i i ^ ^ i i i i i 5 n z = 4 4 4 4 4 4 = M l = w / 4 4 4 4 4 4 4 4 4 4 4 y u y u e y u y u e 4 4 4 4 / w 4 d d d d d d d d d d d d w z d w d d d d d d d d d d 6 l z 6 d d d d d d d d d d d d z d d d d d d d d d d d d 6 z z + hX-.- f d d d d d w f / x 4 d d d d d d d d d d f 4 ",
"O.O.O.O.O.u.O.O.O.O.@.S !.dXH.*X;X:X:XdXN.O.S O.@.xX(.).E.W.).dXG.B : G %.v  .o.*.D n.T y.A 0X<XT N.D rX-XG G ..o.yX*XS S X.B X.=X%.B o. .S Z.qXB h.,XX.S ~.H.B .. . .e. . .o.X.e.o.o.o.i.C.m.m.u.E.^.4.4.qXwXpXpXpX@X8.iXi { 8.r t t t t t t t i i t t t t p 5 n z = 4 4 4 4 4 4 = M l = w / 4 4 4 4 4 4 4 4 4 4 4 y y y y e y y y u e 4 4 4 4 / w 4 4 4 4 4 4 4 4 4 4 4 4 4 = g 4 4 4 4 4 4 4 4 4 4 4 4 = f f = 4 4 4 4 4 4 4 4 4 4 4 4 g 4 4 4 4 4 4 4 4 4 4 4 4 = g f O hX=.+ 4 4 4 4 4 3 4 n l g 3 4 4 4 4 4 4 4 4 4 4 4 % ",
"O.O.O.O.O.u.O.O.@.O.@.B F dXV.*XrX=XG.=XP.+.S @.+.I.Q.W.E.G *XpXZ.S o.v :  . . .` ` m.T m.D *X=XN.N.D *XG.T n. ...qXG.S S e.X. .j o... . .o.h.G. . .B  . .G D  . . . .e... . .X.e.o. . .i.C.m.N.e.U.E.Z.4.wX0XiXyXpX,X0.PX X+X@Xr p p p p p p t i i t p p p p 5 n z = 4 4 4 4 4 4 = M l = w / 4 4 4 4 4 4 4 4 4 4 4 u u u u y u u u u e 4 4 4 4 / w 4 4 4 4 4 4 4 4 4 4 4 4 4 4 l 4 4 4 4 4 4 4 4 4 4 4 4 3 f g 3 4 4 4 4 4 4 4 4 4 4 4 4 l 4 4 4 4 4 4 4 4 4 4 4 4 3 g f O hX=.+ 4 4 4 4 4 4 n l 4 l 4 4 4 4 4 4 4 4 4 4 4 4 % ",
"O.O.O.O.O.u.O.O.O.O.@.S F (.P.*XuX:XF 8 +.@.S +.m.E.W./.O.N G.sXp. .X.B z .. ...t.O.m.m.N.y.S T N.n...T G n.X. . .qXG.S ` e.X. .n o. . . .o.t.S o. .o. ...) / .. . . .e. . . .X.e. . . .e.s.n.N.u.T R.C.] 0X0XqX*XpX&X4.+X0X3XpX{ t i u t t i t ! ! t p t t i 5 n z = 4 4 4 4 4 4 = M l = w / 4 4 4 4 4 4 4 4 4 4 4 y y y y e y y y y e 4 4 4 4 / w 4 4 4 4 4 4 4 4 4 4 4 4 4 4 l 4 4 4 4 4 4 4 4 4 4 4 4 3 f g = 4 4 4 4 4 4 4 4 4 4 4 4 l 4 4 4 4 4 4 4 4 4 4 4 4 = g f O hX=.+ 4 4 4 4 4 n l = 4 l 4 4 4 4 4 4 4 4 4 4 4 4 % ",
"O.O.O.O.O.u.O.O.O.O.@.o.F `.G G.aX=XD b @.O.o.U.R.E.^.$.o.S Z.wX . ...o.B .. .t.n.m.m.m.m.m.y.n.u.X.o.n.T n... . .$.X. .o.e.X. .B  . . . .o.t.r.o. . . . .e. . . . . .e. . . .X.e. . . .e.d.n.N.N.y.E.^.] 0X0XwX XsXfXH./ @XpXpX8.7 t s i ! s t p p [ t i ! t 5 n z = 4 4 4 4 4 4 = M l = w / 4 4 4 4 4 4 4 4 4 4 4 u u u u y u u u i e 4 4 4 4 / w 4 4 4 4 4 4 4 4 4 4 4 4 4 4 l 4 4 4 4 4 4 4 4 4 4 4 4 3 f g = 4 4 4 4 4 4 4 4 4 4 4 4 l 4 4 4 4 4 4 4 4 4 4 4 4 = g f O hX=.+ 4 4 4 4 n z 3 4 4 g 4 4 4 4 4 4 4 4 4 4 4 4 % ",
"O.O.O.O.O.u.O.O.O.O.@...D `.*.%.tX=XD o.+.@.Y.W.Y.O.o.j. . . .$. . . . . . .O.m.m.m.n.m.m.m.m.y.e.X.o.n.m.n... . .S  . . .e.X. .N  . . . .o.t.r.o. . . . .e.X. . . . .e. . . .X.e. . . .e.d.n.N.B.X.U.E.3.0X,X0X*XpXmXG.xX:XaXdX-X;.[ ;.[ [.;.u ;.[ ;.#.[.;.s 5 n z = 4 4 4 4 4 4 = M l = w / 4 4 4 4 4 4 4 4 4 4 4 y y y y e y y y y e 4 4 4 4 / w 4 4 4 4 4 4 4 4 4 4 4 4 4 4 l 4 4 4 4 4 4 4 4 4 4 4 4 3 f g = 4 4 4 4 4 4 4 4 4 4 4 4 l 4 4 4 4 4 4 4 4 4 4 4 4 = g f O hX=.+ 4 4 4 n z 4 4 4 4 g 4 4 4 4 4 4 4 4 4 4 4 4 % ",
"O.O.O.O.O.u.O.O.O.O.@.+.@./.@.G xX=XD o.^.R.R.^.X.o.X.a.o. . .S  . . . . .o.y.N.m.N.y.m.y.m.m.y.e.X.o.t.M.y... . . . . . .e.X. .o. . . . .o.t.r.o. . . . .e... . . . .e. . . .X.e. . . .e.d.y.N.B.+.n.W.n.,X,X0X*XiX:XZ.=X=XdXdXdX:X,.;.[ ;.;.;.;.>.;.,.;.;.s 5 n z = 4 4 4 4 4 4 = M l = w / 4 4 4 4 4 4 4 4 4 4 4 u u u u y u u u i e 4 4 4 4 / w 4 4 4 4 4 4 4 4 4 4 4 4 4 4 l 4 4 4 4 4 4 4 4 4 4 4 4 3 f g = 4 4 4 4 4 4 4 4 4 4 4 4 l 4 4 4 4 4 4 4 4 4 4 4 4 = g f O hX=.+ 4 4 n x 4 4 4 4 4 g 4 4 4 4 4 4 4 4 4 4 4 6 % ",
"O.O.O.O.O.u.O.O.O.O.@.u.O.O.O.O.`.^...U.W.Y.@.X.e. .X.a.o. . . . . . . . .o.n.m.y.m.y.m.t.m.m.y.e.X. . . .+... . . . . . .e.X. . . . . . .o.t.r.o. . . . .e... . . . .e. . . .X.e. . . .e.d.y.N.N.y.o.E.U.0.G.,XG.*X=XG.H.=XdXuXdX=Xc ,.;.#.#.;.>.;.;.,.,.;.s 5 n z = 4 4 4 4 4 4 = M l = w / 4 4 4 4 4 4 4 4 4 4 4 y y y y e y y y y e 4 4 4 4 / w 4 4 4 4 4 4 4 4 4 4 4 4 4 4 l 4 4 4 4 4 4 4 4 4 4 4 4 3 f g = 4 4 4 4 4 4 4 4 4 4 4 4 l 4 4 4 4 4 4 4 4 4 4 4 4 = g f O hX=.+ 4 n x 4 4 4 4 4 6 l 4 4 4 4 4 4 4 = & & $ & X ",
"O.@.@.@.@.u.@.@.@.@.@.u.O.o.@.O.I./.Y.W.U.o.o.e.e.o.X.j. ....... . . . ...o.n.n.y.m.t.M.t.t.y.t.e.X. ...o.+.X. ... . ... .e.X. ... . . ...o.t.t.o... ... .e.X. ..... .a..... .X.e. ... .a.d.y.N.N.n.` Y.R._ ] 4.p.p.Z.d.h.*XaXsXpX9X] ~ { } c i ] ! u ! [ c p 5 n z = 4 4 4 4 4 4 = M l = w / 4 4 4 4 4 4 4 4 4 4 4 u u u u y u u u u e 4 4 4 4 / w 4 4 4 4 4 4 4 4 4 4 4 4 4 4 l 4 4 4 4 4 4 4 4 4 4 4 4 3 f g = 4 4 4 4 4 4 4 4 4 4 4 4 l 4 4 4 4 4 4 4 4 4 4 4 4 = g f O hX=.+ M x 4 4 4 4 4 = = h $ $ & & & = w p a 2.1.6.q.",
"O.O.O.O.O.u.O.O.O.O.O.u.O.S O.O.Y.W.E.T p. . .r.r.o...e.o. . .o.t... . .o...m.y.O.m.t.n...` ....r...o. .o.O...o. . . . .o.r...o. . . . . .o.r.r.o. . . .o.r. .o. . .o.e. . .o...r.o. .o.e.p. .y.N.y.` N.W.N.] 3.4.4.4.4.3.0.&XpXpXpX XO  X@X7 t p p t t s t t 5 n z = 4 4 4 4 4 4 = M l = w / 4 4 4 4 4 4 4 4 4 4 4 y y y y e y y y u e 4 4 4 4 / w 4 4 4 4 4 4 4 4 4 4 4 4 4 4 l 4 4 4 4 4 4 4 4 4 4 4 4 3 f g = 4 4 4 4 4 4 4 4 4 4 4 4 l 4 4 4 4 4 4 4 4 4 4 4 4 = l g O hX=.e n 4 4 4 & $ = r a 1.2.q.q..XVXZXZXDXDXDXDXZXVX",
"%.*.*.*.%.V.*.*.*.%.*.V.*.%.*.Y.R./.%.$.x.%.%.x.x.%.%.x.%.%.%.%.V.V.%.%.%.V.V.%.%.N.x.V.%.%.%.%.x.%.%.%.%.%.%.%.%.%.%.%.%.x.%.%.%.%.%.%.%.%.x.x.%.%.%.%.%.x.%.%.%.%.%.x.%.%.%.x.x.%.%.%.x.Z.%.x.B.V.%.l.E.).Z.Z.Z.Z.Z.Z.Z.$.} aXsXaX-Xk -X-Xc ! [ [ ! ! ! ! ! 5 n z = 4 4 4 4 4 4 = M l = w / 4 4 4 4 4 4 4 4 4 4 4 y u y u e y u y u e 4 4 4 4 / w 4 4 4 4 4 4 4 4 4 4 4 4 4 4 l 4 4 4 4 4 4 4 4 4 4 4 4 3 f g = 4 4 4 4 4 4 4 4 4 4 4 4 l 4 4 4 4 4 4 4 4 4 4 4 4 3 g f O jX>.g 4 & & r 2.q.VXDXDXDXDXZXVXVXq.q.6.2.W p w 6 # ",
"bXbXbXbXbXbXbXbXbXbXbXbXBXbXMXMXbXbXbXbXbXbXbXbXbXbXbXbXbXbXbXbXbXbXbXbXbXbXbXbXbXbXbXbXbXbXbXbXbXbXbXbXbXbXbXbXbXbXbXbXbXbXbXbXbXbXbXbXbXbXbXbXbXbXbXbXbXbXbXbXbXbXbXbXbXbXbXbXbXbXbXbXbXbXbXbXMXbXbXbXMXMXbXbXbXbXbXbXbXbXbXnXnXnXnXbXnXnXbXbXbXbXbXbXbXbXbXc z z = 4 4 4 4 4 4 = M l = w / 4 4 4 4 4 4 4 4 4 4 4 u u u u y u u u u e 4 4 4 4 / w 4 4 4 4 4 4 4 4 4 4 4 4 4 4 l 4 4 4 4 4 4 4 4 4 4 4 4 3 f g = 4 4 4 4 4 4 4 4 4 4 4 4 l 4 4 4 4 4 4 4 4 4 4 4 4 = z v - hX>.; 4 W .XDXSXZXq.2.W ^ r 4 = & & $ $ & & = 4 4 % ",
":.:.:.:.:.H.:.:.:.:.>.H._._.).:.H.:.:.:.H.:.:.H.H.:.H.H.:.H.H.:.H.!.H.:.H.H.:.:.:.:.:.:.:.:.:.:.H.H.:.:.:.H.:.:.:.:.:.:.:.H.H.:.:.:.:.:.:.:.H.H.:.:.:.:.:.H.:.:.:.:.:.H.:.:.:.H.H.:.:.:.H.H.:.:.H.H.:.H.H._.).G.H.H.H.H.H.H.=XdXdX:XdX9X;X9X#.#.;.;.#.#.#.#.#.e x z = 4 4 4 4 4 4 = M l = w / 4 4 4 4 4 4 4 4 4 4 4 y y y y e y y y y e 4 4 4 4 / w 4 4 4 4 4 4 4 4 4 4 4 4 4 4 l 4 4 4 4 4 4 4 4 4 4 4 4 4 f g 4 4 4 4 4 4 4 4 4 4 4 4 4 l 4 4 4 4 4 4 4 4 4 4 4 4 v %.G.d.lX=.2.ZXSXZXq.a 4 & & & f = 4 4 4 4 6 6 4 4 4 4 4 % ",
"S D D D S t.D D S S T E.R.T N S r.N N S r.N N  . .N  .n.D T T S U T U U U U N N N N N N N N N N r. .N S N ..S N N N N N N r. .N N N N N N N U U N N N N N r.S N N N N r.S N N  .r.N N N r.3.N  .r.U S r.B Y.Y.] 3.3.3.3.4.( 0.4X8.0.pX2X%X@X@ s p p s s s s s 5 M z = 4 4 4 4 4 4 = M l = w / 4 4 4 4 4 4 4 4 4 4 4 u u u u y u u u i e 4 4 4 4 / w = 3 3 3 3 3 3 3 3 3 3 3 3 = g 4 = 3 3 3 3 3 3 3 3 3 4 * f f * 4 3 3 3 3 3 3 3 3 3 = 3 g = 3 3 3 3 3 3 3 3 4 = c ;.G.;.G.:XAXSXVXW = $ & = 4 3 4 g = 4 3 3 3 3 3 3 3 3 3 4 # ",
"u.u.u.u.u.V.V.x.u.U.W.Y.x.$.j.j.k.j.j.j.k.j.j.k.k.a.k.B.N.N.C.M.N.N.N.N.N.x.a.j.j.j.j.j.j.j.j.j.k.j.j.j.a.x.x.j.j.j.j.j.j.k.k.j.j.j.j.j.j.j.i.j.j.j.j.j.j.k.j.j.j.j.j.k.j.j.j.k.k.j.j.j.l.A.j.j.k.M.k.l.p.^.R.v.Z.Z.Z.Z.Z.H.=X;XH.G.pXfXfX9X=.^ ^ ^ ] $.;.] ^ r x z = 4 4 4 4 4 4 = M l = w / 4 4 4 4 4 4 4 4 4 4 4 y y y y e y y y y e 4 4 4 4 / 6 f z z z z z z z z z z z z l M z z z z z z z z z z z z l x n l z z z z z z z z z z z z M z z z z z z z z z z z $.G.} 8XgX>X>X5.h h z z z z z z z n l z z z z z z z z z z z f ",
"@.@.@.@.@.u.X.m.E.W.U.a. .X.X.X.j.X.X.X.j.X.X.M.e. .i.B.N.M.n.m.m.n.M.M.m.X.X.X.X.X.X.X.X.X.X...a.e.X.X.X.u.X.X.X.X.X.X...e.e.X.X.X.X.X.X.X.i.t.X.X.X.X.X.j.X.X.X.X.X.j.X.X.X.e.e...X.X.j.f.X.e.j.n.i.j.X.t.R.^.4.d.d.d.4.Z.=XH.xXG.pXmXeXfX-.;.! [.,.;.[.;.p r n z = 4 4 4 4 4 4 = M l = w / 4 4 4 4 4 4 4 4 4 4 4 u u u i y u i u i e 4 4 4 4 / w 4 d w w w w w w w w w w w 6 z d w w w w w w w w w w w 6 l l 4 d w w w w w w w w w w w z w w w w w w w w w w f %.;.+XPX@X=XH.8 w e w w w w w w d z 6 w w w w w w w w w w d = ",
"O.O.O.@.O.+.U.R.E.y.` e. . . . .e.o. . .e.o...N.e.o.t.N.m.n.y.m.t.....y.n.o. . . . . . . . . .o.e.X.o. .o.+...o. . . . .o.e.X.o. . . . . .o.t.r.o. . . .o.e... . . . .e. . .o.X.e.o. . .e.d.o.X.e.n.m.j. .` Y.E.4.p.4.d.G.4.H.d.H.G.iXsXdX;X,.;.#.;.;.;.;.;.t 5 n z = 4 4 4 4 4 4 = M l = w / 4 4 4 4 4 4 4 4 4 4 4 y y y y e y y y y e 4 4 4 4 / w 4 4 4 4 4 4 4 4 4 4 4 4 4 3 g 4 4 4 4 4 4 4 4 4 4 4 4 = f f = 4 4 4 4 4 4 4 4 4 4 4 4 g 4 4 4 4 4 4 4 4 4 4 & $.<X8.+X} xX>.4 4 4 4 4 4 4 4 4 4 g = 4 4 4 4 4 4 4 4 4 4 4 % ",
"O.@.@...@.Y.W.U.o.o...e. . . ...e. . . .a.t.O.N.u.o.t.B.m.y.+.n.X.o. .O.O. . . . . . . . . . . .e.X. . . .+... . . . . . .e.X. . . . . . .o.t.r.o. . . . .e... . . . .e. . . .X.e. . . .e.d. .X.e.t.N.x. .o.T W.M.4.p.d.G.=X=Xd.H.G.uXuXdX,X,.! ] ,.;.;.,.;.t 5 n z = 4 4 4 4 4 4 = M l = w / 4 4 4 4 4 4 4 4 4 4 4 u u u u y u u u u e 4 4 4 4 / w 4 4 4 4 4 4 4 4 4 4 4 4 4 4 l 4 4 4 4 4 4 4 4 4 4 4 4 3 f g 3 4 4 4 4 4 4 4 4 4 4 4 4 l 4 4 4 4 4 4 4 4 4 & a CX&X=X;.G.cX=.- 4 4 4 4 4 4 4 4 4 l 4 4 4 4 4 4 4 4 4 4 4 4 % ",
"O.O.O.U.R.E.T `  .....e. . . ...e. . . .i.m.t.N.N.O.u.B.m.y.X.y... . . . . . . . . . . . . . . .e.X. . .o.+... . . . . . .e.X. . . . . . .o.t.r.o. . . . .e... . . . .e. . . .X.e. . . .e.d. .X.e.o.y.M.y.+. .E.Y.] d.4.4.Z.G.d.d.Z.sXuXaX0X! t i ] c ! [ u p 5 n z = 4 4 4 4 4 4 = M l = w / 4 4 4 4 4 4 4 4 4 4 4 y y y y e y y y u e 4 4 4 4 / w 4 4 4 4 4 4 4 4 4 4 4 4 4 4 l 4 4 4 4 4 4 4 4 4 4 4 4 3 f g = 4 4 4 4 4 4 4 4 4 4 4 4 l 4 4 4 4 4 4 4 4 & 2.SXVXm $.G./ hX=.+ 4 4 4 4 4 4 4 4 4 g 4 4 4 4 4 4 4 4 4 4 4 4 % ",
"O.@.Y.W.Y.i.` .. . ...e. . . ...e. . . .i.m.n.N.N.n.M.B.m.t.X.y... . . . . . . . . . . . . . . .e.X. . .o.+... . . . . . .e.X. . . . . . .o.t.r.o. . . . .e... . . . .e. . . .X.e. . . .e.d. .X.e.o.t.M.n.t.` U.E.p.4.d.d.4.4.4.4.4.yXwXpX@Xs t i p t t t t p 5 n z = 4 4 4 4 4 4 = M l = w / 4 4 4 4 4 4 4 4 4 4 4 y u u u e y u u u e 4 4 4 4 / w 4 4 4 4 4 4 4 4 4 4 4 4 4 4 l 4 4 4 4 4 4 4 4 4 4 4 4 3 f g = 4 4 4 4 4 4 4 4 4 4 4 4 l 4 4 4 4 4 4 4 & 2.SX.X4 % l l O hX=.+ 4 4 4 4 4 4 4 4 4 g 4 4 4 4 4 4 4 4 4 4 4 4 % ",
"T E.R.T ` a... . . ...e. . . ...e. . . .u.m.m.N.N.n.M.B.n.o...y... . . . . . . . . . . . . . . .e.X. . .o.+... . . . . . .e.X. . . . . . .o.t.r.o. . . . .e... . . . .e. . . .X.e. . . .e.d. .X.e.o.t.M.n.t.o.y.R.B.4.d.d.d.d.d.d.d.wX0XpX8Xt t i ! t p p t p 5 n z = 4 4 4 4 4 4 = M l = w / 4 4 4 4 4 4 4 4 4 4 4 u u u u y y u u u e 4 4 4 4 / w 4 4 4 4 4 4 4 4 4 4 4 4 4 4 l 4 4 4 4 4 4 4 4 4 4 4 4 3 f g = 4 4 4 4 4 4 4 4 4 4 4 4 l 4 4 4 4 4 4 & 6.SXq.& 4 4 g f O hX=.+ 4 4 4 4 4 4 4 4 4 g 4 4 4 4 4 4 4 4 4 4 4 4 % ",
"W.Y.t.` ..e. . . . . .e. . . ...e. . .o.u.n.m.N.M.n.N.N.t.o...y... . . . . . . . . . . . . . . .e.X. . .o.+... . . . . . .e.X. . . . . . .o.t.r.o. . . . .e... . . . .e. . . .X.e. . . .e.d. .X.e.o.X.M.m.t. .o.Y.Y.4.d.d.d.d.d.d.p.wX0XpX&Xt t i i t p t t p 5 n z = 4 4 4 4 4 4 = M l = w / 4 4 4 4 4 4 4 4 4 4 4 y y y y e y y y y e 4 4 4 4 / w 4 4 4 4 4 4 4 4 4 4 4 4 4 4 l 4 4 4 4 4 4 4 4 4 4 4 4 3 f g = 4 4 4 4 4 4 4 4 4 4 4 4 l 4 4 4 4 4 & q.SX6.& 4 4 = g g O hX=.+ 4 4 4 4 4 4 4 4 4 g 4 4 4 4 4 4 4 4 4 4 4 4 % ",
"U.t..... .i... . . .X.a. . . ...e. . ...M.y.m.n.i.m.M.u... ...t. . . . . . . . . . . . . . . . .e.X. . .o.+... . . . . . .e.X. . . . . . .o.t.r.o. . . . .e... . . . .e. . . .X.e. . . .e.d. .X.e.o.X.N.m.t. .` U.R.j.4.d.d.d.d.d.p.0X,XpX8Xt t i i t p t t p 5 n z = 4 4 4 4 4 4 = M l = w / 4 4 4 4 4 4 4 4 4 4 4 u u u u y u u u i e 4 4 4 4 / w 4 4 4 4 4 4 4 4 4 4 4 4 4 4 l 4 4 4 4 4 4 4 4 4 4 4 4 3 f g = 4 4 4 4 4 4 4 4 4 4 4 4 l 4 4 4 4 & q.SX1.& 4 4 4 = g f O hX=.+ 4 4 4 4 4 4 4 4 4 g 4 4 4 4 4 4 4 4 4 4 4 4 % ",
"X.t.t.o...M...o... .y.u.o. . ...e. ...+.B.y.m.i.X.m.n.e.o. . . . . . . . . . . . . . . . . . . .e.X. . .o.+... . . . . . .e.X. . . . . . .o.t.r.o. . . . .e... . . . .e. . . .X.e. . . .e.d. .X.e.o...N.N.y.n.....R.^.] d.d.d.d.d.p.0X,XpX3Xt t i i t p t t p 5 n z = 4 4 4 4 4 4 = M l = w / 4 4 4 4 4 4 4 4 4 4 4 y y y y e y y y y e 4 4 4 4 / w 4 4 4 4 4 4 4 4 4 4 4 4 4 4 l 4 4 4 4 4 4 4 4 4 4 4 4 3 f g = 4 4 4 4 4 4 4 4 4 4 4 4 l 4 4 4 & q.SX2.& 4 4 4 4 = g f O hX=.+ 4 4 4 4 4 4 4 4 4 g 4 4 4 4 4 4 4 4 4 4 4 4 % ",
"t.X.t.o...M.t.X.t.X.n.M.o. . . .e...y.+.B.+.m.i.X.n.i.a. . . . . . . . . . . . . . . . . . . . .e.X. . .o.+... . . . . . .e.X. . . . . . .o.t.r.o. . . . .e... . . . .e. . . .X.e. . . .e.d. .X.e. . .V.m.n.m.O.` Y.E.4.d.d.d.d.d.p.*X*XpX3Xt t i i t p t t p 5 n z = 4 4 4 4 4 4 = M l = w / 4 4 4 4 4 4 4 4 4 4 4 u u u i y u i u i e 4 4 4 4 / w 4 4 4 4 4 4 4 4 4 4 4 4 4 4 l 4 4 4 4 4 4 4 4 4 4 4 4 3 f g = 4 4 4 4 4 4 4 4 4 4 4 4 l 4 4 & q.SX6.$ 4 4 4 4 4 = g f O hX=.+ 4 4 4 4 4 4 4 4 4 g 4 4 4 4 4 4 4 4 4 4 4 4 % ",
"t...t.o.O.N.m.n.y.t.M.M.o. ...t.e.t.m.t.N...n.i.e...X.a.o. . . . . . . . . . . . . . . . . . . .e.X. . .o.+... . . . . . .e.X. . . . . . .o.t.r.o. . . . .e... . . . .e. . . .X.e. . . .e.d. .X.e.o...a.y.n.m.O.` T W.M.4.d.d.d.d.d. .Z.pX3Xp t i i t p t t p 5 n z = 4 4 4 4 4 4 = M l = w / 4 4 4 4 4 4 4 4 4 4 4 y y y y e y y y y e 4 4 4 4 / w 4 4 4 4 4 4 4 4 4 4 4 4 4 4 l 4 4 4 4 4 4 4 4 4 4 4 4 3 f g = 4 4 4 4 4 4 4 4 4 4 4 4 l 4 & 6.SX6.& 4 4 4 4 4 4 = g f O hX=.+ 4 4 4 4 4 4 4 4 4 g 4 4 4 4 4 4 4 4 4 4 4 4 % ",
"....y...+.N.m.n.M.n.m.M.o. .y.N.i.y.m.y.M.o.y.e.e.o.X.a.o. . . . . . . . . . . . . . . . . . . .e.X. . .o.+... . . . . . .e.X. . . . . . .o.t.r.o. . . . .e... . . . .e. . . .X.e. . . .e.d. .X.e.o.X.a.y.n.m...o...E.U.] d.d.d.d.d.4.Z.sX3Xt t i i t p t t p 5 n z = 4 4 4 4 4 4 = M l = w / 4 4 4 4 4 4 4 4 4 4 4 u u u u y u u u u e 4 4 4 4 / w 4 4 4 4 4 4 4 4 4 4 4 4 4 4 l 4 4 4 4 4 4 4 4 4 4 4 4 3 f g = 4 4 4 4 4 4 4 4 4 4 4 4 l & 6.SXq.& 4 4 4 4 4 4 4 = g f O hX=.+ 4 4 4 4 4 4 4 4 4 g 4 4 4 4 4 4 4 4 4 4 4 4 % ",
"@.O.y.t.t.N.m.n.n.m.N.M. ...n.N.i.y.m.n.M.o...e.e.o.X.a. . . . . . . . . . . . . . . . . . . . .e.X. ... .+... . . . . . .e.X. . . . . . .o.t.t.o. . . . .e.X. . . . .e... . .X.e. . . .e.d. .X.e. .X.a.y.n.m.+. .` U.E.d.4.d.d.d.d.d.p.*X0XB t i i t p p t p 5 n z = 4 4 4 4 4 4 = M l = w / 4 4 4 4 4 4 4 4 4 4 4 y y y y e y y y y e 4 4 4 4 / w 4 4 4 4 4 4 4 4 4 4 4 4 4 4 l 4 4 4 4 4 4 4 4 4 4 4 4 4 f g 3 4 4 4 4 4 4 4 4 4 4 4 4 h 2.SXq.& 4 4 4 4 4 4 4 4 3 g f O hX=.+ 4 4 4 4 4 4 4 4 4 l 4 4 4 4 4 4 4 4 4 4 4 4 % ",
"@.O.t.y.y.M.n.n.n.n.n.M. . .n.N.u.y.n.m.u.o.o.X.e.o.X.a.o. . . . . . . . . . . . . . . . . . .o.e.X.o. .o.+...o. . . . .o.e.X.o. . . . . .o.t.r.o. . . .o.e... . . . .e. . .o.X.e.o. . .e.d.o.X.e.o...a.O.m.m.O. .o.y.W.M.] p.4.4.4.d.p.0.tXI.t E i t t t t p 5 n z = 4 4 4 4 4 4 = M l = w / 4 4 4 4 4 4 4 4 4 4 4 y u u u e y u u u e 4 4 4 4 / w 4 4 4 4 4 4 4 4 4 4 4 4 4 3 g 4 4 4 4 4 4 4 4 4 4 4 4 = f f = 4 4 4 4 4 4 4 4 4 4 4 $ 1.SXq.$ 4 4 4 4 4 4 4 4 4 = g f O hX=.+ 4 4 4 4 4 4 4 4 4 g = 4 4 4 4 4 4 4 4 4 4 4 % ",
"n.u.M.N.M.V.e.u.u.u.i.C.e.i.N.N.V.M.u.M.x.e.e.j.j.e.j.k.e.e.e.e.e.e.e.e.e.e.e.e.e.e.e.e.e.e.e.e.j.j.e.e.e.u.i.e.e.e.e.e.e.j.j.e.e.e.e.e.e.e.i.i.e.e.e.e.e.j.a.e.e.e.e.j.e.e.e.j.j.e.e.e.j.g.e.a.j.e.j.k.u.N.N.i.e.e.a.E.Y.0.g.g.g.g.Z.f.G.tX~.m ^ ^ ^ ^ ^ ^ ^ r x z = 4 4 4 4 4 4 = M l = w / 4 4 4 4 4 4 4 4 4 4 4 u u u u y y u u u e 4 4 4 4 / 6 d l g g g g g g g g g g l g x l g g g g g g g g g g l g x x g l g g g g g g g l l d 1.SXq.d l l g g g g g g g l g n x C hX>.w l g g g g g g g l x g l g g g g g g g g g l d ",
"y.y.t.y.n.u. .y.y...X.M. .t.n.y.M.n...y.i. . .e.e. .e.j. ..................................... .e.X. ... .+.X. ......... .e.e. ........... .t.t. ....... .e.X.........a..... .e.e. .....a.d. .X.e. .X.a.O.m.N.t. ...` U.R.h.4.d.d.d.d.p.Z.iXiX8.9.i p p p p i 5 n z = 4 4 4 4 4 4 = M l = w / 4 4 4 4 4 4 4 4 4 4 4 y y y y e y y y y e 4 4 4 4 / w 4 4 4 4 4 4 4 4 4 4 4 4 4 4 l 6 4 4 4 4 4 4 4 4 4 4 4 4 f l 4 4 4 4 4 4 4 4 4 w & 2.SXq.& 4 4 4 4 4 4 4 4 4 4 4 4 l k + hX=.+ 6 4 4 4 4 4 4 4 w l 4 4 4 4 4 4 4 4 4 4 4 6 % ",
"O.@...y...e. .O.y. ...M.t.y.y.y.M.y. . .e. . .X.e.o.X.a.o. . . . . . . . . . . . . . . . . . .o.e.X. . .o.+... . . . . .o.e.X. . . . . . .o.t.r.o. . . . .e... . . . .e. . . .X.e.o. . .e.d. .X.e.o...j...m.N.t.o...o.y.R.B.] p.d.d.d.4.Z.iXpX@X@Xp t t t t p 5 n z = 4 4 4 4 4 4 = M l = w / 4 4 4 4 4 4 4 4 4 4 4 u u u u y u u u u e 4 4 4 4 / w 4 4 4 4 4 4 4 4 4 4 4 4 4 4 g 4 4 4 4 4 4 4 4 4 4 4 4 = f g = 4 4 4 4 4 4 4 4 & 2.SXq.h 4 4 4 4 4 4 4 4 4 4 4 4 = g f O hX=.+ 4 4 4 4 4 4 4 4 4 g 4 4 4 4 4 4 4 4 4 4 4 4 % ",
"O. ...y...e. .O.y. . .M.n.M.y.t.N.y. ...e. . .e.e.o.X.a.o. . . . . . . . . . . . . . . . . . . .e.X. . . .+... . . . . . .e.X. . . . . . .o.t.r.o. . . . .e... . . . .e. . . .X.e. . . .e.d. .X.e.o...j. .m.N.t.o. ...o.Y.Y.4.d.d.d.d.p.Z.yXpXwX@Xp t p t t p 5 n z = 4 4 4 4 4 4 = M l = w / 4 4 4 4 4 4 4 4 4 4 4 y y y y e y y y y e 4 4 4 4 / w 4 4 4 4 4 4 4 4 4 4 4 4 4 4 l 4 4 4 4 4 4 4 4 4 4 4 4 3 f g = 4 4 4 4 4 4 4 & 2.SX.X& g 4 4 4 4 4 4 4 4 4 4 4 4 = g f O hX=.+ 4 4 4 4 4 4 4 4 4 g 4 4 4 4 4 4 4 4 4 4 4 4 % ",
" . . ... .e. ..... . .M.m.m.O.t.B.y.o...e. . .e.e.o.X.a.o. . . . . . . . . . . . . . . . . . . .e.X. . .o.+... . . . . . .e.X. . . . . . .o.t.r.o. . . . .e... . . . .e. . . .X.e. . . .e.d. .X.e.o...j. .n.m.y.y.....` T R.j.4.d.d.d.p.Z.yXpXyX&Xp t p t t p 5 n z = 4 4 4 4 4 4 = M l = w / 4 4 4 4 4 4 4 4 4 4 4 u i u i y u i u i e 4 4 4 4 / w 4 4 4 4 4 4 4 4 4 4 4 4 4 4 l 4 4 4 4 4 4 4 4 4 4 4 4 3 f g = 4 4 4 4 4 4 & W SX.X& 4 l 4 4 4 4 4 4 4 4 4 4 4 4 = g f O hX=.+ 4 4 4 4 4 4 4 4 4 g 4 4 4 4 4 4 4 4 4 4 4 4 % ",
" . . . . .e. . . . . .M.m.n...t.B.y.o...e. . .e.e.o.X.a.o. . . . . . . . . . . . . . . . . . . .e.X. . .o.+... . . . . . .e.X. . . . . . .o.t.r.o. . . . .e... . . . .e. . . .X.e. . . .e.d. .X.e.o...j. .n.m.y.m.t. .o.O.R.B.] d.d.d.p.Z.iXpXiX&Xp t p t t p 5 n z = 4 4 4 4 4 4 = M l = w / 4 4 4 4 4 4 4 4 4 4 4 y y y y e y y y y e 4 4 4 4 / w 4 4 4 4 4 4 4 4 4 4 4 4 4 4 l 4 4 4 4 4 4 4 4 4 4 4 4 3 f g = 4 4 4 4 6 & a SXVX4 4 4 l 4 4 4 4 4 4 4 4 4 4 4 4 = g f O hX=.+ 4 4 4 4 4 4 4 4 4 g 4 4 4 4 4 4 4 4 4 4 4 4 % ",
" . . . . .e. . . . . .M.n.y...t.N.O. ...e. . .e.e.o.X.a.o. . . . . . . . . . . . . . . . . . . .e.X. . .o.+... . . . . . .e.X. . . . . . .o.t.r.o. . . . .e... . . . .e. . . .X.e. . . .e.d. .X.e.o...j. .n.m.y.m.y.o...` Y.Y.4.d.d.d.p.Z.iXiXpX0Xp t p t t p 5 n z = 4 4 4 4 4 4 = M l = w / 4 4 4 4 4 4 4 4 4 4 4 u u u u y u u u u e 4 4 4 4 / w 4 4 4 4 4 4 4 4 4 4 4 4 4 4 l 4 4 4 4 4 4 4 4 4 4 4 4 3 f g = 4 4 4 4 & a DXVX4 4 4 4 l 4 4 4 4 4 4 4 4 4 4 4 4 = g f O hX=.+ 4 4 4 4 4 4 4 4 4 g 4 4 4 4 4 4 4 4 4 4 4 4 % ",
" . . . . .e. . . . ...e...y...X.M.O. ...e. . .e.e.o.X.a.o. . . . . . . . . . . . . . . . . . . .e.X. . .o.+... . . . . . .e.X. . . . . . .o.t.r.o. . . . .e... . . . .e. . . .X.e. . . .e.d. .X.e.o...j.o.n.n.m.m.y.o...` T R.j.4.d.d.4.d.yXqXpX0Xp t p t t p 5 n z = 4 4 4 4 4 4 = M l = w / 4 4 4 4 4 4 4 4 4 4 4 y y y y e y y y y e 4 4 4 4 / w 4 4 4 4 4 4 4 4 4 4 4 4 4 4 l 4 4 4 4 4 4 4 4 4 4 4 4 3 f g = 4 4 4 & p DXVX4 4 4 4 4 l 4 4 4 4 4 4 4 4 4 4 4 4 = g f O hX=.+ 4 4 4 4 4 4 4 4 4 g 4 4 4 4 4 4 4 4 4 4 4 4 % ",
" . . . . .e. . . . ...e...y.....n.O. ...e. . .e.e.o.X.a.o. . . . . . . . . . . . . . . . . . . .e.X. . .o.+... . . . . . .e.X. . . . . . .o.t.r.o. . . . .e... . . . .e. . . .X.e. . . .e.d. .X.e.o...j.o.n.n.m.N.y.o...o...R.^.] d.d.p.d.yXwXpX0Xp t p t t p 5 n z = 4 4 4 4 4 4 = M l = w / 4 4 4 4 4 4 4 4 4 4 4 u u u u e y u u u e 4 4 4 4 / w 4 4 4 4 4 4 4 4 4 4 4 4 4 4 l 4 4 4 4 4 4 4 4 4 4 4 4 3 f g = 4 4 & p ZXVX4 4 4 4 4 4 l 4 4 4 4 4 4 4 4 4 4 4 4 = g f O hX=.+ 4 4 4 4 4 4 4 4 4 g 4 4 4 4 4 4 4 4 4 4 4 4 % ",
" . . . . .e. . . . ...e...y... .u... ...e. . .e.e.o.X.a.o. . . . . . . . . . . . . . . . . . . .e.X. . .o.+... . . . . . .e.X. . . . . . .o.t.r.o. . . . .e... . . . .e. . . .X.e. . . .e.d. .X.e.o...j.o.y.n.m.N.y.o. ...` Y.Y.4.d.d.p.d.yXwXiX0Xp t p t t p 5 n z = 4 4 4 4 4 4 = M l = w / 4 4 4 4 4 4 4 4 4 4 4 y u u u e y u u u e 4 4 4 4 / w 4 4 4 4 4 4 4 4 4 4 4 4 4 4 l 4 4 4 4 4 4 4 4 4 4 4 4 3 f g = 6 & p ZXVX6 = 4 4 4 4 4 l 4 4 4 4 4 4 4 4 4 4 4 4 = g f O hX=.+ 4 4 4 4 4 4 4 4 4 g 4 4 4 4 4 4 4 4 4 4 4 4 % ",
" . . . . .e. . . . ...e. ... ...e. . ...e. . .e.e.o.X.a.o. . . . . . . . . . . . . . . . . . . .e.X. . .o.+... . . . . . .e.X. . . . . . .o.t.r.o. . . . .e... . . . .e. . . .X.e. . . .e.d. .X.e.o...j. ...+.m.n.y.o. ...` T R.j.4.d.d.d.yX0XiXwXp t p t t p 5 n z = 4 4 4 4 4 4 = M l = w / 4 4 4 4 4 4 4 4 4 4 4 y y y y e y y y y e 4 4 4 4 / w 4 4 4 4 4 4 4 4 4 4 4 4 4 4 l 4 4 4 4 4 4 4 4 4 4 4 4 3 f g 4 & p ZXZXr = 4 4 4 4 4 4 l 4 4 4 4 4 4 4 4 4 4 4 4 = g f O hX=.+ 4 4 4 4 4 4 4 4 4 g 4 4 4 4 4 4 4 4 4 4 4 4 % ",
" . . . . .e. . . . ...e. . . ...e. . ...e. . .e.e.o.X.a.o. . . . . . . . . . . . . . . . . . . .e.X. . .o.+... . . . . . .e.X. . . . . . .o.t.r.o. . . . .e... . . . .e. . . .X.e. . . .e.d. .X.e.o...j. .o.O.n.t.m.n... .o.O.R.B.] d.d.d.yX,XiXwXp t p t t p 5 n z = 4 4 4 4 4 4 = M l = w / 4 4 4 4 4 4 4 4 4 4 4 u u u u y u u u u e 4 4 4 4 / w 4 4 4 4 4 4 4 4 4 4 4 4 4 4 l 4 4 4 4 4 4 4 4 4 4 4 4 3 f l & t ZXZXr = 4 4 4 4 4 4 4 l 4 4 4 4 4 4 4 4 4 4 4 4 = g f O hX=.+ 4 4 4 4 4 4 4 4 4 g 4 4 4 4 4 4 4 4 4 4 4 4 % ",
" . . . . .e. . . . ...e. . . ...e. . ...e. . .e.e.o.X.a.o. . . . . . . . . . . . . . . . . . . .e.X. . .o.+... . . . . . .e.X. . . . . . .o.t.r.o. . . . .e... . . . .e. . . .X.e. . . .e.d. .X.e.o...j. . ...n.t.N.m... ...` Y.Y.4.d.d.p.yX,XiXwXp t p t t p 5 n z = 4 4 4 4 4 4 = M l = w / 4 4 4 4 4 4 4 4 4 4 4 y y y y e y y y y e 4 4 4 4 / w 4 4 4 4 4 4 4 4 4 4 4 4 4 4 l 4 4 4 4 4 4 4 4 4 4 4 4 3 f f r ZXZXt & 4 4 4 4 4 4 4 4 l 4 4 4 4 4 4 4 4 4 4 4 4 = g f O hX=.+ 4 4 4 4 4 4 4 4 4 g 4 4 4 4 4 4 4 4 4 4 4 4 % ",
" . . . . .e. . . . ...e. . . ...e. . ...e. . .e.e.o.X.a. . . . . . . . . . . . . . . . . . . . .e.X. . . .+... . . . . . .e.X. . . . . . .o.t.r.o. . . . .e... . . . .e... . .X.e. . . .e.d. .X.e.o...j. . ...y.t.m.m... ...` T R.a.4.d.p.yX,XyXwXi t p p t p 5 n z = 4 4 4 4 4 4 = M l = w / 4 4 4 4 4 4 4 4 4 4 4 u i u i y u i u i e 4 4 4 4 / w 4 4 4 4 4 4 4 4 4 4 4 4 4 4 l 4 4 4 4 4 4 4 4 4 4 4 4 4 f z VXZXt & 4 4 4 4 4 4 4 4 4 l 4 4 4 4 4 4 4 4 4 4 4 4 = g f O hX=.+ 4 4 4 4 4 4 4 4 4 l 4 4 4 4 4 4 4 4 4 4 4 4 % ",
" . . . . .e. . . . . .e. . . ...e. . . .e. . .X.e.o.X.a.o. . . . . . . . . . . . . . . . . . .o.e.X. . .o.+... . . . . .o.e.X. . . . . . .o.t.r.o. . . . .e... . . . .e. . . .X.e.o. . .e.d. .X.e.o...j. . . .o.O.m.m...o...o.y.W.B.] d.3.qX;XqXwXi t t t t p 5 n z = 4 4 4 4 4 4 = M l = w / 4 4 4 4 4 4 4 4 4 4 4 y y y y e y y y y e 4 4 4 4 / w 4 4 4 4 4 4 4 4 4 4 4 4 4 4 g 4 4 4 4 4 4 4 4 4 4 4 4 = e ZXZXt & 4 4 4 4 4 4 4 4 4 4 l 4 4 4 4 4 4 4 4 4 4 4 4 = g f O hX=.+ 4 4 4 4 4 4 4 4 4 g 3 4 4 4 4 4 4 4 4 4 4 4 % ",
"j.j.j.j.j.k.j.j.j.j.j.k.j.j.j.j.k.j.j.j.k.j.j.k.k.j.k.l.j.j.j.j.j.j.j.j.j.j.j.j.j.j.j.j.j.j.j.j.k.j.j.j.a.x.j.j.j.j.j.j.j.k.k.j.j.j.j.j.j.j.i.i.j.j.j.j.j.k.j.j.j.j.j.k.j.j.j.k.k.j.j.j.k.A.j.j.k.j.j.l.j.j.j.j.x.B.B.C.j.j.j.a.E.Y.Z.Z.g.wX,XqXwX^ ^ ^ ^ ^ ^ r x z = 4 4 4 4 4 4 = M l = w / 4 4 4 4 4 4 4 4 4 4 4 u u u u y u u u u e 4 4 4 4 / 6 f x z z z z z z z z z z z z M z z z z z z z z z z z z z VXZX^ l x z z z z z z z z z z M z z z z z z z z z z z z z M M r hX>.e x z z z z z z z z M z z z z z z z z z z z z f ",
" . . . . .e... . . ...e. ... ...e. . ...e. . .e.e.o.X.a. ... . . . . . . . . . . . . . . . ... .e.X. ... .+... . . . ... .e.X. ... . . ...o.t.t. ... ... .e.X. . . . .e... . .X.e. ... .e.d. .X.e. .X.j. ..... .+.N.n.n.y.o...` U.R.s.4.p.wX;XwXyXi t p p p p 5 n z = 4 4 4 4 4 4 = M l = w / 4 4 4 4 4 4 4 4 4 4 4 y y y y e y y y y e 4 4 4 4 / w 4 4 4 4 4 4 4 4 4 4 4 4 4 4 l 4 4 4 4 4 4 4 4 4 4 4 4 VXDXa & 6 4 4 4 4 4 4 4 4 4 4 4 l 4 4 4 4 4 4 4 4 4 4 4 4 4 l g O hX=.+ 4 4 4 4 4 4 4 4 4 l 4 4 4 4 4 4 4 4 4 4 4 4 % ",
" . . . . .e. . . . ...e. . . ...e. . . .e. . .e.e.o.X.a.o. . . . . . . . . . . . . . . . . . . .e.X. ... .+... . . . . . .e.X. . . . . . .o.t.r.o. . . . .e... . . . .e. . . .X.e. . . .e.d. .X.e.o...j. . . . ...m.y.t.y.o...o.n.R.M.4.p.wX-XwXyXE t p t t p 5 n z = 4 4 4 4 4 4 = M l = w / 4 4 4 4 4 4 4 4 4 4 4 u u u u y y u u u e 4 4 4 4 / w 4 4 4 4 4 4 4 4 4 4 4 4 4 4 l 4 4 4 4 4 4 4 4 4 = 4 VXDX^ d 3 4 4 4 4 4 4 4 4 4 4 4 4 l 4 4 4 4 4 4 4 4 4 4 4 4 = g f O hX=.+ 4 4 4 4 4 4 4 4 4 g 4 4 4 4 4 4 4 4 4 4 4 4 % ",
" . . . . .e. .o. . ...e. . . ...e. . ...e. . .e.e.o.X.e.o. . . . . . . . . . . . . . . . . . . .e...o. .o.+... . . . . . .e.X. . . . . . .o.t.r.o. . . . .e... . . . .e. . . .X.e. . .o.e.d.o...e.o...j. . . . . ... .t.n.o. . .o.E.U.4.p.0X-X0XiXE t p t t p 5 n z = 4 4 4 4 4 4 = M l = w / 4 4 4 4 4 4 4 4 4 4 4 y u u u e y u u u e 4 4 4 4 / w 4 4 4 4 4 4 4 4 4 4 4 4 4 4 l 4 4 4 4 4 4 4 4 4 4 VXSXa 8 l = 4 4 4 4 4 4 4 4 4 4 4 4 l 4 4 4 4 4 4 4 4 4 4 4 4 = g f O hX=.+ 4 4 4 4 4 4 4 4 4 g 4 4 4 4 4 4 4 4 4 4 4 4 % ",
" . . . . .D.k.j.l... .e. . . ...e. . ...e. . .e.e.o.e.D.e.j.k. . . . . . . . . . . . . . . . .o.l.z.j.z.l.+... . . . . . .e.X. . . . . . . .v.v.j.z.X. . .e... . . . .e. . . .X.e. . .e.D.Z.k.l.e. ...j. . . . . . .o.t.n.o. ...` Y.E.4.3.0X-X0XpX8.r p t t p 5 n z = 4 4 4 4 4 4 = M l = w / 4 4 4 4 4 4 4 4 4 4 4 y y y y e y y y y e 4 4 4 4 / w 4 4 4 4 4 4 4 4 4 4 4 4 4 4 l 4 4 4 4 4 4 4 4 4 .XSXW $ g g = 4 4 4 4 4 4 4 4 4 4 4 4 l 4 4 4 4 4 4 4 4 4 4 4 4 = g f O hX=.+ 4 4 4 4 4 4 4 4 4 g 4 4 4 4 4 4 4 4 4 4 4 4 % ",
" . . .o.k.D.o.c.l. ...e. . . ...e. . ...e. . .e.e.o.D.k.X.D.a. . . . . . . . . . . . . . . . .X.D.e. .j.l.O... . . . . . .e.X. . . . . .o.k.v.r.l.D.e. . .e... . . . .e. . . .X.e. . .z.k.A.l.D.j.o.X.j. . . . . . .o.t.n.o. ...` T R.k._ 0X-X0XpX Xr p t t p 5 n z = 4 4 4 4 4 4 = M l = w / 4 4 4 4 4 4 4 4 4 4 4 u u u u y u u u u e 4 4 4 4 / w 4 4 4 4 4 4 4 4 4 4 4 4 4 4 l 4 4 4 4 4 4 4 & .XSXW & 4 f g = 4 4 4 4 4 4 4 4 4 4 4 4 l 4 4 4 4 4 4 4 4 4 4 4 4 = g f O hX=.+ 4 4 4 4 4 4 4 4 4 g 4 4 4 4 4 4 4 4 4 4 4 4 % ",
" . . .o.l.z.o.X.l.j.o.e. . . ...e. . ...e. . .e.e.o.D.e.X.z.z.e. . . . . . . . . . . . . . . .e.D.o.o.l.e.O... . . . . . .e.X. . . . . .o.l.v. .l.D.e. . .e... . . . .e. . . .X.e. ...z.e.d.j.D.j.o.X.j. . . . . . .o.+.n. . . .o...R.B.] 0X-X,XpX Xr p t t p 5 n z = 4 4 4 4 4 4 = M l = w / 4 4 4 4 4 4 4 4 4 4 4 y y y y e y y y y e 4 4 4 4 / w 4 4 4 4 4 4 4 4 4 4 4 4 4 4 l 4 4 4 4 4 4 & q.SXW & 6 3 f g = 4 4 4 4 4 4 4 4 4 4 4 4 l 4 4 4 4 4 4 4 4 4 4 4 4 = g f O hX=.+ 4 4 4 4 4 4 4 4 4 g 4 4 4 4 4 4 4 4 4 4 4 4 % ",
" . . . .e.D.j.a.z.e. .e. . . ...e. . ...e. . .e.e.o.l.D.e.l.z.X. . . . . . . . . . . . . . . . .D.z.e.z.o.+... . . . . . .e.X. . . . . . .e.D.k.l.z.j.o. .e... . . . .e. . . .X.e. .o.k.D.f.j.z.e.o...j. . . . . . . ...m.t.o. . .o.Y.Y.] ,X*X,XpX+Xr p t t p 5 n z = 4 4 4 4 4 4 = M l = w / 4 4 4 4 4 4 4 4 4 4 4 u u u i y u i u i e 4 4 4 4 / w 4 4 4 4 4 4 4 4 4 4 4 4 4 4 l 4 4 4 4 4 & q.SXW & 4 4 3 f g = 4 4 4 4 4 4 4 4 4 4 4 4 l 4 4 4 4 4 4 4 4 4 4 4 4 = g f O hX=.+ 4 4 4 4 4 4 4 4 4 g 4 4 4 4 4 4 4 4 4 4 4 4 % ",
" . . . . .j.e.X.X. ...e. . . ...e. . ...e. . .e.e.o.X.k...X.X. . . . . . . . . . . . . . . . .o.e.a.....o.+... . . . . . .e.X. . . . . . .o.i.i. .e. ... .e.X. . . . .e... . .X.e. . . .j.f.X.X.e. ...j. . . . . . . . .n.y.o. ...` U.E.r.0X-X,XpX@Xr p t t p 5 n z = 4 4 4 4 4 4 = M l = w / 4 4 4 4 4 4 4 4 4 4 4 y y y y e y y y y e 4 4 4 4 / w 4 4 4 4 4 4 4 4 4 4 4 4 4 4 l 4 4 4 4 & q.SX2.$ 4 4 4 3 f g = 4 4 4 4 4 4 4 4 4 4 4 4 l 4 4 4 4 4 4 4 4 4 4 4 4 = g f O hX=.+ 4 4 4 4 4 4 4 4 4 g 4 4 4 4 4 4 4 4 4 4 4 4 % ",
" . . . . .e.o.o. . . .e. . . . .e. . . .e. .o.X.e.o.X.e.o. . . . . . . . . . . . . . . . . . .o.e...o. . .+... . . . . .o.e.X.o. . . . . .o.t.r.o. . . .o.e... . . . .e. . . .X.e.o. . .e.d.o.X.e.o...j.o. . . . . . .o.t.n. . . .` T W.M.+X*X,X0X@Xr p p t p 5 n z = 4 4 4 4 4 4 = M l = w / 4 4 4 4 4 4 4 4 4 4 4 u u u u y u u u i e 4 4 4 4 / w 4 4 4 4 4 4 4 4 4 4 4 4 4 4 l 4 4 4 & q.SX2.& 4 4 4 4 3 f g = 4 4 4 4 4 4 4 4 4 4 4 4 l 4 4 4 4 4 4 4 4 4 4 4 4 = g f O hX=.+ 4 4 4 4 4 4 4 4 4 g 4 4 4 4 4 4 4 4 4 4 4 4 % ",
"X.z.j.o.j.e.j.l. .X.z.j.o.j.j.k.z. .X.z.k.o.a.z.e. .k.e.l.j.o.a.z.X. .k.j.l.j.o.a.z.X. .k.k. .e.j.e.z.e.o.V.l.o.e.k.j.z.e. .l.l. .X.z.a.o.j.i.k.l. .X.z.a. .j.j.k.l. .e.z.j.o.j.z.X...k.e.S.j.o.j.z.X.X.k.j.l.j.o.a.z.j...n...o.k.l.z.R.^.Z.A.*X*X0X^ i t t p 5 n z = 4 4 4 4 4 4 = M l = w / 4 4 4 4 4 4 4 4 4 4 4 y y y y e y y y y e 4 4 4 4 / w 4 4 4 4 4 4 4 4 4 4 4 4 4 4 l 4 4 & q.SX1.$ 4 4 4 4 4 3 f g = 4 4 4 4 4 4 4 4 4 4 4 4 l 4 4 4 4 4 4 4 4 4 4 4 4 = g f O hX=.+ 4 4 4 4 4 4 4 4 4 g 4 4 4 4 4 4 4 4 4 4 4 4 % ",
"X.D.k.o.l.e.l.D. .X.D.k.o.k.l.z.D...X.D.k.o.k.D.e. .z.X.D.l.o.j.D.e. .z.k.D.l.o.j.D.e.o.z.z.o.a.k.a.D.e.o.V.z.o.e.z.l.D.e.o.z.c. .e.D.k.o.l.i.v.D. .e.D.k.o.l.l.z.D. .X.D.k.o.k.D.X...z.X.F.k.o.k.D.X. .z.k.D.l.o.k.D.k...n.+.o.z.k.p.Y.Y.0.Z.s.G.0X4.i t t p 5 n z = 4 4 4 4 4 4 = M l = w / 4 4 4 4 4 4 4 4 4 4 4 u u u u y y u u u e 4 4 4 4 / w 4 4 4 4 4 4 4 4 4 4 4 4 4 4 l 4 & q.SX6.& 4 4 4 4 4 4 3 f g = 4 4 4 4 4 4 4 4 4 4 4 4 l 4 4 4 4 4 4 4 4 4 4 4 4 = g f O hX=.+ 4 4 4 4 4 4 4 4 4 g 4 4 4 4 4 4 4 4 4 4 4 4 % ",
"X.D.k.o.k.e.l.c. .X.D.k.o.k.l.z.c...X.D.k.o.j.D.e. .l.X.D.k.o.j.D.e. .z.k.D.l.o.j.D.e. .z.z.o.e.k.e.D.e.o.V.z.o.e.z.k.D.e.o.z.z. .e.D.j.o.l.i.v.z. .X.D.k.o.k.l.z.z. .X.D.k.o.k.D.X...l.X.F.k.o.k.D.X. .z.k.D.k.o.j.D.k. .n.t.o.l.j.$.U.E.g.Z.d.G.0X4.i t t p 5 n z = 4 4 4 4 4 4 = M l = w / 4 4 4 4 4 4 4 4 4 4 4 y u u u e y u y u e 4 4 4 4 / w 4 4 4 4 4 4 4 4 4 4 4 4 4 4 l & q.SX6.& 4 4 4 4 4 4 4 3 f g = 4 4 4 4 4 4 4 4 4 4 4 4 l 4 4 4 4 4 4 4 4 4 4 4 4 = g f O hX=.+ 4 4 4 4 4 4 4 4 4 g 4 4 4 4 4 4 4 4 4 4 4 4 % ",
"X.D.k.o.k.e.l.D. .X.D.k.o.k.l.z.c...X.D.k.o.j.D.e. .l.X.D.k.o.j.D.e. .z.k.D.l.o.j.D.e.o.z.z.o.a.k.a.D.e.o.V.z.o.e.z.k.D.e.o.z.z. .e.D.j.o.l.i.v.z. .X.D.k.o.k.l.z.c. .X.D.k.o.k.D.X...l.X.F.k.o.k.D.X. .z.k.D.k.o.j.D.k. .y.y. .l.j.X.N.W.K.=XS.G.0X4.p t t p 5 n z = 4 4 4 4 4 4 = M l = w / 4 4 4 4 4 4 4 4 4 4 4 y y y y e y y y u e 4 4 4 4 / w 4 4 4 4 4 4 4 4 4 4 4 4 4 4 h 6.SX6.& 4 4 4 4 4 4 4 4 = f g = 4 4 4 4 4 4 4 4 4 4 4 4 l 4 4 4 4 4 4 4 4 4 4 4 4 = g f O hX=.+ 4 4 4 4 4 4 4 4 4 g 4 4 4 4 4 4 4 4 4 4 4 4 % ",
"X.D.k.o.k.e.l.D. .X.D.k.o.k.l.z.c...X.D.k.o.j.D.e. .l.X.D.k.o.j.D.e. .z.k.D.l.o.j.D.e.o.z.z.o.a.k.a.D.e.o.V.z.o.e.z.k.D.e.o.z.z. .e.D.j.o.l.i.v.z. .X.D.k.o.k.l.z.c. .X.D.k.o.k.D.X...l.X.F.k.o.k.D.X. .z.k.D.k.o.j.D.k. .y.m.y.l.j.e.D.E.^.0.F.G.0X0.p p p p 5 n z = 4 4 4 4 4 4 = M l = w / 4 4 4 4 4 4 4 4 4 4 4 u u u u y u u u u e 4 4 4 4 / w 4 4 4 4 4 4 4 4 4 4 4 4 6 $ 6.SX6.& 4 4 4 4 4 4 4 4 4 4 f g 4 4 4 4 4 4 4 4 4 4 4 4 4 l 4 4 4 4 4 4 4 4 4 4 4 4 4 l g O hX=.+ 4 4 4 4 4 4 4 4 4 l 4 4 4 4 4 4 4 4 4 4 4 4 % ",
"X.D.k.o.l.e.l.D. .X.D.k.o.k.l.z.c...X.D.k.o.j.D.e. .l.X.D.k.o.j.D.e. .z.k.D.l.o.j.D.e. .z.z.o.a.k.a.D.e.o.V.z.o.e.z.k.D.e.o.z.z. .e.D.j.o.l.i.v.z. .e.D.k.o.k.l.z.c. .X.D.k.o.k.D.X...l.X.F.k.o.k.D.X. .z.k.D.k.o.j.D.k.a.u.B.M.z.j.e.F.E.Y.Z.J.G.0X0.^ ^ ^ ^ r x z = 4 4 4 4 4 4 = M l = w / 4 4 4 4 4 4 4 4 4 4 4 y y y y e y y y y e 4 4 4 4 / 6 f l l l l l l l l l l l h 6.SXq.d l l l l l l l l l l g x x g l l l l l l l l l l l l n l l l l l l l l l l l l g n x w hX>.w z l l l l l l l l x g l l l l l l l l l l l d ",
"X.D.k.o.k.e.l.D. .X.D.k.o.k.l.z.c. ...D.k.o.j.D.X. .l.X.D.k.o.j.D.e.o.z.k.D.l.o.j.D.e.o.z.z.o.e.k.a.D.e.o.V.z.o.e.z.k.D.e.o.z.z.o.X.D.j.o.k.i.v.z. .X.D.j.o.k.l.z.c. .X.D.k.o.k.D.X. .l.X.F.k.o.j.D.X. .z.k.D.k.o.j.D.k. .t.N.y.l.j.X.F.).E.=X<XZ.0X0.p t t p 5 n z = 4 4 4 4 4 4 = M l = w / 4 4 4 4 4 4 4 4 4 4 4 u u u i y u i u i e 4 4 4 4 / w 4 4 4 4 4 4 4 4 4 4 4 $ 2.SXq.& 4 4 4 4 4 4 4 4 4 4 4 = f g = 4 4 4 4 4 4 4 4 4 4 4 4 l 4 4 4 4 4 4 4 4 4 4 4 4 = g f O hX=.+ 4 4 4 4 4 4 4 4 4 g 4 4 4 4 4 4 4 4 4 4 4 4 % ",
"k.D.l.e.z.e.l.D.e.k.D.l.e.z.k.z.c.a.k.D.l.e.z.D.j.j.z.X.D.l.e.z.D.j.j.z.k.D.l.e.l.D.j.j.c.z.e.l.j.a.D.j.a.V.z.e.l.l.k.D.j.j.c.z.e.k.D.k.e.z.i.v.c.e.k.D.k.e.z.k.z.c.e.k.D.l.e.z.D.a.j.z.X.F.l.e.z.D.j.j.z.k.D.l.e.z.D.k. .t.N.y.l.j.e.h.^.R.K.A.Z.0X0.y t t p 5 n z = 4 4 4 4 4 4 = M l = w / 4 4 4 4 4 4 4 4 4 4 4 y y y y e y y y y e 4 4 4 4 / w 4 4 4 4 4 4 4 4 4 4 & 2.SXq.9 4 4 4 4 4 4 4 4 4 4 4 4 3 f g 3 4 4 4 4 4 4 4 4 4 4 4 4 l 4 4 4 4 4 4 4 4 4 4 4 4 = g f O hX=.+ 4 4 4 4 4 4 4 4 4 l 4 4 4 4 4 4 4 4 4 4 4 4 % ",
"D.D.l.l.D.e.l.D.k.D.D.l.l.D.k.z.c.k.D.D.l.l.D.c.k.c.z.X.D.l.l.D.c.k.z.c.k.D.z.l.D.c.k.z.D.z.k.D.j.a.D.k.z.D.z.k.D.l.l.D.k.z.D.z.k.D.D.l.l.D.i.v.c.k.D.D.l.l.D.k.z.c.k.D.D.l.l.D.c.k.D.z.X.F.l.l.D.c.k.c.z.k.D.l.l.D.c.k. .t.N.n.z.a.e.e.u.R.B.0.g.wX9.y t t p 5 n z = 4 4 4 4 4 4 = M l = w / 4 4 4 4 4 4 4 4 4 4 4 u u u u y u u u i e 4 4 4 4 / w 4 4 4 4 4 4 4 4 4 $ 2.SXq.& l 4 4 4 4 4 4 4 4 4 4 4 4 3 f g = 4 4 4 4 4 4 4 4 4 4 4 4 l 4 4 4 4 4 4 4 4 4 4 4 4 = g f O hX=.+ 4 4 4 4 4 4 4 4 4 g 4 4 4 4 4 4 4 4 4 4 4 4 % ",
"z.D.l.l.D.e.l.D.k.z.D.l.l.D.k.z.c.k.z.D.l.k.D.D.k.z.z.X.D.l.k.D.D.k.z.z.k.D.l.k.D.D.k.z.D.z.k.D.j.a.D.k.z.D.z.k.D.l.l.D.k.z.D.z.k.c.D.l.l.D.i.v.c.k.c.D.l.l.D.k.z.c.k.z.D.l.l.D.c.k.z.z.X.F.l.l.D.c.k.z.z.k.D.l.k.D.c.k. .O.m.m.v.a.e.e.e.E.Y.0.s.wX9.y t t p 5 n z = 4 4 4 4 4 4 = M l = w / 4 4 4 4 4 4 4 4 4 4 4 y y y y e y y y y e 4 4 4 4 / w 4 4 4 4 4 4 4 6 & 2.SXq.& 4 l 4 4 4 4 4 4 4 4 4 4 4 4 3 f g = 4 4 4 4 4 4 4 4 4 4 4 4 l 4 4 4 4 4 4 4 4 4 4 4 4 = g f O hX=.+ 4 4 4 4 4 4 4 4 4 g 4 4 4 4 4 4 4 4 4 4 4 4 % ",
"c.D.l.l.D.e.l.D.k.z.D.l.l.D.k.z.c.k.z.D.l.l.D.c.k.z.z.X.D.l.k.D.c.k.z.z.k.D.l.k.D.c.k.z.D.z.k.D.j.a.D.k.z.D.z.k.D.l.l.D.k.z.D.z.k.c.D.l.l.D.i.v.z.k.c.D.l.l.D.k.z.z.k.c.D.l.l.D.c.k.z.z.X.F.l.l.D.c.k.z.z.k.D.l.l.D.c.k. .O.m.m.V.z.z.z.l.Y.Y.G.S.wX9.y t t p 5 n z = 4 4 4 4 4 4 = M l = w / 4 4 4 4 4 4 4 4 4 4 4 u u u u y u u u u e 4 4 4 4 / w 4 4 4 4 4 4 6 & W SX.X= 4 4 l 4 4 4 4 4 4 4 4 4 4 4 4 3 f g = 4 4 4 4 4 4 4 4 4 4 4 4 l 4 4 4 4 4 4 4 4 4 4 4 4 = g f O hX=.+ 4 4 4 4 4 4 4 4 4 g 4 4 4 4 4 4 4 4 4 4 4 4 % ",
"X.X.X.X.X.e.X.X...X.X.a...X...X.j...X.X.a...X.e.e. .e.e...X...X.X...X.X...X.X...X.X...X.X.X.....e.X.X.....u.X...X.X...X...e.e.....X.X.X.X.X.t.e.X...X.X...a.X...X.X...j.X.X...e.e. .X...e.f...X.a...X.j.....X.X...X.X... ...t.N.y.X.X.X.o.U.R.f.d.wX' r p t p 5 n z = 4 4 4 4 4 4 = M l = w / 4 4 4 4 4 4 4 4 4 4 4 y u y u e y u y u e 4 4 4 4 / w 4 4 4 4 4 4 & a SX.X= 4 4 4 l 4 4 4 4 4 4 4 4 4 4 4 4 3 f g = 4 4 4 4 4 4 4 4 4 4 4 4 l 4 4 4 4 4 4 4 4 4 4 4 4 = g f O hX=.+ 4 4 4 4 4 4 4 4 4 g 4 4 4 4 4 4 4 4 4 4 4 4 % ",
" . . . . .e. . . . . .e. . . ...e. . . .e. .o.X.e.o.X.a.o. . . . . . . . . . . . . . . . . . .o.e.X.o. .o.+... . . . . .o.e.X.o. . . . . .o.t.r.o. . . .o.e... . . . .e. . .o.X.e.o. . .e.d. .X.e.o...j.o. . . . . . . . .o...N.y.o. . .` T R.M.4.wX{ r p t p 5 n z = 4 4 4 4 4 4 = M l = w / 4 4 4 4 4 4 4 4 4 4 4 y y y u e y u y u e 4 4 4 4 / w 4 4 4 4 4 & a SX.X= 4 4 4 4 l 4 4 4 4 4 4 4 4 4 4 4 4 3 f g = 4 4 4 4 4 4 4 4 4 4 4 4 l 4 4 4 4 4 4 4 4 4 4 4 4 4 l f O hX=.+ 4 4 4 4 4 4 4 4 4 g 4 4 4 4 4 4 4 4 4 4 4 4 % ",
" . . . . .e. . . . . .e. . . ...e. . ...e. . .e.e.o.X.a.o. . . . . . . . . . . . . . . . . . . .e.X. . .o.+... . . . . . .e.X. . . . . . .o.t.r.o. . . . .e... ... . .e... . .X.e. . . .e.d. .X.e. ...j. . . . . . . . . . ...N.y.o. . .o...R.B.4.0X{ r t t t 5 n z = 4 4 4 4 4 4 = M l = w / 4 4 4 4 4 4 4 4 4 4 4 u u u u y u u u u e 4 4 4 4 / w 4 4 4 4 & a DX.X= 4 4 4 4 4 l 4 4 4 4 4 4 4 4 4 4 4 4 3 f g = 4 4 4 4 4 4 4 4 4 4 4 4 g 4 = * 4 4 = 4 4 4 = 4 4 * f g O hX=.+ 4 4 4 4 4 4 4 4 4 g 4 4 4 4 4 4 4 4 4 4 4 4 % ",
" . . . . .e...l.e.k.l.l.l.X. ...e. . ...e. . .e.e.o.X.e.X.l.e.a. . . . . . . . . . . . . . . . .e.X.a.l.h.u... . . . . . .e.e.h.k.a. . . .o.t.r.o. . . . .e...l.a.a...e. . . .X.e. . . .e.d. .X.e.o...j. .l.X.l.k.a... . . ...N.n.o. . . .o.E.Y.4.0X8.) ^ 4.^ z x z = 4 4 4 4 4 4 = M l = w / 4 4 4 4 4 4 4 4 4 4 4 y y y y e y y y y e 4 4 4 4 / w 4 4 4 & a DXVX4 4 4 4 4 4 4 l 4 4 4 4 4 4 4 4 4 4 4 4 3 f g = 4 4 4 4 4 4 4 4 4 4 4 3 o.,.b -.c - #.=.b -.b * 4 &.&.,.~ jX=.+ 4 4 4 4 4 4 4 4 4 g 4 4 4 4 4 4 4 4 4 4 4 4 % ",
" . . . . .e.X.S.a.h.h.F.e.k.o...e. . ...e. . .e.e.o.X.e...l.a.l.a. . . . . . . . . . . . . . . .e.X. .k.l.z.e. . . . . . .e.X.h.l.l.h... .o.t.r.o. . . . .e.X.S.a.k.l.j. . . .X.e. . . .e.d. .X.e.o...j. .l.h.a.k.S.k.X. . ...n.n. . . ...` Y.Y.4.wX{ n d.^ 4.n x z = 4 4 4 4 4 4 = M l = w / 4 4 4 4 4 4 4 4 4 4 4 u u u u y u u u i e 4 4 4 4 / w 4 4 & a DXVXw = 4 4 4 4 4 4 l 4 4 4 4 4 4 4 4 4 4 4 4 3 f g = 4 4 4 4 4 4 4 4 4 4 4 * f <.#.=.b + -.#.#.=.=.0 ,.,.#.[.&.jX=.+ 4 4 4 4 4 4 4 4 4 g 4 4 4 4 4 4 4 4 4 4 4 4 % ",
" . . . . .e. .X.S.k.a.F.e.k.o...e. . ...e. . .e.e.o.X.a.o.h.a.F.e. . . . . . . . . . . . . . . .e...e.a.k.D... . . . . . .e.X.X.l.F.k.o...o.t.r.o. . . . .e.X...l.F.S.e... . .X.e. . . .e.d. .X.e.o...j.o.h.k.a.h.F.l.o. . . ...n. . . ...` U.R.a.0X{ / ( ^ 4./ x z = 4 4 4 4 4 4 = M l = w / 4 4 4 4 4 4 4 4 4 4 4 y y y y e y y y y e 4 4 4 4 / w 4 & p ZXVXr = 4 4 4 4 4 4 4 l 4 4 4 4 4 4 4 4 4 4 4 4 3 f g = 4 4 4 4 4 4 4 4 4 4 6 &.~ =.= &.b * 4 #.=.=.=.<.&.#.=.=.&.hX=.+ 4 4 4 4 4 4 4 4 4 g 4 4 4 4 4 4 4 4 4 4 4 4 % ",
" . . . . .e.X.k.h.k.l.l.z.e. ...e. . ...e. . .e.e.o.X.a.o.h.e.k.h. . . . . . . . . . . . . . . .e.X.S.l.h.l.a.o. . . . . .e.a.k.k.k.k.X. .o.t.r.o. . . . .e.X.h.k.k.k.k. . . .X.e. . . .e.d. .X.e.o...j.o.h.e.l.l.h.l.X. . . ...m.t.o. ...` T R.u.0X*X3.^ 4.] x x z = 4 4 4 4 4 4 = M l = w / 4 4 4 4 4 4 4 4 4 4 4 u u u i y u i u i e 4 4 4 4 / w & p ZXZXr = 4 4 4 4 4 4 4 4 l 4 4 4 4 4 4 4 4 4 4 4 4 3 f g = 4 4 4 4 4 4 4 4 4 4 4 8 >.,.c <.~ b ~ -.~ =.b 0 ,.-.#.,.~ jX=.+ 4 4 4 4 4 4 4 4 4 g 4 4 4 4 4 4 4 4 4 4 4 4 % ",
" . . . . .e. ... . ...e. . . . .e.o. . .e. .o.X.e.o.X.e.o. . . . . . . . . . . . . . . . . . .o.e.X. ...o.+...o. . . . .o.e.X. . . . . . .o.t.r.o. . . .o.e..... . .o.e. . .o.X.e.o. . .e.d.o.X.e.o...j.o. . . . . . . . . . ...m.y.o. . .o.t.R.B.0X{ r p p p 5 n l = 4 4 4 4 4 4 = M l = w / 4 4 4 4 4 4 4 4 4 4 4 y y y y e y y y y e 4 4 4 4 / 8 r ZXZXr & 4 4 4 4 4 4 4 4 4 l 4 4 4 4 4 4 4 4 4 4 4 4 3 f g = 4 4 4 4 4 4 4 4 4 4 4 = l 8 8 4 4 4 8 8 4 0 = 4 6 4 g c O hX=.+ 4 4 4 4 4 4 4 4 4 g 4 4 4 4 4 4 4 4 4 4 4 4 % ",
"X.X.X.X.X.j.X.X.X.X.X.j.X.X.X.X.j.X.X.X.j.X.X.e.a...e.j...X.X.X.X.X.X.X.X.X.X.X.X.X.X.X.X.X.X.X.j.e.X.X.X.u.+.X.X.X.X.X.X.j.e...X.X.X.X.X.X.i.i.X.X.X.X.X.j.e.X.X.X.X.j.X.X.X.e.j.X.X.X.j.f.X.e.j...e.k.X.X.X.X.X.X.X.X.X.X.X.X.n.M.X.X.X.X.X.R.Y.wX8.r i p p r M f 4 4 4 4 4 4 4 = M l = w / 4 4 4 4 4 4 4 4 4 4 4 u u u u y u u u u e 4 4 4 3 M l VXZXr & 6 4 4 4 4 4 4 4 4 4 l 4 4 4 4 4 4 4 4 4 4 4 4 4 f g 4 4 4 4 4 4 4 4 4 4 4 4 4 l 4 4 4 4 4 4 4 4 4 4 4 4 3 l f O hX=.+ 4 4 4 4 4 4 4 4 4 l 4 4 4 4 4 4 4 4 4 4 4 4 % ",
"v v v v v v v v v v v v v v v v v v v v v v v v v v v v v v v v v v v v v v v v v v v v v v v v v v v v v v v v v v v v v v v v v v v v v v v v v v v v v v v v v v v v v v v v v v v v v v v v v v v v v v v v v v v v v v v v v S v v v v z T T 8.E 3 r 5 r n M 4 4 4 4 4 4 4 4 = M l % 6 / 4 4 4 4 4 4 4 4 4 4 4 y y y y e y y y u e 4 4 4 4 f ( 2.t $ 3 = = = = = = = = = = 4 = = = = = = = = = = = = = 3 4 = = = = = = = = = = = = = 4 = = = = = = = = = = = = = 4 4 * 0 8 * = = = = = = = = = 4 = = = = = = = = = = = = * ",
"x x x x x z x x x x x z x x x x z x x x z x x x x x x z x x x x x x x x x x x x x x x x x x x x z x x x x z x x x x x x x z x x x x x x x x x x x x x x x z x x x x x z x x x x z x x x z z x x z x x z x x x x x x x x x x x x z z x x x x x k z h z x x x M M 4 4 4 4 4 4 4 4 4 3 l / d M n 3 4 4 4 4 4 4 4 4 4 4 y u y u e y u y u e 4 4 4 4 4 g B n n n n n n n n n n n n n x n n n n n n n n n n n n n n x n n n n n n n n n n n n n x n n n n n n n n n n n n n x n n x x n n n n n n n n n n x n n n n n n n n n n n n n ",
"z z z z z z z z z z z z z z z z z z z z z z z z z z z z z z z z z z z z z z z z z z z z z z z z z z z z z z z z z z z z z z z z z z z z z z z z z z z z z z z z z z z z z z z z z z z z z z z z z z z z z z z z z z z z z z z z z z z z z z z z z z z z z z f 4 4 4 4 4 4 4 4 4 4 4 4 l / n 4 4 4 4 4 4 4 4 4 4 4 4 u u u u y y u u u e 4 4 4 4 4 3 6 l z z z z z z z z z z z z z z z z z z z z z z z z z z z z z z z z z z z z z z z z z z z z z z z z z z z z z z z z z z z z z z z z z z z z z z z z z z z z z z z z z z z z ",
"= = = = = = = = = = = = = = = = = = = = = = = = = = = = = = = = = = = = = = = = = = = = = = = = = = = = * = = = = = = = = = = = = = = = = = = = = = = = = = = = = = = = = = = = = = = = = = = = = = = = = = = = = = = = = = = = = = = = = = = = = = = = = = 4 4 4 4 4 4 4 4 4 4 4 4 4 3 4 = 4 4 4 4 4 4 4 4 4 4 4 4 y y y y e y y y y e 4 4 4 4 4 4 4 = = = = = = = = = = = = = = = = = = = = = = = = = = = = = = = = = = = = = = = = = = = = = = = = = = = = = = = = = = = = = = = = = = = = = = = = = = = = = = = = = = = = = ",
"4 4 4 4 4 4 4 4 4 4 4 4 4 4 4 4 4 6 6 6 6 6 6 6 6 6 6 6 6 6 6 6 6 6 6 6 6 6 6 6 6 6 6 6 6 6 6 6 6 4 4 4 d 4 4 4 4 4 4 4 4 4 4 4 4 4 4 4 4 4 4 4 4 4 4 4 4 4 4 4 4 4 4 4 4 4 4 4 4 4 4 4 4 4 4 4 4 4 4 4 4 4 4 4 4 4 4 4 4 4 4 4 4 4 4 4 4 4 4 4 4 4 4 4 4 4 4 4 4 4 4 4 4 4 4 4 4 w 4 4 4 d 4 4 w 4 4 4 4 4 4 4 4 4 u i i i y u i u i e 4 4 4 4 4 4 4 4 4 4 4 4 4 4 4 4 4 4 4 4 4 4 4 4 4 4 4 4 4 4 4 4 4 4 4 4 4 4 4 4 4 4 4 4 4 4 4 4 4 4 4 4 4 4 4 4 4 4 4 4 4 4 4 4 4 4 4 4 4 4 4 4 4 4 4 4 4 4 4 4 4 4 4 4 4 4 4 4 4 4 4 4 ",
"4 4 4 4 4 4 4 4 4 4 4 4 4 4 4 4 * X X X X X X X X X X X X X X X X X X X X X X X X X X X X X X X $ 4 4 4 z 4 4 4 4 6 6 6 6 6 6 6 6 6 6 6 6 6 6 6 6 6 6 6 6 6 6 6 6 6 6 6 6 6 6 6 6 6 6 6 6 6 6 6 6 6 6 6 6 6 6 6 6 6 6 6 6 6 6 6 6 6 6 6 6 6 6 6 6 6 6 6 6 6 4 4 4 4 4 4 4 4 4 = n g./ % x g.M ( g.z = 4 4 4 4 4 4 4 e e e e 6 e e e e 6 4 4 4 4 4 4 4 = = = = = = = = = = = = = = = = = = = = = = 4 4 = = = = = = = = = = = = = = = = = = = = = = = = = = = 4 4 4 4 4 4 4 4 4 4 4 4 4 4 4 4 4 4 4 4 4 4 4 4 4 4 4 4 4 4 4 4 4 4 ",
"4 4 4 4 4 4 4 4 4 4 4 4 4 4 4 & ' >X-X>X>X>X>X>X>X>X>X>X>X>X>X>X>X>X>X>X>X>X>X>X>X>X>X>X>X>X-X>X0.& 4 4 l 4 4 3 M ) ( ( ( ( ( ( ( ( ( ( ( ( ( ( ( ( ( ( ( ( ( ( ( ( ( ( ( ( ( ( ( ( ( ( ( ( ( ( ( ( ( ( ( ( ( ( ( ( ( ( ( ( ( ( ( ( ( ( ( ( ( ( ( ( ( ( ( ( ) w 4 4 4 4 4 4 4 3 p.f p.4 3.f s.p.g 3.* 4 4 4 4 4 4 4 4 = $ = = $ & & & 4 4 4 4 4 4 4 g n n n n n n n n n n n n n n n n n n n n n x 4 w n n n n n n n n n n n n n n n n n n n n n n n n n n n d 4 4 4 4 4 4 4 4 4 4 4 4 4 4 4 4 4 4 4 4 4 4 4 4 4 4 4 4 4 4 4 4 4 ",
"4 4 4 4 4 4 4 4 4 4 4 4 4 4 6 #  XPX2X4X4X4X4X4X4X4X4X4X4X4X4X4X4X4X4X4X4X4X4X4X4X4X4X4X4X4X5XPX>X# 6 4 l 4 4 = M x f g g g g g g g g g g g g g g g g g g g g g g g g g g g g g g g g g g g g g g g g g g g g g g g g g g g g g g g g g g g g g g g g g g g ( d 4 4 4 4 4 4 4 4 3.w p.= 3.6 s.p.w p.* 4 4 4 4 4 4 4 4 e ! 6 6 ' i E E = 4 4 4 4 4 = M ( n M M n M M n M M n M n n M M M n M n M ) 4 f _ n n M M M M M n n M n M M n n n n M n M M M n M x _ g = 4 4 4 4 4 4 4 4 4 4 4 4 4 4 4 4 4 4 4 4 4 4 4 4 4 4 4 4 4 4 4 4 ",
"4 4 4 4 4 4 4 4 4 4 4 4 4 4 6 #  X4X{.}.{.{.{.{.{.{.{.{.{.{.{.{.{.{.}.{.{.{.{.{.{.}.{.{.{.{.{.2X>X# 6 4 l 4 4 3 M z f g g g g g g g g g g g g g g g g g g g g g g g g g f g g g g f g f f f f g g g g g g g g g g g g g g g g g g g g g g g g g g g g g g f ( d 4 4 4 4 4 4 4 * / s._ M / s._ _ s.M * 4 4 4 4 4 4 4 & 6 8.' = { 8.8.! = 4 4 4 4 4 = n x f d w f w w f w d f d f f d d w f f f f ( 4 f / f f w d w d w f f w f d w f f f f d f d d f f f f / g = 4 4 4 4 4 4 4 4 4 4 4 4 4 4 4 4 4 4 4 4 4 4 4 4 4 4 4 4 4 4 4 4 ",
"4 4 4 4 4 4 4 4 4 4 4 4 4 4 6 #  X6X{.oX%X%X2X%X%X%X%X2XoX%X%XoX2X%XoXOX%XOX2XOXOXoX%X2X2X2X}.5X>X# 6 4 l 4 4 3 M z f g g g g g g g g g g g g g g g g g g g g g g g g g p.f M g.) A.f _ / ( _ / f g g g g g g g g g g g g g g g g g g g g g g g g g g g g f ( d 4 4 4 4 4 4 4 4 4 x 6 f 4 x 6 6 x 4 4 4 4 4 4 4 4 = ! e { { X ' ! ' { 6 4 4 4 4 4 = M n f / 3.z ) ) z 3.M f / x z / M _ z M l g ( 4 f / f l ) ( ) / p.z n 3.z / _ M g n l / z ( ( M z n f / g = 4 4 4 4 4 4 4 4 4 4 4 4 4 4 4 4 4 4 4 4 4 4 4 4 4 4 4 4 4 4 4 4 ",
"4 4 4 4 4 4 4 4 4 4 4 4 4 4 6 #  X6X{.2X2XoX4X%X4X%X2X2X2X4X%X2X%X2XoX5X%X%X2X2X2XoX%X%X2X%X{.5X>X# 6 4 l 4 4 3 M z f g g g g g g g g g g g g g g g g g g g g g g g g g g.l x p./ F.( 3.( F.3.f g g g g g g g g g g g g g g g g g g g g g g g g g g g g g f ( d 4 4 4 4 4 4 4 4 4 * 4 = 4 = 4 4 * 4 4 4 4 4 4 4 4 4 y i { ' y { e ' 8.6 4 4 4 4 4 = M n d p.p.p.p.p.p.g.n 4 g.p.( A._ p.s.3.f l ( 4 f ( d ) s.z f.p._ p.p.p./ s.z p.) s.z S.M p.p.F.( ) d / g = 4 4 4 4 4 4 4 4 4 4 4 4 4 4 4 4 4 4 4 4 4 4 4 4 4 4 4 4 4 4 4 4 ",
"4 4 4 4 4 4 4 4 4 4 4 4 4 4 6 #  X6X{.oX2XOX%XoX5XOX2X4XOX5X%X2X{.%X%XOX2X2X4X%X2XoX%XOX%XOX{.5X>X# 6 4 l 4 4 3 M z f g g g g g g g g g g g g g g g g g g g g g g g g g s.d z 3.( _ A.p.M J.3.d f f f f g g g g g g g g g g g g g g g g g g g g g g g g g f ( d 4 4 4 4 4 4 4 4 4 4 4 d 6 = 4 = 4 4 4 4 4 4 4 4 4 4 = 6 y 4 6 4 4 y 6 = 4 4 4 4 4 = M n w p.g.M g.f./ f.n x 3.s.p.3.) z g.) w l ( 4 f / f l p.) _ 3.f _ p._ _ ( * 3.s.s.( S.p.( ) s.S./ d / g = 4 4 4 4 4 4 4 4 4 4 4 4 4 4 4 4 4 4 4 4 4 4 4 4 4 4 4 4 4 4 4 4 ",
"4 4 4 4 4 4 4 4 4 4 4 4 4 4 6 #  X6X{.oX2X%X2XOX5XOX2X2X%X5XOX2X2X2XoXOX2X5X%X}.5X%X2X%X%XOX{.5X>X# 6 4 l 4 4 3 M z f g g g g g g g g g g g g g g g g g g g g g g g g f A._ ) g._ / _ F./ _ p.3.( ) ) M f g g g g g g g g g g g g g g g g g g g g g g g g f ( d 4 4 4 4 4 4 4 4 4 4 % ( M 3.p.x = 4 4 4 4 4 4 4 4 4 4 4 4 = 4 4 4 = & 4 4 4 4 4 4 = M n d p.n f s.3.3.s.n / _ g.s._ p.f._ p.l g ( 4 f / f z _ f.s.s.p.3.3.3.M f.n p.z ) g.p.s.g.p.M S.3.w / g = 4 4 4 4 4 4 4 4 4 4 4 4 4 4 4 4 4 4 4 4 4 4 4 4 4 4 4 4 4 4 4 4 ",
"4 4 4 4 4 4 4 4 4 4 4 4 4 4 6 #  X6X{.OX%XoXoXoX%X%XoXoXOX%X%XoX%XOXoX%X%XoXoXoXOX%X%XOXoXoX}.5X>X# 6 4 l 4 4 3 M z f g g g g g g g g g g g g g g g g g g g g g g g g f M _ M M x z g n z z l M x x n z f g g g g g g g g g g g g g g g g g g g g g g g g f ( d 4 4 4 4 4 4 4 4 4 d 3.A./ 3.M p.* 4 4 4 4 4 4 4 4 4 = y 8.! 6 8.{ e 8.= 4 4 4 4 4 = M n f x l g z l x ( M d z z z z n / g x l g ( 4 f ( f x ( z M n ) l z ) z n / x l z n d z / n l z x f / g = 4 4 4 4 4 4 4 4 4 4 4 4 4 4 4 4 4 4 4 4 4 4 4 4 4 4 4 4 4 4 4 4 ",
"4 4 4 4 4 4 4 4 4 4 4 4 4 4 6 #  X4X{.{.{.{.{.{.{.{.{.{.{.{.{.{.{.{.{.{.{.{.{.{.{.{.{.{.{.{.{.2X>X# 6 4 l 4 4 3 M z f f f f f f f f f f f f f f f f f f f f f f f f f f f w f f f f f f f f f f f f f f f f f f f f f f f f f f f f f f f f f f f f f f f f ( d 4 4 4 4 4 4 4 4 * / M M / s.p.( = 4 4 4 4 4 4 4 4 4 y 4 { ' X ! ' '  X= 4 4 4 4 4 = n x f f f f f f f w d f f f f f d w f f f f ( 4 f / f f w f d d w f f w f d w f f f d f f w d f f f d / g = 4 4 4 4 4 4 4 4 4 4 4 4 4 4 4 4 4 4 4 4 4 4 4 4 4 4 4 4 4 4 4 4 ",
"4 4 4 4 4 4 4 4 4 4 4 4 4 4 6 #  XPX4X6X6X6X6X6X6X6X6X6X6X6X6X6X6X6X6X6X6X6X6X6X6X6X6X6X6X6X4XPX>X# 6 4 l 4 4 = / n l z z z z z z z z z z z z z z z z z z z z z z z z z z z z z z z z z z z z z z z z z z z z z z z z z z z z z z z z z z z z z z z z z z z ) d 4 4 4 4 4 4 4 4 * x _ p.) p.n s.= 4 4 4 4 4 4 4 4 4 ' i { { = { E 8. Xe 4 4 4 4 4 = M ) M / M M / M / / / M / / / M / / M / M / ) 4 f _ M / / / / / / M / / M / / / M / / M / / / M / / M _ g = 4 4 4 4 4 4 4 4 4 4 4 4 4 4 4 4 4 4 4 4 4 4 4 4 4 4 4 4 4 4 4 4 ",
"4 4 4 4 4 4 4 4 4 4 4 4 4 4 4 = ! 9.9.9.9.9.9.9.9.9.9.9.9.9.9.9.9.9.9.9.9.9.9.9.9.9.9.9.9.9.9.9.' = 4 4 l 4 4 4 n ( / / / / / / / / / / / / / / / / / / / / / / / / / / / / / / / / / / / / / / / / / / / / / / / / / / / / / / / / / / / / / / / / / / / / / 6 4 4 4 4 4 4 4 4 4 4 M / d / _ f 4 4 4 4 4 4 4 4 4 4 $ y ' y y i 4 e ! 4 4 4 4 4 4 4 f z z z z z z z z z z z z z z z z z z z z z l 4 6 l z z z z z z z z z z z z z z z z z z z z z z z z z z 6 4 4 4 4 4 4 4 4 4 4 4 4 4 4 4 4 4 4 4 4 4 4 4 4 4 4 4 4 4 4 4 4 4 ",
"4 4 4 4 4 4 4 4 4 4 4 4 4 4 4 4 = # # # # # # # # # # # # # # # # # # # # # # # # # # # # # # # & 4 4 4 l 4 4 4 4 4 4 4 4 4 4 4 4 4 4 4 4 4 4 4 4 4 4 4 4 4 4 4 4 4 4 4 4 4 4 4 4 4 4 4 4 4 4 4 4 4 4 4 4 4 4 4 4 4 4 4 4 4 4 4 4 4 4 4 4 4 4 4 4 4 4 4 4 4 4 4 4 4 4 4 4 4 4 4 4 4 * * 4 * % 4 4 4 4 4 4 4 4 4 4 4 4 = $ = = = 4 4 & 4 4 4 4 4 4 4 4 = = = = = = = = = = = = = = = = = = = = = 3 4 4 = = = = = = = = = = = = = = = = = = = = = = = = = = = 4 4 4 4 4 4 4 4 4 4 4 4 4 4 4 4 4 4 4 4 4 4 4 4 4 4 4 4 4 4 4 4 4 4 ",
"4 4 4 4 4 4 4 4 4 4 4 4 4 4 4 4 4 4 4 4 4 4 4 4 4 4 4 4 4 4 4 4 4 4 4 4 4 4 4 4 4 4 4 4 4 4 4 4 4 4 4 4 4 4 4 4 4 4 4 4 4 4 4 4 4 4 4 4 4 4 4 4 4 4 4 4 4 4 4 4 4 4 4 4 4 4 4 4 4 4 4 4 4 4 4 4 4 4 4 4 4 4 4 4 4 4 4 4 4 4 4 4 4 4 4 4 4 4 4 4 4 4 4 4 4 4 4 4 4 4 4 4 4 4 4 4 4 4 4 4 4 4 4 4 4 4 4 4 4 4 4 4 4 4 4 4 4 4 4 4 4 4 4 4 4 4 4 4 4 4 4 4 4 4 4 4 4 4 4 4 4 4 4 4 4 4 4 4 4 4 4 4 4 4 4 4 4 4 4 4 4 4 4 4 4 4 4 4 4 4 4 4 4 4 4 4 4 4 4 4 4 4 4 4 4 4 4 4 4 4 4 4 4 4 4 4 4 4 4 4 4 4 4 4 4 4 4 4 4 4 4 4 4 4 4 4 ",
"6 6 6 6 6 6 6 6 6 6 6 6 6 6 6 6 6 6 6 6 6 6 6 6 6 6 6 6 6 6 6 6 6 6 6 6 6 6 6 6 6 6 6 6 6 6 6 6 6 6 6 6 6 6 6 6 6 6 6 6 6 6 6 6 6 6 6 6 6 6 6 6 6 6 6 6 6 6 6 6 6 6 6 6 6 6 6 6 6 6 6 6 6 6 6 6 6 6 6 6 6 6 6 6 6 6 6 6 6 6 6 6 6 6 6 6 6 6 6 6 6 6 6 6 6 6 6 6 6 6 6 6 6 6 6 6 6 6 6 6 6 6 6 6 6 4 4 3 4 4 4 4 4 4 4 4 4 4 4 4 4 4 4 4 4 4 4 4 4 4 4 4 4 4 4 4 4 6 6 6 6 6 6 6 6 6 6 6 6 6 6 6 6 6 6 6 6 6 6 6 6 6 6 6 6 6 6 6 6 6 6 6 6 6 6 6 6 6 6 6 6 6 6 6 6 6 6 6 6 6 6 6 6 6 6 6 6 6 6 6 6 6 6 6 6 6 6 6 6 6 6 6 6 6 6 6 ",
"/ / / / / / / / / / / / / / / / / / / / / / / / / / / / / / / / / / / / / / / / / / / / / / / / / / / / / / / / / / / / / / / / / / / / / / / / / / / / / / / / / / / / / / / / / / / / / / / / / / / / / / / / / / / / / / / / / / / / / / / / / / / / / / / / / / / / / / / / / / / / / / / / / / / l 3 4 = x _ ) _ _ ) ) ) ) ) ) ) ) ) ) ) ) ) ) ) ) ) ) ) ) ) ) / / / / / / / / / / / / / / / / / / / / / / / / / / / / / / / / / / / / / / / / / / / / / / / / / / / / / / / / / / / / / / / / / / / / / / / / / / / / / / ",
"4 4 4 4 4 4 4 4 4 4 4 4 4 4 4 4 4 4 4 4 4 4 4 4 4 4 4 4 4 4 4 4 4 4 4 4 4 4 4 4 4 4 4 4 4 4 4 4 4 4 4 4 4 4 4 4 4 4 4 4 4 4 4 4 4 4 4 4 4 4 4 4 4 4 4 4 4 4 4 4 4 4 4 4 4 4 4 4 4 4 4 4 4 4 4 4 4 4 4 4 4 4 4 4 4 4 4 4 4 4 4 4 4 4 4 4 4 4 4 4 4 4 4 4 4 4 4 4 4 4 4 4 4 4 4 4 4 4 4 4 4 4 4 4 4 4 f / z 4 = x 3._ ) ( _ _ _ _ _ _ _ _ _ _ _ _ _ _ _ _ _ _ _ _ 3.n = 4 4 4 4 4 4 4 4 4 4 4 4 4 4 4 4 4 4 4 4 4 4 4 4 4 4 4 4 4 4 4 4 4 4 4 4 4 4 4 4 4 4 4 4 4 4 4 4 4 4 4 4 4 4 4 4 4 4 4 4 4 4 4 4 4 4 4 4 4 4 4 4 4 4 4 4 4 ",
"4 4 4 4 4 4 4 4 4 4 4 4 4 4 4 4 4 4 4 4 4 4 4 4 4 4 4 4 4 4 4 4 4 4 4 4 4 4 4 4 4 4 4 4 4 4 4 4 4 4 4 4 4 4 4 4 4 4 4 4 4 4 4 4 4 4 4 4 4 4 4 4 4 4 4 4 4 4 4 4 4 4 4 4 4 4 4 4 4 4 4 4 4 4 4 4 4 4 4 4 4 4 4 4 4 4 4 4 4 4 4 4 4 4 4 4 4 4 4 4 4 4 4 4 4 4 4 4 4 4 4 4 4 4 4 4 4 4 4 4 4 4 4 4 4 4 = 4 / f * x 3.) g.S.p.) ( ) _ ( ) ) ( ) ( ) ( ) ) ( _ _ _ _ _ n = 4 4 4 4 4 4 4 4 4 4 4 4 4 4 4 4 4 4 4 4 4 4 4 4 4 4 4 4 4 4 4 4 4 4 4 4 4 4 4 4 4 4 4 4 4 4 4 4 4 4 4 4 4 4 4 4 4 4 4 4 4 4 4 4 4 4 4 4 4 4 4 4 4 4 4 4 4 ",
"4 4 4 4 4 4 4 4 4 4 4 4 4 4 4 4 4 4 4 4 4 4 4 4 4 4 4 4 4 4 4 4 4 4 4 4 4 4 4 4 4 4 4 4 4 4 4 4 4 4 4 4 4 4 4 4 4 4 4 4 4 4 4 4 4 4 4 4 4 4 4 4 4 4 4 4 4 4 4 4 4 4 4 4 4 4 4 4 4 4 4 4 4 4 4 4 4 4 4 4 4 4 4 4 4 4 4 4 4 4 4 4 4 4 4 4 4 4 4 4 4 4 4 4 4 4 4 4 4 4 4 4 4 4 4 4 4 4 4 4 4 4 4 4 4 4 4 = z x % x _ _ K.A.K.3.S.s.3.S.3.g.A.f.S.3.S.p.s.S._ _ _ _ _ n = 4 4 4 4 4 4 4 4 4 4 4 4 4 4 4 4 4 4 4 4 4 4 4 4 4 4 4 4 4 4 4 4 4 4 4 4 4 4 4 4 4 4 4 4 4 4 4 4 4 4 4 4 4 4 4 4 4 4 4 4 4 4 4 4 4 4 4 4 4 4 4 4 4 4 4 4 4 ",
"4 4 4 4 4 4 4 4 4 4 4 4 4 4 4 4 4 4 4 4 4 4 4 4 4 4 4 4 4 4 4 4 4 4 4 4 4 4 4 4 4 4 4 4 4 4 4 4 4 4 4 4 4 4 4 4 4 4 4 4 4 4 4 4 4 4 4 4 4 4 4 4 4 4 4 4 4 4 4 4 4 4 4 4 4 4 4 4 4 4 4 4 4 4 4 4 4 4 4 4 4 4 4 4 4 4 4 4 4 4 4 4 4 4 4 4 4 4 4 4 4 4 4 4 4 4 4 4 4 4 4 4 4 4 4 4 4 4 4 4 4 4 4 4 4 4 4 = g M % x _ _ J.M S.K.J.K.K.J.K.K.f.K.S.S.K.J.K.A.) _ _ _ _ n = 4 4 4 4 4 4 4 4 4 4 4 4 4 4 4 4 4 4 4 4 4 4 4 4 4 4 4 4 4 4 4 4 4 4 4 4 4 4 4 4 4 4 4 4 4 4 4 4 4 4 4 4 4 4 4 4 4 4 4 4 4 4 4 4 4 4 4 4 4 4 4 4 4 4 4 4 4 ",
"4 4 4 4 4 4 4 4 4 4 4 4 4 4 4 4 4 4 4 4 4 4 4 4 4 4 4 4 4 4 4 4 4 4 4 4 4 4 4 4 4 4 4 4 4 4 4 4 4 4 4 4 4 4 4 4 4 4 4 4 4 4 4 4 4 4 4 4 4 4 4 4 4 4 4 4 4 4 4 4 4 4 4 4 4 4 4 4 4 4 4 4 4 4 4 4 4 4 4 4 4 4 4 4 4 4 4 4 4 4 4 4 4 4 4 4 4 4 4 4 4 4 4 4 4 4 4 4 4 4 4 4 4 4 4 4 4 4 4 4 4 4 4 4 4 4 4 = g M % x _ _ J._ J.K.J.A.K.F.g.f.J.s.F.K.J.g.J._ ) _ _ _ _ z = 4 4 4 4 4 4 4 4 4 4 4 4 4 4 4 4 4 4 4 4 4 4 4 4 4 4 4 4 4 4 4 4 4 4 4 4 4 4 4 4 4 4 4 4 4 4 4 4 4 4 4 4 4 4 4 4 4 4 4 4 4 4 4 4 4 4 4 4 4 4 4 4 4 4 4 4 4 ",
"4 4 4 4 4 4 4 4 4 4 4 4 4 4 4 4 4 4 4 4 4 4 4 4 4 4 4 4 4 4 4 4 4 4 4 4 4 4 4 4 4 4 4 4 4 4 4 4 4 4 4 4 4 4 4 4 4 4 4 4 4 4 4 4 4 4 4 4 4 4 4 4 4 4 4 4 4 4 4 4 4 4 4 4 4 4 4 4 4 4 4 4 4 4 4 4 4 4 4 4 4 4 4 4 4 4 4 4 4 4 4 4 4 4 4 4 4 4 4 4 4 4 4 4 4 4 4 4 4 4 4 4 4 4 4 4 4 4 4 4 4 4 4 4 4 4 4 = g M % x _ _ J.J.A.3.F.g.g.F.g.S.F.S.F.g.F.g.S.3._ _ _ _ _ d 4 4 4 4 4 4 4 4 4 4 4 4 4 4 4 4 4 4 4 4 4 4 4 4 4 4 4 4 4 4 4 4 4 4 4 4 4 4 4 4 4 4 4 4 4 4 4 4 4 4 4 4 4 4 4 4 4 4 4 4 4 4 4 4 4 4 4 4 4 4 4 4 4 4 4 4 4 4 ",
"4 4 4 4 4 4 4 4 4 4 4 4 4 4 4 4 4 4 4 4 4 4 4 4 4 4 4 4 4 4 4 4 4 4 4 4 4 4 4 4 4 4 4 4 4 4 4 4 4 4 4 4 4 4 4 4 4 4 4 4 4 4 4 4 4 4 4 4 4 4 4 4 4 4 4 4 4 4 4 4 4 4 4 4 4 4 4 4 4 4 4 4 4 4 4 4 4 4 4 4 4 4 4 4 4 4 4 4 4 4 4 4 4 4 4 4 4 4 4 4 4 4 4 4 4 4 4 4 4 4 4 4 4 4 4 4 4 4 4 4 4 4 4 4 4 4 4 = g M % x 3._ ) _ ) _ _ _ ) _ _ _ ) _ _ ) _ _ ) _ _ _ _ _ z 4 4 4 4 4 4 4 4 4 4 4 4 4 4 4 4 4 4 4 4 4 4 4 4 4 4 4 4 4 4 4 4 4 4 4 4 4 4 4 4 4 4 4 4 4 4 4 4 4 4 4 4 4 4 4 4 4 4 4 4 4 4 4 4 4 4 4 4 4 4 4 4 4 4 4 4 4 4 4 ",
"4 4 4 4 4 4 4 4 4 4 4 4 4 4 4 4 4 4 4 4 4 4 4 4 4 4 4 4 4 4 4 4 4 4 4 4 4 4 4 4 4 4 4 4 4 4 4 4 4 4 4 4 4 4 4 4 4 4 4 4 4 4 4 4 4 4 4 4 4 4 4 4 4 4 4 4 4 4 4 4 4 4 4 4 4 4 4 4 4 4 4 4 4 4 4 4 4 4 4 4 4 4 4 4 4 4 4 4 4 4 4 4 4 4 4 4 4 4 4 4 4 4 4 4 4 4 4 4 4 4 4 4 4 4 4 4 4 4 4 4 4 4 4 4 4 4 4 = g M % x _ ) ) ) ) ) ) ) ) ) ) ) ) ) ) ) ) ) ) ) ) ( / g 4 4 4 4 4 4 4 4 4 4 4 4 4 4 4 4 4 4 4 4 4 4 4 4 4 4 4 4 4 4 4 4 4 4 4 4 4 4 4 4 4 4 4 4 4 4 4 4 4 4 4 4 4 4 4 4 4 4 4 4 4 4 4 4 4 4 4 4 4 4 4 4 4 4 4 4 4 4 4 4 ",
"2 2 2 2 2 2 2 2 2 2 2 2 3 4 4 4 l 4 4 4 4 4 4 4 4 4 4 4 4 4 4 4 4 4 4 4 4 4 4 4 4 4 4 4 4 4 4 4 4 4 4 4 4 4 4 4 4 4 4 4 4 4 4 4 4 4 4 4 4 4 4 4 4 4 4 4 4 4 4 4 4 4 4 4 4 4 4 4 4 4 4 4 l 4 4 4 4 4 4 4 4 4 4 4 4 4 4 4 4 4 4 4 4 4 4 4 4 4 4 4 4 4 4 4 4 4 4 4 4 4 4 4 4 4 4 4 4 4 4 4 4 4 4 4 4 4 4 = g M % n z 4 6 4 4 4 4 4 4 4 4 4 4 4 4 4 4 4 4 4 4 4 4 3 4 4 4 4 4 4 4 4 4 4 4 4 4 4 4 4 4 4 4 4 4 4 4 4 4 4 4 4 4 4 4 4 4 4 4 4 4 4 4 4 4 4 4 4 4 4 4 4 4 4 4 4 4 4 4 4 4 4 4 4 4 4 4 4 4 4 4 4 4 4 4 4 4 4 4 4 4 4 4 4 ",
"1 1 1 1 1 1 1 1 1 1 1 1 , 4 4 4 l 4 4 4 6 w w w w w w w w w w w w w w w w w w w w w w w w w w w w w w w w w w w w w w w w w w w w w w w w w w w w w w w w w w w w w w w w w w w 6 4 4 4 l 4 4 4 4 4 4 4 4 4 4 4 4 4 4 4 4 4 4 4 4 4 4 4 4 4 4 4 4 4 4 4 4 4 4 4 4 4 4 4 4 4 4 4 4 4 4 4 4 4 4 4 4 4 4 = g M % n z = 4 4 4 4 4 4 4 4 4 4 4 4 4 4 4 4 4 4 4 4 4 4 4 4 4 4 4 4 4 4 4 4 4 4 4 4 4 4 4 4 4 4 4 4 4 4 4 4 4 4 4 4 4 4 4 4 4 4 4 4 4 4 4 4 4 4 4 4 4 4 4 4 4 4 4 4 4 4 4 4 4 4 4 4 4 4 4 4 4 4 4 4 4 4 4 4 4 4 4 4 4 4 ",
"'.'.'.'.'.'.'.'.'.'.'.'.R 2 4 4 l 4 4 4 z x z z z z z z z z z z z z z z z z z z z z z z z z z z z z z z z z z z z z z z z z z z z z z z z z z z z z z z z z z z z z z z z z z x z 4 4 4 l 4 4 4 4 4 4 4 4 4 4 4 4 4 4 4 6 f f f f f f f f f f f f f f f f f f f f f f f f f f f f f d f f f f 6 4 4 4 = g M % n z = 4 4 4 4 4 4 4 4 4 4 4 4 4 4 4 4 4 4 4 4 4 4 4 4 4 4 4 4 4 4 4 4 4 4 4 4 4 4 4 4 4 4 4 4 4 4 4 4 4 4 4 4 4 4 4 4 4 4 4 4 4 4 4 4 4 4 4 4 4 4 4 4 4 4 4 4 4 4 4 4 4 4 4 4 4 4 4 4 4 4 4 4 4 4 4 4 4 4 4 4 4 4 ",
"L L L L L L L L L L L I R 2 4 4 l 4 4 4 z w 4 4 4 4 4 4 4 4 4 4 4 4 4 4 4 4 4 4 4 4 4 4 4 4 4 4 4 4 4 4 4 4 4 4 4 4 4 4 4 4 4 4 4 4 4 4 4 4 4 4 4 4 4 4 4 4 4 4 4 4 4 4 4 4 4 f z 4 4 4 l 4 4 4 = 4 4 * % 4 * % 3 4 4 4 g f f g g g g g l f f f f g g g g g g g g g g g g g g g g f f l f g g f 4 4 4 = g M % n z = 4 4 4 4 4 = % = 4 4 4 4 4 w 4 4 4 4 4 4 4 4 4 4 4 4 4 4 4 = 4 * 4 4 4 4 4 4 4 4 4 4 4 4 4 4 4 4 4 4 4 4 4 = % % 4 4 4 4 4 4 4 4 4 4 4 4 4 4 4 4 4 4 4 4 4 4 4 4 4 = = 4 4 4 4 4 4 4 4 4 4 4 4 4 4 4 4 4 4 4 ",
"K K K K K K K K K K L I R 2 4 4 l 4 4 4 z f 6 6 6 6 6 6 6 6 6 6 6 6 6 6 6 6 6 6 6 6 6 6 6 6 6 6 4 x z k x f l f k f f n f 6 6 6 6 6 6 6 6 6 6 6 6 6 6 6 6 6 6 6 6 6 6 6 6 6 6 f z 4 4 4 l 4 4 3 x d 4 ) _ w M 3.l 3 4 6 g x z f g l f g d M x x n f g l f f g f f f f g g g g g g f f f / F.f g 6 4 4 = g M % n z = 4 4 4 4 = z p.n 3 = * d 4 g 4 * = 4 4 4 4 4 4 4 4 4 4 4 = x w n 4 % = 4 * = 4 * 3 4 4 4 4 4 4 4 4 4 4 4 = x p.) 3.d % 4 * 4 = = 3 % z / # 4 4 4 4 4 4 4 4 4 4 4 = l x = w 4 w = = = 4 # ( z % 4 4 4 4 4 4 4 ",
"K K K K K K K K K K L I R 2 4 4 l 4 4 4 z f 6 6 6 6 6 6 6 6 6 6 6 6 6 6 6 6 6 6 6 6 6 6 6 6 6 6 6 n / / x z / z _ w 6 x z 4 6 6 6 6 6 6 6 6 6 6 6 6 6 6 6 6 6 6 6 6 6 6 6 6 4 f z 4 4 4 l 4 4 * p.f 4 s.( 3.p.z 4 4 4 4 z p.g.l ) A.d g z f._ g.s.) M _ z n f z M p.M f g g g g g f f l K.<Xg.f 6 4 4 = g M % n z = 4 4 4 4 % 3./ s.l ) x g._ x f p.n = 4 4 4 4 4 4 4 4 4 4 * 3.3.( z p./ 4 _ x f 3.g 3 4 4 4 4 4 4 4 4 4 4 4 4 f.n _ f.n l 3.f / M z ) / g.) w 4 4 4 4 4 4 4 4 4 4 * _ s.g S.3.A.f _ z z _ 3.n n 4 4 4 4 4 4 d ",
"K K K K K K K K K K L I R 2 4 4 l 4 4 4 z f 6 6 6 6 6 6 6 6 6 6 6 6 6 6 6 6 6 6 6 6 6 6 6 6 6 6 4 / n x n / ) n _ w w n w 6 6 6 6 6 6 6 6 6 6 6 6 6 6 6 6 6 6 6 6 6 6 6 6 6 4 f z 4 4 4 l 4 4 * 3.f 4 g.p.l s.p.f 4 4 6 l w s./ p.s.w / f.A._ f.p.) _ _ s.f./ f._ F.) f g g g g g f d z ( M / g 4 4 4 = g M % n z = 4 4 4 4 % ) S._ 4 ) s.p.z p.3.x p.f 4 4 4 4 4 4 4 4 4 4 % 3.J.* _ ( _ 3.f.f.g.s.s.= 4 4 4 4 4 4 4 4 4 4 4 % _ f _ / _ 3.) z g.s.g.) n 3.) M * 4 4 4 4 4 4 4 4 4 6 f.f.n _ x _ 4 _ f.p.w ) F.g = 4 4 4 4 4 6 ",
"K K K K K K K K K K L I R 2 4 4 l 4 4 4 z f 6 6 6 6 6 6 6 6 6 6 6 6 6 6 6 6 6 6 6 6 6 6 6 6 6 6 6 z 4 z / z f x z k k ) f 4 6 6 6 6 6 6 6 6 6 6 6 6 6 6 6 6 6 6 6 6 6 6 6 6 4 f z 4 4 4 l 4 4 * p.z d s.4 = s.f 4 4 4 w f ( ) 3.g.S.f p.n _ 3.f.3.p.3.3.( n A.3.* s.f f g g g g g f d x S.F.p.f 6 4 4 = g M % n z = 4 4 4 4 % _ ) _ _ f.s.p.z 3.3.z p.f 4 4 4 4 4 4 4 4 4 4 * 3._ _ _ l ) p.s.x g.3.z 4 4 4 4 4 4 4 4 4 4 4 4 * 3.l 3.f _ p.z z A.M f _ g.M n ( % 4 4 4 4 4 4 4 4 * M p._ p._ x _ ( f.g.s.4 _ S.x = 4 4 4 4 4 f ",
"K K K K K K K K K K L I R 2 4 4 l 4 4 4 z f 6 6 6 6 6 6 6 6 6 6 6 6 6 6 6 6 6 6 6 6 6 6 6 6 6 6 6 4 6 6 6 4 6 4 4 6 6 4 6 6 6 6 6 6 6 6 6 6 6 6 6 6 6 6 6 6 6 6 6 6 6 6 6 6 6 f z 4 4 4 l 4 4 = / f.M M 4 4 M 4 4 4 4 4 x F.p./ _ S.f M f.A.) g.3.A.) z g.f.M g._ s._ f g g g g g f f f S.<X) f 6 4 4 = g M % n z = 4 4 4 4 = n f x / _ M n ) n f p.n = 4 4 4 4 4 4 4 4 4 4 = M d M ( f n f ) M f _ z 3 4 4 4 4 4 4 4 4 4 4 4 = n f n f x n l = ( / x _ M z l z = 4 4 4 4 4 4 4 4 = M d = M ) x ) / _ n x 3.M g / 4 4 4 4 4 4 6 ",
"L L L L L L L L L L L I R 2 4 4 l 4 4 4 z w 4 6 4 4 4 4 4 4 4 4 4 4 4 4 4 4 4 4 4 4 4 4 4 4 4 4 4 6 4 6 6 6 6 6 6 6 6 6 4 4 4 4 4 4 4 4 4 4 4 4 4 4 4 4 4 4 4 4 4 4 4 4 4 6 4 f z 4 4 4 l 4 4 4 = * 3 = 4 4 = 4 4 4 4 4 l n M g d g f f x x g n M g l f z x f z n l x f g g g g g f f f z _ f g 4 4 4 = g M % n z = 4 4 4 4 4 = 4 = * = = = = = 4 * = 4 4 4 4 4 4 4 4 4 4 4 4 = 4 = = 4 = 4 = 4 3 = 4 4 4 4 4 4 4 4 4 4 4 4 4 4 = 4 = 4 = = 4 4 = 3 3 = = 4 4 3 4 4 4 4 4 4 4 4 4 4 = 4 4 = * = * = = = = * = 4 = 4 4 4 4 4 4 4 ",
"I I I I I I I I I I K '.R 2 4 4 l 4 4 4 z f f f f f f f f f f f f f f f f f f f f f f f f f f f f f f f f f f f f f f f f f f f f f f f f f f f f f f f f f f f f f f f f f f f z 4 4 4 l 4 4 4 4 4 4 4 4 4 4 4 4 4 4 4 f f f g l g g g f f g f f g g g f f l f f g f g g g g g g f f l g f g f 4 4 4 = g M % n z = 4 4 4 4 4 4 4 4 4 4 4 4 4 4 4 4 4 4 4 4 4 4 4 4 4 4 4 4 4 4 4 4 4 4 4 4 4 4 4 4 4 4 4 4 4 4 4 4 4 4 4 4 4 4 4 4 4 4 4 4 4 4 4 4 4 4 4 4 4 4 4 4 4 4 4 4 4 4 4 4 4 4 4 4 4 4 4 4 4 4 4 4 4 4 4 4 4 4 4 4 4 4 ",
"I I I I I I I I I I I '.P 2 4 4 l 4 4 4 k z z z z z z z z z z z z z z z z z z z z z z z z z z z z z z z z z z z z z z z z z z z z z z z z z z z z z z z z z z z z z z z z z z z k 4 4 4 l 4 4 4 4 4 4 4 4 4 4 4 4 4 4 4 4 w w 6 6 w 6 6 w w 6 w w w 6 6 w w 6 w w w w 6 6 6 6 6 6 6 4 w w w 6 4 4 4 4 = g M % n z = 4 4 4 4 4 4 4 4 4 4 4 4 4 4 4 4 4 4 4 4 4 4 4 4 4 4 4 4 4 4 4 4 4 4 4 4 4 4 4 4 4 4 4 4 4 4 4 4 4 4 4 4 4 4 4 4 4 4 4 4 4 4 4 4 4 4 4 4 4 4 4 4 4 4 4 4 4 4 4 4 4 4 4 4 4 4 4 4 4 4 4 4 4 4 4 4 4 4 4 4 4 4 ",
"2 2 2 2 2 2 2 2 2 2 2 2 3 4 4 4 l 4 4 4 4 4 4 4 4 4 4 4 4 4 4 4 4 4 4 4 4 4 4 4 4 4 4 4 4 4 4 4 4 4 4 4 4 4 4 4 4 4 4 4 4 4 4 4 4 4 4 4 4 4 4 4 4 4 4 4 4 4 4 4 4 4 4 4 4 4 4 4 4 4 4 4 l 4 4 4 4 4 4 4 4 4 4 4 4 4 4 4 4 4 4 4 4 4 4 4 4 4 4 4 4 4 4 4 4 4 4 4 4 4 4 4 4 4 4 4 4 4 4 4 4 4 4 4 4 4 4 = g M % n z = 4 4 4 4 4 4 4 4 4 4 4 4 4 4 4 4 4 4 4 4 4 4 4 4 4 4 4 4 4 4 4 4 4 4 4 4 4 4 4 4 4 4 4 4 4 4 4 4 4 4 4 4 4 4 4 4 4 4 4 4 4 4 4 4 4 4 4 4 4 4 4 4 4 4 4 4 4 4 4 4 4 4 4 4 4 4 4 4 4 4 4 4 4 4 4 4 4 4 4 4 4 4 ",
"4 4 4 4 4 4 4 4 4 4 4 4 4 4 4 4 l 4 4 4 4 4 4 4 4 = 4 4 4 4 4 4 4 4 4 4 4 4 4 4 4 4 4 4 4 4 4 4 4 4 4 4 4 4 = 4 4 4 4 4 4 4 4 4 4 4 4 4 4 4 4 4 4 4 4 = 4 4 4 4 4 4 4 4 4 4 4 4 4 4 4 4 l 4 4 4 4 4 4 4 4 4 3 * 4 4 4 4 4 4 4 4 4 4 4 4 4 4 4 4 4 4 4 4 4 4 4 4 4 4 4 4 4 4 * 4 4 4 4 4 4 4 4 4 4 4 4 = g M % n z = 4 4 4 4 4 4 4 4 4 4 4 4 4 4 4 4 4 4 4 4 4 4 4 4 4 4 4 4 4 4 4 4 4 4 4 4 4 4 4 4 4 4 4 4 4 4 4 4 4 4 4 4 4 4 4 4 = - 4 4 8 8 4 = - = 4 4 4 4 4 4 4 4 4 4 4 4 4 4 4 4 4 4 4 4 4 4 4 4 4 4 4 4 4 4 4 4 4 4 4 4 ",
"d = * w f * * 4 4 4 4 4 4 4 4 4 l 4 4 4 4 4 4 4 4 g f 4 = 4 = 4 4 = 4 4 4 4 4 4 4 4 4 4 4 4 4 4 4 4 4 4 4 4 g 6 4 4 4 4 4 4 4 4 4 4 4 4 4 4 4 4 4 4 4 k f 4 = 4 f 4 = 4 4 4 4 4 4 4 4 4 l 4 4 4 4 4 4 4 4 4 f x d * 3 4 * 4 = = 4 4 4 4 4 4 4 4 4 4 4 4 4 4 4 4 4 4 4 4 4 4 z 4 4 4 4 4 4 4 4 4 4 4 4 = g M % n z = 4 4 4 4 4 4 4 4 4 4 4 4 4 4 4 4 4 4 4 4 4 4 4 4 4 4 4 4 4 4 4 4 4 4 4 4 4 4 4 4 4 4 4 4 4 4 4 4 4 4 4 4 4 4 4 * c &.-.bXhXjXbX-.#.c * 4 4 4 4 4 4 4 4 4 4 4 4 4 4 4 4 4 4 4 4 4 4 4 4 4 4 4 4 4 4 4 4 4 4 4 ",
"f f z w f f x w 4 4 4 4 4 4 4 4 l 4 4 4 4 4 4 = x ) f d f 4 k 4 4 l d 4 4 4 4 4 4 4 4 4 4 4 4 4 4 4 4 4 4 / M ( d 4 4 4 4 4 4 4 4 4 4 4 4 4 4 4 4 6 ( n f 6 l 4 f 6 l d 4 4 4 4 4 4 4 4 l 4 4 4 4 4 4 4 4 = f.( f g f d x = l z 6 4 4 4 4 4 4 4 4 4 4 4 4 4 4 4 4 4 4 4 4 p._ p.4 4 4 4 4 4 4 4 4 4 4 = g M % n z = 4 4 4 4 4 4 4 4 = = & = & = = 4 4 4 4 4 4 4 4 4 4 4 4 4 4 4 4 = = & & & & = = 4 4 4 4 4 4 4 4 4 4 4 4 4 4 * 0 <.bXMXzXNXzXlXNXbXMXbX#.4 * 4 4 4 4 4 4 4 4 4 4 4 4 4 4 4 * 3 * * * * * 4 4 4 4 4 4 4 4 4 4 4 ",
"g l s._ ( s.p._ * 4 4 4 4 4 4 4 l 4 4 4 4 4 4 = x ( 6 _ x z ) / / / ) = 4 4 4 4 4 4 4 4 4 4 4 4 4 4 4 3 f ( # x n * 4 4 4 4 4 4 4 4 4 4 4 4 4 4 = x x 6 g w / / n / ( / 4 4 4 4 4 4 4 4 l 4 4 4 4 4 4 4 4 = f.M z S.l p.s.3._ g.M % 4 4 4 4 4 4 4 4 4 4 4 4 4 4 4 4 4 * n _   3.n * 4 4 4 4 4 4 4 4 4 = g M % n z = 4 4 4 4 4 4 & w p 2.w.1.6.W y 4 = 4 4 4 4 4 4 4 4 4 4 4 4 4 = p a w.6.w.6.a r = 4 4 4 4 4 4 4 4 4 4 4 4 - b zXlXlXbXhX,.<.~ -.jXbXzXhXbX<.- 4 4 4 4 4 4 4 4 4 4 4 4 3 4 j b !.*.!.@.j 8 * 4 4 4 4 4 4 4 4 4 ",
"f./ f.s.( _ w p.= 4 4 4 4 4 4 4 l 4 4 4 4 4 4 * x ( d ( 3 / ( / ( 4 ( = 4 4 4 4 4 4 4 4 4 4 4 4 4 4 4 4 f ( % x x * 4 4 4 4 4 4 4 4 4 4 4 4 4 4 = z n 6 _ x ( ) n / w / w 4 4 4 4 4 4 4 l 4 4 4 4 4 4 4 4 = f.M n _ 4 S.( g.z n / % 4 4 4 4 4 4 4 4 4 4 4 4 4 4 4 4 4 * n p.o 3.n * 4 4 4 4 4 4 4 4 4 = g M % n z = 4 4 4 4 4 4 p w.AXCXFXw.CXq..X1.e 4 4 4 4 4 4 4 4 4 4 4 4 e 2.AXXXFXCXAXAXCXCXp 4 4 4 4 4 4 4 4 4 4 4 * b ,.MXbX&.0   . . . . . 0 &.bXNX[.q * 4 4 4 4 4 4 4 4 4 4 4 f *.(.~.vX!.(.(.(.!.j 4 4 4 4 4 4 4 4 4 ",
"3.p.p.3./ ) f 3.= 4 4 4 4 4 4 4 l 4 4 4 4 4 4 = z z % / 4 k ( f n ) ) = 4 4 4 4 4 4 4 4 4 4 4 4 4 4 4 4 4 M ( ) 6 4 4 4 4 4 4 4 4 4 4 4 4 4 4 4 4 4 / / / / ( / n n f M 6 4 4 4 4 4 4 4 l 4 4 4 4 4 4 4 4 4 3.* g _ % _ _ z p.g.M * 4 4 4 4 4 4 4 4 4 4 4 4 4 4 4 4 4 4 4 3.s.s.4 4 4 4 4 4 4 4 4 4 4 = g M % n z = 4 4 4 4 $ 1.AXw.AXCXw.2.6.w..X6..XW & 4 4 4 4 4 4 4 4 = 6 CXXXXXAXXX1.6.XXFXXXq.6.= 4 4 4 4 4 4 4 4 = c zXbXbX#.  . # = 6 6 4 # .   <.lXlXlXq = 4 4 4 4 4 4 4 4 * j (.!.(.(.!.O.*.(.(.*.(.*.- 4 4 4 4 4 4 4 ",
"4 w f 4 4 4 4 4 4 4 4 4 4 4 4 4 l 4 4 4 4 4 4 4 4 4 4 4 4 4 d d 4 f ( = 4 4 4 4 4 4 4 4 4 4 4 4 4 4 4 4 4 3 g ( 4 4 4 4 4 4 4 4 4 4 4 4 4 4 4 4 4 4 4 f 4 4 d 4 4 4 4 4 4 4 4 4 4 4 4 4 l 4 4 4 4 4 4 4 4 4 4 4 4 4 4 4 l 4 4 _ M % 4 4 4 4 4 4 4 4 4 4 4 4 4 4 4 4 4 4 4 = M 3.3 4 4 4 4 4 4 4 4 4 4 = g M % n z = 4 4 4 = 6.w.FXXXp *       * y q..X6.W = 4 4 4 4 4 4 = a w.CXFX2.e o     o y 2..Xq.1.e 4 4 4 4 4 4 4 - =.bXMX&.. o 4 z M M / / M f   . q lXlX&.* 4 4 4 4 4 4 4 * F *.(.(.b 4       % h *.vX~.*.4 4 4 4 4 4 4 ",
"4 4 4 4 4 4 4 4 4 4 4 4 4 4 4 4 l 4 4 4 4 4 4 4 4 4 4 4 4 4 4 4 4 4 f 4 4 4 4 4 4 4 4 4 4 4 4 4 4 4 4 4 4 4 3 4 4 4 4 4 4 4 4 4 4 4 4 4 4 4 4 4 4 4 4 4 4 4 4 4 4 4 4 4 4 4 4 4 4 4 4 4 l 4 4 4 4 4 4 4 4 4 4 4 4 4 6 4 3 4 = f f 3 4 4 4 4 4 4 4 4 4 4 4 4 4 4 4 4 4 4 4 4 = 6 4 4 4 4 4 4 4 4 4 4 4 = g M % n z = 4 4 = e CXFXXX4 .   #   o     w 6.CXq.4 4 4 4 4 4 4 & 6.FXAXW   . O % % o . # 2..X.XW & 4 4 4 4 4 * ~ zX[.#.    d n M M M / / ) z % o   <.-.[.<.* 4 4 4 4 4 4 3 !.vX(.j     # % %   . % *.vX(.j * 4 4 4 4 4 ",
"4 2 3 2 3 4 4 4 4 4 4 4 4 4 4 4 l 4 4 4 4 4 4 4 4 4 4 4 = = = = 4 4 4 4 4 4 4 4 4 4 4 4 4 4 4 4 4 4 4 4 4 = 3 * 4 4 4 4 4 4 4 4 4 4 4 4 4 4 4 4 4 4 4 4 4 = = = = 4 4 4 4 4 4 4 4 4 4 4 l 4 4 4 4 4 4 4 4 4 4 4 4 = $ & $ & 4 4 4 4 4 4 4 4 4 4 4 4 4 4 4 4 4 4 4 4 4 4 & $ & $ = 4 4 4 4 4 4 4 4 4 4 = g M % n z = 4 4 4 XXXXw.r . % g z 4 z z % . r 1.6.1.= 4 4 4 4 & 2.XXw.1..   6 z M M w O   o 1.1.6.p = 4 4 4 4 - ,.NXzX%   4 x M M M M M ( z = x z   O [.zX,.- 4 4 4 4 4 * *.~.*.b . o f x M M z 4 . * *.*.~.8 4 4 4 4 & ",
"< 1 1 1 , 4 3 4 4 4 4 4 4 4 4 4 l 4 4 4 4 4 4 4 4 4 = 4 l z z x 6 = 4 4 4 4 4 4 4 4 4 4 4 4 4 4 4 4 = 4 f x l x f 4 = 4 4 4 4 4 4 4 4 4 4 4 4 4 4 4 4 = 6 x z x z 4 = 4 4 4 4 4 4 4 4 4 l 4 4 4 4 4 4 4 4 4 4 & & t Q Q 7.W 4 & 4 4 4 4 4 4 4 4 4 4 4 4 4 4 4 4 4 4 & = E Q Q 7.t & & 4 4 4 4 4 4 4 4 = g M % n z = 4 4 e CXFXW . # l M n 4 n ) x #   W .Xq.4 4 4 4 4 & 6.FXXX#   w n M / n 4 z f . * q..XW & 4 4 4 4 4 ,.bX[.. # z n n M M M / x = l ) M 4 . #.lX-.8 4 4 4 4 4 = !.vX*.  o f M M / / ( M = . h (.(.j * 4 4 4 4 ",
"P '.L '.K K P 3 3 4 4 4 4 4 4 4 l 4 4 4 4 4 4 4 = 4 3._ g.A.s.S._ p.f * 4 4 4 4 4 4 4 4 4 4 4 4 4 = M p._ F.3.F.3.s.n = 4 4 4 4 4 4 4 4 4 4 4 4 4 = f s.) S.p.A.g.3._ 4 3 4 4 4 4 4 4 4 l 4 4 4 4 4 4 4 4 = $ Q $X|.JX#XKX$X#X|.= & 4 4 4 4 4 4 4 4 4 4 4 4 4 4 & = |.#X$XKX#XJX}.$XQ $ = 4 4 4 4 4 4 = g M % n z = 4 & 1.CXAXr . d n M x 4 x ( ( f   r .Xq.p = 4 4 = r w.AX6.. % z n M M 4 d ) M #   6..X1.4 4 4 4 * c bXMX<.. 4 x x n n M M n 4 g ( / ( f . q lXlX~ * 4 4 4 * b ~.(.F . 4 x n M M / ( ) x o % (.(.O.* 4 4 4 s ",
"I I P I I '.L K , 3 4 4 4 4 4 4 l 4 4 4 4 4 4 = / p.s.F.S.p._ A.F.A._ _ 4 4 4 4 4 4 4 4 4 4 4 = l p._ F.S.g.( g.S.F._ p.g = 4 4 4 4 4 4 4 4 4 4 4 3._ A.F.A._ p.S.F.s.3.x = 4 4 4 4 4 4 l 4 4 4 4 4 4 4 & t $X}.HXKXGX|.$XHXJX#X#X7.$ 4 4 4 4 4 4 4 4 4 4 4 4 $ 1.$X#XJXHX$X|.GXKXKX}.#Xt & 4 4 4 4 4 = g M % n z = 6 $ 6.FXXXo o g x n n z M / / x o % 6..XW & 4 4 = y AXAXa . 4 x x n M l n / / 4   W .X6.4 4 4 4 * b bXBXq . 6 x x x n M M M z M / / / z   4 kXlX<.- 4 4 4 * F (.(.8 . f x n M M n l l g o   *.vX*.* 4 4 & a ",
"1 = % * 1 P L I P < 4 4 4 4 4 4 l 4 4 4 4 4 4 z p.F.( M d % % 4 n / S.A.M 4 4 4 4 4 4 4 4 4 4 f ( F.p.M l = % = z M p.F._ f 4 4 4 4 4 4 4 4 4 w x A.S.M x 4 % % f M ) A.( f 4 4 4 4 4 4 l 4 4 4 4 4 4 = t 7.HX1X7.Q 5 % 3 E 7.}.JX#XW = 4 4 4 4 4 4 4 4 4 4 4 W }.JX}.7.E * % 5 Q 7.1XKX|.t = 4 4 4 4 = g M % n z = 4 & 1.XX6.  o l x x n M M M / x o # 1.6.a = 4 4 = r w.w.r . 4 x x n M M M M M 4 . a 6.1.4 4 4 4 * b jX[.8 . d x x x n n M M M M M M / z   3 ,.,.b * 4 4 4 * b !.*.%   f x x n M z 4 6 4     F *.F 3 4 4 4 r ",
"        . o , L K L 4 4 4 4 4 4 l 4 4 4 4 = l F.A.p.4   .     . . % ) A.F./ * 4 4 4 4 4 4 4 4 g.S.g.z o . .   . . o x g.F.f.4 4 4 4 4 4 4 4 * ( F.A.) % . .     .   6 / _ 3.f 4 4 4 4 4 l 4 4 4 4 4 4 $ #XKX1X7.X .       . . E $XHXHXt = 4 4 4 4 4 4 4 4 = r HXHX1XE . .       . X 7.GXKX#X$ 4 4 4 4 = g M % n z = 6 $ 6.FXXX#   f x x x n M M M g   * w..XW & 4 4 = y AXFXW . = z x x n n M M n * . 1..Xq.4 4 4 4 * ~ MXMXb . 4 z z x x n n M M M M M M g   8 lXzX<.- 4 4 4 * F vX(.8 . 6 z x x n M M M z # o *.~.*.* 4 4 & a ",
"= g z z 4 . . < L P 1 4 4 4 4 4 l 4 4 4 4 w ) p.p.* . o = w d 4 # . o _ p._ f 4 4 4 4 4 4 4 M _ f.z .   % 4 d w *   . z f._ n = 4 4 4 4 4 3 k _ p._ o . # 4 d d 4 . . 3 ( M x 4 4 4 4 4 l 4 4 4 4 4 & Q }.$X7..   3 f z z f # . t 1X#X|.4 4 4 4 4 4 4 4 4 4 |.#X1Xp . o 6 l z l 4   . 7.$X}.Q & 4 4 4 = g M % n z = 4 = p XXAXp . 3 z x x x n M x 4 . a .X6.r 4 4 4 4 4 1.AXw.  O f x x x x n M g   # q.q.W 4 4 4 4 = q hXbX=.. * z z x x x n n M M M M M 4 . b lX[.q = 4 4 4 4 8 *.(.O.. % l x x x n n M d . 8 !.*.j 3 4 4 4 w ",
"x M / / d = # o , K K < 4 4 4 4 l 4 4 4 = z F.f.6 . o w f l l z g * . % _ F.) * 4 4 4 4 4 4 g.S.x     4 f g l z l 4   o x S.g.4 4 4 4 4 4 * ( F._ % . % f g l z 6 % o   6 ( p.f 3 4 4 4 l 4 4 4 4 4 $ #XJX|.X   6 x M / / ( n % . E 1X1Xp = 4 4 4 4 4 4 = t HXGXW . O g M M / ( / f   X 7.JX$X& 4 4 4 = g M % n z = 4 4 w AXAXW     4 z x x x x w   o W .Xq.4 4 4 4 4 $ 6.FXw.* . % g z x x x l #   w 6..XW & 4 4 4 4 * ,.MXhX    f z z x x x x n n n M z #   ,.lX-.4 4 4 4 4 4 * !.vX*.O   = l z x x x f o   j !.~.0 3 4 4 4 & ",
"M M M f 4 M f   = K P , 4 4 4 4 l 4 4 4 4 n g.f.# . 4 f f g g l z f O   ) S./ 4 4 4 4 4 3 g 3.S.f . % f f f g l z z = . f S.p.f 4 4 4 4 4 6 ( A.)   o w f f g d % f d   # ) ) g 4 4 4 4 l 4 4 4 4 = t |.HX7.. % z M M M / / n = . 3 #X}.E = 4 4 4 4 4 4 & Q $XGXr . w n M M M / ( / 4 . 7.KX}.t = 4 4 = g M % n z = 4 4 & 1.XXCXW .   % w f w %     W q.6.a = 4 4 4 4 = y w.CXXXX . # 4 f f 4 O . 3 q.6.1.6 4 4 4 4 4 - -.NXlX8 . % l z z z x x x x n x 4 . * [.zX-.- 4 4 4 4 4 * b !.(.*.. . # 4 f d =   . q !.*.F 3 4 4 4 4 4 ",
"n M M 4 z ) x O # P K 1 3 4 4 4 l 4 4 4 4 f.F.(   o d f f f g l z z * . l F.A.f 4 4 4 4 * / F.f.% . 4 f f f g f w 6 % . % 3.f.z = 4 4 4 = f S.S.g . % f f f g 4 4 z g #   x p./ 4 4 4 4 l 4 4 4 4 $ Q KXHXt . w x n M M x 4 4 6 o ; 7.1X7.& 4 4 4 4 4 4 $ #XJX#X; o l n n M M / / ( l   r GXKXQ $ 4 4 = g M % n z = 4 4 4 4 CXFXCX2.#   .       # W w..X6.= 4 4 4 4 4 4 $ 6.FXAXw.4   .         r 6..X.Xp = 4 4 4 4 4 = 0 [.jXjX- . % f z z x x x x z 4 . O -.,.-.q = 4 4 4 4 4 4 * !.(.(.*.%   .       O j !.!.!.8 4 4 4 4 4 4 ",
"x n M M M / M # o 1 P 1 3 4 4 4 l 4 4 4 4 / 3.z . # d f f f f 6 d l 4 . w _ _ d 4 4 4 4 = z 3./ O   4 f f f g 4 % 4 3 . # x M f 4 4 4 4 4 d _ _ 4 . * f f f f f g l g #   g M x 4 4 4 4 l 4 4 4 4 & E #X|.3   f x x n M z f n M %   Q |.Q = 4 4 4 4 4 4 & 7.#X7.  # z x n M M n / / z   3 |.#XW & 4 4 = g M % n z = 4 4 4 = p w.FXw.& 4 * % * 4 = 6..X2.e 4 4 4 4 4 4 4 4 4 1.AXFXp 4 = % % 4 = a CX6.p 4 4 4 4 4 4 4 4 - <.NXNX[.O . o 4 f l l g 6 # . ; -.zXzX&.- 4 4 4 4 4 4 4 4 8 *.(.(.4 4 = % * 4 3 F ~.*.0 4 4 4 4 4 4 4 ",
"x n n M M M x # o P K 1 3 4 4 4 l 4 4 4 4 s.F.M . O w d f f f 3 % = O . g S.A.f 4 4 4 4 * / F.p.#   4 d f f f f f l d   # ( p.z = 4 4 4 3 f S.A.f . % d d f f f f g f #   x p./ 4 4 4 4 l 4 4 4 4 $ Q KX1X5 . w x x x n M M / n #   7.$X7.& 4 4 4 4 4 4 $ }.JX}.  O l x x n x 4 f M l   5 1XKXQ $ 4 4 = g M % n z = 4 4 4 4 & a XXp = 4 4 4 4 4 = p 6.r = 4 4 4 4 4 4 4 4 4 = w.6.$ 4 4 4 4 4 4 = 6.2.& 4 4 4 4 4 4 4 4 4 = jXzXMXjX4   .   o o   .   = -.lX[.,.4 4 4 4 4 4 4 4 4 4 3 8 !.F * 4 4 4 4 4 4 8 *.b * 4 4 4 4 4 4 4 ",
"x x x n n M f   * L P 1 3 4 4 4 l 4 4 4 4 / A.p.o   4 d d f f f f 4 . . / A._ w 4 4 4 4 = z s.A.4 . % d d f f f f f * . 4 _ / f 4 4 4 4 4 w _ S.M . o 6 d d f f f f w   O ( ) z 4 4 4 4 l 4 4 4 4 = p #XHXQ . * z x x x n n M g   % }.}.Q = 4 4 4 4 4 4 & 1.1X1X%   d z x x x l 4 4 3 . Q HX#XE & 4 4 = g M % n z = 4 4 4 4 4 = = 4 4 4 4 4 4 4 4 4 = 4 4 4 4 4 4 4 4 4 4 4 4 & 4 4 4 4 4 4 4 4 4 4 = 4 4 4 4 4 4 4 4 4 4 4 + ,.NXMXb 4 3 % # # # = 4 0 lXzX-.- 4 4 4 4 4 4 4 4 4 4 4 3 * 4 4 4 4 4 4 4 4 4 3 3 4 4 4 4 4 4 4 4 ",
"z x x x n l #   , K L < 4 4 4 4 l 4 4 4 = z F.g.= . # 4 d f f f f = . # M s.n = 4 4 4 4 4 4 f.F.z .   4 d d f f f 4     k p.) 4 4 4 4 4 4 = ( F._ O . % w d f f f d # . 4 _ p.f 3 4 4 4 l 4 4 4 4 4 & #XJX|.  o 6 z x x x n z % . r #X#Xp = 4 4 4 4 4 4 & p GXHXp . # f z x x M x = .   7.JX#X& 4 4 4 = g M % n z = 4 4 4 4 4 4 4 4 4 4 4 4 4 4 4 4 4 4 4 4 4 4 4 4 4 4 4 4 4 4 4 4 4 4 4 4 4 4 4 4 4 4 4 4 4 4 4 4 4 4 4 4 4 4 ,.,.- 4 4 4 4 4 4 4 4 - &.,.4 4 4 4 4 4 4 4 4 4 4 4 4 4 4 4 4 4 4 4 4 4 4 4 4 4 4 4 4 4 4 4 4 4 ",
"4 f z l f # . = P P P 4 4 4 4 4 l 4 4 4 4 d p._ ) # . o = 4 6 4 % .   z n / f 4 4 4 4 4 4 3 ) 3._ w .   % 4 w 4 =   . w n M x 4 4 4 4 4 4 = z p._ n   . # 4 6 6 4 # . % n n / 6 4 4 4 4 l 4 4 4 4 4 $ 7.#X#XQ .   4 f l l f % . 3 7.7.|.6 4 4 4 4 4 4 4 4 4 #X#X}.3 . # w g z g 6 o . W |.#X7.& 4 4 4 = g M % n z = 4 4 4 4 4 4 4 4 4 4 4 4 4 4 4 4 4 4 4 4 4 4 4 4 4 4 4 4 4 4 4 4 4 4 4 4 4 4 4 4 4 4 4 4 4 4 4 4 4 4 4 4 4 4 - 4 4 4 4 4 4 4 4 4 4 4 = * 4 4 4 4 4 4 4 4 4 4 4 4 4 4 4 4 4 4 4 4 4 4 4 4 4 4 4 4 4 4 4 4 4 4 ",
"    O o     = P K L w 4 4 4 4 4 l 4 4 4 4 = z F.F.( %   .       . # l _ p.x = 4 4 4 4 4 4 4 4 g.F.p.6   .       .   6 ( p.( 4 4 4 4 4 4 4 4 = ) F.A.z O . .     .   % n 3.3.f 3 4 4 4 4 l 4 4 4 4 4 4 & #XJX1XW       o o     3 7.$X#Xt = 4 4 4 4 4 4 4 4 & p HXJX}.3     o O   . o i }.1X#X& 4 4 4 4 = g M % n z = 4 4 4 4 4 4 4 4 4 4 4 4 4 4 4 4 4 4 4 4 4 4 4 4 4 4 4 4 4 4 4 4 4 4 4 4 4 4 4 4 4 4 4 4 4 4 4 4 4 4 4 4 4 4 4 4 4 4 4 4 4 4 4 4 4 4 4 4 4 4 4 4 4 4 4 4 4 4 4 4 4 4 4 4 4 4 4 4 4 4 4 4 4 4 4 4 4 4 4 4 4 4 ",
"* # o # % 3 P K P 1 4 4 4 4 4 4 l 4 4 4 4 4 4 ) f.F.n = % o o # = d 3.) x d 4 4 4 4 4 4 4 4 = n p.F.p.4 * # o # * 4 / 3.n l 4 4 4 4 4 4 4 4 4 f _ A.S.f = # o O % = z p./ z 4 4 4 4 4 4 l 4 4 4 4 4 4 & Q #XHXGXe * # o # % & 7.1X7.Q 4 4 4 4 4 4 4 4 4 4 4 = 7.$XJX|.$ % O o # * 4 }.#X7.E = 4 4 4 4 = g M % n z = 4 4 4 4 4 4 4 4 4 4 4 4 4 4 4 4 4 4 4 4 4 4 4 4 4 4 4 4 4 4 4 4 * 4 4 = * 4 4 3 4 4 4 4 4 4 4 4 4 4 4 4 4 4 4 4 4 * 4 4 3 4 4 = * 4 = = 4 4 4 4 4 4 4 4 4 4 4 4 4 4 4 4 = 4 4 * 4 4 4 * 4 4 4 4 4 4 4 4 4 4 ",
"4 4 4 4 4 3 , K 1 2 4 4 4 4 4 4 l 4 4 4 4 4 4 = _ g.4 4 4 4 4 4 4 3 / ) 4 4 4 4 4 4 4 4 4 4 4 * x S.z = 4 4 4 4 4 = l 3.f = 4 4 4 4 4 4 4 4 4 = w g._ = 4 4 4 4 4 4 4 _ n = 4 4 4 4 4 4 l 4 4 4 4 4 4 4 $ i GX|.$ 6 4 4 4 4 = t #XQ $ 4 4 4 4 4 4 4 4 4 4 4 4 $ 7.HXE & 6 4 4 4 4 & 7.#Xt & 4 4 4 4 4 = g M % n z = 4 4 4 4 4 4 4 4 4 4 4 4 4 4 4 4 4 4 4 4 4 4 4 4 4 4 4 4 4 4 4 f z 4 4 f n d = f 4 4 4 4 4 4 4 4 4 4 4 4 4 4 4 4 d x 4 4 f 4 4 f n 6 g l = 4 4 4 4 4 4 4 4 4 4 4 4 4 4 4 f 4 w z 4 4 w x 4 4 4 4 4 4 4 4 4 4 ",
"4 4 4 4 4 4 4 < 4 4 4 4 4 4 4 4 l 4 4 4 4 4 4 4 4 f 4 4 4 4 4 4 4 4 6 6 4 4 4 4 4 4 4 4 4 4 4 4 = f 4 4 4 4 4 4 4 4 4 w 4 4 4 4 4 4 4 4 4 4 4 4 3 6 w 4 4 4 4 4 4 4 4 w 4 4 4 4 4 4 4 4 l 4 4 4 4 4 4 4 4 & t e = 4 4 4 4 4 4 = t 4 4 4 4 4 4 4 4 4 4 4 4 4 4 4 = p = 4 4 4 4 4 4 4 6 t = 4 4 4 4 4 4 = g M % n z = 4 4 4 4 4 4 4 4 4 4 4 4 4 4 4 4 4 4 4 4 4 4 4 4 4 4 4 4 4 4 4 3.p.M % g._ 4 f F.6 4 4 4 4 4 4 4 4 4 4 4 4 4 4 = x p.) ( g.* 4 g.( z p.p.f 3 4 4 4 4 4 4 4 4 4 4 4 4 3 f F.f _ s.M % _ s.M = 4 4 4 4 4 4 4 4 ",
"4 4 4 4 4 4 4 4 4 4 4 4 4 4 4 4 l 4 4 4 4 4 4 4 4 4 4 4 4 4 4 4 4 4 4 4 4 4 4 4 4 4 4 4 4 4 4 4 4 4 4 4 4 4 4 4 4 4 4 4 4 4 4 4 4 4 4 4 4 4 4 4 4 4 4 4 4 4 4 4 4 4 4 4 4 4 4 4 4 4 4 4 l 4 4 4 4 4 4 4 4 4 = 4 4 4 4 4 4 4 4 4 = 4 4 4 4 4 4 4 4 4 4 4 4 4 4 4 4 = 4 4 4 4 4 4 4 4 4 = 4 4 4 4 4 4 4 = g M % n z = 4 4 4 4 4 4 4 4 4 4 4 4 4 4 4 4 4 4 4 4 4 4 4 4 4 4 4 4 4 w g p.n p.% _ p.z M p.w 4 4 4 4 4 4 4 4 4 4 4 4 4 w f % l 3.6 p.= 3 3._ _ ( ) / % 4 4 4 4 4 4 4 4 4 4 4 4 4 3 _ x ) f 3.4 3.w p.= 4 4 4 4 4 4 4 4 ",
"4 4 4 4 4 4 4 4 4 4 4 4 4 4 4 4 l 4 4 4 4 4 4 4 4 4 4 4 4 4 4 4 4 4 4 4 4 4 4 4 4 4 4 4 4 4 4 4 4 4 4 4 4 4 4 4 4 4 4 4 4 4 4 4 4 4 4 4 4 4 4 4 4 4 4 4 4 4 4 4 4 4 4 4 4 4 4 4 4 4 4 4 l 4 4 4 4 4 4 4 4 4 4 4 4 4 4 4 4 4 4 4 4 4 4 4 4 4 4 4 4 4 4 4 4 4 4 4 4 4 4 4 4 4 4 4 4 4 4 4 4 4 4 4 4 4 4 = g M % n z = 4 4 4 4 4 4 4 * 3 4 % = 4 4 3 * 4 4 4 4 4 4 4 4 4 4 4 4 4 ( z z g.) 4 % g F.s.S.z = 4 4 4 4 4 4 4 4 4 4 4 = n / 6 p.4 4 p.4 w % z p.n A.z = 4 4 4 4 4 4 4 4 4 4 4 4 4 % 3.x _ l 3.4 3.g p.* 4 4 4 4 4 4 4 4 ",
"4 4 * 4 4 4 4 = 4 % 3 4 4 4 4 4 l 4 4 4 4 4 = 4 4 = 4 = 3 4 = 4 4 4 4 4 4 4 4 4 4 4 4 4 4 4 4 4 4 4 4 4 4 4 4 = 4 4 = 4 4 4 4 4 4 4 4 4 4 4 4 = = 4 4 = 4 4 = 4 4 4 4 4 4 = 3 4 4 4 4 4 l 4 4 4 4 4 4 = * 4 * 4 4 % = 4 3 4 4 3 4 4 4 4 4 4 4 4 4 4 4 4 4 4 4 4 4 4 = * 4 4 4 * 4 * * 4 4 4 4 4 4 4 4 = g M % n z = 4 4 4 4 4 4 3 / z 6 p.z 3 = l / = 4 4 4 4 4 4 4 4 4 4 4 4 = * n 3.x / / s.n f s.f 3 4 4 4 4 4 4 4 4 4 4 4 4 4 % p.g.M w _ f ( / s.z / _ 4 4 4 4 4 4 4 4 4 4 4 4 4 4 4 * _ f / f./ M M g.x = 4 4 4 4 4 4 4 4 ",
"4 f x 4 4 = 4 M f M f 3 4 4 4 4 l 4 4 4 4 4 k f w l = f f 4 l w 4 w w 4 d = = 4 4 4 4 4 4 4 4 4 4 4 4 w w 4 4 l 4 d k 4 4 4 4 4 4 4 4 4 4 4 4 f f 4 4 k w 4 l 4 4 4 * z w z f 4 4 4 4 4 l 4 4 4 4 4 3 g z 4 n f w M g = f w 4 f 4 f 4 % = 4 4 4 4 4 4 4 4 4 4 4 4 4 z x 4 4 f x w n n d 4 4 4 4 4 4 4 = g M % n z = 4 4 4 4 4 4 4 f./ ( ( 3.4 * s.s.% 4 4 4 4 4 4 4 4 4 4 4 4 4 4 f 6 4 4 w d = = 3 4 4 4 4 4 4 4 4 4 4 4 4 4 4 4 4 4 d d 4 4 4 4 d w 3 f 4 4 4 4 4 4 4 4 4 4 4 4 4 4 4 4 4 4 4 4 w 4 4 4 w 4 4 4 4 4 4 4 4 4 4 ",
") 3.s.x % f _ 3._ ) p.d 4 4 4 4 l 4 4 4 = z / f / / n / / n ( / * x z 4 / k x 4 4 4 4 4 4 4 4 4 4 4 = 3.x % M ( n / ( k = 4 4 4 4 4 4 4 4 = f ( f = z ) M M ( x = 6 z ( x / / g = 4 4 4 l 4 4 4 4 4 f p.3./ ( 3.p.p.d 4 F.z % s.% / ( M x 4 4 4 4 4 4 4 4 4 4 4 4 4 x p.M = 3.3.( x A.x * 4 4 4 4 4 4 = g M % n z = 4 4 4 4 4 4 * x / ) 6 3.4 M _ _ = 4 4 4 4 4 4 4 4 4 4 4 4 4 4 4 4 4 = 4 = 4 4 4 4 4 4 4 4 4 4 4 4 4 4 4 4 4 4 4 4 4 4 4 = 4 4 = 4 4 4 4 4 4 4 4 4 4 4 4 4 4 4 4 4 4 4 4 4 4 4 4 4 4 4 4 4 4 4 4 4 4 4 4 4 4 ",
"g._ f _ * p.3.3._ p.p.4 4 4 4 4 l 4 4 4 = ( / M n 6 p.f z p.4 / 4 z ) M / f 3.6 4 4 4 4 4 4 4 4 4 3 k / k = / 4 3.x f M * 4 4 4 4 4 4 4 4 = M ) x = M d M _ 4 / = M M ( x ( ( f 4 4 4 4 l 4 4 4 4 4 4 s.g.d = p./ p.x n p.l % f.) g.x 3.p.% 4 4 4 4 4 4 4 4 4 4 4 4 f f.z 4 p.n p.% p.4 4 4 4 4 4 4 4 = g M % n z = 4 4 4 4 4 4 % M / / ( p.z _ g.S.4 4 4 4 4 4 4 4 4 4 4 4 4 4 4 4 3 6 l 4 f 4 4 4 4 4 4 4 4 4 4 4 4 4 4 4 4 4 4 4 4 4 4 * l d w f = 4 4 4 4 4 4 4 4 4 4 4 4 4 4 4 4 4 4 4 4 4 4 4 4 4 = 4 4 4 4 4 4 4 4 4 4 4 ",
"g._ z _ 4 p.d 3._ M p.g = 4 4 4 l 4 4 4 4 ( f _ / f 3.l x 3.d / 4 z / z / z l = 4 4 4 4 4 4 4 4 4 4 ) _ ( 4 / f _ n l n * 4 4 4 4 4 4 4 4 = / g / d n g M _ f / = ( 6 / n n M z = 4 4 4 l 4 4 4 4 = g _ ) M ) z % 4 S.g.S._ % f.z p.M ) 4 4 4 4 4 4 4 4 4 4 4 4 4 4 4 _ ) = z g./ M ) % 4 4 4 4 4 4 4 = g M % n z = 4 4 4 4 4 4 = g l 6 p.z M 4 4 x = 4 4 4 4 4 4 4 4 4 4 4 4 4 4 4 4 M _ _ p._ 4 4 4 4 4 4 4 4 4 4 4 4 4 4 4 4 4 4 4 4 4 4 p.M s.p.M = 4 4 4 4 4 4 4 4 4 4 4 4 4 4 4 4 4 4 4 f f f d = f f 4 4 4 4 4 4 4 4 4 4 ",
"n ( f.l * ) f.) ) p.3.w 4 4 4 4 l 4 4 4 = l ) z n ) g / / k ) x * z l 4 M _ / 6 4 4 4 4 4 4 4 4 4 4 6 x M z z _ l n ) f 4 4 4 4 4 4 4 4 4 4 f ) n x k ) x z _ z * z ) / z ) / f 4 4 4 4 l 4 4 4 4 4 d p._ 3.A.( / p./ 6 3.n * 3.= x p.g.M 4 4 4 4 4 4 4 4 4 4 4 4 6 ) 3.( M z p.w _ f 3 4 4 4 4 4 4 4 = g M % n z = 4 4 4 4 4 4 4 4 3 4 % = = 4 4 = 4 4 4 4 4 4 4 4 4 4 4 4 4 4 4 4 3.g._ 3./ p.4 4 4 4 4 4 4 4 4 4 4 4 4 4 4 4 4 4 4 = z p.g./ p.) ( * 4 4 4 4 4 4 4 4 4 4 4 4 4 4 4 4 4 = l g.s.s.3.x g.z 4 4 4 4 4 4 4 4 4 4 ",
"4 4 6 4 4 4 6 4 4 f 4 4 4 4 4 4 l 4 4 4 4 4 4 4 4 4 = 4 4 3 4 4 4 4 4 4 4 4 w 4 4 4 4 4 4 4 4 4 4 4 4 4 4 4 4 4 4 4 4 4 4 4 4 4 4 4 4 4 4 4 4 4 4 4 4 4 4 4 4 4 4 4 4 4 4 6 4 4 4 4 4 4 l 4 4 4 4 4 4 4 w 4 6 d 6 w = = = 4 4 4 4 4 4 w w 4 4 4 4 4 4 4 4 4 4 4 4 4 d 6 3 4 d 4 4 4 4 4 4 4 4 4 4 4 4 = g M % n z = 4 4 4 4 4 4 4 4 4 4 4 4 4 4 4 4 4 4 4 4 4 4 4 4 4 4 4 4 4 4 = l _ f _ 3._ p.6 4 4 4 4 4 4 4 4 4 4 4 4 4 4 4 4 4 4 % _ g / ( p._ ( * 4 4 4 4 4 4 4 4 4 4 4 4 4 4 4 4 4 * x ( M n ) z ) n 3 4 4 4 4 4 4 4 4 4 ",
"4 4 4 4 4 4 4 4 4 4 4 4 4 4 4 4 l 4 4 4 4 4 4 4 4 4 4 4 4 4 4 4 4 4 4 4 4 4 4 4 4 4 4 4 4 4 4 4 4 4 4 4 4 4 4 4 4 4 4 4 4 4 4 4 4 4 4 4 4 4 4 4 4 4 4 4 4 4 4 4 4 4 4 4 4 4 4 4 4 4 4 4 l 4 4 4 4 4 4 4 4 4 4 4 4 4 4 4 4 4 4 4 4 4 4 4 4 4 4 4 4 4 4 4 4 4 4 4 4 4 4 4 4 4 4 4 4 4 4 4 4 4 4 4 4 4 4 = g M % n z = 4 4 4 4 4 4 4 4 4 4 4 4 4 4 4 4 4 4 4 4 4 4 4 4 4 4 4 4 4 4 4 4 p.s._ 3.) s.w 4 4 4 4 4 4 4 4 4 4 4 4 4 4 4 4 4 4 = x p.f.M s.) _ * 4 4 4 4 4 4 4 4 4 4 4 4 4 4 4 4 4 * z ( M n ) z _ p.= 4 4 4 4 4 4 4 4 4 ",
"4 4 4 4 4 4 4 4 4 4 4 4 4 4 4 4 l 4 4 4 4 4 4 4 4 4 4 4 4 4 4 4 4 4 4 4 4 4 4 4 4 4 4 4 4 4 4 4 4 4 4 4 4 4 4 4 4 4 4 4 4 4 4 4 4 4 4 4 4 4 4 4 4 4 4 4 4 4 4 4 4 4 4 4 4 4 4 4 4 4 4 4 l 4 4 4 4 4 4 4 4 4 4 4 4 4 4 4 4 4 4 4 4 4 4 4 4 4 4 4 4 4 4 4 4 4 4 4 4 4 4 4 4 4 4 4 4 4 4 4 4 4 4 4 4 4 4 = l M % x z = 4 4 4 4 4 4 4 4 4 4 4 4 4 4 4 4 4 4 4 4 4 4 4 4 4 4 4 4 4 4 4 4 f z 6 f M d 4 4 4 4 4 4 4 4 4 4 4 4 4 4 4 4 4 4 4 4 4 l k 4 z x 4 4 4 4 4 4 4 4 4 4 4 4 4 4 4 4 4 4 4 4 4 w w 6 w d x 6 4 4 4 4 4 4 4 4 4 4 ",
"4 4 4 4 4 4 4 4 4 4 4 4 4 4 4 4 z 4 4 4 4 4 4 4 4 4 4 4 4 4 4 4 4 4 4 4 4 4 4 4 4 4 4 4 4 4 4 4 4 4 4 4 4 4 4 4 4 4 4 4 4 4 4 4 4 4 4 4 4 4 4 4 4 4 4 4 4 4 4 4 4 4 4 4 4 4 4 4 4 4 4 4 z 4 4 4 4 4 4 4 4 4 4 4 4 4 4 4 4 4 4 4 4 4 4 4 4 4 4 4 4 4 4 4 4 4 4 4 4 4 4 4 4 4 4 4 4 4 4 4 4 4 4 4 4 4 4 = M z * l M = 4 4 4 4 4 4 4 4 4 4 4 4 4 4 4 4 4 4 4 4 4 4 4 4 4 4 4 4 4 4 4 4 4 = 4 4 * 4 4 4 4 4 4 4 4 4 4 4 4 4 4 4 4 4 4 4 4 4 4 = = 4 = = 4 4 4 4 4 4 4 4 4 4 4 4 4 4 4 4 4 4 4 4 4 4 4 4 4 4 * 4 4 4 4 4 4 4 4 4 4 4 ",
"= = = = = = = = = = = = = = = 4 6 = = = = = = = = = = = = = = = = = = = = = = = = = = = = = = = = = = = = = = = = = = = = = = = = = = = = = = = = = = = = = = = = = = = = = = = = = = = 6 3 = = = = = = = = = = = = = = = = = = = = = = = = = = = = = = = = = = = = = = = = = = = = = = = = = = = = = g ( 4 4 4 / l = = = = = = = = = = = = = = = = = = = = = = = = = = = = = = = = 3 4 = 3 4 3 = = = = = = = = = = = = = = = = = = = = = 3 3 = 4 4 = = = = = = = = = = = = = = = = = = = = = = = = = = 4 3 = = = = = = = = = = ",
"g g g g g g g g g g g g g g g g f g g g g g g g g g g g g g g g g g g g g g g g g g g g g g g g g g g g g g g g g g g g g g g g g g g g g g g g g g g g g g g g g g g g g g g g g g g g f g g g g g g g g g g g g g g g g g g g g g g g g g g g g g g g g g g g g g g g g g g g g g g g g g g g g l M ( f 4 4 4 6 / M l g g g g g g g g g g g g g g g g g g g g g g g g g g g g g g g g g g g g g g g g g g g g g g g g g g g g g g g g g g g g g g g g g g g g g g g g g g g g g g g g g g g g g g g g g g g g g g g g g g g g ",
"M M M M M M M M M M M M M M M M M M M M M M M M M M M M M M M M M M M M M M M M M M M M M M M M M M M M M M M M M M M M M M M M M M M M M M M M M M M M M M M M M M M M M M M M M M M M M M M M M M M M M M M M M M M M M M M M M M M M M M M M M M M M M M M M M M M M M M M M M M M M M M M M M M z 6 4 4 4 4 4 4 z M M M M M M M M M M M M M M M M M M M M M M M M M M M M M M M M M M M M M M M M M M M M M M M M M M M M M M M M M M M M M M M M M M M M M M M M M M M M M M M M M M M M M M M M M M M M M M M M M M M M M ",
"% % % % % % % % % % % % % % % % % % % % % % % % % % % % % % % % % % % % % % % % % % % % % % % % % % % % % % % % % % % % % % % % % % % % % % % % % % % % % % % % % % % % % % % % % % % % % % % % % % % % % % % % % % % % % % % % % % % % % % % % % % % % % % % % % % % % % % % % % % % % % % % % % % % * = = = = = = % % % % % % % % % % % % % % % % % % % % % % % % % % % % % % % % % % % % % % % % % % % % % % % % % % % % % % % % % % % % % % % % % % % % % % % % % % % % % % % % % % % % % % % % % % % % % % % % % % % % % % ",
"n n n n n n n n n n n n n n n n n n n n n n n n n n n n n n n n n n n n n n n n n n n n n n n n n n n n n n n n n n n n n n n n n n n n n n n n n n n n n n n n n n n n n n n n n n n n n n n n n n n n n n n n n n n n n n n n n n n n n n n n n n n n n n n n n n n n n n n n n n n n n n n n n n n n n n n n n n n n n n n n n n n n n n n n n n n n n n n n n n n n n n n n n n n n n n n n n n n n n n n n n n n n n n n n n n n n n n n n n n n n n n n n n n n n n n n n n n n n n n n n n n n n n n n n n n n n n n n n ",
"z z z z z z z z z z z z z z z z z z z z z z z z z z z z z z z z z z z z z z z z z z z z z z z z z z z z z z z z z z z z z z z z z z z z z z z z z z z z z z z z z z z z z z z z z z z z z z z z z z z z z z z z z z z z z z z z z z z z z z z z z z z z z z z z z z z z z z z z z z z z z z z z z z z z z z z z z z z z z z z z z z z z z z z z z z z z z z z z z z z z z z z z z z z z z z z z z z z z z z z z z z z z z z z z z z z z z z z z z z z z z z z z z z z z z z z z z z z z z z z z z z z z z z z z z z z z z z z z ",
"= = = = = = = = = = = = = = = = = = = = = = = = = = = = = = = = = = = = = = = = = = = = = = = = = = = = = = = = = = = = = = = = = = = = = = = = = = = = = = = = = = = = = = = = = = = = = = = = = = = = = = = = = = = = = = = = = = = = = = = = = = = = = = = = = = = = = = = = = = = = = = = = = = = = = = = = = = = = = = = = = = = = = = = = = = = = = = = = = = = = = = = = = = = = = = = = = = = = = = = = = = = = = = = = = = = = = = = = = = = = = = = = = = = = = = = = = = = = = = = = = = = = = = = = = = = = = = = = ",
"4 4 4 4 4 4 4 4 4 4 4 4 4 4 4 4 4 4 4 4 4 4 4 4 4 4 4 4 4 4 4 4 4 4 4 4 4 4 4 4 4 4 4 4 4 4 4 4 4 4 4 4 4 4 4 4 4 4 4 4 4 4 4 4 4 4 4 4 4 4 4 4 4 4 4 4 4 4 4 4 4 4 4 4 4 4 4 4 4 4 4 4 4 4 4 4 4 4 4 4 4 4 4 4 4 4 4 4 4 4 4 4 4 4 4 4 4 4 4 4 4 4 4 4 4 4 4 4 4 4 4 4 4 4 4 4 4 4 4 4 4 4 4 4 4 4 4 4 4 4 4 4 4 4 4 4 4 4 4 4 4 4 4 4 4 4 4 4 4 4 4 4 4 4 4 4 4 4 4 4 4 4 4 4 4 4 4 4 4 4 4 4 4 4 4 4 4 4 4 4 4 4 4 4 4 4 4 4 4 4 4 4 4 4 4 4 4 4 4 4 4 4 4 4 4 4 4 4 4 4 4 4 4 4 4 4 4 4 4 4 4 4 4 4 4 4 4 4 4 4 4 4 4 4 4 4 ",
"4 4 4 4 4 4 4 4 4 4 4 4 4 4 4 4 4 4 4 4 4 4 4 4 4 4 4 4 4 4 4 4 4 4 4 4 4 4 4 4 4 4 4 4 4 4 4 4 4 4 4 4 4 4 4 4 4 4 4 4 4 4 4 4 4 4 4 4 4 4 4 4 4 4 4 4 4 4 4 4 4 4 4 4 4 4 4 4 4 4 4 4 4 4 4 4 4 4 4 4 4 4 4 4 4 4 4 4 4 4 4 4 4 4 4 4 4 4 4 4 4 4 4 4 4 4 4 4 4 4 4 4 4 4 4 4 4 4 4 4 4 4 4 4 4 4 4 4 4 4 4 4 4 4 4 4 4 4 4 4 4 4 4 4 4 4 4 4 4 4 4 4 4 4 4 4 4 4 4 4 4 4 4 4 4 4 4 4 4 4 4 4 4 4 4 4 4 4 4 4 4 4 4 4 4 4 4 4 4 4 4 4 4 4 4 4 4 4 4 4 4 4 4 4 4 4 4 4 4 4 4 4 4 4 4 4 4 4 4 4 4 4 4 4 4 4 4 4 4 4 4 4 4 4 4 4 ",
"4 4 4 4 4 4 4 4 4 4 4 4 4 4 4 4 4 4 4 4 4 4 4 4 4 4 4 4 4 4 4 4 4 4 4 4 4 4 4 4 4 4 4 4 4 4 4 4 4 4 4 4 4 4 4 4 4 4 4 4 4 4 4 4 4 4 4 4 4 4 4 4 4 4 4 4 4 4 4 4 4 4 4 4 4 4 4 4 4 4 4 4 4 4 4 4 4 4 4 4 4 4 4 4 4 4 4 4 4 4 4 4 4 4 4 4 4 4 4 4 4 4 4 4 4 4 4 4 4 4 4 4 4 4 4 4 4 4 4 4 4 4 4 4 4 4 4 4 4 4 4 4 4 4 4 4 4 4 4 4 4 4 4 4 4 4 4 4 4 4 4 4 4 4 4 4 4 4 4 4 4 4 4 4 4 4 4 4 4 4 4 4 4 4 4 4 4 4 4 4 4 4 4 4 4 4 4 4 4 4 4 4 4 4 4 4 4 4 4 4 4 4 4 4 4 4 4 4 4 4 4 4 4 4 4 4 4 4 4 4 4 4 4 4 4 4 4 4 4 4 4 4 4 4 4 4 ",
"4 4 4 4 4 4 4 4 4 4 4 4 4 4 4 4 4 4 4 4 4 4 4 4 4 4 4 4 4 4 4 4 4 4 4 4 4 4 4 4 4 4 4 4 4 4 4 4 4 4 4 4 4 4 4 4 4 4 4 4 4 4 4 4 4 4 4 4 4 4 4 4 4 4 4 4 4 4 4 4 4 4 4 4 4 4 4 4 4 4 4 4 4 4 4 4 4 4 4 4 4 4 4 4 4 4 4 4 4 4 4 4 4 4 4 4 4 4 4 4 4 4 4 4 4 4 4 4 4 4 4 4 4 4 4 4 4 4 4 4 4 4 4 4 4 4 4 4 4 4 4 4 4 4 4 4 4 4 4 4 4 4 4 4 4 4 4 4 4 4 4 4 4 4 4 4 4 4 4 4 4 4 4 4 4 4 4 4 4 4 4 4 4 4 4 4 4 4 4 4 4 4 4 4 4 4 4 4 4 4 4 4 4 4 4 4 4 4 4 4 4 4 4 4 4 4 4 4 4 4 4 4 4 4 4 4 4 4 4 4 4 4 4 4 4 4 4 4 4 4 4 4 4 4 4 4 ",
"4 4 4 4 4 4 4 4 4 4 4 4 4 4 4 4 4 4 4 4 4 4 4 4 4 4 4 4 4 4 4 4 4 4 4 4 4 4 4 4 4 4 4 4 4 4 4 4 4 4 4 4 4 4 4 4 4 4 4 4 4 4 4 4 4 4 4 4 4 4 4 4 4 4 4 4 4 4 4 4 4 4 4 4 4 4 4 4 4 4 4 4 4 4 4 4 4 4 4 4 4 4 4 4 4 4 4 4 4 4 4 4 4 4 4 4 4 4 4 4 4 4 4 4 4 4 4 4 4 4 4 4 4 4 4 4 4 4 4 4 4 4 4 4 4 4 4 4 4 4 4 4 4 4 4 4 4 4 4 4 4 4 4 4 4 4 4 4 4 4 4 4 4 4 4 4 4 4 4 4 4 4 4 4 4 4 4 4 4 4 4 4 4 4 4 4 4 4 4 4 4 4 4 4 4 4 4 4 4 4 4 4 4 4 4 4 4 4 4 4 4 4 4 4 4 4 4 4 4 4 4 4 4 4 4 4 4 4 4 4 4 4 4 4 4 4 4 4 4 4 4 4 4 4 4 4 ",
"4 4 4 4 4 4 4 4 4 4 4 4 4 4 4 4 4 4 4 4 4 4 4 4 4 4 4 4 4 4 4 4 4 4 4 4 4 4 4 4 4 4 4 4 4 4 4 4 4 4 4 4 4 4 4 4 4 4 4 4 4 4 4 4 4 4 4 4 4 4 4 4 4 4 4 4 4 4 4 4 4 4 4 4 4 4 4 4 4 4 4 4 4 4 4 4 4 4 4 4 4 4 4 4 4 4 4 4 4 4 4 4 4 4 4 4 4 4 4 4 4 4 4 4 4 4 4 4 4 4 4 4 4 4 4 4 4 4 4 4 4 4 4 4 4 4 4 4 4 4 4 4 4 4 4 4 4 4 4 4 4 4 4 4 4 4 4 4 4 4 4 4 4 4 4 4 4 4 4 4 4 4 4 4 4 4 4 4 4 4 4 4 4 4 4 4 4 4 4 4 4 4 4 4 4 4 4 4 4 4 4 4 4 4 4 4 4 4 4 4 4 4 4 4 4 4 4 4 4 4 4 4 4 4 4 4 4 4 4 4 4 4 4 4 4 4 4 4 4 4 4 4 4 4 4 4 ",
"4 4 4 4 4 4 4 4 4 4 4 4 4 4 4 4 4 4 4 4 4 4 4 4 4 4 4 4 4 4 4 4 4 4 4 4 4 4 4 4 4 4 4 4 4 4 4 4 4 4 4 4 4 4 4 4 4 4 4 4 4 4 4 4 4 4 4 4 4 4 4 4 4 4 4 4 4 4 4 4 4 4 4 4 4 4 4 4 4 4 4 4 4 4 4 4 4 4 4 4 4 4 4 4 4 4 4 4 4 4 4 4 4 4 4 4 4 4 4 4 4 4 4 4 4 4 4 4 4 4 4 4 4 4 4 4 4 4 4 4 4 4 4 4 4 4 4 4 4 4 4 4 4 4 4 4 4 4 4 4 4 4 4 4 4 4 4 4 4 4 4 4 4 4 4 4 4 4 4 4 4 4 4 4 4 4 4 4 4 4 4 4 4 4 4 4 4 4 4 4 4 4 4 4 4 4 4 4 4 4 4 4 4 4 4 4 4 4 4 4 4 4 4 4 4 4 4 4 4 4 4 4 4 4 4 4 4 4 4 4 4 4 4 4 4 4 4 4 4 4 4 4 4 4 4 4 ",
"4 4 4 4 4 4 4 4 4 4 4 4 4 4 4 4 4 4 4 4 4 4 4 4 4 4 4 4 4 4 4 4 4 4 4 4 4 4 4 4 4 4 4 4 4 4 4 4 4 4 4 4 4 4 4 4 4 4 4 4 4 4 4 4 4 4 4 4 4 4 4 4 4 4 4 4 4 4 4 4 4 4 4 4 4 4 4 4 4 4 4 4 4 4 4 4 4 4 4 4 4 4 4 4 4 4 4 4 4 4 4 4 4 4 4 4 4 4 4 4 4 4 4 4 4 4 4 4 4 4 4 4 4 4 4 4 4 4 4 4 4 4 4 4 4 4 4 4 4 4 4 4 4 4 4 4 4 4 4 4 4 4 4 4 4 4 4 4 4 4 4 4 4 4 4 4 4 4 4 4 4 4 4 4 4 4 4 4 4 4 4 4 4 4 4 4 4 4 4 4 4 4 4 4 4 4 4 4 4 4 4 4 4 4 4 4 4 4 4 4 4 4 4 4 4 4 4 4 4 4 4 4 4 4 4 4 4 4 4 4 4 4 4 4 4 4 4 4 4 4 4 4 4 4 4 4 ",
"4 4 4 4 4 4 4 4 4 4 4 4 4 4 4 4 4 4 4 4 4 4 4 4 4 4 4 4 4 4 4 4 4 4 4 4 4 4 4 4 4 4 4 4 4 4 4 4 4 4 4 4 4 4 4 4 4 4 4 4 4 4 4 4 4 4 4 4 4 4 4 4 4 4 4 4 4 4 4 4 4 4 4 4 4 4 4 4 4 4 4 4 4 4 4 4 4 4 4 4 4 4 4 4 4 4 4 4 4 4 4 4 4 4 4 4 4 4 4 4 4 4 4 4 4 4 4 4 4 4 4 4 4 4 4 4 4 4 4 4 4 4 4 4 4 4 4 4 4 4 4 4 4 4 4 4 4 4 4 4 4 4 4 4 4 4 4 4 4 4 4 4 4 4 4 4 4 4 4 4 4 4 4 4 4 4 4 4 4 4 4 4 4 4 4 4 4 4 4 4 4 4 4 4 4 4 4 4 4 4 4 4 4 4 4 4 4 4 4 4 4 4 4 4 4 4 4 4 4 4 4 4 4 4 4 4 4 4 4 4 4 4 4 4 4 4 4 4 4 4 4 4 4 4 4 4 ",
"4 4 4 4 4 4 4 4 4 4 4 4 4 4 4 4 4 4 4 4 4 4 4 4 4 4 4 4 4 4 4 4 4 4 4 4 4 4 4 4 4 4 4 4 4 4 4 4 4 4 4 4 4 4 4 4 4 4 4 4 4 4 4 4 4 4 4 4 4 4 4 4 4 4 4 4 4 4 4 4 4 4 4 4 4 4 4 4 4 4 4 4 4 4 4 4 4 4 4 4 4 4 4 4 4 4 4 4 4 4 4 4 4 4 4 4 4 4 4 4 4 4 4 4 4 4 4 4 4 4 4 4 4 4 4 4 4 4 4 4 4 4 4 4 4 4 4 4 4 4 4 4 4 4 4 4 4 4 4 4 4 4 4 4 4 4 4 4 4 4 4 4 4 4 4 4 4 4 4 4 4 4 4 4 4 4 4 4 4 4 4 4 4 4 4 4 4 4 4 4 4 4 4 4 4 4 4 4 4 4 4 4 4 4 4 4 4 4 4 4 4 4 4 4 4 4 4 4 4 4 4 4 4 4 4 4 4 4 4 4 4 4 4 4 4 4 4 4 4 4 4 4 4 4 4 4 ",
"4 4 4 4 4 4 4 4 4 4 4 4 4 4 4 4 4 4 4 4 4 4 4 4 4 4 4 4 4 4 4 4 4 4 4 4 4 4 4 4 4 4 4 4 4 4 4 4 4 4 4 4 4 4 4 4 4 4 4 4 4 4 4 4 4 4 4 4 4 4 4 4 4 4 4 4 4 4 4 4 4 4 4 4 4 4 4 4 4 4 4 4 4 4 4 4 4 4 4 4 4 4 4 4 4 4 4 4 4 4 4 4 4 4 4 4 4 4 4 4 4 4 4 4 4 4 4 4 4 4 4 4 4 4 4 4 4 4 4 4 4 4 4 4 4 4 4 4 4 4 4 4 4 4 4 4 4 4 4 4 4 4 4 4 4 4 4 4 4 4 4 4 4 4 4 4 4 4 4 4 4 4 4 4 4 4 4 4 4 4 4 4 4 4 4 4 4 4 4 4 4 4 4 4 4 4 4 4 4 4 4 4 4 4 4 4 4 4 4 4 4 4 4 4 4 4 4 4 4 4 4 4 4 4 4 4 4 4 4 4 4 4 4 4 4 4 4 4 4 4 4 4 4 4 4 4 "
};
