/* XPM */
static char *deesser_mono[] = {
/* columns rows colors chars-per-pixel */
"256 256 256 2 ",
"   c #0B0509",
".  c #0A0A0C",
"X  c #060706",
"o  c #0D0E11",
"O  c #130D12",
"+  c #0D1413",
"@  c #0E1915",
"#  c #0E1A1C",
"$  c #121216",
"%  c #1C1316",
"&  c #15161B",
"*  c #1C151C",
"=  c #16191D",
"-  c #18191F",
";  c #141A16",
":  c #110909",
">  c #25191B",
",  c #371C1B",
"<  c #14211C",
"1  c #39231D",
"2  c #282218",
"3  c #0D1A22",
"4  c #081924",
"5  c #141B22",
"6  c #1B1C22",
"7  c #181D2A",
"8  c #231D23",
"9  c #2B1E23",
"0  c #241E2A",
"q  c #2A1E32",
"w  c #301F29",
"e  c #0B2429",
"r  c #162326",
"t  c #1E2126",
"y  c #16252D",
"u  c #1A222A",
"i  c #152A2A",
"p  c #1A2A2C",
"a  c #132A27",
"s  c #15312E",
"d  c #0B2837",
"f  c #162635",
"g  c #1D2535",
"h  c #152B33",
"j  c #1B2B33",
"k  c #1E273A",
"l  c #152C3C",
"z  c #1C2A3C",
"x  c #142638",
"c  c #153B36",
"v  c #193438",
"b  c #09362D",
"n  c #222126",
"m  c #2B2125",
"M  c #23252C",
"N  c #2B252B",
"B  c #26282F",
"V  c #2B2A2C",
"C  c #362526",
"Z  c #252730",
"A  c #2D2135",
"S  c #262930",
"D  c #292B34",
"F  c #2D2F38",
"G  c #222D38",
"H  c #312B34",
"J  c #352738",
"K  c #213033",
"L  c #2F303A",
"P  c #263439",
"I  c #31333D",
"U  c #393639",
"Y  c #32362A",
"T  c #462726",
"R  c #582926",
"E  c #4D3332",
"W  c #672B25",
"Q  c #772E25",
"!  c #6E3631",
"~  c #54231A",
"^  c #0B483B",
"/  c #12453B",
"(  c #04533F",
")  c #334539",
"_  c #6D4D2B",
"`  c #634D2B",
"'  c #1A2C41",
"]  c #0B3E4A",
"[  c #083149",
"{  c #153142",
"}  c #1D3244",
"|  c #193948",
" . c #143956",
".. c #0A324C",
"X. c #242D49",
"o. c #3B2645",
"O. c #273846",
"+. c #353641",
"@. c #363843",
"#. c #393B46",
"$. c #3C3E4A",
"%. c #393744",
"&. c #2F3155",
"*. c #283C6D",
"=. c #1B375A",
"-. c #43254B",
";. c #443B45",
":. c #4B2755",
">. c #542C53",
",. c #6F344F",
"<. c #5B2B66",
"1. c #4F336D",
"2. c #632C6D",
"3. c #692D74",
"4. c #6C3376",
"5. c #0C424C",
"6. c #16444B",
"7. c #095A46",
"8. c #0D4659",
"9. c #0A4857",
"0. c #184855",
"q. c #0C505E",
"w. c #0A5A54",
"e. c #18535D",
"r. c #135447",
"t. c #3E414D",
"y. c #34454B",
"u. c #304553",
"i. c #00644B",
"p. c #08644D",
"a. c #086B52",
"s. c #027355",
"d. c #01795A",
"f. c #067457",
"g. c #126455",
"h. c #0C5B67",
"j. c #185967",
"k. c #0B4A77",
"l. c #0F476C",
"z. c #2B4F6D",
"x. c #096B78",
"c. c #196875",
"v. c #0E6873",
"b. c #206879",
"n. c #377074",
"m. c #2C694F",
"M. c #41424F",
"N. c #49434A",
"B. c #424552",
"V. c #464857",
"C. c #474A58",
"Z. c #4A4C5C",
"A. c #494655",
"S. c #515056",
"D. c #4D5261",
"F. c #525465",
"G. c #57596B",
"H. c #5A5B6F",
"J. c #5D6274",
"K. c #4A7271",
"L. c #646979",
"P. c #686251",
"I. c #873328",
"U. c #973528",
"Y. c #883C38",
"T. c #8F3933",
"R. c #A73829",
"E. c #B83B29",
"W. c #AE3E30",
"Q. c #A62F1E",
"!. c #C73E29",
"~. c #D13D29",
"^. c #DF3A20",
"/. c #866D00",
"(. c #8E4E30",
"). c #A6443B",
"_. c #B34E30",
"`. c #8F6C36",
"'. c #B26D2F",
"]. c #A85C1B",
"[. c #D5412A",
"{. c #DB422A",
"}. c #D44A2E",
"|. c #CF4933",
" X c #E5432A",
".X c #F4462B",
"XX c #D77729",
"oX c #CD7130",
"OX c #E4792A",
"+X c #E26D2A",
"@X c #D7701F",
"#X c #953D67",
"$X c #8F3B5C",
"%X c #B34571",
"&X c #9E5E52",
"*X c #C6497A",
"=X c #CB5450",
"-X c #04815E",
";X c #078B6B",
":X c #028964",
">X c #01966C",
",X c #009E75",
"<X c #059571",
"1X c #00A477",
"2X c #639376",
"3X c #DA8131",
"4X c #9F825B",
"5X c #C58045",
"6X c #763286",
"7X c #0A5387",
"8X c #0A588F",
"9X c #10738A",
"0X c #217387",
"qX c #2E59AF",
"wX c #0566A9",
"eX c #016CB7",
"rX c #0870B7",
"tX c #1E4E8F",
"yX c #626794",
"uX c #0377C9",
"iX c #316EE8",
"pX c #336CDD",
"aX c #8B3799",
"sX c #8D399B",
"dX c #883797",
"fX c #913A9D",
"gX c #8D2D95",
"hX c #8B3DA3",
"jX c #9836A6",
"kX c #A43DB2",
"lX c #AA3EB9",
"zX c #A434B2",
"xX c #A244A7",
"cX c #CC4C8B",
"vX c #C145A3",
"bX c #B942C8",
"nX c #C645D6",
"mX c #D749E8",
"MX c #E14BF2",
"NX c #B13FC0",
"BX c #058A97",
"VX c #0C8B98",
"CX c #268C97",
"ZX c #0597A4",
"AX c #0E99A7",
"SX c #2394AB",
"DX c #00ADBC",
"FX c #01A5B3",
"GX c #02A7B5",
"HX c #23A2B6",
"JX c #00B0C1",
"KX c #24ABC5",
"LX c #018EEF",
"PX c #0382DA",
"IX c #608D92",
"UX c #9BA0C1",
/* pixels */
"6 6 6 6 6 6 6 6 6 6 6 6 6 6 6 6 6 6 6 6 6 6 6 6 6 6 6 6 6 6 6 6 6 6 6 6 6 6 6 6 6 6 6 6 6 6 6 6 6 6 6 6 6 6 6 6 6 6 6 6 6 6 6 6 6 6 6 6 6 6 6 6 6 6 6 6 6 6 6 6 6 6 6 6 6 6 6 6 6 6 6 6 6 6 6 6 6 6 6 6 6 6 6 6 6 6 6 6 6 6 6 6 6 6 6 6 6 6 6 6 6 6 6 6 6 6 6 6 6 6 6 6 6 6 6 6 6 6 6 6 6 6 6 6 6 6 6 6 6 6 6 6 6 6 6 6 6 6 6 6 6 6 6 6 6 6 6 6 6 6 6 6 6 6 6 6 6 6 6 6 6 6 6 6 6 6 6 6 6 6 6 6 6 6 6 6 6 6 6 6 6 6 6 6 6 6 6 6 6 6 6 6 6 6 6 6 6 6 6 6 6 6 6 6 6 6 6 6 6 6 6 6 6 6 6 6 6 6 6 6 6 6 6 6 6 6 6 6 6 6 6 6 6 6 6 6 ",
"6 6 6 6 6 6 6 6 6 6 6 6 6 6 6 6 6 6 6 6 6 6 6 6 6 6 6 6 6 6 6 6 6 6 6 6 6 6 6 6 6 6 6 6 6 6 6 6 6 6 6 6 6 6 6 6 6 6 6 6 6 6 6 6 6 6 6 6 6 6 6 6 6 6 6 6 6 6 6 6 6 6 6 6 6 6 6 6 6 6 6 6 6 6 6 6 6 6 6 6 6 6 6 6 6 6 6 6 6 6 6 6 6 6 6 6 6 6 6 6 6 6 6 6 6 6 6 6 6 6 6 6 6 6 6 6 6 6 6 6 6 6 6 6 6 6 6 6 6 6 6 6 6 6 6 6 6 6 6 6 6 6 6 6 6 6 6 6 6 6 6 6 6 6 6 6 6 6 6 6 6 6 6 6 6 6 6 6 6 6 6 6 6 6 6 6 6 6 6 6 6 6 6 6 6 6 6 6 6 6 6 6 6 6 6 6 6 6 6 6 6 6 6 6 6 6 6 6 6 6 6 6 6 6 6 6 6 6 6 6 6 6 6 6 6 6 6 6 6 6 6 6 6 6 6 6 ",
"6 6 6 6 6 6 6 6 6 6 6 6 6 6 6 6 6 6 6 6 6 6 6 6 6 6 6 6 6 6 6 6 6 6 6 6 6 6 6 6 6 6 6 6 6 6 6 6 6 6 6 6 6 6 6 6 6 6 6 6 6 6 6 6 6 6 6 6 6 6 6 6 6 6 6 6 6 6 6 6 6 6 6 6 6 6 6 6 6 6 6 6 6 6 6 6 6 6 6 6 6 6 6 6 6 6 6 6 6 6 6 6 6 6 6 6 6 6 6 6 6 6 6 6 6 6 6 6 6 6 6 6 6 6 6 6 6 6 6 6 6 6 6 6 6 6 6 6 6 6 6 6 6 6 6 6 6 6 6 6 6 6 6 6 6 6 6 6 6 6 6 6 6 6 6 6 6 6 6 6 6 6 6 6 6 6 6 6 6 6 6 6 6 6 6 6 6 6 6 6 6 6 6 6 6 6 6 6 6 6 6 6 6 6 6 6 6 6 6 6 6 6 6 6 6 6 6 6 6 6 6 6 6 6 6 6 6 6 6 6 6 6 6 6 6 6 6 6 6 6 6 6 6 6 6 6 ",
"6 6 6 6 6 6 6 6 6 6 6 6 6 6 6 6 6 6 6 6 6 6 6 6 6 6 6 6 6 6 6 6 6 6 6 6 6 6 6 6 6 6 6 6 6 6 6 6 6 6 6 6 6 6 6 6 6 6 6 6 6 6 6 6 6 6 6 6 6 6 6 6 6 6 6 6 6 6 6 6 6 6 6 6 6 6 6 6 6 6 6 6 6 6 6 6 6 6 6 6 6 6 6 6 6 6 6 6 6 6 6 6 6 6 6 6 6 6 6 6 6 6 6 6 6 6 6 6 6 6 6 6 6 6 6 6 6 6 6 6 6 6 6 6 6 6 6 6 6 6 6 6 6 6 6 6 6 6 6 6 6 6 6 6 6 6 6 6 6 6 6 6 6 6 6 6 6 6 6 6 6 6 6 6 6 6 6 6 6 6 6 6 6 6 6 6 6 6 6 6 6 6 6 6 6 6 6 6 6 6 6 6 6 6 6 6 6 6 6 6 6 6 6 6 6 6 6 6 6 6 6 6 6 6 6 6 6 6 6 6 6 6 6 6 6 6 6 6 6 6 6 6 6 6 6 6 ",
"6 6 6 6 6 6 6 6 6 6 6 6 6 6 6 6 6 6 6 6 6 6 6 6 6 6 6 6 6 6 6 6 6 6 6 6 6 6 6 6 6 6 6 6 6 6 6 6 6 6 6 6 6 6 6 6 6 6 6 6 6 6 6 6 6 6 6 6 6 6 6 6 6 6 6 6 6 6 6 6 6 6 6 6 6 6 6 6 6 6 6 6 6 6 6 6 6 6 6 6 6 6 6 6 6 6 6 6 6 6 6 6 6 6 6 6 6 6 6 6 6 6 6 6 6 6 6 6 6 6 6 6 6 6 6 6 6 6 6 6 6 6 6 6 6 6 6 6 6 6 6 6 6 6 6 6 6 6 6 6 6 6 6 6 6 6 6 6 6 6 6 6 6 6 6 6 6 6 6 6 6 6 6 6 6 6 6 6 6 6 6 6 6 6 6 6 6 6 6 6 6 6 6 6 6 6 6 6 6 6 6 6 6 6 6 6 6 6 6 6 6 6 6 6 6 6 6 6 6 6 6 6 6 6 6 6 6 6 6 6 6 6 6 6 6 6 6 6 6 6 6 6 6 6 6 6 ",
"6 6 6 6 6 6 6 6 6 6 6 6 6 6 6 6 6 6 6 6 6 6 6 6 6 6 6 6 6 6 6 6 6 6 6 6 6 6 6 6 6 6 6 6 6 6 6 6 6 6 6 6 6 6 6 6 6 6 6 6 6 6 6 6 6 6 6 6 6 6 6 6 6 6 6 6 6 6 6 6 6 6 6 6 6 6 6 6 6 6 6 6 6 6 6 6 6 6 6 6 6 6 6 6 6 6 6 6 6 6 6 6 6 6 6 6 6 6 6 6 6 6 6 6 6 6 6 6 6 6 6 6 6 6 6 6 6 6 6 6 6 6 6 6 6 6 6 6 6 6 6 6 6 6 6 6 6 6 6 6 6 6 6 6 6 6 6 6 6 6 6 6 6 6 6 6 6 6 6 6 6 6 6 6 6 6 6 6 6 6 6 6 6 6 6 6 6 6 6 6 6 6 6 6 6 6 6 6 6 6 6 6 6 6 6 6 6 6 6 6 6 6 6 6 6 6 6 6 6 6 6 6 6 6 6 6 6 6 6 6 6 6 6 6 6 6 6 6 6 6 6 6 6 6 6 6 ",
"6 6 6 6 6 6 6 6 6 6 6 6 6 6 6 6 6 6 6 6 6 6 6 6 6 6 6 6 6 6 6 6 6 6 6 6 6 6 6 6 6 6 6 6 6 6 6 6 6 6 6 6 6 6 6 6 6 6 6 6 6 6 6 6 6 6 6 6 6 6 6 6 6 6 6 6 6 6 6 6 6 6 6 6 6 6 6 6 6 6 6 6 6 6 6 6 6 6 6 6 6 6 6 6 6 6 6 6 6 6 6 6 6 6 6 6 6 6 6 6 6 6 6 6 6 6 6 6 6 6 6 6 6 6 6 6 6 6 6 6 6 6 6 6 6 6 6 6 6 6 6 6 6 6 6 6 6 6 6 6 6 6 6 6 6 6 6 6 6 6 6 6 6 6 6 6 6 6 6 6 6 6 6 6 6 6 6 6 6 6 6 6 6 6 6 6 6 6 6 6 6 6 6 6 6 6 6 6 6 6 6 6 6 6 6 6 6 6 6 6 6 6 6 6 6 6 6 6 6 6 6 6 6 6 6 6 6 6 6 6 6 6 6 6 6 6 6 6 6 6 6 6 6 6 6 6 ",
"6 6 6 6 6 6 6 6 6 6 6 6 6 6 6 6 6 6 6 6 6 6 6 6 6 6 6 6 6 6 6 6 6 6 6 6 6 6 6 6 6 6 6 6 6 6 6 6 6 6 6 6 6 6 6 6 6 6 6 6 6 6 6 6 6 6 6 6 6 6 6 6 6 6 6 6 6 6 6 6 6 6 6 6 6 6 6 6 6 6 6 6 6 6 6 6 6 6 6 6 6 6 6 6 6 6 6 6 6 6 6 6 6 6 6 6 6 6 6 6 6 6 6 6 6 6 6 6 6 6 6 6 6 6 6 6 6 6 6 6 6 6 6 6 6 6 6 6 6 6 6 6 6 6 6 6 6 6 6 6 6 6 6 6 6 6 6 6 6 6 6 6 6 6 6 6 6 6 6 6 6 6 6 6 6 6 6 6 6 6 6 6 6 6 6 6 6 6 6 6 6 6 6 6 6 6 6 6 6 6 6 6 6 6 6 6 6 6 6 6 6 6 6 6 6 6 6 6 6 6 6 6 6 6 6 6 6 6 6 6 6 6 6 6 6 6 6 6 6 6 6 6 6 6 6 6 ",
"6 6 6 6 6 6 6 6 6 6 6 6 6 6 6 6 6 6 6 6 6 6 6 6 6 6 6 6 6 6 6 6 6 6 6 6 6 6 6 6 6 6 6 6 6 6 6 6 6 6 6 6 6 6 6 6 6 6 6 6 6 6 6 6 6 6 6 6 6 6 6 6 6 6 6 6 6 6 6 6 6 6 6 6 6 6 6 6 6 6 6 6 6 6 6 6 6 6 6 6 6 6 6 6 6 6 6 6 6 6 6 6 6 6 6 6 6 6 6 6 6 6 6 6 6 6 6 6 6 6 6 6 6 6 6 6 6 6 6 6 6 6 6 6 6 6 6 6 6 6 6 6 6 6 6 6 6 6 6 6 6 6 6 6 6 6 6 6 6 6 6 6 6 6 6 6 6 6 6 6 6 6 6 6 6 6 6 6 6 6 6 6 6 6 6 6 6 6 6 6 6 6 6 6 6 6 6 6 6 6 6 6 6 6 6 6 6 6 6 6 6 6 6 6 6 6 6 6 6 6 6 6 6 6 6 6 6 6 6 6 6 6 6 6 6 6 6 6 6 6 6 6 6 6 6 6 ",
"6 6 6 6 6 6 6 6 6 6 6 6 6 6 6 6 6 6 6 6 6 6 6 6 6 6 6 6 6 6 6 6 6 6 6 6 6 6 6 6 6 6 6 6 6 6 6 6 6 6 6 6 6 6 6 6 6 6 6 6 6 6 6 6 6 6 6 6 6 6 6 6 6 6 6 6 6 6 6 6 6 6 6 6 6 6 6 6 6 6 6 6 6 6 6 6 6 6 6 6 6 6 6 6 6 6 6 6 6 6 6 6 6 6 6 6 6 6 6 6 6 6 6 6 6 6 6 6 6 6 6 6 6 6 6 6 6 6 6 6 6 6 6 6 6 6 6 6 6 6 6 6 6 6 6 6 6 6 6 6 6 6 6 6 6 6 6 6 6 6 6 6 6 6 6 6 6 6 6 6 6 6 6 6 6 6 6 6 6 6 6 6 6 6 6 6 6 6 6 6 6 6 6 6 6 6 6 6 6 6 6 6 6 6 6 6 6 6 6 6 6 6 6 6 6 6 6 6 6 6 6 6 6 6 6 6 6 6 6 6 6 6 6 6 6 6 6 6 6 6 6 6 6 6 6 6 ",
"6 6 6 6 6 6 6 6 6 6 6 6 6 6 6 6 6 6 6 6 6 6 6 6 6 6 6 6 6 6 6 6 6 6 6 6 6 6 6 6 6 6 6 6 6 6 6 6 6 6 6 6 6 6 6 6 6 6 6 6 6 6 6 6 6 6 6 6 6 6 6 6 6 6 6 6 6 6 6 6 6 6 6 6 6 6 6 6 6 6 6 6 6 6 6 6 6 6 6 6 6 6 6 6 6 6 6 6 6 6 6 6 6 6 6 6 6 6 6 6 6 6 6 6 6 6 6 6 6 6 6 6 6 6 6 6 6 6 6 6 6 6 6 6 6 6 6 6 6 6 6 6 6 6 6 6 6 6 6 6 6 6 6 6 6 6 6 6 6 6 6 6 6 6 6 6 6 6 6 6 6 6 6 6 6 6 6 6 6 6 6 6 6 6 6 6 6 6 6 6 6 6 6 6 6 6 6 6 6 6 6 6 6 6 6 6 6 6 6 6 6 6 6 6 6 6 6 6 6 6 6 6 6 6 6 6 6 6 6 6 6 6 6 6 6 6 6 6 6 6 6 6 6 6 6 6 ",
"6 6 6 6 6 6 6 6 6 6 6 6 6 6 6 6 6 6 6 6 6 6 6 6 6 6 6 6 6 6 6 6 6 6 6 6 6 6 6 6 6 6 6 6 6 6 6 6 6 6 6 6 6 6 6 6 6 6 6 6 6 6 6 6 6 6 6 6 6 6 6 6 6 6 6 6 6 6 6 6 6 6 6 6 6 6 6 6 6 6 6 6 6 6 6 6 6 6 6 6 6 6 6 6 6 6 6 6 6 6 6 6 6 6 6 6 6 6 6 6 6 6 6 6 6 6 6 6 6 6 6 6 6 6 6 6 6 6 6 6 6 6 6 6 6 6 6 6 6 6 6 6 6 6 6 6 6 6 6 6 6 6 6 6 6 6 6 6 6 6 6 6 6 6 6 6 6 6 6 6 6 6 6 6 6 6 6 6 6 6 6 6 6 6 6 6 6 6 6 6 6 6 6 6 6 6 6 6 6 6 6 6 6 6 6 6 6 6 6 6 6 6 6 6 6 6 6 6 6 6 6 6 6 6 6 6 6 6 6 6 6 6 6 6 6 6 6 6 6 6 6 6 6 6 6 6 ",
"6 6 6 6 6 6 6 6 6 6 6 6 6 6 6 6 6 6 6 6 6 6 6 6 6 6 6 6 6 6 6 6 6 6 6 6 6 6 6 6 6 6 6 6 6 6 6 6 6 6 6 6 6 6 6 6 6 6 6 6 6 6 6 6 6 6 6 6 6 6 6 6 6 6 6 6 6 6 6 6 6 6 6 6 6 6 6 6 6 6 6 6 6 6 6 6 6 6 6 6 6 6 6 6 6 6 6 6 6 6 6 6 6 6 6 6 6 6 6 6 6 6 6 6 6 6 6 6 6 6 6 6 6 6 6 6 6 6 6 6 6 6 6 6 6 6 6 6 6 6 6 6 6 6 6 6 6 6 6 6 6 6 6 6 6 6 6 6 6 6 6 6 6 6 6 6 6 6 6 6 6 6 6 6 6 6 6 6 6 6 6 6 6 6 6 6 6 6 6 6 6 6 6 6 6 6 6 6 6 6 6 6 6 6 6 6 6 6 6 6 6 6 6 6 6 6 6 6 6 6 6 6 6 6 6 6 6 6 6 6 6 6 6 6 6 6 6 6 6 6 6 6 6 6 6 6 ",
"6 6 6 6 6 6 6 6 6 6 6 6 6 6 6 6 6 6 6 6 6 6 6 6 6 6 6 6 6 6 6 6 6 6 6 6 6 6 6 6 6 6 6 6 6 6 6 6 6 6 6 6 6 6 6 6 6 6 6 6 6 6 6 6 6 6 6 6 6 6 6 6 6 6 6 6 6 6 6 6 6 6 6 6 6 6 6 6 6 6 6 6 6 6 6 6 6 6 6 6 6 6 6 6 6 6 6 6 6 6 6 6 6 6 6 6 6 6 6 6 6 6 6 6 6 6 6 6 6 6 6 6 6 6 6 6 6 6 6 6 6 6 6 6 6 6 6 6 6 6 6 6 6 6 6 - 6 6 6 6 6 6 6 6 6 6 6 6 6 6 6 6 6 6 6 6 6 6 6 6 6 6 6 6 6 6 6 6 6 6 6 & = 6 6 6 6 6 6 6 6 6 6 6 - 6 6 6 6 6 6 6 6 6 6 6 6 6 6 6 6 6 6 6 6 6 6 6 6 6 6 6 6 6 6 6 6 6 6 6 6 6 6 6 6 6 6 6 6 6 6 6 6 6 6 6 ",
"6 6 6 6 6 6 6 6 6 6 6 6 6 6 6 6 6 6 6 6 6 6 6 6 6 6 6 6 6 6 6 6 6 6 6 6 6 6 6 6 6 6 6 6 6 6 6 6 6 6 6 6 6 6 6 6 6 6 6 6 6 6 6 6 6 6 6 6 6 6 6 6 6 6 6 6 6 6 6 6 6 6 6 6 6 6 6 6 6 6 6 6 6 6 6 6 6 6 6 6 6 6 6 6 6 6 6 6 6 6 6 6 6 6 6 6 6 6 6 6 6 6 6 6 6 6 6 6 6 6 6 6 6 6 6 6 6 6 6 6 6 6 6 6 6 6 6 6 6 6 6 6 6 6 6 p 6 6 6 6 6 6 6 6 6 6 6 6 6 6 6 6 6 6 6 6 6 6 6 6 6 6 6 6 6 6 6 6 6 6 n t.t.t - & M V.= - - 6 = - D 6 6 6 = = 6 - = 6 - - - - 6 6 - = M D - 6 6 6 6 6 6 6 6 6 6 6 6 6 6 6 6 6 6 6 6 6 6 6 6 6 6 6 6 6 6 6 ",
"6 6 6 6 6 6 6 6 6 6 6 6 6 6 6 6 6 6 6 6 6 6 6 6 6 6 6 6 6 6 6 6 6 6 6 6 6 6 6 6 6 6 6 6 6 6 6 6 6 6 6 6 6 6 6 6 6 6 6 6 6 6 6 6 6 6 6 6 6 6 6 6 6 6 6 6 6 6 6 6 6 6 6 6 6 6 6 6 6 6 6 6 6 6 6 6 6 6 6 6 6 6 6 6 6 6 6 6 6 6 6 6 6 6 6 6 6 6 6 6 6 6 6 6 6 6 6 6 6 6 6 6 6 6 6 6 6 6 6 6 6 6 6 6 6 6 6 6 6 6 6 6 6 - 0.| - 6 6 6 6 6 6 6 6 6 6 6 6 6 6 6 6 6 6 6 6 6 6 6 6 6 6 6 6 6 6 6 6 & $.B.t 6 @.$.D B.M B.L n V.#.H.M.= B M.V.Z L B.D #.$.M B.#.n t.I $.H.M 6 6 6 6 6 6 6 6 6 6 6 6 6 6 6 6 6 6 6 6 6 6 6 6 6 6 6 6 6 6 6 ",
"6 6 6 6 6 6 6 6 6 6 6 6 6 6 6 6 6 6 6 6 6 6 6 6 6 6 6 6 6 6 6 6 6 6 6 6 6 6 6 6 6 6 6 6 6 6 6 6 6 6 6 6 6 6 6 6 6 6 6 6 6 6 6 6 6 6 6 6 6 6 6 6 6 6 6 6 6 6 6 6 6 6 6 6 6 6 6 6 6 6 6 6 6 6 6 6 6 6 6 6 6 6 6 6 6 6 6 6 6 6 6 6 6 6 6 6 6 6 6 6 6 6 6 6 6 6 6 6 6 6 6 6 6 6 6 6 6 6 6 6 6 6 6 6 6 6 6 6 6 6 6 6 * 6.0.% 6 6 6 6 6 6 6 6 6 6 6 6 6 6 6 6 6 6 6 6 6 6 6 6 6 6 6 6 6 6 6 6 6 - B Z.I F F.Z.Z.$.Z.C.F.Z.I 6 C.Z & L Z.D V.C.+.@.D.Z.Z.Z.t B.Z.D.V.$.- 6 6 6 6 6 6 6 6 6 6 6 6 6 6 6 6 6 6 6 6 6 6 6 6 6 6 6 6 6 6 6 ",
"6 6 6 6 6 6 6 6 6 6 6 6 6 6 6 6 6 6 6 6 6 6 6 6 6 6 6 6 6 6 6 6 6 6 6 6 6 6 6 6 6 6 6 6 6 6 6 6 6 6 6 6 6 6 6 6 6 6 6 6 6 6 6 6 6 6 6 6 6 6 6 6 6 6 6 6 6 6 6 6 6 6 6 6 6 6 6 6 6 6 6 6 6 6 6 6 6 6 6 6 6 6 6 6 6 6 6 6 6 6 6 6 6 6 6 6 6 6 6 6 6 6 6 6 6 6 6 6 6 6 6 6 6 6 6 6 6 6 6 6 6 6 6 6 6 6 6 6 6 6 6 6 6 p 0.j 6 6 6 6 6 6 6 6 6 6 6 6 6 6 6 6 6 6 6 6 6 6 6 6 6 6 6 6 6 6 6 6 6 6 6 = C.Z.C.D L V.D.@.Z Z.M & C.n & F B.6 C.B.M $.V.D M F V.Z.t.B @.$.& 6 6 6 6 6 6 6 6 6 6 6 6 6 6 6 6 6 6 6 6 6 6 6 6 6 6 6 6 6 6 6 ",
"6 6 6 6 6 6 6 6 6 6 6 6 6 6 6 6 6 6 6 6 6 6 6 6 6 6 6 6 6 6 6 6 6 6 6 6 6 6 6 6 6 6 6 6 6 6 6 6 6 6 6 6 6 6 6 6 6 6 6 6 6 6 6 6 6 6 6 6 6 6 6 6 6 6 6 6 6 6 6 6 6 6 6 6 6 6 6 6 6 6 6 6 6 6 6 6 6 6 6 6 6 6 6 6 6 6 6 6 6 6 6 6 6 6 6 6 6 6 6 6 6 6 6 6 6 6 6 6 6 6 6 6 6 6 6 6 6 6 6 6 6 6 6 6 6 6 6 6 6 6 6 6 6 * j } 6 6 6 6 6 6 6 6 6 6 6 6 6 6 6 6 6 6 6 6 6 6 6 6 6 6 6 6 6 6 6 6 6 - F B.B.D B.$.L $.I C.I L D.I t.B.& D F.Z.I $.D M C.#.L t.B.L C.@.D Z.Z 6 6 6 6 6 6 6 6 6 6 6 6 6 6 6 6 6 6 6 6 6 6 6 6 6 6 6 6 6 6 6 ",
"6 6 6 6 6 6 6 6 6 6 6 6 6 6 6 6 6 6 6 6 6 6 6 6 6 6 6 6 6 6 6 6 6 6 6 6 6 6 6 6 6 6 6 6 6 6 6 6 6 6 6 6 6 6 6 6 6 6 6 6 6 6 6 6 6 6 6 6 6 6 6 6 6 6 6 6 6 6 6 6 6 6 6 6 6 6 6 6 6 6 6 6 6 6 6 6 6 6 6 6 6 6 6 6 6 6 6 6 6 6 6 6 6 6 6 6 6 6 6 6 6 6 6 6 6 6 6 6 6 6 6 6 6 6 6 6 6 6 6 6 6 6 6 6 6 6 6 6 6 6 6 6 6 6 - - 6 6 6 6 6 6 6 6 6 6 6 6 6 6 6 6 6 6 6 6 6 6 6 6 6 6 6 6 6 6 6 6 6 6 6 M 6 = 6 B 6 6 - M M - n n 6 M = F B.6 6 6 6 - t M 6 M 6 = n M 6 t t 6 6 6 6 6 6 6 6 6 6 6 6 6 6 6 6 6 6 6 6 6 6 6 6 6 6 6 6 6 6 6 ",
"6 6 6 6 6 6 6 6 6 6 6 6 6 6 6 6 6 6 6 6 6 6 6 6 6 6 6 6 6 6 6 6 6 6 6 6 6 6 6 6 6 6 6 6 6 6 6 6 6 6 6 6 6 6 6 6 6 6 6 6 6 6 6 6 6 6 6 6 6 6 6 6 6 6 6 6 6 6 6 6 6 6 6 6 6 6 6 6 6 6 6 6 6 6 6 6 6 6 6 6 6 6 6 6 6 6 6 6 6 6 6 6 6 6 6 6 6 6 6 6 6 6 6 6 6 6 6 6 6 6 6 6 6 6 6 6 6 6 6 6 6 6 6 6 6 6 6 6 6 6 6 6 6 6 6 6 6 6 6 6 6 6 6 6 6 6 6 6 6 6 6 6 6 6 6 6 6 6 6 6 6 6 6 6 6 6 6 6 6 6 6 - 6 6 6 - 6 6 6 6 6 6 6 6 6 6 - D @.& 6 6 6 6 6 - 6 - 6 6 6 6 6 6 6 6 6 6 6 6 6 6 6 6 6 6 6 6 6 6 6 6 6 6 6 6 6 6 6 6 6 6 6 6 6 6 ",
"6 6 6 6 6 6 6 6 6 6 6 6 6 6 6 6 6 6 6 6 6 6 6 6 6 6 6 6 6 6 6 6 6 6 6 6 6 6 6 6 6 6 6 6 6 6 6 6 6 6 6 6 6 6 6 6 6 6 6 6 6 6 6 6 6 6 6 6 6 6 6 6 6 6 6 6 6 6 6 6 6 6 6 6 6 6 6 6 6 6 6 6 6 6 6 6 6 6 6 6 6 6 6 6 6 6 6 6 6 6 6 6 6 6 6 6 6 6 6 6 6 6 6 6 6 6 6 6 6 6 6 6 6 6 6 6 6 6 6 6 6 6 6 6 6 6 6 6 6 6 6 6 6 6 6 6 6 6 6 6 6 6 6 6 6 6 6 6 6 6 6 6 6 6 6 6 6 6 6 6 6 6 6 6 6 6 6 6 6 6 6 6 6 6 6 6 6 6 6 6 6 6 6 6 6 6 6 6 6 6 6 6 6 6 6 6 6 6 6 6 6 6 6 6 6 6 6 6 6 6 6 6 6 6 6 6 6 6 6 6 6 6 6 6 6 6 6 6 6 6 6 6 6 6 6 6 ",
"- - - - - - - - - - - - - - - - - - - - - - - - - - - - - - - - - - - - - - - - - - - - - - - - - - - - - - - - - - - - - - - - - - - - - - - - - - - - - - - - - - - - - - - - - - - - - - - - - - - - - - - - - - - - - - - - - - - - - - - - - - - - - - - - - - - - - - - - - - - - - - - - - - - - - - - - - - - - - - - - - - - - - - - - - - - - - - - - - - - - - - - - - - - - - - - - - - - - - - - - - - - - - - - - - - - - - - - - - - - - - - - - - - - - - - - - - - - - - - - - - - - - - - - - - - - - - - - - ",
"L L L L L L L L L L L L L L L L L L L L L L L L L L L L L L L L L L L L L L L L L L L L L L L L L L L L L L L L L L L L L L L L L L L L L L L L L L L L L L L L L L L L L L L L L L L L L L L L L L L L L L L L L L L L L L L L L L L L L L L L L L L L L L L L L L L L L L L L L L L L L L L L L L L L L L L L L L L L L L L L L L L L L L L L L L L L L L L L L L L L L L L L L L L L L L L L L L L L L L L L L L L L L L L L L L L L L L L L L L L L L L L L L L L L L L L L L L L L L L L L L L L L L L L L L L L L L L L L ",
"D D D D D D D D D D D D D D D D D D D D D D D D D D D D D D D D D D D D D D D D D D D D D D D D D D D D D D D D D D D D D D D D D D D D D D D D D D D D D D D D D D D D D D D D D D D D D D D D D D D D D D D D D D D D D D D D D D D D D D D D D D D D D D D D D D D D D D D D D D D D D D D D D D D D D D D D D D D D D D D D D D D D D D D D D D D D D D D D D D D D D D D D D D D D D D D D D D D D D D D D D D D D D D D D D D D D D D D D D D D D D D D D D D D D D D D D D D D D D D D D D D D D D D D D D D D D D D D D ",
"- - - - - - - - - - - - - - - - - - - - - - - - - - - - - - - - - - - - - - - - - - - - - - - - - - - - - - - - - - - - - - - - - - - - - - - - - - - - - - - - - - - - - - - - - - - - - - - - - - - - - - - - - - - - - - - - - - - - - - - - - - - - - - - - - - - - - - - - - - - - - - - - - - - - - - - - - - - - - - - - - - - - - - - - - - - - - - - - - - - - - - - - - - - - - - - - - - - - - - - - - - - - - - - - - - - - - - - - - - - - - - - - - - - - - - - - - - - - - - - - - - - - - - - - - - - - - - - - ",
"6 6 6 6 6 6 6 6 6 6 6 6 6 6 6 6 6 6 6 6 6 6 6 6 6 6 6 6 6 6 6 6 6 6 6 6 6 6 6 6 6 6 6 6 6 6 6 6 6 6 6 6 6 6 6 6 6 6 6 6 6 6 6 6 6 6 6 6 6 6 6 6 6 6 6 6 6 6 6 6 6 6 6 6 6 6 6 6 6 6 6 6 6 6 6 6 6 6 6 6 6 6 6 6 6 6 6 6 6 6 6 6 6 6 6 6 6 6 6 6 6 6 6 6 6 6 6 6 6 6 6 6 6 6 6 6 6 6 6 6 6 6 6 6 6 6 6 6 6 6 6 6 6 6 6 6 6 6 6 6 6 6 6 6 6 6 6 6 6 6 6 6 6 6 6 6 6 6 6 6 6 6 6 6 6 6 6 6 6 6 6 6 6 6 6 6 6 6 6 6 6 6 6 6 6 6 6 6 6 6 6 6 6 6 6 6 6 6 6 6 6 6 6 6 6 6 6 6 6 6 6 6 6 6 6 6 6 6 6 6 6 6 6 6 6 6 6 6 6 6 6 6 6 6 6 6 ",
"6 6 6 6 6 6 6 6 6 6 6 6 6 6 6 6 6 6 6 6 6 6 6 6 6 6 6 6 6 6 6 6 6 6 6 6 6 6 6 6 6 6 6 6 6 6 6 6 6 6 6 6 6 6 6 6 6 6 6 6 6 6 6 6 6 6 6 6 6 6 6 6 6 6 6 6 6 6 6 6 6 6 6 6 6 6 6 6 6 6 6 6 6 6 6 6 6 6 6 6 6 6 6 6 6 6 6 6 6 6 6 6 6 6 6 6 6 6 6 6 6 6 6 6 6 6 6 6 6 6 6 6 6 6 6 6 6 6 M M 6 M B 6 6 6 6 6 6 6 6 6 6 6 6 6 6 6 6 6 6 6 6 6 6 6 6 6 6 = 6 6 = - 6 = 6 6 6 6 6 6 6 = - = - - 6 6 - - 6 6 6 6 6 6 6 6 6 6 6 6 6 6 6 6 6 6 6 6 6 6 6 6 6 6 6 6 6 6 6 6 6 6 6 6 6 6 6 6 6 6 6 6 6 6 6 6 6 6 6 6 6 6 6 6 6 6 6 6 6 6 6 6 ",
"6 6 6 6 6 6 6 6 6 6 6 6 6 6 6 6 6 6 6 6 6 6 6 6 6 6 6 6 6 6 6 6 6 6 6 6 6 6 6 6 6 6 6 6 6 6 6 6 6 6 6 6 6 6 6 6 6 6 6 6 6 6 6 6 6 6 6 6 6 6 6 6 6 6 6 6 6 6 6 6 6 6 6 6 6 6 6 6 6 6 6 6 6 6 6 6 6 6 6 6 6 6 6 6 6 6 6 6 6 6 6 6 6 6 6 6 6 6 6 6 6 6 6 6 6 6 6 6 6 6 6 6 6 6 6 6 - S V.B.L.B.B.+.& 6 6 6 6 6 6 6 6 6 = - 6 6 6 6 n 6 6 6 6 6 6 6 t F n 6 F S n F n 6 n 6 n 6 M D S D D S M - D B - M 6 6 t 6 6 6 6 6 6 6 6 6 6 6 6 6 6 6 6 6 6 6 6 6 6 6 6 6 6 6 6 6 6 6 6 6 6 6 6 6 6 6 6 6 6 6 6 6 6 6 6 6 6 6 6 6 6 6 6 6 6 6 ",
"6 6 6 6 6 6 6 6 6 6 6 6 6 6 6 6 6 6 6 6 6 6 6 6 6 6 6 6 6 6 6 6 6 6 6 6 6 6 6 6 6 6 6 6 6 6 6 6 6 6 6 6 6 6 6 6 6 6 6 6 6 6 6 6 6 6 6 6 6 6 6 6 6 6 6 6 6 6 6 6 6 6 6 6 6 6 6 6 6 6 6 6 6 6 6 6 6 6 6 6 6 6 6 6 6 6 6 6 6 6 6 6 6 6 6 6 6 6 6 6 6 6 6 6 6 6 6 6 6 6 6 6 6 6 6 6 - S V.J.Z.J.#.+.& 6 6 6 6 6 6 6 6 6 #.B.D 6 6 6 M = 6 - 6 6 6 & #.B.t.@.C.M B.B.B.F M.& t.L V.@.I D.$.B.@.+.M.B.Z Z.$.B #.= 6 6 6 6 6 6 6 6 6 6 6 6 6 6 6 6 6 6 6 6 6 6 6 6 6 6 6 6 6 6 6 6 6 6 6 6 6 6 6 6 6 6 6 6 6 6 6 6 6 6 6 6 6 6 6 6 6 6 ",
"6 6 6 6 6 6 6 6 6 6 6 6 6 6 6 6 6 6 6 6 6 6 6 6 6 6 6 6 6 6 6 6 6 6 6 6 6 6 6 6 6 6 6 6 6 6 6 6 6 6 6 6 6 6 6 6 6 6 6 6 6 6 6 6 6 6 6 6 6 6 6 6 6 6 6 6 6 6 6 6 6 6 6 6 6 6 6 6 6 6 6 6 6 6 6 6 6 6 6 6 6 6 6 6 6 6 6 6 6 6 6 6 6 6 6 6 6 6 6 6 6 6 6 6 6 6 6 6 6 6 6 6 6 6 6 6 6 M yX+.X $.J.F = 6 6 6 6 6 6 6 & +.t.t 6 D B.L L @.V.+.- 6 6 & #.B.$.+.V.M t.6 D V.$.= $.V.D & & #.M L I B.= B M.#.Z.+.+.= 6 6 6 6 6 6 6 6 6 6 6 6 6 6 6 6 6 6 6 6 6 6 6 6 6 6 6 6 6 6 6 6 6 6 6 6 6 6 6 6 6 6 6 6 6 6 6 6 6 6 6 6 6 6 6 6 6 6 ",
"6 6 6 6 6 6 6 6 6 6 6 6 6 6 6 6 6 6 6 6 6 6 6 6 6 6 6 6 6 6 6 6 6 6 6 6 6 6 6 6 6 6 6 6 6 6 6 6 6 6 6 6 6 6 6 6 6 6 6 6 6 6 6 6 6 6 6 6 6 6 6 6 6 6 6 6 6 6 6 6 6 6 6 6 6 6 6 6 6 6 6 6 6 6 6 6 6 6 6 6 6 6 6 6 6 6 6 6 6 6 6 6 6 6 6 6 6 6 6 6 6 6 6 6 6 6 6 6 6 6 6 6 6 6 6 6 - M J.F.t H.J.F = 6 6 6 6 6 6 6 & t.B I t.B V.V.#.B.S B.6 6 6 & #.Z.$.F B.6 B.t L B.t.& t.V.L & - t.S I I B.6 D t.@.L G.+.= 6 6 6 6 6 6 6 6 6 6 6 6 6 6 6 6 6 6 6 6 6 6 6 6 6 6 6 6 6 6 6 6 6 6 6 6 6 6 6 6 6 6 6 6 6 6 6 6 6 6 6 6 6 6 6 6 6 6 ",
"6 6 6 6 6 6 6 6 6 6 6 6 6 6 6 6 6 6 6 6 6 6 6 6 6 6 6 6 6 6 6 6 6 6 6 6 6 6 6 6 6 6 6 6 6 6 6 6 6 6 6 6 6 6 6 6 6 6 6 6 6 6 6 6 6 6 6 6 6 6 6 6 6 6 6 6 6 6 6 6 6 6 6 6 6 6 6 6 6 6 6 6 6 6 6 6 6 6 6 6 6 6 6 6 6 6 6 6 6 6 6 6 6 6 6 6 6 6 6 6 6 6 6 6 6 6 6 6 6 6 6 6 6 6 6 6 = D #.Z.J.yXUXt.& 6 6 6 6 6 6 6 = L B.D Z.C.V.C.#.t.M V.6 6 6 & #.Z @.$.C.D t.V.B.n #.B.#.M C.$.6 #.B $.#.F B.B.M $.6 V.$.& 6 6 6 6 6 6 6 6 6 6 6 6 6 6 6 6 6 6 6 6 6 6 6 6 6 6 6 6 6 6 6 6 6 6 6 6 6 6 6 6 6 6 6 6 6 6 6 6 6 6 6 6 6 6 6 6 6 6 ",
"6 6 6 6 6 6 6 6 6 6 6 6 6 6 6 6 6 6 6 6 6 6 6 6 6 6 6 6 6 6 6 6 6 6 6 6 6 6 6 6 6 6 6 6 6 6 6 6 6 6 6 6 6 6 6 6 6 6 6 6 6 6 6 6 6 6 6 6 6 6 6 6 6 6 6 6 6 6 6 6 6 6 6 6 6 6 6 6 6 6 6 6 6 6 6 6 6 6 6 6 6 6 6 6 6 6 6 6 6 6 6 6 6 6 6 6 6 6 6 6 6 6 6 6 6 6 6 6 6 6 6 6 6 6 6 6 6 M V.+.#.$.L.+.& 6 6 6 6 6 6 6 6 6 L $.D F +.D S D 6 D 6 6 6 6 6 6 6 6 M M 6 B 6 6 6 M 6 - 6 B 6 6 6 n n - M n 6 6 6 6 6 6 6 6 6 6 6 6 6 6 6 6 6 6 6 6 6 6 6 6 6 6 6 6 6 6 6 6 6 6 6 6 6 6 6 6 6 6 6 6 6 6 6 6 6 6 6 6 6 6 6 6 6 6 6 6 6 6 6 6 ",
"- - - - - - - - - - - - - - - - - - - - - - - - - - - - - - - - - - - - - - - - - - - - - - - - - - - - - - - - - - - - - - - - - - - - - - - - - - - - - - - - - - - - - - - - - - - - - - - - - - - - - - - - - - - - - - - - - - - - - - - - - - - - - - 6 6 6 6 6 6 6 6 6 6 6 6 6 6 6 6 & - 6 6 6 6 6 6 6 6 6 6 = & - - = - - - 6 - 6 6 6 6 6 6 6 - = = - & - - - & - - - & - - - = = 6 = = - - - - - - - - - - - - - - - - - - - - - - - - - - - - - - - - - - - - - - - - - - - - - - - - - - - - - - - - - - - - - - - - ",
"S S S S S S S S S S S S S S S S S S S S S S S S S S S S S S S S S S S S S S S S S S S S S S S S S S S S S S D S S S S S S S S S S S S S S S S S S S S S S S S S S S S S S S S S S S S S S S S S S S S S S S S S S S S S S S S S S S S S S S S S S S S S S S n 6 6 6 6 6 6 6 6 6 6 6 6 6 - 6 6 6 6 6 6 6 6 6 6 6 6 6 6 6 6 6 6 6 6 6 6 6 6 6 6 6 6 6 6 B D S S D S S S D S S S D S S S S S S D D S S S S S S S S S S S S S S S S S S S S S S S S S S S S S S S S S S S S S S S S S S S S S S S S S S D S S S S S S S S S S S S S ",
"I I I I I L I I I I I L I I I I L I I I L I I L L I L L I I I I I I I I I I I I I I I I I I I I L L L L L L I I I I I I I L L I I I I I I I L L I I I I I L I I I I I L I I I L L I I I L I I L L I I I I I I I I I I I I I I I I I I I I I I I L L I I I I +.I 6 6 6 6 6 6 6 6 6 6 6 t D n 6 6 6 6 6 6 6 6 6 6 6 6 6 6 6 6 6 6 6 6 6 6 6 6 6 6 6 M +.I L I I I I I I I I I I I L I I I I I I I I I I I I I L L I I I I I I I I I I I I I L I I I I I I I I I I I I I L L I I I I I I I I I I I I I F L I I I I I I I I I I I I ",
"- - - - - 6 - - - - - 6 - - - - 6 - - - 6 - - - - - - 6 - - - - - - - - - - - - - - - - - - - - - - - - - - 5 5 5 - - - - - - - - - - - - - - - - - - - - 6 - - - - - 6 - - - - 6 - - - 6 - - - 6 - - 6 - - - - - - - - - - - - - - - - - - - - - 6 - - 5 6 t +.L 6 6 6 6 6 6 6 6 6 n @.+.@.B 6 6 6 6 6 6 6 6 6 6 6 6 6 6 6 6 6 6 6 6 6 6 6 6 6 n @.M - - - - - - - - - - - - - 6 - - - - - - - - - - - - - - 6 - - - - - - - - - - - - - 6 - - - - - - - - - - - - - 6 - - - - - - - - - - - - - - 0 6 = - - - - - - - - - - = ",
"6 6 6 6 6 S 6 6 6 6 6 S 6 6 6 6 S 6 6 6 S 6 6 M M - n S 6 6 6 6 6 6 6 6 6 6 6 6 6 6 6 6 6 6 6 6 B N 8 m 9 N q.h y y u u 6 M n 6 6 6 6 6 6 6 M M 6 6 6 6 6 S 6 6 6 6 6 S 6 6 6 n K r 6 6 S 6 6 n B - t } - 6 6 6 6 6 6 6 6 6 6 6 6 6 6 6 6 6 6 6 M M r u y u ] ] U M 6 6 6 6 6 6 6 - F +.M L @.6 6 6 6 6 6 6 6 6 5 2 /././././././././.~ 5 6 6 - L D = 6 6 6 6 6 6 6 6 6 6 6 6 6 S 6 6 6 6 6 6 6 6 6 6 6 6 6 M B 6 6 6 6 6 6 6 6 6 6 6 6 6 S 6 6 6 6 6 6 6 6 6 6 6 6 6 S M 6 6 6 6 6 6 6 6 6 6 6 6 6 kXA = 6 6 6 6 6 6 6 6 6 6 & ",
"6 6 6 6 6 S 6 6 6 6 6 S 6 6 6 6 S 6 6 6 S 6 6 M M - n S - 6 6 6 6 6 6 6 6 6 6 6 6 6 6 6 6 6 6 6 B n 8 9 9 N q.h y y u u 6 M n 6 6 6 6 6 6 6 M n 6 6 6 6 6 B 6 6 6 6 6 S 6 6 6 n K r 6 6 S 6 6 t B - t } - 6 6 6 6 6 6 6 6 6 6 6 6 6 6 6 6 6 6 6 M M r y y u 5.] H D - 6 6 6 6 6 6 - I L S D @.6 6 6 6 6 6 6 6 6 5 V ` ` ` ` ` ` ` ` ` Y 5 6 6 6 +.n 6 6 6 6 6 6 6 6 6 6 6 6 6 6 S 6 6 6 6 6 6 6 6 6 6 6 6 6 M B - 6 6 6 6 6 6 6 6 6 6 6 6 S 6 6 6 6 6 6 6 6 6 6 - 6 - B M 6 6 6 6 - 6 6 6 6 6 6 - 6 kXA = 6 6 6 6 6 6 6 6 6 6 & ",
"6 6 6 6 6 S 6 6 6 6 6 S 6 6 6 6 B 6 6 6 S 6 6 M M - n S - 6 6 6 6 6 6 6 6 6 6 6 6 6 6 6 6 6 6 6 B n 8 9 9 N q.h y y u u 6 M n 6 6 6 6 6 6 6 M n 6 6 6 6 6 B 6 6 6 6 6 S 6 6 6 n K r 6 6 S 6 6 t B - t } - 6 6 6 6 6 6 6 6 6 6 6 6 6 6 6 6 6 6 6 M M r u y u 5.] H D - 6 6 6 6 6 6 - I I Z D @.6 6 6 6 6 6 6 6 6 - ' iXiXiXiXiXiXiXiXiXz.% 6 6 6 +.t 6 6 6 6 6 6 6 6 6 6 6 6 6 6 S 6 6 6 6 6 6 6 6 6 6 6 6 6 M B - 6 6 6 6 6 6 6 6 6 6 6 6 S 6 6 6 6 6 6 6 2.3.:.A = 6 D M - 6 6 -.J = 6 6 A -.6 <.6 kXA = 6 6 6 6 6 6 6 6 6 6 & ",
"6 6 6 6 6 S 6 6 6 6 6 S 6 6 6 6 S 6 6 6 S 6 6 M M - n S - 6 6 6 6 6 6 6 6 6 6 6 6 6 6 6 6 6 6 6 B n 8 9 9 N q.h y y u u 6 M n 6 6 6 6 6 6 6 M n 6 6 6 6 6 B 6 6 6 6 6 S 6 6 6 n K r 6 6 S 6 6 t B - t } - 6 6 6 6 6 6 6 6 6 6 6 6 6 6 6 6 6 6 6 M M r u y u 5.] H D - 6 6 6 6 6 6 - I I Z D @.6 6 6 6 6 6 6 6 6 - ' qXqXqXqXqXqXqXqXqX*.* 6 6 6 +.t 6 6 6 6 6 6 6 6 6 6 6 6 6 6 S 6 6 6 6 6 6 6 6 6 6 6 6 6 M B - 6 6 6 6 6 6 6 6 6 6 6 6 S 6 6 6 6 6 6 ; o.-.:.4.-.<.>.4.2.3.o.>.4.-.:.2.o.<.<.4.6 kXA = 6 6 6 6 6 6 6 6 6 6 & ",
"6 6 6 6 6 S 6 6 6 6 6 S 6 6 6 6 S 6 6 6 S 6 6 M M - n S - 6 6 6 6 6 6 6 6 6 6 6 6 6 6 6 6 6 6 6 B n 8 9 9 N q.h y y u u 6 M n 6 6 6 6 6 6 6 M n 6 6 6 6 6 B 6 6 6 6 6 S 6 6 6 n K r 6 6 S 6 6 t B - t } - 6 6 6 6 6 6 6 6 6 6 6 6 6 6 6 6 6 6 6 M M r u y u 5.] H D - 6 6 6 6 6 6 - I I Z D @.6 6 6 6 6 6 6 6 6 - ' pXpXpXpXpXpXpXpXiXz.% 6 6 6 +.t 6 6 6 6 6 6 6 6 6 6 6 6 6 6 S 6 6 6 6 6 6 6 6 6 6 6 6 6 M B - 6 6 6 6 6 6 6 6 6 6 6 6 S 6 6 6 6 6 6 ; -.-.:.-.<.:.o.6X-.:.:.:.o.2.:.-.<.6Xo.<.0 kXA = 6 6 6 6 6 6 6 6 6 6 & ",
"6 6 6 6 6 S 6 6 6 6 6 S 6 6 6 6 S 6 6 6 S 6 6 M M - n S - 6 6 6 6 6 6 6 6 6 6 6 6 6 6 6 6 6 6 6 B n 8 9 9 N q.h y y u u 6 M n 6 6 6 6 6 6 6 M n 6 6 6 6 6 B 6 6 6 6 6 S 6 6 6 n K r 6 6 S 6 6 t B - t } - 6 6 6 6 6 6 6 6 6 6 6 6 6 6 6 6 6 6 6 M M r u y u 5.] H D - 6 6 6 6 6 6 - I I Z D @.6 6 6 6 6 6 6 6 6 - ' qXqXqXqXqXqXqXqXqX*.* 6 6 6 +.t 6 6 6 6 6 6 6 6 6 6 6 6 6 6 S 6 6 6 6 6 6 6 6 6 6 6 6 6 M B - 6 6 6 6 6 6 6 6 6 6 6 6 S 6 6 6 6 6 6 = J o.o.o.:.-.D 2.-.:.<.o.o.-.:.2.J :.<.2.6 kXA = 6 6 6 6 6 6 6 6 6 6 & ",
"6 6 6 6 6 S 6 6 6 6 6 S 6 6 6 6 S 6 6 6 S 6 6 M M - n S - 6 6 6 6 6 6 6 6 6 6 6 6 6 6 6 6 6 6 6 B n 8 9 9 N q.h y y u u 6 M n 6 6 6 6 6 6 6 M n 6 6 6 6 6 B 6 6 6 6 6 S 6 6 6 n K r 6 6 S 6 6 t B - t } - 6 6 6 6 6 6 6 6 6 6 6 6 6 6 6 6 6 6 6 M M r u y u 5.] H D - 6 6 6 6 6 6 - I I Z D @.6 6 6 6 6 6 6 6 6 - ' pXiXpXpXpXpXpXpXiXz.% 6 6 6 +.t 6 6 6 6 6 6 6 6 6 6 6 6 6 6 S 6 6 6 6 6 6 6 6 6 6 6 6 6 M B - 6 6 6 6 6 6 6 6 6 6 6 6 S 6 6 6 6 6 6 6 6 6 6 6 6 = B M 6 6 - 6 6 - 6 6 - = 6 - 6 kXA = 6 6 6 6 6 6 6 6 6 6 & ",
"6 6 6 6 6 S 6 6 6 6 6 S 6 6 6 6 S 6 6 6 S 6 6 M M - n S - 6 6 6 6 6 6 6 6 6 6 6 6 6 6 6 6 6 6 6 B n 8 9 9 N q.h y y u u 6 M n 6 6 6 6 6 6 6 M n 6 6 6 6 6 B 6 6 6 6 6 S 6 6 6 n G r 6 6 S 6 6 t B - t } - 6 6 6 6 6 6 6 6 6 6 6 6 6 6 6 6 6 6 6 M M r u y u 5.] H D - 6 6 6 6 6 6 - I I Z D @.6 6 6 6 6 6 6 6 6 6 7 ' z ' ' ' ' ' z ' g 6 6 6 6 +.t 6 6 6 6 6 6 6 6 6 6 6 6 6 6 S 6 6 6 6 6 6 6 6 6 6 6 6 6 M B - 6 6 6 6 6 6 6 6 6 6 6 6 S 6 6 6 6 6 6 6 6 6 6 6 6 6 Z M - 6 6 6 6 6 6 6 6 6 6 6 6 kXA = 6 6 6 6 6 6 6 6 6 6 & ",
"6 6 6 6 6 S 6 6 6 6 6 S 6 6 6 6 S 6 6 6 S 6 6 M M - n S - 6 6 6 6 6 6 6 6 6 6 6 6 6 6 6 6 6 6 6 B n 8 9 9 N q.h y y u u 6 M n 6 6 6 6 6 6 6 M n 6 6 6 6 6 B 6 6 6 6 6 S 6 6 6 n v i 6 6 S 6 6 t B - t } - 6 6 6 6 6 6 6 6 6 6 6 6 6 6 6 6 6 6 6 M M r u y u 5.] H D - 6 6 6 6 6 6 - I I Z D @.6 6 6 6 6 6 6 6 6 6 6 g g g g g g g g g 7 6 6 6 6 +.t 6 6 6 6 6 6 6 6 6 6 6 6 6 6 S 6 6 6 6 6 6 6 6 6 6 6 6 6 M B - 6 6 6 6 6 6 6 6 6 6 6 6 S 6 6 6 6 6 6 6 6 6 6 6 6 - B M 6 6 6 6 6 6 6 6 6 6 6 6 6 kXA = 6 6 6 6 6 6 6 6 6 6 & ",
"6 6 6 6 6 S 6 6 6 6 6 S 6 6 6 6 S 6 6 6 S 6 6 M M - n S - 6 6 6 6 6 6 6 6 6 6 6 6 6 6 6 6 6 6 6 B n 8 9 9 N q.h y y u u 6 M n 6 6 6 6 6 6 6 M n 6 6 6 6 6 B 6 6 6 6 6 S 6 6 r v / c i 6 S 6 6 t B - t } - 6 6 6 6 6 6 6 6 6 6 6 6 6 6 6 6 6 6 6 M M r u y u 5.] H D - 6 6 6 6 6 6 - I I Z D @.6 6 6 6 6 6 6 6 6 6 6 k k k k k k k k k u 6 6 6 6 +.t 6 6 6 6 6 6 6 6 6 6 6 6 6 6 S 6 6 6 6 6 6 6 6 6 6 6 6 6 M B - 6 6 6 6 6 6 6 6 6 6 6 6 S 6 6 6 6 6 6 6 6 6 6 6 6 - B M 6 6 6 6 6 6 6 6 6 6 6 6 6 kXA = 6 6 6 6 6 6 6 6 6 6 & ",
"6 6 6 6 6 S 6 6 6 6 6 S 6 6 6 6 S 6 6 6 S 6 6 M M - n S 6 6 6 6 6 6 6 6 6 6 6 6 6 6 6 6 6 6 6 6 B n 8 9 9 N q.h y y u u 6 M n 6 6 6 6 6 6 6 M M 6 6 6 6 6 B 6 6 6 6 6 S 6 r s b b b c i S 6 6 t B - t } - 6 6 6 6 6 6 6 6 6 6 6 6 6 6 6 6 6 6 6 M M r y y u 5.] H D - 6 6 6 6 6 6 - I I Z D @.6 6 6 6 6 6 6 6 6 6 6 g g g g g g g g g u 6 6 6 6 +.t 6 6 6 6 6 6 6 6 6 6 6 6 6 6 S 6 6 6 6 6 6 6 6 6 6 6 6 6 M B - 6 6 6 6 6 6 6 6 6 6 6 6 S 6 6 6 6 6 6 6 6 6 6 6 6 - B M 6 6 6 6 6 6 6 6 6 6 6 6 6 kXA = 6 6 6 6 6 6 6 6 6 6 & ",
"6 6 6 6 6 B 6 6 6 6 6 B 6 6 6 6 B 6 6 6 B 6 - n M - n S - 6 6 6 6 6 6 6 6 6 6 6 6 6 6 6 6 6 6 - N m 8 9 9 m q.h y u u 7 6 M n - 6 6 6 6 6 - M n - 6 6 6 - B 6 6 6 6 6 B 6 i s b i.( b s S 6 6 8 M - 6 } * 6 6 6 6 6 6 6 6 6 6 6 6 6 6 6 6 6 6 - M M 7 u y u ] ] H D - 6 6 6 6 6 6 - I I Z D @.6 6 6 6 6 6 6 6 6 6 6 k k k k k k k k k u 6 6 6 6 +.t 6 6 6 6 6 6 6 6 6 6 6 6 6 6 S 6 6 6 6 6 6 6 6 6 6 6 6 6 M B - 6 6 6 6 6 6 6 6 6 6 6 6 S 6 6 6 6 6 6 6 6 6 6 6 6 - B M 6 6 6 6 6 6 6 6 6 6 6 6 6 kXA = 6 6 6 6 6 6 6 6 6 6 & ",
"a i i i i v i i i i i v a i a i v a i i v a a p j a p v a i i i i i i i i i i i i i i i i i i a K B p M V V h.c s s h i i j p a i i i i i a j p a i i i a v i a i i a v i s b b s.( b c v i a p v a i | a i i i i i i i i i i i i i i i i i i a j v i h s h 5.] H D - 6 6 6 6 6 6 - I I Z D @.6 6 6 6 6 6 6 6 6 6 6 g g g g g g g g g u 6 6 6 6 +.t 6 6 6 6 6 6 6 6 6 6 6 6 6 6 S 6 6 6 6 6 6 6 6 6 6 6 6 6 M B 6 6 6 6 6 6 6 6 6 6 6 6 6 S 6 6 6 6 6 6 6 6 6 6 6 6 6 B M 6 6 6 6 6 6 6 6 6 6 6 6 6 kXA = 6 6 6 6 6 6 6 6 6 6 & ",
"S S S S S P S S S S D P S S S D P S S S P S S P P S P L S S S S S S S S S S S S S S S S S S S S F F D H H U h.} v P P K G P P S S S S S S S P P S S S S S P D S S S S P S K / ^ b b 7.c P D S D P S K O.B S S S S S S S S S S S S S S S S S S S P P K P v P 0.] H D - 6 6 6 6 6 6 - I I Z D @.6 6 6 6 6 6 6 6 6 6 6 k k k k k k k k z u 6 6 6 6 +.t 6 6 6 6 6 6 6 6 6 6 6 6 6 - B 6 6 6 6 6 6 6 6 6 6 6 6 - M M = 6 6 6 6 6 6 6 6 6 6 6 6 B 6 6 6 6 6 6 6 6 6 6 6 6 = B M - 6 6 6 6 6 6 6 6 6 6 6 6 kXq = 6 6 6 6 6 6 6 6 6 6 $ ",
"6 6 6 6 6 S 6 6 6 6 6 S 6 6 6 6 S 6 6 6 S 6 6 M M 6 M D 6 6 6 6 6 6 6 6 6 6 6 6 6 6 6 6 6 6 6 6 N N 8 m 9 N q.h j y u u 6 B M 6 6 6 6 6 6 6 M M 6 6 6 6 6 S n 6 6 6 6 S 6 6 s m.`.`.m.c N 6 6 n B 6 t } 6 6 6 6 6 6 6 6 6 6 6 6 6 6 6 6 6 6 6 6 M B u u j u 5.] H D - 6 6 6 6 6 6 - I I Z D @.6 6 6 6 6 6 6 6 6 6 6 g g g g g g g g g u 6 6 6 6 +.t 6 M n M M M M M M M M M M n D M n M M M M M M M M M M n S D n M M M M M M M M M M n M D n M M M M M M M M M M M n D S n M M M M M M M M M M n M kXJ t M M M M M M M M M M 6 ",
"6 6 6 6 6 S 6 6 6 6 6 B 6 6 6 6 B 6 6 6 S 6 6 M M = n S - 6 6 6 6 6 6 6 6 6 6 6 6 6 6 6 6 6 6 - B n 8 9 9 N q.h y y u u 6 M n 6 6 6 6 6 6 - M n 6 6 6 6 6 B 6 6 6 6 6 S 6 - / '._ `.'.7.M 6 6 t M - 7 } - 6 6 6 6 6 6 6 6 6 6 6 6 6 6 6 6 6 6 6 M M 7 u y u ] ] H D - 6 6 6 6 6 6 - I I Z D @.6 6 6 6 6 6 6 6 6 6 6 k k k k k k k k k u 6 6 6 6 +.t t M M M M M M M M M M M M M D M M M M M M M M M M M M M D D n M M M M M M M M M M M M D M M M M M M M M M M M M n D D M M M M M M M M M M M M M kXJ t M M M M M M M M M M 6 ",
"6 6 6 6 6 S 6 6 6 6 6 S 6 6 6 6 S 6 6 6 S 6 6 M M - n S - 6 6 6 6 6 6 6 6 6 6 6 6 6 6 6 6 6 6 6 B n 8 9 9 N q.h y y u u 6 M n 6 6 6 6 6 6 6 M n 6 6 6 6 6 B 6 6 6 6 6 S 6 e P.OXv Y OXP.v 8 6 t B - t } - 6 6 6 6 6 6 6 6 6 6 6 6 6 6 6 6 6 6 6 M M r u y u 5.] H D - 6 6 6 6 6 6 - I I Z D @.6 6 6 6 6 6 6 6 6 6 6 g g g g g g g g g u 6 6 6 6 +.t 6 6 6 6 6 6 6 6 6 6 6 6 6 - B 6 6 6 6 6 6 6 6 6 6 6 6 = M M = 6 6 6 6 6 6 6 6 6 6 6 6 B 6 6 6 6 6 6 6 6 6 6 6 6 = B n = 6 6 6 6 6 6 6 6 6 6 - 6 kXq = 6 6 6 6 6 6 6 6 6 6 $ ",
"6 6 6 6 6 S 6 6 6 6 6 S 6 6 6 6 S 6 6 6 S 6 6 M M - n S - 6 6 6 6 6 6 6 6 6 6 6 6 6 6 6 6 6 6 6 B n 8 9 9 N q.h y y u u 6 M n 6 6 6 6 6 6 6 M n 6 6 6 6 6 B 6 6 6 6 6 S 5 P 3X_ c s ].`.r.* 6 t B - t } - 6 6 6 6 6 6 6 6 6 6 6 6 6 6 6 6 6 6 6 M M r u y u 5.] H D - 6 6 6 6 6 6 - I I Z D @.6 6 6 6 6 6 6 6 6 6 6 g k k k k k k k k u 6 6 6 6 +.t 6 6 6 6 6 6 6 6 6 6 6 6 6 6 S 6 6 6 6 6 6 6 6 6 6 6 6 6 M B 6 6 6 6 6 6 6 6 6 6 6 6 6 S 6 6 6 6 6 6 6 6 6 6 6 6 6 Z M 6 6 6 6 6 6 6 6 6 6 6 6 6 kXA = 6 6 6 6 6 6 6 6 6 6 & ",
"6 6 6 6 6 S 6 6 6 6 6 S 6 6 6 6 S 6 6 6 S 6 6 M M - n S - 6 6 6 6 6 6 6 6 6 6 6 6 6 6 6 6 6 6 6 B n 8 9 9 N q.h y y u u 6 M n 6 6 6 6 6 6 6 M n 6 6 6 6 6 B 6 6 6 6 6 S 3 _ XXV c e ` XXm.r 6 t B - t } - 6 6 6 6 6 6 6 6 6 6 6 6 6 6 6 6 6 6 6 M M r u y u 5.] H D - 6 6 6 6 6 6 - I I Z D @.6 6 6 6 6 6 6 6 6 6 6 g k k k k k k k k u 6 6 6 6 +.t 6 6 6 6 6 6 6 6 6 6 6 6 6 6 S 6 6 6 6 6 6 6 6 6 6 6 6 6 M B - 6 6 6 6 6 6 6 6 6 6 6 6 S 6 6 6 6 6 6 6 6 6 6 6 6 - B M 6 6 6 6 6 6 6 6 6 6 6 6 6 kXA = 6 6 6 6 6 6 6 6 6 6 & ",
"6 6 6 6 6 S 6 6 6 6 6 S 6 6 6 6 S 6 6 6 S 6 6 M M - n S - 6 6 6 6 6 6 6 6 6 6 6 6 6 6 6 6 6 6 6 B n 8 9 9 N q.h y y u u 6 M n 6 6 6 6 6 6 6 M n 6 6 6 6 6 B 6 6 6 6 6 M P 3X_ y P i V XXP.^ * t B - t } - 6 6 6 6 6 6 6 6 6 6 6 6 6 6 6 6 6 6 6 M M r u y u 5.] H D - 6 6 6 6 6 6 - I I Z D @.6 6 6 6 6 6 6 6 6 6 6 g g g g g g g g g u 6 6 6 6 +.t 6 6 6 6 6 6 6 6 6 6 6 6 6 6 S 6 6 6 6 6 6 6 6 6 6 6 6 6 M B - 6 6 6 6 6 6 6 6 6 6 6 6 S 6 6 6 6 6 6 6 6 6 6 6 6 - B M 6 6 6 6 6 6 6 6 6 6 6 6 6 kXA = 6 6 6 6 6 6 6 6 6 6 & ",
"6 6 6 6 6 S 6 6 6 6 6 S 6 6 6 6 S 6 6 6 S 6 6 M M - n S - 6 6 6 6 6 6 6 6 6 6 6 6 6 6 6 6 6 6 6 B n 8 9 9 N q.h y y u u 6 M n 6 6 6 6 6 6 6 M n 6 6 6 6 6 B 6 6 6 6 6 h `.XXM p c s e ].'.i.6 6 B - t } - 6 6 6 6 6 6 6 6 6 6 6 6 6 6 6 6 6 6 6 M M r u y u 5.] H D - 6 6 6 6 6 6 - I I Z D @.6 6 6 6 6 6 6 6 6 6 6 k k k k k k k k k u 6 6 6 6 +.t 6 6 6 6 6 6 6 6 6 6 6 6 6 6 S 6 6 6 6 6 6 6 6 6 6 6 6 6 M B - 6 6 6 6 6 6 6 6 6 6 6 6 S 6 6 6 6 6 6 6 6 6 6 6 6 - B M 6 6 6 6 6 6 6 6 6 6 6 6 6 kXA = 6 6 6 6 6 6 6 6 6 6 & ",
"6 6 6 6 6 S 6 6 6 6 6 S 6 6 6 6 S 6 6 6 S 6 6 M M - n S - 6 6 6 6 6 6 6 6 6 6 6 6 6 6 6 6 6 6 6 B n 8 9 9 N q.h y y u u 6 M n 6 6 6 6 6 6 6 M n 6 6 6 6 6 B 6 6 6 6 5 ) 3X_ e B c s e ` OXm.^ 8 B - t } - 6 6 6 6 6 6 6 6 6 6 6 6 6 6 6 6 6 6 6 M M r u y u 5.] H D - 6 6 6 6 6 6 - I I Z D @.6 6 6 6 6 6 6 6 6 6 6 g g g g g g g g g u 6 6 6 6 +.t 6 6 6 6 6 6 6 6 6 6 6 6 6 6 S 6 6 6 6 6 6 6 6 6 6 6 6 6 M B - 6 6 6 6 6 6 6 6 6 6 6 6 S 6 6 6 6 6 6 6 6 6 6 6 6 6 B M 6 6 6 6 6 6 6 6 6 6 6 6 6 kXA = 6 6 6 6 6 6 6 6 6 6 & ",
"6 6 6 6 6 S 6 6 6 6 6 S 6 6 6 6 S 6 6 6 S 6 6 M M - n S - 6 6 6 6 6 6 6 6 6 6 6 6 6 6 6 6 6 6 6 B n 8 9 9 N q.h y y u u 6 M n 6 6 6 6 6 6 6 M n 6 6 6 6 6 B 6 6 6 - i '.'.i i p c i r p oX(.7.j M - t } - 6 6 6 6 6 6 6 6 6 6 6 6 6 6 6 6 6 6 6 M M r u y u 5.] H D - 6 6 6 6 6 6 - I I Z D @.6 6 6 6 6 6 6 6 6 6 6 k k k k k k k k z u 6 6 6 6 +.t 6 6 6 6 6 6 6 6 6 6 - 6 - 6 S 6 6 6 6 6 6 6 6 6 6 6 6 - M B - 6 6 6 6 6 6 6 - 6 6 - 6 S 6 6 6 6 6 6 6 6 6 - 6 6 - B M 6 6 6 6 6 6 6 6 6 6 6 - 6 kXA = 6 6 6 6 6 6 6 6 6 6 & ",
"6 6 6 6 6 S 6 6 6 6 6 S 6 6 6 6 S 6 6 6 S 6 6 M M - n S - 6 6 6 6 6 6 6 6 6 6 6 6 6 6 6 6 6 6 6 B n 8 9 9 N q.h y y u u 6 M n 6 6 6 6 6 6 6 M n 6 6 6 6 6 B 6 6 - e `.OXY a i p v i p e (.@X/ p.M - u } - 6 6 6 6 6 6 6 6 6 6 6 6 6 6 6 6 6 6 6 M M r u y u 5.] H D - 6 6 6 6 6 6 - I I Z D @.6 6 6 6 6 6 6 6 6 6 6 g g g g g g g g g u 6 6 6 6 +.t 6 6 - - 6 6 6 6 6 6 Z 6 S 6 S 6 6 6 6 6 6 6 6 6 6 6 M t M B - 6 6 6 6 6 6 6 B M 6 S 6 B 6 6 6 6 6 6 6 6 t S 6 6 6 B M 6 6 6 6 6 6 6 6 n 6 M M 6 kXA = 6 6 6 6 6 6 6 6 6 6 & ",
"6 6 6 6 6 S 6 6 6 6 6 S 6 6 6 6 S 6 6 6 S 6 6 M M - n S - 6 6 6 6 6 6 6 6 6 6 6 6 6 6 6 6 6 6 6 B n 8 9 9 N q.h y y u u 6 M n 6 6 6 6 6 6 6 M n 6 6 6 6 6 S 8 & i `.OX` e p i p U K p a U OXR 5.g.- 6 } - 6 6 6 6 6 6 6 6 6 6 6 6 6 6 6 6 6 6 6 M M r u y u 5.] H D - 6 6 6 6 6 6 - I I Z D @.6 6 6 6 6 6 6 6 6 6 6 k k k k k k k k k u 6 6 6 6 +.t 6 S S S 6 6 6 6 - +.F F $.D M 6 6 6 6 6 6 6 6 & #.@.#.+.M B - 6 6 6 6 6 6 6 F #.I +.6 S 6 6 6 6 6 6 6 - M #.D I @.M M 6 6 6 6 6 6 6 - $.F Z $.M kXA = 6 6 6 6 6 6 6 6 6 6 & ",
"6 6 6 6 6 S 6 6 6 6 6 S 6 6 6 6 S 6 6 6 S 6 6 M M - n S - 6 6 6 6 6 6 6 6 6 6 6 6 6 6 6 6 6 6 6 B n 8 9 9 N q.h y y u u 6 M n 6 6 6 6 6 6 6 M M 6 6 6 6 - u 5 Y '.OX` v p p i p U K y i h '.'.y r.7.p ' * 6 6 6 6 6 6 6 6 6 6 6 6 6 6 6 6 6 6 6 M M r u y u 5.] H D - 6 6 6 6 6 6 - I I Z D @.6 6 6 6 6 6 6 6 6 6 6 g g g g g g g g g u 6 6 6 6 +.t 6 $.$.#.M 6 6 6 n $.+.#.M +.M 6 6 6 6 6 6 6 6 D t.L $.@.M B - 6 6 6 6 6 6 6 M $.$.@.M B 6 6 6 6 6 6 6 n & D +.$.L M M 6 6 6 6 6 6 6 6 D F & +.n kXA = 6 6 6 6 6 6 6 6 6 6 & ",
"6 6 6 6 6 S 6 6 6 6 6 S 6 6 6 6 S 6 6 6 S 6 6 M M - n S 6 6 6 6 6 6 6 6 6 6 6 6 6 6 6 6 6 6 6 6 N N 8 m 9 N q.h y y u u 6 B M 6 6 m 8 6 6 6 M t 5 3 3 5 t E `.3X'.Y e P i i i p U V p M j E OXE j / a.h.l 7 * 6 6 6 6 6 6 6 6 6 6 6 6 6 6 6 6 6 M M r u y u 5.] H D - 6 6 6 6 6 6 - I I Z D @.6 6 6 6 6 6 6 6 6 6 6 g k k k k k k k k u 6 6 6 6 +.t 6 t.I I S - 6 M I +.+.B.I I M 6 6 6 6 6 6 6 F +.t.V.+.#.S M - 6 6 6 6 6 B L t #.$.I I M 6 6 6 6 6 6 6 F L $.D B.$.M M 6 6 6 6 6 6 D S D F I +.6 kXA = 6 6 6 6 6 6 6 6 6 6 & ",
"6 6 6 6 6 B 6 6 6 6 6 B 6 6 6 6 B - 6 6 B 6 - n M = n Z - 6 6 6 6 6 6 6 6 6 5 5 5 5 5 5 5 5 5 5 M t 6 8 8 n q.d e e 7 3 3 u 7 3 3 C 6 4 5 5 B V C R _ '.oXXX'.` i i p P p M p p ) Y V V P i '.'.v { 8.h.h.q.c p t 6 * * * 6 6 6 6 6 6 6 6 6 6 6 M M r y y y 5.] H D - 6 6 6 6 6 6 - I I Z D @.6 6 6 6 6 6 6 6 6 6 6 g k k k k k k k k u 6 6 6 6 +.t 6 F B Z n 6 6 6 - S I M +.t S 6 6 6 6 6 6 6 6 = t B I D M B 6 6 6 6 6 6 6 6 +.F M +.t S 6 6 6 6 6 6 6 - F #.M 6 M B M 6 6 6 6 6 6 6 - M M I +.n kXA - 6 6 6 6 6 6 6 6 6 6 & ",
"n n n n n D n n n n n D n n n n D t n n D n t B B 6 B D 6 n n n n m n n n m m m m 1 1 1 1 1 1 1 T T T T T E e.U E E E E R _ _ _ _ _.].].].].@X@X@X@X@X]._ E r 3 r r r j V Y V Y U Y V C K e E OXN...[ ..[ q.w.7.7.7.^ / c i i i r r r 6 6 6 - - n n 5 7 u 7 ] ] H D - 6 6 6 6 6 6 - I I Z D @.6 6 6 6 6 6 6 6 6 6 6 g g g g g g g g g u 6 6 6 6 +.t = & & & & = = = = & $ & $ & M - & = = = = = = = & & & $ t n & = = = = = = = $ & & $ & M & = = = = = = = & $ & = $ M t & = = = = = = = & & $ $ & kXq $ = = = = = = = = = - $ ",
"AXAXAXAXAXAXAXAXAXAXAXAXAXAXAXAXAXAXAXAXAXAXZXAXAXZXAXAXZXAXAXZXAXAXAXAXAXAXAXAXAXCXCXCXIX2X2X4X`.'.oX@X@XoXK.'.'.oXoXoXoXoX5X5X5X'.5X4X4X&XL.K.n.z.l.l.8.l.0.6.| | v P Y E Y E ) ) U U @.P v '.`...8.eXk.[ 0.v c 6.r.r.g.g.g.g.g.g.g.g.g.g.g.w.g.g.w.w.g.w.h.5.H D - 6 6 6 6 6 6 - I I Z D @.6 6 6 6 6 6 6 6 6 6 6 k k k k k k k k k u 6 6 6 6 @.6 $.G.F.F.F.F.F.F.F.F.F.F.F.F.G.F.F.F.F.F.F.F.F.F.F.F.F.F.F.G.F.F.F.F.F.F.F.F.F.F.F.F.F.G.F.F.F.F.F.F.F.F.F.F.F.F.F.G.F.F.F.F.F.F.F.F.F.F.F.F.F.F.NXH.D.F.F.F.F.F.F.F.F.F.F.D.",
"h.h.h.h.h.v.h.h.h.h.h.v.h.h.h.h.v.h.h.h.v.h.h.v.v.h.v.v.h.h.h.h.h.h.h.h.h.h.x.v.x.x.9X9X9XBXZXZXFXAXSXCXK.y.j.O.P O.O.O.O.u.u. .0.$Xu.l.l.l.k.k.k.k.k.k.7X8X8X8X8XwXwXwX0X0Xz.z.0.y.%.#.u.O.O.y.&Xz.[ 7X.. .l.| | | | | | | | | | | | 6.6.6.0.6.0.0.0.0.8.0.h.] H D - 6 6 6 6 6 6 - I I Z D @.6 6 6 6 6 6 6 6 6 6 6 g g g g g g g g g u 6 6 6 6 +.6 M L F F F F F F F F F F F F +.F F F F F F F F F F F F D I +.D F F F F F F F F F F F F @.F F F F F F F F F F F F D +.I F F F F F F F F F F F F F lX%.D F F F F F F F F F F +.",
"% % % % % m % $ % % % m % % % * 9 , > % m % % 8 8 % > m % % % % % % % % % % % % % % > > * * 6 u O.0.h.9XVXVX9X9Xh.5.h y 5 p u 5 n _.R e N I.H p r u r r r D u y h j P u.u.z.7X8XwX8Xz.O.@.P I [ P.&X8.[  .l. .{ { { { { { { { { { { { { { { { l | | { { | { q.] H D - 6 6 6 6 6 6 - I I Z D @.6 6 6 6 6 6 6 6 6 6 6 k k k k k k k k z u 6 6 6 6 +.t - = = = = = = = = = = = = & M - = = = = = = = = = = = & n M & = = = = = = = = = = = = M = = = = = = = = = = = = & M t & = = = = = = = = = = = = kXq & - = = = = = = = & M B ",
"6 6 6 6 6 j R R 5 6 6 S 6 6 6 6 S E.T 5 D 6 6 M M 5 M D 6 6 6 6 6 6 6 6 6 6 6 6 6 6 5 5 6 6 6 - m 8 , , m y.v.BXZXFXZXBXx.v.e.5.| ).E d I _.U v j j j h S U j j B B Y U C C m h S.z.8XwXtX| I | u.`.P.k.8. .{ { { { { { { { { { { { { { { { { { | | { | | | q.] H D - 6 6 6 6 6 6 - I I Z D @.6 6 6 6 6 6 6 6 6 6 6 g g g g g g g g g u 6 6 6 6 +.t 6 6 6 6 6 6 6 6 6 6 6 6 6 6 S 6 6 6 6 6 6 6 6 6 6 6 6 6 M B 6 6 6 6 6 6 6 6 6 6 6 6 6 S 6 6 6 6 6 6 6 6 6 6 6 6 6 S M 6 6 6 6 6 6 6 6 6 6 6 6 6 kXA = 6 6 6 6 6 6 6 6 B I = ",
"6 6 6 6 6 y U.R.3 6 6 S 6 6 6 6 D !.R 5 S 6 6 M M - n S - 6 6 6 6 6 6 6 6 6 6 6 6 5 C T 5 6 6 6 V u W R.8 9 q.y j 6.h.9XZXZXFXGXDXFXFXZXZXAXZXZXZXZXZXZXZXZXZXZXZXZXZXZXZXZXZXZXAXVXBXZXJXFXZXZXBXAXSXZXZXZXZXZXZXZXZXZXZXZXZXZXZXZXZXZXZXZXZXZXZXZXZXBXBXBXBX5.H D - 6 6 6 6 6 6 - I I Z D @.6 6 6 6 6 6 6 6 6 6 6 k k k k k k k k k u 6 6 6 6 +.t 6 6 6 6 6 6 6 6 6 6 6 6 6 6 S 6 6 6 6 6 6 6 6 6 6 6 6 6 M B - 6 6 6 6 6 6 6 6 6 6 6 6 S 6 6 6 6 6 6 6 6 6 6 6 6 - B M 6 6 6 6 6 6 6 6 6 6 6 6 6 kXA = 6 6 6 6 6 6 - M I t $ ",
"6 6 6 6 6 y U.E.6 6 6 S 6 6 6 6 H [.R 3 S 6 6 M M - n S = 6 6 6 6 6 6 6 6 6 6 6 6 3 W !.6 6 6 6 B u Q R.8 N q.K R n 8 > - D U P y.&XZ.D.K.L.n.c.v.c.c.x.b.n.v.c.c.c.v.K.L.L.K.x.K.K.n.K.c.n.K.ZXZXx.n.2Xb.x.x.x.x.x.x.x.x.x.x.x.x.x.x.x.x.x.x.x.x.x.x.x.x.x.9X5.H D - 6 6 6 6 6 6 - I I Z D @.6 6 6 6 6 6 6 6 6 6 6 g g g g g g g g g u 6 6 6 6 +.t 6 6 6 6 6 6 6 6 6 6 6 6 6 6 S 6 6 6 6 6 6 6 6 6 6 6 6 6 M B - 6 6 6 6 6 6 6 6 6 6 6 6 S 6 6 6 6 6 6 6 6 6 6 6 6 - B M 6 6 6 6 6 6 6 6 6 6 6 6 6 kXA = 6 6 6 6 6 6 M I t 6 & ",
"6 6 6 6 5 H !.[.9 5 6 S 6 6 6 6 H {.Q 3 S 5 6 M M - n Z U.T 5 6 6 6 9 6 6 6 6 6 6 3 W [.9 5 6 8 T t R.E.8 C q.(._.B W T n C C W Q.^.Q.Q.E.^.U.1 W ~ ~ $ Q ~.> , > ~ , U..X^.E., ~.^.I.^.Q Q ~.D 8X7XD @X].7 7 7 7 7 7 7 7 7 7 7 7 7 7 7 7 7 7 7 G k f f x f 8.] H D - 6 6 6 6 6 6 - I I Z D @.6 6 6 6 6 6 6 6 6 6 6 k k k k k k k k k u 6 6 6 6 +.t 6 6 6 6 6 6 6 6 6 6 6 6 6 6 S 6 6 6 6 6 6 6 6 6 6 6 6 6 M B - 6 6 6 6 6 6 6 6 6 6 6 6 S 6 6 6 6 6 6 6 6 6 6 6 6 - B M 6 6 6 6 6 6 6 6 6 6 6 6 6 kXA = 6 6 6 6 6 M I n 6 6 & ",
"6 6 6 6 3 !  X!.C 5 6 S 6 6 6 5 E  XQ 3 H I.8 M M - n S E.T 3 6 5 C R.8 6 5 C U.8 3 W {.m 8 5 R !.T ~.R.C W z.)._.C U.Q Q U.E.!.[.[. X XE.E.).T [.{.W.m I.[.T C Q Q E.W.[.[.{.{.{.[.U.[.T.Q !.C M l.wXS.OX` d z x x x x x x x x x x x x x x x f } } l { { l 8.] H D - 6 6 6 6 6 6 - I I Z D @.6 6 6 6 6 6 6 6 6 6 6 g k g k k k k g k u 6 6 6 6 +.t 6 6 6 6 6 6 6 6 6 6 6 6 6 6 S 6 6 6 6 6 6 6 6 6 6 6 6 6 M B - 6 6 6 6 6 6 6 6 6 6 6 6 S 6 6 6 6 6 6 6 6 6 6 6 6 - B M 6 6 6 6 6 6 6 6 6 6 6 6 6 kXA = 6 6 6 6 M I n 6 6 6 & ",
"6 6 6 6 3 ! R.U.R 3 6 S 6 6 6 5 E  XI.3 J ~.C u M - t D E.R 5 6 5 T !.8 5 5 T {.m 4 Q {.T E.6 W {.W E.U.T E.z.(.).E U.U.E. X{.{.[.{.R.U.{.U.E.E.E.[.!.R E.[.C W  XE.~.~.!.!.!.U.U.~.R.R.U.I.~.T B % 8.eX'.XXG x f f f f f f f f f f f f f f f f z } l l { l 8.] H D - 6 6 6 6 6 6 - I I Z D @.6 6 6 6 6 6 6 6 6 6 6 g g g g g g g g g u 6 6 6 6 +.t 6 6 6 6 6 6 6 6 6 6 6 6 6 6 S 6 6 6 6 6 6 6 6 6 6 6 6 6 M B - 6 6 6 6 6 6 6 6 6 6 6 6 S 6 6 6 6 6 6 6 6 6 6 6 6 - B M 6 6 6 6 6 6 6 6 6 6 6 6 6 kXA = 6 6 6 M I n 6 6 6 6 & ",
"6 6 5 6 3 I.W Q Q 3 6 S 6 6 6 5 ! [.I.3 E {.W r M # u H !.R 5 8 3 T {.R 8 6 T  XW 3 I.[.Q [.8 Q [.U.U.U.R _.D.(.! )._._.[.W.R.{.{..XI.8  XQ R..XU.!.{.E.{.[.R U.R.~.[. XE.E.I.4 E {.!.U.U.U..XU.M 6 , k.qXOX(.d g f f f f f f f f f f f f f f f z } l l { l 8.] H D - 6 6 6 6 6 6 - I I Z D @.6 6 6 6 6 6 6 6 6 6 6 k k k k k k k k k u 6 6 6 6 +.t 6 6 6 6 6 6 6 6 6 6 6 6 6 6 S 6 6 6 6 6 6 6 6 6 6 6 6 6 M B - 6 6 6 6 6 6 6 6 6 6 6 6 S 6 6 6 6 6 6 6 6 6 6 6 6 - B M 6 6 6 6 6 6 6 6 6 6 6 6 6 kXA = 6 6 M I n 6 6 6 6 6 & ",
"5 C I.8 4 I.W W I.3 6 S 6 6 6 3 ! !.I.3 E  XI.r C I.N H ~.R 5 6 8 R  XR.U.C T  X{.Q Q {.U. XT I.!.!.Q U.Q |.D.! E |.|.|.[.T.I. XE.Q T 8 [.R C {.I.R !. X[.[.[.R.R  XR.!.W R.Q 4 E  X XI.U.E.U.E.R 1 |.E G.yXOXE d g f f f f f f f f f f f f f f z } l l { l 8.] H D - 6 6 6 6 6 6 - I I Z D @.6 6 6 6 6 6 6 6 6 6 6 g g g g g g g g g u 6 6 6 6 +.t 6 6 6 6 6 6 6 6 6 6 6 6 6 6 S 6 6 6 6 6 6 6 6 6 6 6 6 6 M B - 6 6 6 6 6 6 6 6 6 6 6 6 S 6 6 6 6 6 6 6 6 6 6 6 6 - B M 6 6 6 6 6 6 6 6 6 6 6 6 6 kXA = 6 t I M 6 6 6 6 6 6 & ",
"U.R.~.8 6 R.R R U.5 6 S 6 5 6 3 Y.E.U.3 E [.U.r R  XC !  X!.9 4 I.[.~.E.E.T R !.{.E.R. XE.E.U.U.U.[.W E.!.E.z.d y T._.|.I.u I..XR 4 6 6 R 9 y |.Q 4 R. X~.!. XQ T  XR V 4 R.Q 3 H U. XQ R. X9 I.U.W  XQ !.yX&XoXx f f f f f f f f f f f f f f f z } l l { l 8.] H D - 6 6 6 6 6 6 - I I Z D @.6 6 6 6 6 6 6 6 6 6 6 k k k k k k k k z u 6 6 6 6 +.t 6 6 6 6 6 6 6 6 6 6 6 6 6 6 S 6 6 6 6 6 6 6 6 6 6 6 6 6 M B - 6 6 6 6 6 6 6 6 6 6 6 6 S 6 6 6 6 6 6 6 6 6 6 6 6 - B M 6 6 6 6 6 6 6 6 6 6 6 6 6 kXA = n I M 6 6 6 6 6 6 - O ",
"{.[.!.9 I. XC C R.6 6 p R W 5 5 T.U.U.3 E !.U.r R  XC T.~.{.U.3 U..XQ R. XT W R.!.!.R.E.~.R E.E.E W.T I.E.I.z.h e ! _.|.W e R [.R 5 6 6 5 5 u T.R 4 U.[.!.!.!.5 R  XT g 6 R T 7 j e !.W I. X8 T  X{.[.R.!.[.yX3X_ d g f f f f f f f f f f f f f z } l l { l 8.] H D - 6 6 6 6 6 6 - I I Z D @.6 6 6 6 6 6 6 6 6 6 6 g g g g g g g g g u 6 6 6 6 +.t 6 6 6 6 6 6 6 6 6 6 6 6 6 6 S 6 6 6 6 6 6 6 6 6 6 6 6 6 M B - 6 6 6 6 6 6 6 6 6 6 6 6 S 6 6 6 6 6 6 6 6 6 6 6 6 - B M 6 6 6 6 6 6 6 6 6 6 6 6 6 kXA 6 I M 6 - * % % * t j 5.",
" XE.E.W {.[.m 8 E.8 6 y Q R.5 5 T.Q R.3 ! E.R.u R  XT T.E.{. XU.E.!.C U..XR U.W Q C 5 U.[.C !.~.H N 8 C C T e.h e ! U.T m M u R.R 3 6 6 6 6 M t 6 6 9 m T U.!.4 T [.C Z 6 5 5 n K r E.W Z R 6 n W R.E.E.[.^.).&XXXF x f f f f f f f f f f f f f z } l l { l 8.] H D - 6 6 6 6 6 6 - I I Z D @.6 6 6 6 6 6 6 6 6 6 6 k k k k k k k k k u 6 6 6 6 +.t 6 6 6 6 6 6 6 6 6 6 6 6 6 6 S 6 6 6 6 6 6 6 6 6 6 6 6 6 M B 6 6 6 6 6 6 6 6 6 6 6 6 6 S 6 6 6 6 6 6 6 6 6 6 6 6 6 Z M 6 6 6 6 6 6 6 6 6 6 6 u v yXu.u.Z % * p | q.x.BXZXFXFX",
"R.E.R.U.[.! 6 8 E.m 5 H U. XT 3 R.W R.6 ! R.R.u W  XR T.E.R.R. X{.C 4 I. XU.{.T 3 6 5 U.~.9 !.I.M n 8 9 9 N q.h e ! T.4 5 M t W T 5 6 6 6 6 M M 6 6 6 6 4 R U.5 8 T 6 S 6 6 6 n K r E.W y 5 6 n y W I.E.{.[.^.&X5X(.d g f f f f f f f f f f f f ' } l l { l 8.] H D - 6 6 6 6 6 6 - I I Z D @.6 6 6 6 6 6 6 6 6 6 6 g g g g g g g g g u 6 6 6 6 +.t 6 6 6 6 6 6 6 6 6 6 6 6 6 - B 6 6 6 6 6 6 6 6 6 6 6 6 = M M = 6 6 6 6 6 6 6 6 6 6 6 6 B 6 6 6 6 6 6 6 6 6 6 6 6 = B n = 6 6 6 6 6 6 6 6 - 6 v e.yXj.j.6.h.BXFXGXZXBX9Xh.6.e ",
"W E.I. XR g 6 6 R.C 4 T. X XQ 3 W.C U.R ! U.R.M !  XR T.E.I.Q  X!.C 4 W  X!.{.C 5 6 5 U.!.6 T - M m 8 9 9 N q.h y C T 7 6 M n = 5 6 6 6 6 - M n - 6 6 6 - B 6 6 6 5 6 B 6 6 - 0 G e R.W y 8 - 6 B - 8 !. X!.~.{.&XXXF x f f f f f f f f f f f f z } x l l l 8.] H D - 6 6 6 6 6 6 - I I Z D @.6 6 6 6 6 6 6 6 6 6 6 k k k k k k k k k u 6 6 6 6 +.6 n B M M M M M M M M M M M M F B M M M M M M M M M M M M D F M M M M M M M M M M M M M F M M M M M M M M M M M M M F D M M M M M M M M M M G e.9.v.x.h.DXFXVXj.O.K n 8 8 m 6 ",
"T I.n R t D n t R.R 3 U.|.{.I.5 E.m I.U.[.I.R.N !  XW T.I.W C Q E.C 5 T [.{.Q n t n 5 U.E.t 7 6 D N m N m V h.h j h y u t S M 6 n t t t t 6 B M 6 t t t 6 D n t t n t D n t 6 M K i U.R j n 6 M S 6 u ! R.E.I.E.).oX(.x G z l z z z z z z z z z X.O.l { { { 8.] H D - 6 6 6 6 6 6 - I I Z D @.6 6 6 6 6 6 6 6 6 6 6 g g g g g g g g k u 6 6 6 6 +.t 6 n n n n n n n n n n n n t D n t n n n n n n n n n n 6 S D 6 n n n n n n n n n n n n D n n n n n n n n n n n n 6 D Z t n n n n n n n n n v e.9.DXJXh.9X{ > > 8 8 n t t M 6 ",
"M M M u B F B u R.E.y W.E R E.M E.V Q E. X! R.! ! ~.R.!.T M u u C B B u I.{.V p B B y U.W.u B M F D N H C H h.v G G G S B D D M B B B B B M D D M B B B M F S M B B M F B B M D P j N B F B M S D M D | I.W.C V Q =XXXU { +.%.} X.X.X.X.X.X.X.X.O.O.} | | } q.] H D - 6 6 6 6 6 6 - I I Z D @.6 6 6 6 6 6 6 6 6 6 6 g g g g g g g g k u 6 6 6 6 +.t 6 6 6 6 6 6 6 6 6 6 6 6 6 - B 6 6 6 6 6 6 6 6 6 6 6 6 - M M - 6 6 6 6 6 6 6 6 6 6 6 6 B 6 6 6 6 6 6 6 6 6 6 6 6 - B M - 6 6 6 6 6 6 6 6 - t c.x.x.x.5.0.y 6 6 6 6 6 6 6 6 $ ",
"- 6 6 6 6 B 6 # I.!.9 E.C 8 E.R R.5 W [.{.T Q I.! E.!.!.9 5 6 6 5 6 6 5 9 R 6 6 6 6 # I.U.# 6 - M n 8 9 9 m q.h y y r 7 5 M n - 6 6 6 6 6 - M n - 6 6 6 - B 6 - 6 6 - B 6 6 - 8 j r - - B 6 - 6 M = 6 { Q R.1 1 W |.oX_.g E T.x f f f f f f f f z } x l l l 8.] H D - 6 6 6 6 6 6 - I I Z D @.6 6 6 6 6 6 6 6 6 6 6 k k k k k k k k k u 6 6 6 6 +.t 6 6 6 6 6 6 6 6 6 6 6 6 6 6 S 6 6 6 6 6 6 6 6 6 6 6 6 6 M B 6 6 6 6 6 6 6 6 6 6 6 6 6 S 6 6 6 6 6 6 6 6 6 6 6 6 6 B M 6 6 6 6 6 6 6 6 - 6 v.DXBXtX8.q.| t 6 6 6 6 6 6 6 6 & ",
"6 6 6 6 6 S 6 5 9 !.{.E.9 5 Q  XI.4 W  X XT R E.E.U.{.Q 5 6 6 6 6 6 6 6 5 5 6 6 6 6 3 U.I.4 6 6 B N 8 9 9 N q.h y y u u 6 M n 6 6 6 6 6 6 6 M M 6 6 6 6 6 B 6 6 6 6 6 S 6 6 6 n K r 6 6 S 6 6 t B - t [ Q R.n T C I.oXOX! T.).x g f f f f f f f } } l l { l 8.] H D - 6 6 6 6 6 6 - I I Z D @.6 6 6 6 6 6 6 6 6 6 6 g g g g g g g g g u 6 6 6 6 +.t 6 6 6 6 6 6 6 6 6 6 6 6 6 6 S 6 6 6 6 6 6 6 6 6 6 6 6 6 M B - 6 6 6 6 6 6 6 6 6 6 6 6 S 6 6 6 6 6 6 6 6 6 6 6 6 - B M 6 6 6 6 6 6 6 * u BXDXh.j yX0.v u 6 6 6 6 6 6 6 6 6 & ",
"6 6 6 6 6 S 6 6 6 T I.I.5 6 5 R.W 4 R  XU.8 T .XQ C  XW 3 6 6 6 6 6 6 6 6 6 6 6 6 6 5 W W 5 6 6 B n 8 9 9 N q.h y y u u 6 M n 6 6 6 6 6 6 6 M n 6 6 6 6 6 B 6 6 6 6 6 S 6 6 6 n K r 6 6 S 6 6 t B - t { T W 5 8 m R |.XX_.|.).x x f f f f f f f z } l l { l 8.] H D - 6 6 6 6 6 6 - I I Z D @.6 6 6 6 6 6 6 6 6 6 6 k k k k k k k k z u 6 6 6 6 +.t 6 6 6 6 6 6 6 6 6 6 6 6 6 6 S 6 6 6 6 6 6 6 6 6 6 6 6 6 M B - 6 6 6 6 6 6 6 6 6 6 6 6 S 6 6 6 6 6 6 6 6 6 6 6 6 - B M 6 6 6 6 6 6 * p ZXZXv % 6 kXA = 6 6 6 6 6 6 6 6 6 6 & ",
"6 6 6 6 6 S 6 6 6 5 5 S 6 6 6 8 S 5 C  XU 4 T  XC 6 {.W 3 6 6 6 6 6 6 6 6 6 6 6 6 6 6 5 6 6 6 6 B n 8 9 9 N q.h y y u u 6 M n 6 6 6 6 6 6 6 M n 6 6 6 6 6 B 6 6 6 6 6 S 6 6 6 n K r 6 6 S 6 6 t B - t } > m 6 6 m R ~.].XX|._.).E x f f f f f f z } l l { l 8.] H D - 6 6 6 6 6 6 - I I Z D @.6 6 6 6 6 6 6 6 6 6 6 g g g g g g g g g u 6 6 6 6 +.t 6 6 6 6 6 6 6 6 6 6 6 6 6 6 S 6 6 6 6 6 6 6 6 6 6 6 6 6 M B - 6 6 6 6 6 6 6 6 6 6 6 6 S 6 6 6 6 6 6 6 6 6 6 6 6 - B M 6 6 6 6 6 * p ZXZXh * 6 6 kXA = 6 6 6 6 6 6 6 6 6 6 & ",
"6 6 6 6 6 S 6 6 6 6 6 S 6 6 6 6 S 5 8 I.J 5 C E.N 5 I.T 5 6 6 6 6 6 6 6 6 6 6 6 6 6 6 6 6 6 6 6 B n 8 9 9 N q.h y y u u 6 M n 6 6 6 6 6 6 6 M n 6 6 6 6 6 B 6 6 6 6 6 S 6 6 6 n K r 6 6 S 6 6 t B - t } > m 6 6 8 W !.W OX(.).|.Y.d g f f f f f z } l l { l 8.] H D - 6 6 6 6 6 6 - I I Z D @.6 6 6 6 6 6 6 6 6 6 6 k k k k k k k k z u 6 6 6 6 +.t 6 6 6 6 6 6 6 6 6 6 6 6 6 6 S 6 6 6 6 6 6 6 6 6 6 6 6 6 M B - 6 6 6 6 6 6 6 6 6 6 6 6 S 6 6 6 6 6 6 6 6 6 6 6 6 - B M 6 6 6 6 * p ZXBXu * 6 6 6 kXA = 6 6 6 6 6 6 6 6 6 6 & ",
"6 6 6 6 6 S 6 6 6 6 6 S 6 6 6 6 B 6 6 5 S 6 6 C M - u S - 6 6 6 6 6 6 6 6 6 6 6 6 6 6 6 6 6 6 6 B n 8 9 9 N q.h y y u u 6 M n 6 6 6 6 6 6 6 M n 6 6 6 6 6 B 6 6 6 6 6 S 6 6 6 n K r 6 6 S 6 6 t B - t } - 6 6 6 8 R !.T oX'.).|.Y.d g f f f f f z } l l { l 8.] H D - 6 6 6 6 6 6 - I I Z D @.6 6 6 6 6 6 6 6 6 6 6 g g g g g g g g g u 6 6 6 6 +.t 6 6 6 6 6 6 6 6 6 6 6 6 6 6 S 6 6 6 6 6 6 6 6 6 6 6 6 6 M B - 6 6 6 6 6 6 6 6 6 6 6 6 S 6 6 6 6 6 6 6 6 6 6 6 6 - B M 6 6 6 * y ZXBX6 * 6 6 6 6 kXA = 6 6 6 6 6 6 6 6 6 6 & ",
"6 6 6 6 6 S 6 6 6 6 6 S 6 6 6 6 S 6 6 6 S 6 6 u M - n S - 6 6 6 6 6 6 6 6 6 6 6 6 6 6 6 6 6 6 6 B n 8 9 9 N q.h y y u u 6 M n 6 6 6 6 6 6 6 M n 6 6 6 6 6 B 6 6 6 6 6 S 6 6 6 n K r 6 6 S 6 6 t B - t } - 6 6 6 6 T !.* T OX|.).Y.x g f f f f f } } x l { l 8.] H D - 6 6 6 6 6 6 - I I Z D @.6 6 6 6 6 6 6 6 6 6 6 k k k k k k k k k u 6 6 6 6 +.t 6 6 6 6 6 6 6 6 6 6 6 6 6 6 S 6 6 6 6 6 6 6 6 6 6 6 6 6 M B - 6 6 6 6 6 6 6 6 6 6 6 6 S 6 6 6 6 6 6 6 6 6 6 6 6 - B M 6 6 * y ZXBXu - 6 6 6 6 6 kXA = 6 6 6 6 6 6 6 6 6 6 & ",
"6 6 6 6 6 S 6 6 6 6 6 S 6 6 6 6 S 6 6 6 S 6 6 M M - n S - 6 6 6 6 6 6 6 6 6 6 6 6 6 6 6 6 6 6 6 B n 8 9 9 N q.h y y u u 6 M n 6 6 6 6 6 6 6 M n 6 6 6 6 6 B 6 6 6 6 6 S 6 6 6 n K r 6 6 S 6 6 t B - t } - 6 6 6 5 T !.T 5 '.'.E (.d x f f f f f l } z l l l 8.] H D - 6 6 6 6 6 6 - I I Z D @.6 6 6 6 6 6 6 6 6 6 6 g g g g g g g g k u 6 6 6 6 +.t 6 6 6 6 6 6 6 6 6 6 6 6 6 6 S 6 6 6 6 6 6 6 6 6 6 6 6 6 M B - 6 6 6 6 6 6 6 6 6 6 6 6 S 6 6 6 6 6 6 6 6 6 6 6 6 - B M 6 * y ZXZXy * 6 6 6 6 6 6 kXA = 6 6 6 6 6 6 6 6 6 6 & ",
"6 6 6 6 6 S 6 6 6 6 6 S 6 6 6 6 S 6 6 6 S 6 6 M M - n S - 6 6 6 6 6 6 6 6 6 6 6 6 6 6 6 6 6 6 6 B n 8 9 9 N q.h y y u u 6 M n 6 6 6 6 6 6 6 M n 6 6 6 6 6 B 6 6 6 6 6 S 6 6 6 n K r 6 6 S 6 6 t B - t } - 6 6 6 = J gX,.:.(.oX>.Y.>.E X.X.1.X.f &.} 1.X.1.1.9.] H D - 6 6 6 6 6 6 - I I Z D @.6 6 6 6 6 6 6 6 6 6 6 g g g g g g g g k u 6 6 6 6 +.t 6 6 6 6 6 6 6 6 6 6 6 6 6 6 S 6 6 6 6 6 6 6 6 6 6 6 6 6 M B - 6 6 6 6 6 6 6 6 6 6 6 6 S 6 6 6 6 6 6 6 6 6 6 6 6 - B M * u ZXZXh * 6 6 6 6 6 6 6 kXA = 6 6 6 6 6 6 6 6 6 6 & ",
"6 6 6 6 6 S 6 6 6 6 6 S 6 6 6 6 S 6 6 6 S 6 6 M M - n S - 6 6 6 6 6 6 6 6 6 6 6 6 6 6 6 6 6 6 6 B n 8 9 9 N q.h y y u u 6 M n 6 6 6 6 6 6 6 M n 6 6 6 6 6 B 6 6 6 6 6 S 6 6 6 n K r 6 6 S 6 6 t B - t } - 6 6 6 6 - <.T 4.4.=X#X%XcXfX1.X.6X2.:.4.1.1.4.6X1.9.] H D - 6 6 6 6 6 6 - I I Z D @.6 6 6 6 6 6 6 6 6 6 6 k k k k k k k k k u 6 6 6 6 +.t 6 6 6 6 6 6 6 6 6 6 6 6 6 6 S 6 6 6 6 6 6 6 6 6 6 6 6 6 M B - 6 6 6 6 6 6 6 6 6 6 6 6 S 6 6 6 6 6 6 6 6 6 6 6 6 - S n u BXZXh * 6 6 6 6 6 6 6 6 kXA = 6 6 6 6 6 6 6 6 6 6 & ",
"6 6 6 6 6 S 6 6 6 6 6 S 6 6 6 6 S 6 6 6 S 6 6 M M - n S - 6 6 6 6 6 6 6 6 6 6 6 6 6 6 6 6 6 6 6 B n 8 9 9 N q.h y y u u 6 M n 6 6 6 6 6 6 6 M n 6 6 6 6 6 B 6 6 6 6 6 S 6 6 6 n K r 6 6 S 6 6 t B - t } - 6 6 6 6 - 2.-.>.>.%X=X%X%X$X2.1.:.:.4.:.1.2.6X1.1.9.] H D - 6 6 6 6 6 6 - I I Z D @.6 6 6 6 6 6 6 6 6 6 6 g g g g g g g g g u 6 6 6 6 +.t 6 6 6 6 6 6 6 6 6 6 6 6 6 6 S 6 6 6 6 6 6 6 6 6 6 6 6 6 M B 6 6 6 6 6 6 6 6 6 6 6 6 6 S 6 6 6 6 6 6 6 6 6 6 6 6 6 B M BXFXv * 6 6 6 6 6 6 6 6 6 kXA = 6 6 6 6 6 6 6 6 6 6 & ",
"6 6 6 6 6 S 6 6 6 6 6 S 6 6 6 6 S 6 6 6 S 6 6 M M - n S - 6 6 6 6 6 6 6 6 6 6 6 6 6 6 6 6 6 6 6 B n 8 9 9 N q.h y y u u 6 M n 6 6 6 6 6 6 6 M n 6 6 6 6 6 B 6 6 6 6 6 S 6 6 6 n K r 6 6 S 6 6 t B - t } - 6 6 6 6 - >.J >.E Y.+X=X#X=X#X&.&.&.X.4.&.&.1.4.&.9.] H D - 6 6 6 6 6 6 - I I Z D @.6 6 6 6 6 6 6 6 6 6 6 k k k k k k k k k u 6 6 6 6 +.t - 6 6 6 6 6 6 6 6 6 6 6 6 - B 6 - 6 6 6 6 6 6 6 6 6 6 = M M = 6 6 6 6 6 6 6 6 6 6 - 6 B - 6 6 6 6 6 6 6 6 6 - 6 & M VXZXh % 6 - 6 6 6 6 6 6 - 6 kXq & 6 6 6 6 6 6 6 6 6 6 $ ",
"6 6 6 6 6 D 6 6 6 6 6 D 6 6 6 6 S 6 6 6 D 6 6 M M 6 M D 6 6 6 6 6 6 6 6 6 6 6 6 6 6 6 6 6 6 6 6 B N 8 m 9 N h.h j y u u 6 B M 6 6 6 6 6 6 6 M M 6 6 6 6 6 S 0 6 6 6 6 D 6 6 6 n K r 6 6 D 6 6 n Z 6 t } 6 6 6 6 6 8 1 m 1 1 T XXoXJ Y.! d g f f z } x l l l 8.] H D - 6 6 6 6 6 6 - I I Z D @.6 6 6 6 6 6 6 6 6 6 6 g g g g g g g g g u 6 6 6 6 +.6 M D D D D D D D D D D D D S I D D D D D D D D D D D D S F L S D D D D D D D D D D D D I D D D D D D D D D D D S B BXFXO.N D D D D D D D D D D D kXo.B D D D D D D D D D D M ",
"@ @ @ @ @ r @ @ @ @ @ r @ @ @ @ r @ @ @ r @ @ < < + = t + @ @ @ @ @ @ @ @ @ @ @ @ @ @ @ @ @ @ @ t < ; * > 2 w.e e e # # @ r < @ @ @ @ @ @ + < < @ @ @ @ @ r ; @ @ @ @ r @ @ @ = a # $ @ r @ @ ; r + # l + @ @ @ @ ; 2 ; 2 2 > (.OXM E Y.e e e e h h e d d d 5.] H D - 6 6 6 6 6 6 - I I Z D @.6 6 6 6 6 6 6 6 6 6 6 k k k k k k k k z u 6 6 6 6 +.t 6 n t t t t t t t t t t t 6 D n t t t t t t t t t t t 6 S S 6 n t t t t t t t t t t t D t t t t t t t t t t 8 8 BXDXv > t t t t t t t t t t t n kXJ 6 n t t t t t t t t n - ",
"aXaXaXaXaXsXaXaXaXaXaXsXaXaXaXaXsXaXaXaXsXaXaXsXsXaXsXsXaXaXaXaXaXaXaXaXaXaXaXaXaXaXaXaXaXaXaXaXsXsXaXsXsXfXhXsXsXsXsXsXaXsXsXaXaXaXaXaXaXaXsXsXaXaXaXaXaXsXaXaXaXaXaXsXaXaXaXsXsXaXaXaXsXaXaXsXsXaXaXhXaXaXaXaXaXaXaXaXaXaXsXxXcXsXjXxX6XsXhXsXhXhXhXhXhXhXhX| D D - 6 6 6 6 6 6 - I I Z D @.6 6 6 6 6 6 6 6 6 6 6 g g g g g g g g g u 6 6 6 6 +.t 6 6 6 6 6 6 6 6 6 6 6 6 6 6 B 6 6 6 6 6 6 6 6 6 6 6 6 - M M - 6 6 6 6 6 6 6 6 6 6 6 6 B 6 6 6 6 6 6 6 6 6 - - 9XGX6.8 5 6 6 6 6 6 6 6 6 6 6 6 6 kXq = 6 6 6 6 6 6 6 6 6 6 $ ",
"sXsXsXsXsXfXsXsXsXsXsXfXsXsXsXsXfXsXsXsXfXsXsXsXsXaXsXfXsXsXsXsXsXsXsXsXsXsXsXsXsXsXsXsXsXsXsXsXfXfXfXfXfXfXhXhXsXsXsXsXsXfXsXsXsXsXsXsXsXsXfXsXsXsXsXsXsXfXsXsXsXsXsXfXsXsXsXsXhXsXsXsXfXsXsXsXfXsXsXhXsXsXsXsXsXsXsXsXsXsXfXfXvXxXhXvXvXvXhXhXhXhXhXhXhXhXhX| D D - 6 6 6 6 6 6 - I I Z D @.6 6 6 6 6 6 6 6 6 6 6 k k k k k k k k k u 6 6 6 6 +.t 6 6 6 6 6 6 6 6 6 6 6 6 6 6 S 6 6 6 6 6 6 6 6 6 6 6 6 6 M B 6 6 6 6 6 6 6 6 6 6 6 6 6 S 6 6 6 6 6 6 6 6 6 * 9XDX] 9 M 6 6 6 6 6 6 6 6 6 6 6 6 6 kXA = 6 6 6 6 6 6 6 6 6 6 & ",
"@ @ @ @ @ r @ @ @ @ @ r @ @ @ @ r @ @ @ r @ @ < < + = t + @ @ @ @ @ @ @ @ @ @ @ @ @ @ @ @ @ @ @ t - ; * > 2 w.e e e # # @ r < @ @ @ @ @ @ @ < < @ @ @ @ @ r ; @ @ @ @ r @ @ @ = a # ; @ r @ @ ; r + # l + @ @ @ @ @ @ @ @ @ 2 > ].].y _._.T.e e h h e d b d 9.] H D - 6 6 6 6 6 6 - I I Z D @.6 6 6 6 6 6 6 6 6 6 6 g g g g g g g g g u 6 6 6 6 +.t 6 6 6 6 6 6 6 6 6 6 6 6 6 6 S 6 6 6 6 6 6 6 6 6 6 6 6 6 M B - 6 6 6 6 6 6 6 6 6 6 6 6 S 6 6 6 6 6 6 6 6 - 9XDX6.% S M 6 6 6 6 6 6 6 6 6 6 6 6 6 kXA = 6 6 6 6 6 6 6 6 6 6 & ",
"6 6 6 6 6 D 6 6 6 6 6 S 6 6 6 6 S 6 6 6 D 6 6 M M 6 M D 6 6 6 6 6 6 6 6 6 6 6 6 6 6 6 6 6 6 6 6 B N 8 m 9 N h.h j y u u 6 B M 6 6 6 6 6 6 6 M M 6 6 6 6 6 S 0 6 6 6 6 D 6 6 6 n K r 6 6 D 6 6 n Z 6 t } 6 6 6 6 6 6 6 6 6 6 T C (.XXE ).=X).X.f X.l z X.&.' 8.] H D - 6 6 6 6 6 6 - I I Z D @.6 6 6 6 6 6 6 6 6 6 6 g k g g g g g g k u 6 6 6 6 +.t 6 6 6 6 6 6 6 6 6 6 6 6 6 6 S 6 6 6 6 6 6 6 6 6 6 6 6 6 M B - 6 6 6 6 6 6 6 6 6 6 6 6 S 6 6 6 6 6 6 6 % x.JX6.% 6 B M 6 6 6 6 6 6 6 6 6 6 6 6 6 kXA = 6 6 6 6 6 6 6 6 6 6 & ",
"6 6 6 6 6 S 6 6 6 6 6 S 6 6 6 6 S 6 6 6 S 6 6 M M - n S - 6 6 6 6 6 6 6 6 6 6 6 6 6 6 6 6 6 6 6 B n 8 9 9 N q.h y y u u 6 M n 6 6 6 6 6 6 6 M n 6 6 6 6 6 B 6 6 6 6 6 S 6 6 6 n K r 6 6 S 6 6 t B - t } - 6 6 6 6 6 6 6 ; :.4.J 4.=X_ %X*X*XfX&.l 1.1.1.6X1.9.] H D - 6 6 6 6 6 6 - I I Z D @.6 6 6 6 6 6 6 6 6 6 6 k k k k k k k k k u 6 6 6 6 +.t 6 6 6 6 6 6 6 6 6 6 6 6 6 6 S 6 6 6 6 6 6 6 6 6 6 6 6 6 M B - 6 6 6 6 6 6 6 6 6 6 6 6 S 6 6 6 6 6 6 % v.DX6.% 6 - B M 6 6 6 6 6 6 6 6 6 6 6 6 6 kXA = 6 6 6 6 6 6 6 6 6 6 & ",
"6 6 6 6 6 S 6 6 6 6 6 S 6 6 6 6 S 6 6 6 S 6 6 M M - n S - 6 6 6 6 6 6 6 6 6 6 6 6 6 6 6 6 6 6 6 B n 8 9 9 N q.h y y u u 6 M n 6 6 6 6 6 6 6 M n 6 6 6 6 6 B 6 6 6 6 6 S 6 6 6 n K r 6 6 S 6 6 t B - t } - 6 6 6 6 6 6 6 6 A <.; -.=X'.%X=XcX).1.&.6X1.1.6X1.9.] H D - 6 6 6 6 6 6 - I I Z D @.6 6 6 6 6 6 6 6 6 6 6 g g g g g g g g g u 6 6 6 6 +.t 6 6 6 6 6 6 6 6 6 6 6 6 6 6 S 6 6 6 6 6 6 6 6 6 6 6 6 6 M B - 6 6 6 6 6 6 6 6 6 6 6 6 S 6 6 6 6 6 % v.DX6.% 6 6 - B M 6 6 6 6 6 6 6 6 6 6 6 6 6 kXA = 6 6 6 6 6 6 6 6 6 6 & ",
"6 6 6 6 6 S 6 6 6 6 6 S 6 6 6 6 S 6 6 6 S 6 6 M M - n S - 6 6 6 6 6 6 6 6 6 6 6 6 6 6 6 6 6 6 6 B n 8 9 9 N q.h y y u u 6 M n 6 6 6 6 6 6 6 M n 6 6 6 6 6 B 6 6 6 6 6 S 6 6 6 n K r 6 6 S 6 6 t B - t } - 6 6 6 6 6 - q :.q <.J 3._ oX#X*XcX%X&.1.1.1.1.1.1.9.] H D - 6 6 6 6 6 6 - I I Z D @.6 6 6 6 6 6 6 6 6 6 6 k k k k k k k k k u 6 6 6 6 +.t 6 6 6 6 6 6 6 6 6 6 6 6 6 6 S 6 6 6 6 6 6 6 6 6 6 6 6 6 M B - 6 6 6 6 6 6 6 6 6 6 6 6 S 6 6 6 6 % h.DX0.% 6 6 6 - B M 6 6 6 6 6 6 6 6 6 6 6 6 6 kXA = 6 6 6 6 6 6 6 6 6 6 & ",
"6 6 6 6 6 S 6 6 6 6 6 S 6 6 6 6 S 6 6 6 S 6 6 M M - n S - 6 6 6 6 6 6 6 6 6 6 6 6 6 6 6 6 6 6 6 B n 8 9 9 N q.h y y u u 6 M n 6 6 6 6 6 6 6 M n 6 6 6 6 6 B 6 6 6 6 6 S 6 6 6 n K r 6 6 S 6 6 t B - t } - 6 6 6 6 6 6 6 = 0 J -.2.,.oX$X%X=X*XE X.4.&.&.4.&.9.] H D - 6 6 6 6 6 6 - I I Z D @.6 6 6 6 6 6 6 6 6 6 6 g g g g g g g g g u 6 6 6 6 +.t 6 6 6 6 6 6 6 6 6 6 6 6 6 6 S 6 6 6 6 6 6 6 6 6 6 6 6 6 M B - 6 6 6 6 6 6 6 6 6 6 6 6 S 6 6 6 % h.DXq.% 6 6 6 6 - B M 6 6 6 6 6 6 6 6 6 6 6 6 6 kXA = 6 6 6 6 6 6 6 6 6 6 & ",
"6 6 6 6 6 S 6 6 6 6 6 S 6 6 6 6 S 6 6 6 S 6 6 M M - n S - 6 6 6 6 6 6 6 6 6 6 6 6 6 6 6 6 6 6 6 B n 8 9 9 N q.h y y u u 6 M n 6 6 6 6 6 6 6 M n 6 6 6 6 6 B 6 6 6 6 6 S 6 6 6 n K r 6 6 S 6 6 t B - t } - 6 6 6 6 6 6 6 6 6 = - 2 - oX].)._.|.! l v d l d l 8.] H D - 6 6 6 6 6 6 - I I Z D @.6 6 6 6 6 6 6 6 6 6 6 k k k k k k k k z u 6 6 6 6 +.t 6 6 6 6 6 6 6 6 6 6 6 6 6 6 S 6 6 6 6 6 6 6 6 6 6 6 6 6 M B - 6 6 6 6 6 6 6 6 6 6 6 6 S 6 6 * h.JXh.% 6 6 6 6 6 - B M 6 6 6 6 6 6 6 6 6 6 6 6 6 kXA = 6 6 6 6 6 6 6 6 6 6 & ",
"6 6 6 6 6 S 6 6 6 6 6 S 6 6 6 6 S 6 6 6 S 6 6 M M - n S - 6 6 6 6 6 6 6 6 6 6 6 6 6 6 6 6 6 6 6 B n 8 9 9 N q.h y y u u 6 M n 6 6 6 6 6 6 6 M n 6 6 6 6 6 B 6 6 6 6 6 S 6 6 6 n K r 6 6 S 6 6 t B - t } - 6 6 6 6 6 6 6 6 6 6 8 C 8 ].XX).).|.! l X.l l { l 8.] H D - 6 6 6 6 6 6 - I I Z D @.6 6 6 6 6 6 6 6 6 6 6 g g g g g g g g g u 6 6 6 6 +.t 6 6 6 6 6 6 6 6 6 6 6 6 6 6 S 6 6 6 6 6 6 6 6 6 6 6 6 6 M B - 6 6 6 6 6 6 6 6 6 6 6 6 S 6 % h.JXh.* 6 6 6 6 6 6 - B M 6 6 6 6 6 6 6 6 6 6 6 6 6 kXA = 6 6 6 6 6 6 6 6 6 6 & ",
"6 6 6 6 6 S 6 6 6 6 6 S 6 6 6 6 S 6 6 6 S 6 6 M M - n S - 6 6 6 6 6 6 6 6 6 6 6 6 6 6 6 6 6 6 6 B n 8 9 9 N q.h y y u u 6 M n 6 6 6 6 6 6 6 M n 6 6 6 6 6 B 6 6 6 6 6 S 6 6 6 n K r 6 6 S 6 6 t B - t } - 6 6 6 6 6 6 6 6 6 6 6 C C _ OX).).|.! l } l l { l 8.] H D - 6 6 6 6 6 6 - I I Z D @.6 6 6 6 6 6 6 6 6 6 6 k k k k k k k k k u 6 6 6 6 +.t 6 6 6 6 6 6 6 6 6 6 6 6 6 6 S 6 6 6 6 6 6 6 6 6 6 6 6 6 M B - 6 6 6 6 6 6 6 6 6 6 6 6 S * h.JXv.* 6 6 6 6 6 6 6 - B M 6 6 6 6 6 6 6 6 6 6 6 6 6 kXA = 6 6 6 6 6 6 6 6 6 6 & ",
"6 6 6 6 6 S 6 6 6 6 6 S 6 6 6 6 S 6 6 6 S 6 6 M M - n S - 6 6 6 6 6 6 6 6 6 6 6 6 6 6 6 6 6 6 6 B n 8 9 9 N q.h y y u u 6 M n 6 6 6 6 6 6 6 M n 6 6 6 6 6 B 6 6 6 6 6 S 6 6 6 n K r 6 6 S 6 6 t B - t } - 6 6 6 6 6 6 6 6 6 6 6 C 9 T XX).T.|.! l } l l { l 8.] H D - 6 6 6 6 6 6 - I I Z D @.6 6 6 6 6 6 6 6 6 6 6 g g g g g g g g g u 6 6 6 6 +.t 6 6 6 6 6 6 6 6 6 6 6 6 6 6 S 6 6 6 6 6 6 6 6 6 6 6 6 6 M B 6 6 6 6 6 6 6 6 6 6 6 6 6 N 0.DXv.* 6 6 6 6 6 6 6 6 6 B M 6 6 6 6 6 6 6 6 6 6 6 6 6 kXA = 6 6 6 6 6 6 6 6 6 6 & ",
"6 6 6 6 6 S 6 6 6 6 6 S 6 6 6 6 S 6 6 6 S 6 6 M M - n S - 6 6 6 6 6 6 6 6 6 6 6 6 6 6 6 6 6 6 6 B n 8 9 9 N q.h y y u u 6 M n 6 6 6 6 6 6 6 M n 6 6 6 6 6 B 6 6 6 6 6 S 6 6 6 n K r 6 6 S 6 6 t B - t } - 6 6 6 6 6 6 6 6 6 6 6 C 9 C oX(.Y.|.Y.l } l l { l 8.] H D - 6 6 6 6 6 6 - I I Z D @.6 6 6 6 6 6 6 6 6 6 6 g k k k k k k k k u 6 6 6 6 +.t 6 6 6 6 6 6 6 6 6 6 6 6 6 6 B 6 6 6 6 6 6 6 6 6 6 6 6 - M M - 6 6 6 6 6 6 6 6 6 6 6 % e.DXv.% 6 6 6 6 6 6 6 6 6 - B M - 6 6 6 6 6 6 6 6 6 6 6 6 kXq = 6 6 6 6 6 6 6 6 6 6 $ ",
"6 6 6 6 6 S 6 6 6 6 6 S 6 6 6 6 S 6 6 6 S 6 6 M M - n S - 6 6 6 6 6 6 6 6 6 6 6 6 6 6 6 6 6 6 6 B n 8 9 9 N q.h y y u u 6 M n 6 6 6 6 6 6 6 M n 6 6 6 6 6 B 6 6 6 6 6 S 6 6 6 n K r 6 6 S 6 6 t B - t } - 6 6 6 6 6 6 6 6 6 6 6 C m 8 ].'.Y.|.Y.l } l l { l 8.] H D - 6 6 6 6 6 6 - I I Z D @.6 6 6 6 6 6 6 6 6 6 6 g k k k k k k k k u 6 6 6 6 +.6 n S B B B B B B B B B B S B F S B B B B B B B B B B S B F F B S B B B B B B B S S m 0.DXc.m S S B B B B B B B S B L F B S B B B B B B B B S B S kXo.M S B B B B B B B B S n ",
"6 6 6 6 6 S 6 6 6 6 6 S 6 6 6 6 S 6 6 6 S 6 6 M M - n S - 6 6 6 6 6 6 6 6 6 6 6 6 6 6 6 6 6 6 6 B n 8 9 9 N q.h y y u u 6 M n 6 6 6 6 6 6 6 M n 6 6 6 6 6 B 6 6 6 6 6 S 6 6 6 n K r 6 6 S 6 6 t B - t } - 6 6 6 6 6 6 6 6 6 6 6 6 6 9 _ oX).).Y.l } l l { l 8.] H D - 6 6 6 6 6 6 - I I Z D @.6 6 6 6 6 6 6 6 6 6 6 g g g g g g g g g u 6 6 6 6 +.t 6 6 6 6 6 6 6 6 6 6 6 6 6 6 S 6 6 6 6 6 6 6 6 6 6 6 6 6 M S 6 6 6 6 6 6 6 6 6 t * 6.DXx.* 6 6 6 6 6 6 6 6 6 6 6 6 S M 6 6 6 6 6 6 6 6 6 6 6 6 6 kXA - 6 6 6 6 6 6 6 6 6 6 & ",
"6 6 6 6 6 S 6 6 6 6 6 B 6 6 6 6 B 6 6 6 B 6 - n M = n S - 6 6 6 6 6 6 6 6 6 6 6 6 6 6 6 6 6 6 - B n 8 9 9 N q.h y y u u 5 M n - 6 6 6 6 6 - M n - 6 6 6 - B 6 6 6 6 6 B 6 6 6 0 j r 6 6 B 6 6 t M - 7 } - 6 6 6 6 6 6 6 6 6 6 6 6 6 9 T XX|.Y.Y.z } x l l l 8.] H D - 6 6 6 6 6 6 - I I Z D @.6 6 6 6 6 6 6 6 6 6 6 k k k k k k k k k u 6 6 6 6 +.t 6 6 6 6 6 6 6 6 6 6 6 6 6 6 B 6 6 6 6 6 6 6 6 6 6 6 6 - M B - 6 6 6 6 6 6 6 6 % 6.DXx.m 6 6 6 6 6 6 6 6 6 6 6 6 - B M - 6 6 6 6 6 6 6 6 6 6 6 6 kXA = 6 6 6 6 6 6 6 6 6 6 & ",
"6 6 6 6 6 D t 6 6 6 t D 6 6 6 t S 6 6 t D 6 6 M B 6 M D 6 t 6 6 6 6 6 6 6 6 6 6 6 6 6 6 6 6 t 6 S N m m m N q.h j j p u t B M 6 6 6 6 6 t 6 B M 6 6 6 t 6 S n 6 6 6 6 D t 6 6 M K p 6 6 D t 6 M S 6 u } 6 t 6 6 6 6 6 6 6 6 6 6 6 6 m C '.+XY.Y.} O.l { { { 8.] H D - 6 6 6 6 6 6 - I I Z D @.6 6 6 6 6 6 6 6 6 6 6 g g g g g g g g g u 6 6 6 6 +.t 6 6 6 6 6 6 6 6 6 6 6 6 6 6 S 6 6 6 6 6 6 6 6 6 6 6 6 6 M B - 6 6 6 6 6 6 6 % 6.DX9X* B 6 6 6 6 6 6 6 6 6 6 6 6 - B M 6 6 6 6 6 6 6 6 6 6 6 6 6 kXA = 6 6 6 6 6 6 6 6 6 6 & ",
"B B B B B F B B B B B F B B B S F B B B F B B D D M D L M B B B B B B B B B B B B B B B B B B B F D V H H H h.v G G G S Z D D B B B B B B M D D B B B B B F S B B B B F B B B D P G B B F B B S F M S O.M B B B B B B B B B B B B B H V (.+X,.(.O.O.} | | | q.] H D - 6 6 6 6 6 6 - I I Z D @.6 6 6 6 6 6 6 6 6 6 6 k k k k k k k k z u 6 6 6 6 +.t 6 6 6 6 6 6 6 6 6 6 6 6 6 6 S 6 6 6 6 6 6 6 6 6 6 6 6 6 M B - 6 6 6 6 6 6 * | DX9X* 6 S 6 6 6 6 6 6 6 6 6 6 6 6 - B M 6 6 6 6 6 6 6 6 6 6 6 6 6 kXA = 6 6 6 6 6 6 6 6 6 6 & ",
"- 6 6 6 6 B 6 6 6 6 6 B - 6 6 6 B - 6 6 B 6 - n M & n S = 6 6 6 6 6 6 6 6 6 6 6 6 6 6 6 6 6 6 - M n 8 9 9 m q.h y y r r 5 M n - 6 6 6 6 6 - M n - 6 6 6 - B 6 - 6 6 - B 6 6 - 8 j r 6 - B 6 - 6 M = 6 } - 6 6 6 6 6 6 6 6 6 6 6 6 5 8 > _ OX! T.z } x l l l 8.] H D - 6 6 6 6 6 6 - I I Z D @.6 6 6 6 6 6 6 6 6 6 6 g g g g g g g g g u 6 6 6 6 +.t 6 6 6 6 6 6 6 6 6 6 6 6 6 6 S 6 6 6 6 6 6 6 6 6 6 6 6 6 M B - 6 6 6 6 6 % v DXBX6 6 6 S 6 6 6 6 6 6 6 6 6 6 6 6 - B M 6 6 6 6 6 6 6 6 6 6 6 6 6 kXA = 6 6 6 6 6 6 6 6 6 6 & ",
"6 6 6 6 6 S 6 6 6 6 6 S 6 6 6 6 S 6 6 6 S 6 6 M M - n S 6 6 6 6 6 6 6 6 6 6 6 6 6 6 6 6 6 6 6 6 B N 8 9 9 N q.h y y u u 6 M n 6 6 6 6 6 6 6 M M 6 6 6 6 6 B 6 6 6 6 6 S 6 6 6 n K r 6 6 S 6 6 t B - t } - 6 6 6 6 6 6 6 6 6 6 6 6 6 m 9 T OX! T.O.} l l { l 8.] H D - 6 6 6 6 6 6 - I I S F @.6 6 6 6 6 6 6 6 6 6 6 k k k k k k k k k u 6 6 6 6 +.t 6 6 6 6 6 6 6 6 6 6 6 6 6 6 S 6 6 6 6 6 6 6 6 6 6 6 6 6 M B - 6 6 6 6 * v FXBX6 6 6 6 S 6 6 6 6 6 6 6 6 6 6 6 6 - B M 6 6 6 6 6 6 6 6 6 6 6 6 6 kXA = 6 6 6 6 6 6 6 6 6 6 & ",
"6 6 6 6 6 S 6 6 6 6 6 S 6 6 6 6 S 6 6 6 S 6 6 M M - n S - 6 6 6 6 6 6 6 6 6 6 6 6 6 6 6 6 6 6 6 B n 8 9 9 N q.h y y u u 6 M n 6 6 6 6 6 6 6 M n 6 6 6 6 6 B 6 6 6 6 6 S 6 6 6 n K r 6 6 S 6 6 t B - t } - 6 6 6 6 6 6 6 6 6 6 6 6 6 8 C m oX_ T.O.} l l { l 8.] H D - 6 6 6 6 6 6 - I L M D @.6 6 6 6 6 6 6 6 6 6 6 g g g g g g g g g u 6 6 6 6 +.t 6 6 6 6 6 6 6 6 6 6 6 6 6 6 S 6 6 6 6 6 6 6 6 6 6 6 6 6 M B - 6 6 6 * h FXBX6 6 6 6 6 S 6 6 6 6 6 6 6 6 6 6 6 6 - B M 6 6 6 6 6 6 6 6 6 6 6 6 6 kXA = 6 6 6 6 6 6 6 6 6 6 & ",
"6 6 6 6 6 S 6 6 6 6 6 S 6 6 6 6 S 6 6 6 S 6 6 M M - n S - 6 6 6 6 6 6 6 6 6 6 6 6 6 6 6 6 6 6 6 B n 8 9 9 N q.h y y u u 6 M n 6 6 6 6 6 6 6 M n 6 6 6 6 6 B 6 6 6 6 6 S 6 6 6 n K r 6 6 S 6 6 t B - t } - 6 6 6 6 6 6 6 6 6 6 6 6 6 8 C 6 '.].Y.+.{ l l { l 8.] H D - 6 6 6 6 6 6 - I @.I +.@.6 6 6 6 6 6 6 6 6 6 6 g k k k k k k k k u 6 6 6 6 +.t 6 6 6 6 6 6 6 6 6 6 6 6 6 6 S 6 6 6 6 6 6 6 6 6 6 6 6 6 M B - 6 6 * h ZXBX6 6 6 6 6 6 S 6 6 6 6 6 6 6 6 6 6 6 6 - B M 6 6 6 6 6 6 6 6 6 6 6 6 6 kXA = 6 6 6 6 6 6 6 6 6 6 & ",
"6 6 6 6 6 S 6 6 6 6 6 S 6 6 6 6 S 6 6 6 S 6 6 M M - n S - 6 6 6 6 6 6 6 6 6 6 6 6 6 6 6 6 6 6 6 B n 8 9 9 N q.h y y u u 6 M n 6 6 6 6 6 6 6 M n 6 6 6 6 6 B 6 6 6 6 6 S 6 6 6 n K r 6 6 S 6 6 t B - t } - 6 6 6 6 6 6 6 6 6 6 6 6 6 6 T 8 (.'.T.%.{ l l { l 8.] H D - 6 6 6 6 6 6 - I +.D L @.6 6 6 6 6 6 6 6 6 6 6 g k k k k k k k k u 6 6 6 6 +.t 6 6 6 6 6 6 6 6 6 6 6 6 6 6 S 6 6 6 6 6 6 6 6 6 6 6 6 6 M B - 6 * h ZXBX6 - 6 6 6 6 6 S 6 6 6 6 6 6 6 6 6 6 6 6 - B M 6 6 6 6 6 6 6 6 6 6 6 6 6 kXA = 6 6 6 6 6 6 6 6 6 6 & ",
"6 6 6 6 6 S 6 6 6 6 6 S 6 6 6 6 S 6 6 6 S 6 6 M M - n S - 6 6 6 6 6 6 6 6 6 6 6 6 6 6 6 6 6 6 6 B n 8 9 9 N q.h y y u u 6 M n 6 6 6 6 6 6 6 M n 6 6 6 6 6 B 6 6 6 6 6 S 6 6 6 n K r 6 6 S 6 6 t B - t } - 6 6 6 6 6 6 6 6 6 6 6 6 6 6 C 9 _ XX).%.{ l l { l 8.] H D - 6 6 6 6 6 6 - I B & 6 +.6 6 6 6 6 6 6 6 6 6 6 g g g g g g g g g u 6 6 6 6 +.t 6 6 6 6 6 6 6 6 6 6 6 6 6 6 S 6 6 6 6 6 6 6 6 6 6 6 6 6 M B 6 * h ZXZXu * 6 6 6 6 6 6 S 6 6 6 6 6 6 6 6 6 6 6 6 - B M 6 6 6 6 6 6 6 6 6 6 6 6 6 kXA = 6 6 6 6 6 6 6 6 6 6 & ",
"6 6 6 6 6 S 6 6 6 6 6 S 6 6 6 6 S 6 6 6 S 6 6 M M - n S - 6 6 6 6 6 6 6 6 6 6 6 6 6 6 6 6 6 6 6 B n 8 9 9 N q.h y y u u 6 M n 6 6 6 6 6 6 6 M n 6 6 6 6 6 B 6 6 6 6 6 S 6 6 6 n K r 6 6 S 6 6 t B - t } - 6 6 6 6 6 6 6 6 6 6 6 6 6 6 C C W XX_.;.{ l l { l 8.] H D - 6 6 6 6 6 6 - I S - t +.6 6 6 6 6 6 6 6 6 6 6 k k k k k k k k k u 6 6 6 6 +.t 6 6 6 6 6 6 6 6 6 6 6 6 6 6 S 6 6 6 6 6 6 6 6 6 6 6 6 6 M Z * j ZXZXp * 6 6 6 6 6 6 6 S 6 6 6 6 6 6 6 6 6 6 6 6 - B M 6 6 6 6 6 6 6 6 6 6 6 6 6 kXA = 6 6 6 6 6 6 6 6 6 6 & ",
"6 6 6 6 6 S 6 6 6 6 6 S 6 6 6 6 S 6 6 6 S 6 6 M M - n S - 6 6 6 6 6 6 6 6 6 6 6 6 6 6 6 6 6 6 6 B n 8 9 9 N q.h y y u u 6 M n 6 6 6 6 6 6 6 M n 6 6 6 6 6 B 6 6 6 6 6 S 6 6 6 n K r 6 6 S 6 6 t B - t } - 6 6 6 6 6 6 6 6 6 6 6 6 6 6 C C T oX|.;.{ l l { l 8.] H D - 6 6 6 6 6 6 - I B = 6 +.6 6 6 6 6 6 6 6 6 6 6 g g g g g g g g g u 6 6 6 6 +.t 6 6 6 6 6 6 6 6 6 6 6 6 6 6 S 6 6 6 6 6 6 6 6 6 6 6 6 6 M M y ZXZXj * 6 6 6 6 6 6 6 6 S 6 6 6 6 6 6 6 6 6 6 6 6 - B M 6 6 6 6 6 6 6 6 6 6 6 6 6 kXA = 6 6 6 6 6 6 6 6 6 6 & ",
"6 6 6 6 6 S 6 6 6 6 6 S 6 6 6 6 S 6 6 6 S 6 6 M M - n S - 6 6 6 6 6 6 6 6 6 6 6 6 6 6 6 6 6 6 6 B n 8 9 9 N q.h y y u u 6 M n 6 6 6 6 6 6 6 M n 6 6 6 6 6 B 6 6 6 6 6 S 6 6 6 n K r 6 6 S 6 6 t B - t } - 6 6 6 6 6 6 6 6 6 6 6 6 6 6 m T C '.oXY.{ l l { l 8.] H D - 6 6 6 6 6 6 - I D 6 M @.6 6 6 6 6 6 6 6 6 6 6 k k k k k k k k z u 6 6 6 6 +.t 6 6 6 6 6 6 6 6 6 6 6 6 6 6 S 6 6 6 6 6 6 6 6 6 6 6 6 6 M G BXZXj * 6 6 6 6 6 6 6 6 6 S 6 6 6 6 6 6 6 6 6 6 6 6 - B M 6 6 6 6 6 6 6 6 6 6 6 6 6 kXA = 6 6 6 6 6 6 6 6 6 6 & ",
"6 6 6 6 6 S 6 6 6 6 6 S 6 6 6 6 S 6 6 6 S 6 6 M M - n S - 6 6 6 6 6 6 6 6 6 6 6 6 6 6 6 6 6 6 6 B n 8 9 9 N q.h y y u u 6 M n 6 6 6 6 6 6 6 M n 6 6 6 6 6 B 6 6 6 6 6 S 6 6 6 n K r 6 6 S 6 6 t B - t } - 6 6 6 6 6 6 6 6 6 6 6 6 6 6 8 T C ].oX).E d l { l 8.] H D - 6 6 6 6 6 6 - L #.+.@.@.6 6 6 6 6 6 6 6 6 6 6 g g g g g g g g g u 6 6 6 6 +.t 6 6 6 6 6 6 6 6 6 6 6 6 6 6 B 6 6 6 6 6 6 6 6 6 6 6 6 * u VXZXh * 6 6 6 6 6 6 6 6 6 6 S 6 6 6 6 6 6 6 6 6 6 6 6 - B M - 6 6 6 6 6 6 6 6 6 6 6 6 kXA = 6 6 6 6 6 6 6 6 6 6 & ",
"6 6 6 6 6 S 6 6 6 6 6 S 6 6 6 6 S 6 6 6 S 6 6 M M - n S - 6 6 6 6 6 6 6 6 6 6 6 6 6 6 6 6 6 6 6 B n 8 9 9 N q.h y y u u 6 M n 6 6 6 6 6 6 6 M n 6 6 6 6 6 B 6 6 6 6 6 S 6 6 6 n K r 6 6 S 6 6 t B - t } - 6 6 6 6 6 6 6 6 6 6 6 6 6 6 8 T , (.oX(.! d l { l 8.] H D - 6 6 6 6 6 6 - I B - t +.6 6 6 6 6 6 6 6 6 6 6 k k k k k k k k k u 6 6 6 6 +.6 M F D D D D D D D D D D D D I D D D D D D D D D D D D D BXZXO.N F D D D D D D D D D D I D D D D D D D D D D D D D I L D D D D D D D D D D D D D lXo.S D D D D D D D D D D B ",
"6 6 6 6 6 S 6 6 6 6 6 S 6 6 6 6 S 6 6 6 S 6 6 M M - n S - 6 6 6 6 6 6 6 6 6 6 6 6 6 6 6 6 6 6 6 B n 8 9 9 N q.h y y u u 6 M n 6 6 6 6 6 6 6 M n 6 6 6 6 6 B 6 6 6 6 6 S 6 6 6 n K r 6 6 S 6 6 t B - t } - 6 6 6 6 6 6 6 6 6 6 6 6 6 6 8 C m _ oX(.E d l { l 8.] H D - 6 6 6 6 6 6 - I Z - t +.6 6 6 6 6 6 6 6 6 6 6 g g g g g g g g g u 6 6 6 6 +.t 6 6 6 6 6 6 6 6 6 6 6 6 6 6 S 6 6 6 6 6 6 6 6 6 6 6 6 BXGXv * 6 6 6 6 6 6 6 6 6 6 6 6 S 6 6 6 6 6 6 6 6 6 6 6 6 6 Z M 6 6 6 6 6 6 6 6 6 6 6 6 6 kXA = 6 6 6 6 6 6 6 6 6 6 & ",
"6 6 6 6 6 S 6 6 6 6 6 S 6 6 6 6 S 6 6 6 S 6 6 M M - n D 6 6 6 6 6 6 6 6 6 6 6 6 6 6 6 6 6 6 6 6 B N 8 m 9 N q.h y y u u 6 M n 6 6 6 6 6 6 6 M M 6 6 6 6 6 B 6 6 6 6 6 S 6 6 6 n K r 6 6 S 6 6 n B - t } - 6 6 6 6 6 6 6 6 6 6 6 6 6 6 8 m C R XX_.E d l { l 8.] H D - 6 6 6 6 6 6 - I Z - t +.6 6 6 6 6 6 6 6 6 6 6 g k k k k k k k k u 6 6 6 6 +.t 6 6 6 6 6 6 6 6 6 6 6 6 6 6 S 6 6 6 6 6 6 6 6 6 - 6 BXFXO.m 6 6 6 6 6 6 6 6 6 6 6 6 6 S 6 6 6 6 6 6 6 6 6 6 6 6 - B M 6 6 6 6 6 6 6 6 6 6 6 6 6 kXA = 6 6 6 6 6 6 6 6 6 6 & ",
"- 6 6 6 - M - - = - 6 B - 6 - 6 B - 6 6 B - - n n & t M & - - 6 6 6 6 6 6 6 6 6 6 6 6 6 6 6 6 - M 8 > 8 > m q.h y y r 7 5 M t - 6 6 6 6 6 = n t = = - 6 - M 6 - 6 6 - B 6 6 - 8 j r - - M 6 & 6 M = 6 } - 6 6 6 6 6 6 6 6 6 6 6 6 6 6 6 5 1 1 oXoXE d l l l 8.] H D - 6 6 6 6 6 6 - I Z - t +.6 6 6 6 6 6 6 6 6 6 6 g k k k k k k k k u 6 6 6 6 +.t 6 6 6 6 6 6 6 6 6 6 6 6 6 6 S 6 6 6 6 6 6 6 6 6 6 BXDXv 8 S - 6 6 6 6 6 6 6 6 6 6 6 6 S 6 6 6 6 6 6 6 6 6 6 6 6 - B M 6 6 6 6 6 6 6 6 6 6 6 6 6 kXA = 6 6 6 6 6 6 6 6 6 6 & ",
"M M M M M t.#.I $.B M F M M M M F M M M F M M D D n D V.L L @.M M M M M M M M M M M M M M M M n +.M.U ;.;.H h.v j j G Z M D S M M M M M M M $.$.L $.Z M M F B M M M M F M M M S P p n S B.I @.@.D M Z O.n M M M M M M M M M M M M M M M M C C '.+X,.{ } | } 8.] H D - 6 6 6 6 6 6 - I Z - t +.6 6 6 6 6 6 6 6 6 6 6 g g g g g g g g g u 6 6 6 6 +.t 6 6 6 6 6 6 6 6 6 6 6 6 6 6 S 6 6 6 6 6 6 6 6 6 9XDX{ % B B - 6 6 6 6 6 6 6 6 6 6 6 6 S 6 6 6 6 6 6 6 6 6 6 6 6 - B M 6 6 6 6 6 6 6 6 6 6 6 6 6 kXA = 6 6 6 6 6 6 6 6 6 6 & ",
"B B B M @.B.M B.$.M S L B B B S F B B Z L B M D D M B.@.D V.I M B B B B B B B B B B B B B B M D A.H V U ;.H h.v G G G G Z F D M B B B B M @.$.S $.C.F M B F S B B B B L B B M D P G B t.I I $.B.I M S O.M B B B B B B B B B B B B B B B B T C (.OX,.{ O.| } q.] H D - 6 6 6 6 6 6 - I Z - t +.6 6 6 6 6 6 6 6 6 6 6 k k k k k k k k k u 6 6 6 6 +.t 6 6 6 6 6 6 6 6 6 6 6 6 6 6 S 6 6 6 6 6 6 6 % 9XDX| % 6 M B - 6 6 6 6 6 6 6 6 6 6 6 6 S 6 6 6 6 6 6 6 6 6 6 6 6 - B M 6 6 6 6 6 6 6 6 6 6 6 6 6 kXA = 6 6 6 6 6 6 6 6 6 6 & ",
"- - 6 & I +.$ 6 I D = B - 6 - 6 B - - 6 B - = n n & t.M 6 #.+.n = 6 - - - - - - - - - - - 6 = M M.* * U C m q.h y y r 7 5 M t = 6 - - 6 & I L = I $.M = - M 6 - - 6 - B 6 - = 8 j r 6 #.M 6 F B.D & 6 } = 6 - - - - - - - - - - - - - - - 1 , (.OX! d l l l 8.] H D - 6 6 6 6 6 6 - I Z - t +.6 6 6 6 6 6 6 6 6 6 6 g g g g g g g g g u 6 6 6 6 +.t 6 6 6 6 6 6 6 6 6 6 6 6 6 6 S 6 6 6 6 6 6 * x.DX| % 6 6 M B - 6 6 6 6 6 6 6 6 6 6 6 6 S 6 6 6 6 6 6 6 6 6 6 6 6 - B M 6 6 6 6 6 6 6 6 6 6 6 6 6 kXA = 6 6 6 6 6 6 6 6 6 6 & ",
"6 6 6 6 M B.F S @.S 6 S 6 6 6 6 S 6 6 6 S 6 6 M M & I B.Z +.#.t 6 6 6 6 6 6 6 6 6 6 6 6 6 6 6 6 M.%.N ;.9 N q.h y y u u 6 M n 6 6 6 6 6 6 M B.I I #.D - 6 B 6 6 6 6 6 S 6 6 6 n K r - I B.M F #.M 6 t } - 6 6 6 6 6 6 6 6 6 6 6 6 6 6 6 6 C C _ OX! d l { l 8.] H D - 6 6 6 6 6 6 - I Z - t +.6 6 6 6 6 6 6 6 6 6 6 k k k k k k k k z u 6 6 6 6 +.t 6 6 6 6 6 6 6 6 6 6 6 6 6 6 S 6 6 6 6 6 % x.DX| % 6 6 6 M B - 6 6 6 6 6 6 6 6 6 6 6 6 S 6 6 6 6 6 6 6 6 6 6 6 6 - B M 6 6 6 6 6 6 6 6 6 6 6 6 6 kXA = 6 6 6 6 6 6 6 6 6 6 & ",
"6 6 6 6 6 D M n M 6 6 S 6 6 6 6 S 6 6 6 S 6 6 M M - t L 6 t t 6 6 6 6 6 6 6 6 6 6 6 6 6 6 6 6 - B D 9 m 9 N q.h y y u u 6 M n 6 6 6 6 6 6 - S S 6 M 6 6 6 B 6 6 6 6 6 S 6 6 6 n K r 6 6 F n n n M - t } - 6 6 6 6 6 6 6 6 6 6 6 6 6 6 6 6 C C R OX_ d l { l 8.] H D - 6 6 6 6 6 6 - I Z - t +.6 6 6 6 6 6 6 6 6 6 6 g g g g g g g g g u 6 6 6 6 +.t 6 6 6 6 6 6 6 6 6 6 6 6 6 6 S 6 6 6 6 * v.DX6.% 6 6 6 6 M B - 6 6 6 6 6 6 6 6 6 6 6 6 S 6 6 6 6 6 6 6 6 6 6 6 6 - B M 6 6 6 6 6 6 6 6 6 6 6 6 6 kXA = 6 6 6 6 6 6 6 6 6 6 & ",
"6 6 6 6 6 B - - 6 6 6 B 6 6 6 6 B 6 6 6 B 6 - n M - n Z & 6 6 6 6 6 6 6 6 6 6 6 6 6 6 6 6 6 6 - N n > 9 9 m q.h y y u 7 6 M n - 6 6 6 6 6 - M t = 6 6 6 - S 6 6 6 6 6 S 6 6 6 0 j r 6 6 B 6 = t M = 7 } - 6 6 6 6 6 6 6 6 6 6 6 6 6 6 6 5 1 1 C XX_ d l { l 8.] H D - 6 6 6 6 6 6 - I Z - t +.6 6 6 6 6 6 6 6 6 6 6 k k k k k k k k k u 6 6 6 6 +.t 6 6 6 6 6 6 6 6 6 6 6 6 6 6 S 6 6 6 * v.DX6.* 6 6 6 6 6 M B - 6 6 6 6 6 6 6 6 6 6 6 6 S 6 6 6 6 6 6 6 6 6 6 6 6 - B M 6 6 6 6 6 6 6 6 6 6 6 6 6 kXA = 6 6 6 6 6 6 6 6 6 6 & ",
"t @.D = F B F +.6 t @.F = D F L @.6 6 +.F = S #.M 6 L M +.F - S @.n 6 L D +.F = S @.M 6 I I 6 M F V %.N 9 U h.h j O.P @.M 6 I I 6 n @.D = F M L I 6 n @.D 6 F F I I 6 M @.D = D y.y 6 F M +.D - F +.u l L D +.D = D +.D 6 6 6 6 F +.I +.+.E E E oX`. .l { l 8.] H D - 6 6 6 6 6 6 - I Z - t +.6 6 6 6 6 6 6 6 6 6 6 g g g g g g g g g u 6 6 6 6 +.t 6 6 6 6 6 6 6 6 6 6 6 6 6 6 S 6 6 * v.DXq.% 6 6 6 6 6 6 M B - 6 6 6 6 6 6 6 6 6 6 6 6 S 6 6 6 6 6 6 6 6 6 6 6 6 - B M 6 6 6 6 6 6 6 6 6 6 6 6 6 kXA = 6 6 6 6 6 6 6 6 6 6 & ",
"n B.I & I B +.t.6 n B.I & I +.@.$.6 n M.I & L B.M 6 @.n t.I & F B.M 6 #.L t.I & F B.M - #.#.- S I D N.H 9 ;.j.h G #.O.t.S - #.$.6 M B.L & +.M +.$.6 M B.L & I +.#.$.6 n B.I & I y.p 6 @.n M.I & L B.M l %.L t.I & L M.L 6 6 6 6 @.L D F D H E H '.oXu.{ l l 8.] H D - 6 6 6 6 6 6 - I Z - t +.6 6 6 6 6 6 6 6 6 6 6 k k k k k k k k k u 6 6 6 6 +.t 6 6 6 6 6 6 6 6 6 6 6 6 6 6 S 6 * h.DXq.* 6 6 6 6 6 6 6 M B - 6 6 6 6 6 6 6 6 6 6 6 6 S 6 6 6 6 6 6 6 6 6 6 6 6 - B M 6 6 6 6 6 6 6 6 6 6 6 6 6 kXA = 6 6 6 6 6 6 6 6 6 6 & ",
"n t.L & I B I $.6 n t.L & L I @.$.6 t t.I & F t.M 6 +.M $.I & F t.M 6 @.F $.I = D t.M - #.#.- S I D N.H 9 ;.j.h G O.O.t.Z 6 @.#.6 M t.F & I M +.$.6 M t.F & I I @.#.6 n t.L & L y.p 6 +.M t.L & F t.M l +.L $.I & F t.L 6 6 6 6 +.D M M M E T m (.+XA.{ l l 8.] H D - 6 6 6 6 6 6 - I Z - t +.6 6 6 6 6 6 6 6 6 6 6 g k g g g g g g k u 6 6 6 6 +.t 6 6 6 6 6 6 6 6 6 6 6 6 6 6 S * h.JXh.% 6 6 6 6 6 6 6 6 M B - 6 6 6 6 6 6 6 6 6 6 6 6 S 6 6 6 6 6 6 6 6 6 6 6 6 - B M 6 6 6 6 6 6 6 6 6 6 6 6 6 kXA = 6 6 6 6 6 6 6 6 6 6 & ",
"n t.L & I B I $.6 n t.L & L I @.$.6 t t.I & F t.M 6 +.n $.I & F t.M 6 @.L $.I & F M.M - #.#.- S I D N.H 9 ;.j.h G O.O.t.S - @.#.6 M t.F & I M +.$.6 M t.F & I I @.$.6 n t.L & L y.p 6 +.M t.L & F t.M l +.L $.I & F t.L 6 6 6 6 +.D M L F.F.G.E _ XXA.{ l l 8.] H D - 6 6 6 6 6 6 - I Z - t +.6 6 6 6 6 6 6 6 6 6 6 g g g g g g g g g u 6 6 6 6 +.t 6 6 6 6 6 6 6 6 6 6 6 6 6 6 N e.DXh.% 6 6 6 6 6 6 6 6 - M B - 6 6 6 6 6 6 6 6 6 6 6 6 S 6 6 6 6 6 6 6 6 6 6 6 6 - B M 6 6 6 6 6 6 6 6 6 6 6 6 6 kXA = 6 6 6 6 6 6 6 6 6 6 & ",
"n t.L & I B I $.6 n t.L & L I @.$.6 t t.I & F t.M 6 +.n $.I & F t.M 6 @.L $.I & F M.M - #.#.- S I D N.H 9 ;.j.h G O.O.t.S - @.#.6 M t.F & I M +.$.6 M t.F & I I @.$.6 n t.L & L y.p 6 +.M t.L & F t.M l +.L $.I & F t.L 6 6 6 6 +.D M t.I t H N.` XXS.{ l l 8.] H D - 6 6 6 6 6 6 - I Z - t +.6 6 6 6 6 6 6 6 6 6 6 k k k k k k k k k u 6 6 6 6 +.t 6 6 6 6 6 6 6 6 6 6 6 6 6 % j.DXh.% 6 6 6 6 6 6 6 6 6 6 M B 6 6 6 6 6 6 6 6 6 6 6 6 6 S 6 6 6 6 6 6 6 6 6 6 6 6 6 Z M 6 6 6 6 6 6 6 6 6 6 6 6 6 kXA = 6 6 6 6 6 6 6 6 6 6 & ",
"n t.L & I B I $.6 n t.L & I I @.$.6 n t.I = F t.M 6 +.n $.I = F t.M 6 @.L $.I = F M.M 6 #.#.- S I D N.H 9 ;.j.h G O.O.t.S 6 @.#.6 M t.F & I M +.$.6 M t.F & I I @.$.6 n t.L = L y.p 6 +.M t.L = L t.M l +.L $.I = F t.L 6 6 6 6 +.D M V.$.t U S.` XXS.{ l l 8.] H D - 6 6 6 6 6 6 - I Z - t +.6 6 6 6 6 6 6 6 6 6 6 g g g g g g g g g u 6 6 6 6 +.6 n S S S S S S S S S S S m j.DXv.m S S S S S S S S S S B F F B S S S S S S S S S S S S L S S S S S S S S S S S S B L F B S S S S S S S S S S B S kXo.M S S S S S S S S S S n ",
"t t.L & I B I $.6 6 t.L & L I @.$.6 6 t.I & F t.n 6 +.M $.I & D M.M - @.L $.I & D M.M = #.#.= B I D N.N > ;.j.y j O.O.t.Z = @.#.- n t.F & I B +.$.- n t.F & I I @.$.6 t t.L & F y.r 6 +.M t.L & F t.M x +.L $.I & F t.L 6 6 6 6 +.D t Z.yXM H.H.R XXP.{ l l 8.] H D - 6 6 6 6 6 6 - I Z - t +.6 6 6 6 6 6 6 6 6 6 6 k k k k k k k k z u 6 6 6 6 +.t 6 6 6 6 6 6 6 6 6 6 6 % 0.DXc.* 6 6 6 6 6 6 6 6 6 6 6 - M B - 6 6 6 6 6 6 6 6 6 6 6 6 S 6 6 6 6 6 6 6 6 6 6 6 6 - B M - 6 6 6 6 6 6 6 6 6 6 6 6 kXA = 6 6 6 6 6 6 6 6 6 6 & ",
"L t.I B #.M I $.Z L t.I B #.L @.$.Z L $.I B @.$.D F @.n $.+.B +.$.D D #.F $.+.B +.t.D D $.#.M +.F D N.H J ;.j.v O.O.O.t.F D $.#.B I t.I Z #.M +.$.B I t.I Z #.L @.$.Z L t.I Z %.y.G F +.n t.I Z @.$.D O.%.F $.I B @.$.L 6 6 6 6 +.D M D Z.D Z.E R OXP.{ l l 8.] H D - 6 6 6 6 6 6 - I Z - t +.6 6 6 6 6 6 6 6 6 6 6 g g g g g g g g g u 6 6 6 6 +.t 6 6 6 6 6 6 6 6 6 6 % 0.JXv.9 6 6 6 6 6 6 6 6 6 6 6 6 6 M B 6 6 6 6 6 6 6 6 6 6 6 6 6 S 6 6 6 6 6 6 6 6 6 6 6 6 - B M 6 6 6 6 6 6 6 6 6 6 6 6 6 kXA = 6 6 6 6 6 6 6 6 6 6 & ",
"$.$.+.+.M.M I $.L $.$.+.+.t.L @.$.L $.$.+.+.t.$.L $.#.n $.+.+.t.$.L #.$.F $.+.+.t.$.L #.$.#.L M.F D N.U ;.N.j.O.u.O.O.t.L #.$.#.L $.$.+.+.t.M +.$.L $.$.+.+.t.L @.$.L $.$.+.+.$.y.P $.@.n $.+.+.t.$.L u.#.F $.+.+.t.$.L 6 6 6 6 +.D M M M M N C R +XP.[ l l 8.] H D - 6 6 6 6 6 6 - I Z - t +.6 6 6 6 6 6 6 6 6 6 6 k k k k k k k k k u 6 6 6 6 +.t 6 6 6 6 6 6 6 6 6 % 6.JXx.* S 6 6 6 6 6 6 6 6 6 6 6 6 6 M B - 6 6 6 6 6 6 6 6 6 6 6 6 S 6 6 6 6 6 6 6 6 6 6 6 6 - B M 6 6 6 6 6 6 6 6 6 6 6 6 6 kXA = 6 6 6 6 6 6 6 6 6 6 & ",
"#.$.+.I t.M I $.F #.$.+.I $.L @.$.F #.$.+.I $.$.F @.@.n $.+.L $.$.F @.#.F $.+.L $.$.L @.$.#.F t.F D N.U ;.;.j.O.u.O.O.t.L +.$.#.F #.$.I I t.M +.$.F #.$.I I $.F @.#.F #.$.+.I $.y.P #.@.n $.+.I $.$.L u.#.F $.+.I $.$.L 6 6 6 6 +.D M M M M N C R +X`.[ l l 8.] H D - 6 6 6 6 6 6 - I Z - t +.6 6 6 6 6 6 6 6 6 6 6 g g g g g g g g g u 6 6 6 6 +.t 6 6 6 6 6 6 6 6 % 6.DXx.* 6 S 6 6 6 6 6 6 6 6 6 6 6 6 6 M B - 6 6 6 6 6 6 6 6 6 6 6 6 S 6 6 6 6 6 6 6 6 6 6 6 6 - B M 6 6 6 6 6 6 6 6 6 6 6 6 6 kXA = 6 6 6 6 6 6 6 6 6 6 & ",
"$.t.+.+.B.M +.t.L $.t.+.+.M.I #.$.L $.t.+.+.t.$.L $.#.M t.@.+.t.t.I #.$.L t.@.+.t.t.I #.t.#.L B.L H N.U ;.N.j.O.u.O.O.t.+.@.t.$.L $.t.+.+.B.M @.$.L $.t.+.+.M.I #.$.L $.t.+.+.;.y.P $.#.M t.@.+.t.t.+.u.$.L t.@.+.t.t.I t 6 6 6 @.$.#.#.#.#.#.;.! +X`.{ { l 8.] H D - 6 6 6 6 6 6 - I Z - t +.6 6 6 6 6 6 6 6 6 6 6 k k k k k k k k k u 6 6 6 6 +.t 6 6 6 6 6 6 6 % { DX9X* 6 6 S 6 6 6 6 6 6 6 6 6 6 6 6 6 M B - 6 6 6 6 6 6 6 6 6 6 6 6 S 6 6 6 6 6 6 6 6 6 6 6 6 - B M 6 6 6 6 6 6 6 6 6 6 6 6 6 kXA = 6 6 6 6 6 6 6 6 6 6 & ",
"D D D D D F D D D D D L D D D D L S D D L D D F F S F L D D D D D D D D D D D D D D D D D D D D H H H H H U h.} P P P P D L F D D D D D D D D F D D D D D L F S D D S L D D D F P K D D F D D D L D D O.D D D D D D D D B B B B D D D D D D F U R +X'.O.| | e.] H D - 6 6 6 6 6 6 - I Z - t +.6 6 6 6 6 6 6 6 6 6 6 g g g g g g g g k u 6 6 6 6 +.t 6 6 6 6 6 6 % v DX9X* 6 6 6 S 6 6 6 6 6 6 6 6 6 6 6 6 6 M B - 6 6 6 6 6 6 6 6 6 6 6 6 S 6 6 6 6 6 6 6 6 6 6 6 6 - B M 6 6 6 6 6 6 6 6 6 6 6 6 6 kXA = 6 6 6 6 6 6 6 6 6 6 & ",
"- - 6 6 - B 6 - 6 - 6 B - 6 - 6 B - - 6 B - = n M & t S = 6 6 6 - 6 - - 6 - - 6 - - 6 - - - 6 = M n 8 9 9 m q.h y y r 7 5 M t = 6 6 - 6 6 = M n = 6 - 6 = B 6 - - 6 - B 6 6 - 8 j r - - B 6 - 6 M & 6 } = 6 - 6 6 6 - 6 6 6 6 6 6 - - - - - - 2 R }.'.z l l 8.] H D - 6 6 6 6 6 6 - I Z - t +.6 6 6 6 6 6 6 6 6 6 6 g g g g g g g g k u 6 6 6 6 +.t 6 6 6 6 6 * v GX9X* 6 6 6 6 S 6 6 6 6 6 6 6 6 6 6 6 6 6 M B - 6 6 6 6 6 6 6 6 6 6 6 6 S 6 6 6 6 6 6 6 6 6 6 6 6 6 B M 6 6 6 6 6 6 6 6 6 6 6 6 6 kXA = 6 6 6 6 6 6 6 6 6 6 & ",
"6 6 6 6 6 S 6 6 6 6 6 B 6 6 6 6 S 6 6 6 S 6 6 M M - n S - 6 6 6 6 6 6 6 6 6 6 6 6 6 6 6 6 6 6 6 B N 8 9 9 N q.h y y u u 6 M n 6 6 6 6 6 6 6 M M 6 6 6 6 6 B 6 6 6 6 6 S 6 6 6 n K r 6 6 S 6 6 t B - t } - 6 6 6 6 6 6 6 6 6 6 6 6 6 6 6 6 6 6 m T }.oXP l l 8.] H D - 6 6 6 6 6 6 - I Z - t +.6 6 6 6 6 6 6 6 6 6 6 k k k k k k k k k u 6 6 6 6 +.t 6 6 6 6 * v FX9X- 6 6 6 6 6 S 6 6 6 6 6 6 6 6 6 6 6 6 6 M B - 6 6 6 6 6 6 6 6 6 6 6 6 S 6 6 6 6 6 6 6 6 6 6 6 = = B t - 6 - - - - 6 6 - - 6 - 6 kXA = 6 6 6 6 6 6 6 6 6 6 & ",
"6 6 6 6 6 B 6 $.S I @.+.$.n 6 6 S 6 6 6 S 6 6 M M - n Z t #.B D - 6 6 6 6 6 6 6 6 6 6 6 6 6 6 6 B n I %.U H q.h y y u u 6 M M I I F 6 6 6 6 M n 6 6 6 6 6 B 6 @.F F 6 S 6 6 6 n K r 6 6 S 6 6 t B - t } 6 #.M +.I F 6 6 6 6 6 6 6 6 6 6 6 6 6 m R }.'.V.O.u.z.| D D - 6 6 6 6 6 6 - I Z - t +.6 6 6 6 6 6 6 6 6 6 6 g g g g g g g g g u 6 6 6 6 +.t 6 6 6 * v FXBX6 6 6 6 6 6 6 S 6 6 6 6 6 6 6 6 6 6 6 6 6 M B - 6 6 6 6 6 6 6 6 6 6 6 6 S 6 6 6 6 6 6 6 6 6 6 6 2.q <.<.= A 3.o.<.:.- = -.o.2.<.0 kXA = 6 6 6 6 6 6 6 6 6 6 & ",
"6 6 6 6 6 B M t.D I I C.S I = 6 S 6 6 6 S 6 6 M M - n S 6 #.D $.D 6 6 6 6 6 6 6 6 6 6 6 6 6 6 6 B N 8 %.;.;.j.h y y u u 6 M n L $.#.I 6 6 6 M n 6 6 6 6 6 B t t.S +.@.F 6 6 6 n K r 6 6 S 6 6 t B - t } - @.I F I t.I t 6 6 6 6 6 6 6 6 6 6 6 n R }.oXS.u.O.z.u.D D - 6 6 6 6 6 6 - I Z - t +.6 6 6 6 6 6 6 6 6 6 6 k k k k k k k k z u 6 6 6 6 +.t 6 6 * v FXBXu - 6 6 6 6 6 6 S 6 6 6 6 6 6 6 6 6 6 6 6 6 M B - 6 6 6 6 6 6 6 6 6 6 6 6 S 6 6 6 6 6 6 6 6 6 = = 2.J M 4.6 :.o.6X-.<.q :.6X:.4.2.0 kXA = 6 6 6 6 6 6 6 6 6 6 & ",
"6 6 6 6 6 S 6 n B.I F C.B +.= 6 S 6 6 6 S 6 6 M M - n S = I D D.B - 6 6 6 6 6 6 6 6 6 6 6 6 6 6 B n D U ;.Z.q.h y y u u 6 M n n #.Z.+.= 6 6 M n 6 6 6 6 6 B 6 6 @.C.t.M 6 6 6 n K r 6 6 S 6 6 t B - t } & F I D L Z.$.= 6 6 6 6 6 6 6 6 6 6 6 8 R }.oXS.O.O.z.u.D D - 6 6 6 6 6 6 - I Z - t +.6 6 6 6 6 6 6 6 6 6 6 g g g g g g g g g u 6 6 6 6 +.t 6 * h ZXBXu - 6 6 6 6 6 6 6 S 6 6 6 6 6 6 6 6 6 6 6 6 6 M B - 6 6 6 6 6 6 6 6 6 6 6 6 S 6 6 6 6 6 6 6 6 - -.A -.A -.:.+ :.J 6Xo.:.o.:.:.<.:.<.A kXA = 6 6 6 6 6 6 6 6 6 6 & ",
"6 6 6 6 6 B t +.I I #.#.$.M - 6 B 6 6 6 S 6 6 M M - n S - L S +.I 6 6 6 6 6 6 6 6 6 6 6 6 6 6 6 B n M.$.U ;.j.h y y u u 6 M S +.+.I +.t 6 6 M n 6 6 6 6 6 B t I +.I +.I 6 6 6 n K r 6 6 S 6 6 t B - t } = L M @.@.L +.M 6 6 6 6 6 6 6 6 6 6 6 8 R [.&XS.O.u.z.O.D D - 6 6 6 6 6 6 - I Z - t +.6 6 6 6 6 6 6 6 6 6 6 k k k k k k k k z u 6 6 6 6 +.t * j ZXZXu * 6 6 6 6 6 6 6 6 S 6 6 6 6 6 6 6 6 6 6 6 6 6 M B - 6 6 6 6 6 6 6 6 6 6 6 6 S 6 6 6 6 6 6 6 6 6 q 6 -.o.6X<.o.J 3.-.<.>.6 <.3.-.3.<.0 kXA = 6 6 6 6 6 6 6 6 6 6 & ",
"6 6 6 6 6 S 6 t 6 6 6 B 6 6 6 6 S 6 6 6 S 6 6 M M - n S - 6 6 6 6 6 6 6 6 6 6 6 6 6 6 6 6 6 6 6 B N 8 m 9 m q.h y y u u 6 M n 6 6 6 6 6 6 6 M n 6 6 6 6 6 B 6 6 6 6 6 S 6 6 6 n K r 6 6 S 6 6 t B - t } - 6 6 6 6 6 6 6 6 6 6 6 6 6 6 6 6 6 6 6 R |.oX_ [ l 8.] H D - 6 6 6 6 6 6 - I Z - t +.6 6 6 6 6 6 6 6 6 6 6 g g g g g g g g g u 6 6 6 6 +.8 y ZXZXu * 6 6 6 6 6 6 6 6 6 S 6 6 6 6 6 6 6 6 6 6 6 6 6 M B - 6 6 6 6 6 6 6 6 6 6 6 6 S 6 6 6 6 6 6 6 6 6 - 6 6 6 S Z 6 6 6 - 6 6 - 6 6 - 0 6 6 kXA = 6 6 6 6 6 6 6 6 6 6 & ",
"6 6 6 6 6 S 6 6 6 6 6 S 6 6 6 6 S 6 6 6 S 6 6 M M - M D 6 6 6 6 6 6 6 6 6 6 6 6 6 6 6 6 6 6 6 6 B N 8 9 9 N h.h y y u u 6 M n 6 6 6 6 6 6 6 M M 6 6 6 6 6 S 6 6 6 6 6 S 6 6 6 n K r 6 6 S 6 6 n B - t } - 6 6 6 6 6 6 6 6 6 6 6 6 6 6 6 6 6 6 6 R {.+X`.[ l 8.5.I M 6 6 6 6 6 6 6 - I Z - t +.6 6 6 6 6 6 6 6 6 6 6 k k k k k k k k k u 6 6 6 6 I S BXZXu * 6 6 6 6 6 6 6 6 6 6 S 6 6 6 6 6 6 6 6 6 6 6 6 6 M B 6 6 6 6 6 6 6 6 6 6 6 6 6 S 6 6 6 6 6 6 6 6 6 6 6 6 6 B M - 6 6 6 6 6 6 6 6 6 6 6 6 kXA = 6 6 6 6 6 6 6 6 6 6 & ",
"- - - - - 6 - - - - - 6 - - - - 6 - - - 6 - - - - = - 6 - - - - - - - - - - - - - - - - - - - - 6 - - - - - r 5 5 5 - - - 6 - - - - - - - - 6 - - - - - - 6 - - - - - 6 - - - - 6 - - - 6 - - - 6 - - 6 - - - - - - - - - - - - - - - - - - - = 1 Q (.` 7 u f O.I 6 6 6 6 6 6 6 6 - I S & 6 +.6 6 6 6 6 6 6 6 6 6 6 g g g g g g g g g u 6 6 6 6 M @.0.h % 5 - - - - - - - - - - 6 - - - - - - - - - - - - - 6 6 - - - - - - - - - - - - - 6 - - - - - - - - - - - - - 6 6 - - - - - - - - - - - - - q 6 = - - - - - - - - - - = ",
"L L L L L F L L L L L F L L L L F L L L F L L L L L L F L L L L L L L L L L L L L L L L L L L L F L L L L L F F F L L L L F L L L L L L L L L L L L L L L F L L L L L F L L L L F L L L F L L L F L L F L L L L L L L L L L L L L L L L L L L L F G k G F F I I 6 6 6 6 6 6 6 6 6 6 S +.n I L 6 6 6 6 6 6 6 6 6 6 6 g g g g g g g g k u 6 6 6 6 6 B I L L L L L L L L L L L L L F L L L L L L L L L L L L L L F L L L L L L L L L L L L L F L L L L L L L L L L L L L F L L L L L L L L L L L L L L D L L L L L L L L L L L L L ",
"D D D D D D D D D D D D D D D D D D D D D D D D D D D D D D D D D D D D D D D D D D D D D D D D D D D D D D D D D D D D D D D D D D D D D D D D D D D D D D D D D D D D D D D D D D D D D D D D D D D D D D D D D D D D D D D D D D D D D D D D D D D D D D M 6 6 6 6 6 6 6 6 6 6 6 6 S +.L 6 6 6 6 6 6 6 6 6 6 6 6 k k k k k k k k k u 6 6 6 6 6 6 6 S D D D D D D D D D D D D D D D D D D D D D D D D D D D D D D D D D D D D D D D D D D D D D D D D D D D D D D D D D D D D D D D D D D D D D D D D D D D D D D D D D D D D ",
"- - - - - - - - - - - - - - - - - - - - - - - - - - - - - - - - - - - - - - - - - - - - - - - - - - - - = - - - - - - - - - - - - - - - - - - - - - - - - - - - - - - - - - - - - - - - - - - - - - - - - - - - - - - - - - - - - - - - - - - - - - - - - - 6 6 6 6 6 6 6 6 6 6 6 6 6 - 6 6 6 6 6 6 6 6 6 6 6 6 6 6 g g g g g g g g g u 6 6 6 6 6 6 6 - - - - - - - - - - - - - - - - - - - - - - - - - - - - - - - - - - - - - - - - - - - - - - - - - - - - - - - - - - - - - - - - - - - - - - - - - - - - - - - - - - - - - ",
"6 6 6 6 6 6 6 6 6 6 6 6 6 6 6 6 6 6 6 6 6 6 6 6 6 6 6 6 6 6 6 6 6 6 6 6 6 6 6 6 6 6 6 6 6 6 6 6 6 6 6 6 n 6 6 6 6 6 6 6 6 6 6 6 6 6 6 6 6 6 6 6 6 6 6 6 6 6 6 6 6 6 6 6 6 6 6 6 6 6 6 6 6 6 6 6 6 6 6 6 6 6 6 6 6 6 6 6 6 6 6 6 6 6 6 6 6 6 6 6 6 6 6 6 6 6 6 6 6 6 6 6 6 6 6 6 6 6 6 n 6 6 6 t 6 - n 6 6 6 6 6 6 6 k k k k k k k k k u 6 6 6 6 6 6 6 6 6 6 6 6 6 6 6 6 6 6 6 6 6 6 6 6 6 6 6 6 6 6 6 6 6 6 6 6 6 6 6 6 6 6 6 6 6 6 6 6 6 6 6 6 6 6 6 6 6 6 6 6 6 6 6 6 6 6 6 6 6 6 6 6 6 6 6 6 6 6 6 6 6 6 6 6 6 6 6 6 6 6 6 6 ",
"6 6 6 6 6 6 6 6 6 6 6 6 6 6 6 6 6 6 6 6 6 6 6 6 6 6 6 6 6 6 6 6 6 6 6 6 6 6 6 6 6 6 6 6 6 6 6 6 6 6 6 6 D 6 6 6 6 6 6 6 6 6 6 6 6 6 6 6 6 6 6 6 6 6 6 6 6 6 6 6 6 6 6 6 6 6 6 6 6 6 6 6 6 6 6 6 6 6 6 6 6 6 6 6 6 6 6 6 6 6 6 6 6 6 6 6 6 6 6 6 6 6 6 6 6 6 6 6 6 6 6 6 6 6 6 - t.$.t B.t.6 Z B.$.@.B.#.6 6 6 6 6 6 g g g g g g g g g u 6 6 6 6 6 6 6 - - - - - - - - - - - - - - - - - - - - - - 6 6 - - - - - - - - - - - - - - - - - - - - - - - - - - - 6 6 6 6 6 6 6 6 6 6 6 6 6 6 6 6 6 6 6 6 6 6 6 6 6 6 6 6 6 6 6 6 6 6 ",
"6 6 6 6 6 6 6 6 6 6 6 6 6 6 6 6 6 6 6 6 6 6 6 6 6 6 6 6 6 6 6 6 6 6 6 6 6 6 6 6 6 6 6 6 6 6 6 6 6 6 6 6 S 6 6 6 I #.@.@.@.@.@.@.@.@.@.@.@.@.@.@.@.@.@.@.@.@.@.@.@.@.@.@.@.@.@.@.@.@.@.@.@.@.@.@.@.@.@.@.@.@.@.@.@.@.@.@.@.@.@.@.@.@.@.@.@.@.@.@.@.@.@.@.@.@.#.t 6 6 6 6 6 6 6 - I t.- 6 V.6 Z Z.$.#.C.#.- 6 6 6 6 6 k k k k k k k k z u 6 6 6 6 6 6 B L L L L L L L L L L L L L L L L L L L L L F 6 t L L L L L L L L L L L L L L L L L L L L L L L L L L L n 6 6 6 6 6 6 6 6 6 6 6 6 6 6 6 6 6 6 6 6 6 6 6 6 6 6 6 6 6 6 6 6 6 ",
"6 6 6 6 6 6 6 6 6 6 6 6 6 6 6 6 6 6 6 6 6 6 6 6 6 6 6 6 6 6 6 6 6 6 6 6 6 6 6 6 6 6 6 6 6 6 6 6 6 6 6 6 S 6 6 - I F M B B B B B B B B B B B B B B B B B B B B B B B B B B B B B B B B B B B B B B B B B B B B B B B B B B B B B B B B B B B B B B B B B B B @.n 6 6 6 6 6 6 $.M n t.$ +.I $ D B.t.#.M.$.6 6 6 6 6 6 g g g g g g g g g u 6 6 6 6 6 - I @.L I I L I I L I I L I L L I I I L I L I #.6 M $.L L I I I I I L L I L I I L L L L I L I I I L I F $.B - 6 6 6 6 6 6 6 6 6 6 6 6 6 6 6 6 6 6 6 6 6 6 6 6 6 6 6 6 6 6 6 6 ",
"6 6 6 6 6 6 6 6 6 6 6 6 6 6 6 6 6 6 6 6 6 6 6 6 6 6 6 6 6 6 6 6 6 6 6 6 6 6 6 6 6 6 6 6 6 6 6 6 6 6 6 6 S 6 6 6 I D M B B B B B B B B B B B B B B B B B B B B B B B B B M B B B B M B M M M M B B B B B B B B B B B B B B B B B B B B B B B B B B B B B B M @.n 6 6 6 6 6 6 6 6 Z $.D G.L I #.$.$.C.#.B.6 6 6 6 6 6 k k k k k k k k k u 6 6 6 6 6 - L F M n t M t t M t n M n M M n n t M n M M @.6 M +.n M t n t n t M M t M n t n M n M n M n n n M M n +.B - 6 6 6 6 6 6 6 6 6 6 6 6 6 6 6 6 6 6 6 6 6 6 6 6 6 6 6 6 6 6 6 6 ",
"6 6 6 6 6 6 6 6 6 6 6 6 6 6 6 6 6 6 6 6 6 6 6 6 6 6 6 6 6 6 6 6 6 6 6 6 6 6 6 6 6 6 6 6 6 6 6 6 6 6 6 6 S 6 6 6 I D M B B B B B B B B B B B B B B B B B B B B B B B B B B.M I Z.#.D.M $.+.@.$.+.M B B B B B B B B B B B B B B B B B B B B B B B B B B B B M @.n 6 6 6 6 6 6 6 6 6 n M F F B 6 D B 6 L t 6 6 6 6 6 6 g g g g g g g g g u 6 6 6 6 6 - I L M +.t.D #.#.D t.I M +.F D +.I $.D I S B @.6 M @.M S #.@.#.+.M.D L t.D +.$.I B L S +.D @.@.I D L M +.B - 6 6 6 6 6 6 6 6 6 6 6 6 6 6 6 6 6 6 6 6 6 6 6 6 6 6 6 6 6 6 6 6 ",
"6 6 6 6 6 6 6 6 6 6 6 6 6 6 6 6 6 6 6 6 6 6 6 6 6 6 6 6 6 6 6 6 6 6 6 6 6 6 6 6 6 6 6 6 6 6 6 6 6 6 6 6 S 6 6 6 I D M B B B B B B B B B B B B B B B B B B B B B B B B B Z.S F B.+.H.@.t.@.G.t.M B B B B B B B B B B B B B B B B B B B B B B B B B B B B B M @.n 6 6 6 6 6 6 6 6 6 6 6 & = 6 6 - - 6 = 6 6 6 6 6 6 6 g k k k k k k k k u 6 6 6 6 6 - I L n B.B.B.B.M.M.Z.L 6 Z.B.@.D.$.M.V.t.M S @.6 M @.n #.V.D C.B.$.M.B.B.+.V.D B.#.V.D F.I M.B.G.@.#.n +.B - 6 6 6 6 6 6 6 6 6 6 6 6 6 6 6 6 6 6 6 6 6 6 6 6 6 6 6 6 6 6 6 6 ",
"6 6 6 6 6 6 6 6 6 6 6 6 6 6 6 6 6 6 6 6 6 6 6 6 6 6 6 6 6 6 6 6 6 6 6 6 6 6 6 6 6 6 6 6 6 6 6 6 6 6 6 6 S 6 6 6 I D M B B B B B B B B B B B B B B B B B B B B B B B B B C.n D t.@.$.D.B.I J.t.n M M M M B B B B B B B B B B B B B B B B B B B B B B B B B M @.n 6 6 6 6 6 6 6 6 6 6 6 n t - 6 6 6 6 6 6 6 6 6 6 6 6 6 6 6 6 6 6 6 6 6 6 6 6 6 6 6 - I L t B.Z.I Z.C.+.C.L F t.V.B.t.#.D Z.#.t S @.6 M +.M S B.#.$.t.M $.B.$.$.@.= t.V.V.@.F.B.@.#.V.F.+.n +.B - 6 6 6 6 6 6 6 6 6 6 6 6 6 6 6 6 6 6 6 6 6 6 6 6 6 6 6 6 6 6 6 6 ",
"6 6 6 6 6 6 6 6 6 6 6 6 6 6 6 6 6 6 6 6 6 6 6 6 6 6 6 6 6 6 6 6 6 6 6 6 6 6 6 6 6 6 6 6 6 6 6 6 6 6 6 6 S 6 6 6 I D M B B B B B B B B B B B B B B B B B B B B B B B B M D.$.#.Z.$.@.$.G.@.$.B.t.@.#.#.I M B B B B B B B B B B B B B B B B B B B B B B B B M @.n 6 6 6 6 6 6 6 6 6 6 & @.I t.B.F - 6 6 6 6 6 6 6 6 6 6 6 6 - 6 6 - 6 7 6 6 6 6 6 6 - I L n B.L M V.t.t.V.L +.$.Z.V.$.M.C.$.B.S B @.6 M @.M D $.C.V.V.B.t.t.t.I C.L B.D #.Z.B.V.Z.B.I F.t.t @.B - 6 6 6 6 6 6 6 6 6 6 6 6 6 6 6 6 6 6 6 6 6 6 6 6 6 6 6 6 6 6 6 6 ",
"6 6 6 6 6 6 6 6 6 6 6 6 6 6 6 6 6 6 6 6 6 6 6 6 6 6 6 6 6 6 6 6 6 6 6 6 6 6 6 6 6 6 6 6 6 6 6 6 6 6 6 6 S 6 6 6 I D M B B B B B B B B B B B B B B B B B B B B B B B B M I $.I I F D B L D D S I F F L D M B B B B B B B B B B B B B B B B B B B B B B B B M @.n 6 6 6 6 6 6 6 6 6 n t.D.+.t.I M.= 6 6 6 6 6 6 6 6 6 - u z.X.6 z.X.*.=.- 6 6 6 6 6 - I L M F S B D S F @.I n D D D D L +.B F S B @.6 M @.M F @.D I L #.S D #.D L +.F S D L n D +.L S D F M +.B - 6 6 6 6 6 6 6 6 6 6 6 6 6 6 6 6 6 6 6 6 6 6 6 6 6 6 6 6 6 6 6 6 ",
"6 6 6 6 6 6 6 6 6 6 6 6 6 6 6 6 6 6 6 6 6 6 6 6 6 6 6 6 6 6 6 6 6 6 6 6 6 6 6 6 6 6 6 6 6 6 6 6 6 6 6 6 S 6 6 6 I D M M M M M M M M M M M M M M M M M M M M M M M M M M n t M n M M M M M M M M M M M M M M M M M M M M M M M M M M M M M M M M M M M M M M @.n 6 6 6 6 6 6 6 6 & +.I I @.V.B.@.- 6 6 6 6 6 6 6 6 6 g - X.X.k *.*.z.X.- 6 6 6 6 6 - L F n M M M M M n t n M M M M M n t M M M M @.6 M +.n M t M n n t M M t M n t M M M n M M t n M M M n +.B - 6 6 6 6 6 6 6 6 6 6 6 6 6 6 6 6 6 6 6 6 6 6 6 6 6 6 6 6 6 6 6 6 ",
"6 6 6 6 6 6 6 6 6 6 6 6 6 6 6 6 6 6 6 6 6 6 6 6 6 6 6 6 6 6 6 6 6 6 6 6 6 6 6 6 6 6 6 6 6 6 6 6 6 6 6 6 S 6 6 - +.L S D D D D D D D D D D D D D D D D D D D D D D D D D D D D D D D D D D D D D D D D D D D D D D D D D D D D D D D D D D D D D D D D D D D #.n 6 6 6 6 6 6 6 6 = F $.B.#.B.L V.- 6 6 6 6 6 6 6 6 6 X.X.tXg 7 tX*.' tXu 6 6 6 6 6 - I #.I +.I I +.I +.+.+.I +.+.+.I +.+.I +.I +.#.6 M $.I +.+.+.+.+.+.I +.+.I +.+.+.I +.+.I +.+.+.I +.+.I $.B - 6 6 6 6 6 6 6 6 6 6 6 6 6 6 6 6 6 6 6 6 6 6 6 6 6 6 6 6 6 6 6 6 ",
"6 6 6 6 6 6 6 6 6 6 6 6 6 6 6 6 6 6 6 6 6 6 6 6 6 6 6 6 6 6 6 6 6 6 6 6 6 6 6 6 6 6 6 6 6 6 6 6 6 6 6 6 S 6 6 6 L @.+.+.+.+.+.+.+.+.+.+.+.+.+.+.+.+.+.+.+.+.+.+.+.+.+.+.+.+.+.+.+.+.+.+.+.+.+.+.+.+.+.+.+.+.+.+.+.+.+.+.+.+.+.+.+.+.+.+.+.+.+.+.+.+.+.+.+.+.+.6 6 6 6 6 6 6 6 6 6 6 I +.n +.$.M 6 6 6 6 6 6 6 6 6 6 % k *.' g X.u X.X.- 6 6 6 6 6 6 M D D D D D D D D D D D D D D D D D D D D D Z 6 6 S D D D D D D D D D D D D D D D D D D D D D D D D D D 6 6 6 6 6 6 6 6 6 6 6 6 6 6 6 6 6 6 6 6 6 6 6 6 6 6 6 6 6 6 6 6 6 6 ",
"6 6 6 6 6 6 6 6 6 6 6 6 6 6 6 6 6 6 6 6 6 6 6 6 6 6 6 6 6 6 6 6 6 6 6 6 6 6 6 6 6 6 6 6 6 6 6 6 6 6 6 6 S 6 6 6 6 6 6 6 6 6 6 6 6 6 6 6 6 6 6 6 6 6 6 6 6 6 6 6 6 6 6 6 6 6 6 6 6 6 6 6 6 6 6 6 6 6 6 6 6 6 6 6 6 6 6 6 6 6 6 6 6 6 6 6 6 6 6 6 6 6 6 6 6 6 6 6 6 6 6 6 6 6 6 6 6 6 = & 6 = & 6 6 6 6 6 6 6 6 6 6 6 6 - % - - * 6 * - 6 6 6 6 6 6 6 6 - - - - - - - - - - - - - - - - - - - - - 6 6 6 - - - - - - - - - - - - - - - - - - - - - - - - - - - 6 6 6 6 6 6 6 6 6 6 6 6 6 6 6 6 6 6 6 6 6 6 6 6 6 6 6 6 6 6 6 6 6 6 ",
"6 6 6 6 6 6 6 6 6 6 6 6 6 6 6 6 6 6 6 6 6 6 6 6 6 6 6 6 6 6 6 6 6 6 6 6 6 6 6 6 6 6 6 6 6 6 6 6 6 6 6 6 6 6 6 6 6 6 6 6 6 6 6 6 6 6 6 6 6 6 6 6 6 6 6 6 6 6 6 6 6 6 6 6 6 6 6 6 6 6 6 6 6 6 6 6 6 6 6 6 6 6 6 6 6 6 6 6 6 6 6 6 6 6 6 6 6 6 6 6 6 6 6 6 6 6 6 6 6 6 6 6 6 6 6 6 6 6 6 6 6 6 6 6 6 6 6 6 6 6 6 6 6 6 6 6 6 6 6 6 6 6 6 6 6 6 6 6 6 6 6 6 6 6 6 6 6 6 6 6 6 6 6 6 6 6 6 6 6 6 6 6 6 6 6 6 6 6 6 6 6 6 6 6 6 6 6 6 6 6 6 6 6 6 6 6 6 6 6 6 6 6 6 6 6 6 6 6 6 6 6 6 6 6 6 6 6 6 6 6 6 6 6 6 6 6 6 6 6 6 6 6 6 6 6 6 ",
"6 6 6 6 6 6 6 6 6 6 6 6 6 6 6 6 6 6 6 6 6 6 6 6 6 6 6 6 6 6 6 6 6 6 6 6 6 6 6 6 6 6 6 6 6 6 6 6 6 6 6 6 6 6 6 6 6 6 6 6 6 6 6 6 6 6 6 6 6 6 6 6 6 6 6 6 6 6 6 6 6 6 6 6 6 6 6 6 6 6 6 6 6 6 6 6 6 6 6 6 6 6 6 6 6 6 6 6 6 6 6 6 6 6 6 6 6 6 6 6 6 6 6 6 6 6 6 6 6 6 6 6 6 6 6 6 6 6 6 6 6 6 6 6 6 6 6 6 6 6 6 6 6 6 6 6 6 6 6 6 6 6 6 6 6 6 6 6 6 6 6 6 6 6 6 6 6 6 6 6 6 6 6 6 6 6 6 6 6 6 6 6 6 6 6 6 6 6 6 6 6 6 6 6 6 6 6 6 6 6 6 6 6 6 6 6 6 6 6 6 6 6 6 6 6 6 6 6 6 6 6 6 6 6 6 6 6 6 6 6 6 6 6 6 6 6 6 6 6 6 6 6 6 6 6 6 ",
"+.+.+.+.+.+.+.+.+.+.+.+.+.+.+.+.+.+.+.+.+.+.+.+.+.+.+.+.+.+.+.+.+.+.+.+.+.+.+.+.+.+.+.+.+.+.+.+.+.+.+.+.+.+.+.+.+.+.+.+.+.+.+.+.+.+.+.+.+.+.+.+.+.+.+.+.+.+.+.+.+.+.+.+.+.+.+.+.+.+.+.+.+.+.+.+.+.+.+.+.+.+.+.+.+.+.+.+.+.+.+.+.+.+.+.+.+.+.+.+.+.+.+.+.+.+.+.+.+.+.+.+.+.+.+.+.+.+.+.+.+.+.+.+.+.+.+.Z 6 6 - F $.#.$.$.#.#.#.#.#.#.#.#.#.#.#.#.#.#.#.#.#.#.#.#.#.#.+.+.+.+.+.+.+.+.+.+.+.+.+.+.+.+.+.+.+.+.+.+.+.+.+.+.+.+.+.+.+.+.+.+.+.+.+.+.+.+.+.+.+.+.+.+.+.+.+.+.+.+.+.+.+.+.+.+.+.+.+.+.+.+.+.+.+.+.+.+.+.+.+.+.+.+.+.+.",
"6 6 6 6 6 6 6 6 6 6 6 6 6 6 6 6 6 6 6 6 6 6 6 6 6 6 6 6 6 6 6 6 6 6 6 6 6 6 6 6 6 6 6 6 6 6 6 6 6 6 6 6 6 6 6 6 6 6 6 6 6 6 6 6 6 6 6 6 6 6 6 6 6 6 6 6 6 6 6 6 6 6 6 6 6 6 6 6 6 6 6 6 6 6 6 6 6 6 6 6 6 6 6 6 6 6 6 6 6 6 6 6 6 6 6 6 6 6 6 6 6 6 6 6 6 6 6 6 6 6 6 6 6 6 6 6 6 6 6 6 6 6 6 6 6 6 M @.D 6 - F t.$.#.@.$.$.$.$.$.$.$.$.$.$.$.$.$.$.$.$.$.$.$.$.t.L - 6 6 6 6 6 6 6 6 6 6 6 6 6 6 6 6 6 6 6 6 6 6 6 6 6 6 6 6 6 6 6 6 6 6 6 6 6 6 6 6 6 6 6 6 6 6 6 6 6 6 6 6 6 6 6 6 6 6 6 6 6 6 6 6 6 6 6 6 6 6 6 6 6 6 6 6 6 ",
"6 6 6 6 6 6 6 6 6 6 6 6 6 6 6 6 6 6 6 6 6 6 6 6 6 6 6 6 6 6 6 6 6 6 6 6 6 6 6 6 6 6 6 6 6 6 6 6 6 6 6 6 6 6 6 6 6 6 6 6 6 6 6 6 6 6 6 6 6 6 6 6 6 6 6 6 6 6 6 6 6 6 6 6 6 6 6 6 6 6 6 6 6 6 6 6 6 6 6 6 6 6 6 6 6 6 6 6 6 6 6 6 6 6 6 6 6 6 6 6 6 6 6 6 6 6 6 6 6 6 6 6 6 6 6 6 6 6 6 6 6 6 6 6 6 6 - 6 +.M = F t.#.Z.F.B.#.@.#.$.@.#.#.#.#.@.#.@.#.#.@.$.$.$.$.$.L - 6 6 6 6 6 6 6 6 6 6 6 6 6 6 6 6 6 6 6 6 6 6 6 6 6 6 6 6 6 6 6 6 6 6 6 6 6 6 6 6 6 6 6 6 6 6 6 6 6 6 6 6 6 6 6 6 6 6 6 6 6 6 6 6 6 6 6 6 6 6 6 6 6 6 6 6 6 ",
"6 6 6 6 6 6 6 6 6 6 6 6 6 6 6 6 6 6 6 6 6 6 6 6 6 6 6 6 6 6 6 6 6 6 6 6 6 6 6 6 6 6 6 6 6 6 6 6 6 6 6 6 6 6 6 6 6 6 6 6 6 6 6 6 6 6 6 6 6 6 6 6 6 6 6 6 6 6 6 6 6 6 6 6 6 6 6 6 6 6 6 6 6 6 6 6 6 6 6 6 6 6 6 6 6 6 6 6 6 6 6 6 6 6 6 6 6 6 6 6 6 6 6 6 6 6 6 6 6 6 6 6 6 6 6 6 6 6 6 6 6 6 6 6 6 6 6 - D F & F $.$.L.D.J.t.F.V.t.F.t.Z.D.C.F.t.F.B.C.F.$.$.$.$.$.L - 6 6 6 6 6 6 6 6 6 6 6 6 6 6 6 6 6 6 6 6 6 6 6 6 6 6 6 6 6 6 6 6 6 6 6 6 6 6 6 6 6 6 6 6 6 6 6 6 6 6 6 6 6 6 6 6 6 6 6 6 6 6 6 6 6 6 6 6 6 6 6 6 6 6 6 6 6 ",
"6 6 6 6 6 6 6 6 6 6 6 6 6 6 6 6 6 6 6 6 6 6 6 6 6 6 6 6 6 6 6 6 6 6 6 6 6 6 6 6 6 6 6 6 6 6 6 6 6 6 6 6 6 6 6 6 6 6 6 6 6 6 6 6 6 6 6 6 6 6 6 6 6 6 6 6 6 6 6 6 6 6 6 6 6 6 6 6 6 6 6 6 6 6 6 6 6 6 6 6 6 6 6 6 6 6 6 6 6 6 6 6 6 6 6 6 6 6 6 6 6 6 6 6 6 6 6 6 6 6 6 6 6 6 6 6 6 6 6 6 6 6 6 6 6 6 6 - B I & F $.$.J.I F.L.J.J.J.J.L.L.C.J.F.F.L.J.L.D.#.$.$.$.$.L - 6 6 6 6 6 6 6 6 6 6 6 6 6 6 6 6 6 6 6 6 6 6 6 6 6 6 6 6 6 6 6 6 6 6 6 6 6 6 6 6 6 6 6 6 6 6 6 6 6 6 6 6 6 6 6 6 6 6 6 6 6 6 6 6 6 6 6 6 6 6 6 6 6 6 6 6 6 ",
"6 6 6 6 6 6 6 6 6 6 6 6 6 6 6 6 6 6 6 6 6 6 6 6 6 6 6 6 6 6 6 6 6 6 6 6 6 6 6 6 6 6 6 6 6 6 6 6 6 6 6 6 6 6 6 6 6 6 6 6 6 6 6 6 6 6 6 6 6 6 6 6 6 6 6 6 6 6 6 6 6 6 6 6 6 6 6 6 6 6 6 6 6 6 6 6 6 6 6 6 6 6 6 6 6 6 6 6 6 6 6 6 6 6 6 6 6 6 6 6 6 6 6 6 6 6 6 6 6 6 6 6 6 6 6 6 6 6 6 6 6 6 6 6 6 6 6 - B I & F $.$.J.$.H.L.J.D.L.G.Z.C.J.V.H.L.J.Z.J.$.#.$.$.$.$.D - 6 6 6 6 6 6 6 6 6 6 6 6 6 6 6 6 6 6 6 6 6 6 6 6 6 6 6 6 6 6 6 6 6 6 6 6 6 6 6 6 6 6 6 6 6 6 6 6 6 6 6 6 6 6 6 6 6 6 6 6 6 6 6 6 6 6 6 6 6 6 6 6 6 6 6 6 6 ",
"6 6 6 6 6 6 6 6 6 6 6 6 6 6 6 6 6 6 6 6 6 6 6 6 6 6 6 6 6 6 6 6 6 6 6 6 6 6 6 6 6 6 6 6 6 6 6 6 6 6 6 6 6 6 6 6 6 6 6 6 6 6 6 6 6 6 6 6 6 6 6 6 6 6 6 6 6 6 6 6 6 6 6 6 6 6 6 6 6 6 6 6 6 6 6 6 6 6 6 6 6 6 6 6 6 6 6 6 6 6 6 6 6 6 6 6 6 6 6 6 6 6 6 6 6 6 6 6 6 6 6 6 6 6 6 6 6 6 6 6 6 6 6 6 6 6 6 - B I & F $.$.J.J.D.t.H.Z.C.H.Z.F.H.F.H.Z.H.Z.F.t.$.$.$.$.$.n 6 6 6 6 6 6 6 6 6 6 6 6 6 6 6 6 6 6 6 6 6 6 6 6 6 6 6 6 6 6 6 6 6 6 6 6 6 6 6 6 6 6 6 6 6 6 6 6 6 6 6 6 6 6 6 6 6 6 6 6 6 6 6 6 6 6 6 6 6 6 6 6 6 6 6 6 6 6 ",
"6 6 6 6 6 6 6 6 6 6 6 6 6 6 6 6 6 6 6 6 6 6 6 6 6 6 6 6 6 6 6 6 6 6 6 6 6 6 6 6 6 6 6 6 6 6 6 6 6 6 6 6 6 6 6 6 6 6 6 6 6 6 6 6 6 6 6 6 6 6 6 6 6 6 6 6 6 6 6 6 6 6 6 6 6 6 6 6 6 6 6 6 6 6 6 6 6 6 6 6 6 6 6 6 6 6 6 6 6 6 6 6 6 6 6 6 6 6 6 6 6 6 6 6 6 6 6 6 6 6 6 6 6 6 6 6 6 6 6 6 6 6 6 6 6 6 6 - B I & F t.$.#.$.#.$.$.$.#.$.$.$.#.$.$.#.$.$.#.$.$.$.$.$.D 6 6 6 6 6 6 6 6 6 6 6 6 6 6 6 6 6 6 6 6 6 6 6 6 6 6 6 6 6 6 6 6 6 6 6 6 6 6 6 6 6 6 6 6 6 6 6 6 6 6 6 6 6 6 6 6 6 6 6 6 6 6 6 6 6 6 6 6 6 6 6 6 6 6 6 6 6 6 6 ",
"6 6 6 6 6 6 6 6 6 6 6 6 6 6 6 6 6 6 6 6 6 6 6 6 6 6 6 6 6 6 6 6 6 6 6 6 6 6 6 6 6 6 6 6 6 6 6 6 6 6 6 6 6 6 6 6 6 6 6 6 6 6 6 6 6 6 6 6 6 6 6 6 6 6 6 6 6 6 6 6 6 6 6 6 6 6 6 6 6 6 6 6 6 6 6 6 6 6 6 6 6 6 6 6 6 6 6 6 6 6 6 6 6 6 6 6 6 6 6 6 6 6 6 6 6 6 6 6 6 6 6 6 6 6 6 6 6 6 6 6 6 6 6 6 6 6 6 - B I & F $.#.#.#.#.#.#.#.#.#.#.#.#.#.#.#.#.#.#.#.#.#.+.B 6 6 6 6 6 6 6 6 6 6 6 6 6 6 6 6 6 6 6 6 6 6 6 6 6 6 6 6 6 6 6 6 6 6 6 6 6 6 6 6 6 6 6 6 6 6 6 6 6 6 6 6 6 6 6 6 6 6 6 6 6 6 6 6 6 6 6 6 6 6 6 6 6 6 6 6 6 6 6 6 ",
"6 6 6 6 6 6 6 6 6 6 6 6 6 6 6 6 Z 6 6 6 * * * * * * * * * * * * * * * * * * * * * * * * * * * * * * * * * * * * * * * * * * * * * * * * * * * * * * * * * * * * * * * * * * * * * 6 6 6 S 6 6 6 6 6 6 6 6 6 6 6 6 6 6 6 6 6 6 6 6 6 6 6 6 6 6 6 6 6 6 6 6 6 6 6 6 6 6 6 6 6 6 6 6 6 6 6 6 6 6 6 6 6 6 - B I & L D 6 6 6 6 6 6 6 6 6 6 6 6 6 6 6 6 6 6 6 6 6 6 6 6 6 6 6 6 6 6 6 6 6 6 6 6 6 6 6 6 6 6 6 6 6 6 6 6 6 6 6 6 6 6 6 6 6 6 6 6 6 6 6 6 6 6 6 6 6 6 6 6 6 6 6 6 6 6 6 6 6 6 6 6 6 6 6 6 6 6 6 6 6 6 6 6 6 6 6 6 6 6 6 ",
"t t t t t t t t t t t t 6 6 6 6 S 6 6 6 s c c c c c c c c c c c c c c c c c c c c c c c c c c c c c c c c c c c c c c c c c c c c c c c c c c c c c c c c c c c c c c c c c c c s 6 6 6 S 6 6 6 6 6 6 6 6 6 6 6 6 6 6 6 6 6 6 6 6 6 6 6 6 6 6 6 6 6 6 6 6 6 6 6 6 6 6 6 6 6 6 6 6 6 6 6 6 6 6 6 6 6 6 - B I & L D - 6 6 6 6 6 6 6 6 6 6 6 6 6 6 6 6 6 6 6 6 6 6 6 6 6 6 6 6 6 6 6 6 6 6 6 6 6 6 6 6 6 6 6 6 6 6 6 6 6 6 6 6 6 6 6 6 6 6 6 6 6 6 6 6 6 6 6 6 6 6 6 6 6 6 6 6 6 6 6 6 6 6 6 6 6 6 6 6 6 6 6 6 6 6 6 6 6 6 6 6 6 6 ",
"D D D D D D D D D D D F B 6 6 6 S 6 6 * <X1X,X,X,X,X,X,X,X,X,X,X,X,X,X,X,X,X,X,X,X,X,X,X,X,X,X,X,X,X,X,X,X,X,X,X,X,X,X,X,X,X,X,X,X,X,X,X,X,X,X,X,X,X,X,X,X,X,X,X,X,X,X,X,X,X,X1X;X* 6 6 S 6 6 6 6 6 6 6 6 6 6 6 6 6 6 6 6 M M M M M M M M M M M M M M M M M M M M M M M M M M M M n n M M M M 6 6 6 6 - B I & L D - 6 6 6 6 6 6 6 6 6 6 6 6 6 6 6 6 6 6 6 6 6 6 6 6 6 6 6 6 6 6 6 6 6 6 6 6 6 6 6 6 6 6 6 6 6 6 6 6 6 6 6 6 6 6 6 6 6 6 6 6 6 6 6 6 6 6 6 6 6 6 6 6 6 6 6 6 6 6 6 6 6 6 6 6 6 6 6 6 6 6 6 6 6 6 6 6 6 6 6 6 6 6 ",
"6 6 6 6 6 6 6 6 6 6 6 M Z 6 6 6 S 6 6 * ;Xs.7.i.i.i.i.i.i.i.i.i.i.i.i.i.i.i.i.i.i.i.i.i.i.i.i.i.i.7.7.7.7.7.7.7.7.7.7.7.7.i.i.i.i.i.i.i.i.i.i.i.i.i.i.i.i.i.i.i.i.i.i.i.i.i.7.s.;X* 6 6 S 6 6 6 - 6 6 & & 6 = & 6 6 6 6 B B B B M B B B S M M M M B B B B B B B B B B B B B B B B M M S M B B M 6 6 6 - B I & L D - 6 6 6 6 6 6 6 & = 6 6 6 6 6 6 6 6 6 6 6 6 6 6 6 6 6 6 6 6 6 6 6 6 6 - 6 - 6 6 6 6 6 6 6 6 6 6 6 6 6 6 6 6 6 6 6 6 6 6 6 6 = & = 6 6 6 6 6 6 6 6 6 6 6 6 6 6 6 6 6 6 6 6 6 6 6 6 6 6 6 6 6 = 6 6 6 6 6 6 6 6 ",
"6 6 6 6 6 6 6 6 6 6 6 Z Z 6 6 6 S 6 6 * ;Xs.i.i.i.i.i.i.i.i.i.i.i.i.i.i.i.i.i.i.i.i.i.i.i.i.i.i.i.d.d.s.d.a.s.i.s.s.i.d.i.i.i.i.i.i.i.i.i.i.i.i.i.i.i.i.i.i.i.i.i.i.i.i.i.i.i.d.;X* 6 6 S 6 6 6 F n 6 #.$.t I t.S 6 6 6 B B S B L S M B n I F F L M B S M M B M M M M B B B B B B M M M +.H.M B 6 6 6 - B I & L D - 6 6 6 6 6 6 t t.#.6 - = 6 6 M t & = 6 6 6 6 6 6 6 6 6 6 6 6 6 6 6 n D M F & = 6 6 = 6 - - 6 6 6 6 6 6 6 6 6 6 6 6 6 6 6 6 @.B.@.$.& 6 - - 6 = - - $ #.M & 6 6 6 6 6 6 6 6 6 6 6 6 6 6 6 t +.6 n 6 n 6 - - 6 ",
"6 6 6 6 6 6 6 6 6 6 6 B Z 6 6 6 S 6 6 * <Xs.i.i.i.i.i.i.i.i.i.i.i.i.i.i.i.i.i.i.i.i.i.i.i.i.i.i.i.d.:Xd.d.d.:Xs.:Xi.i.d.s.i.i.i.i.i.i.i.i.i.i.i.i.i.i.i.i.i.i.i.i.i.i.i.i.i.i.d.;X* 6 6 S 6 6 = B.M 6 V.@.t.B.D 6 6 6 6 M Z.B.D C.V.B B D C.$.Z.V.#.I $.D L M D I B.I M B B B B B M n S L.IXZ.M 6 6 6 - B I & L D - 6 6 6 6 6 - D M.#.@.F +.$.Z.F M @.$.6 6 6 6 6 6 6 6 6 6 6 6 6 6 - B V.$.D @.M.M D $.t I @.6 6 6 6 6 6 6 6 6 6 6 6 6 6 6 6 Z Z.B Z.t.B I @.M $.D I +.t.C.I 6 6 6 6 6 6 6 6 6 6 6 6 6 6 - F F.n D.$.F.D +.+.n ",
"6 6 6 6 6 6 6 6 6 6 6 B Z 6 6 6 S 6 6 * <Xs.i.i.i.i.i.i.i.i.i.i.i.i.i.i.i.i.i.i.i.i.i.i.i.i.i.i.i.:Xd.d.d.d.:Xd.:Xi.i.d.i.i.i.i.i.i.i.i.i.i.i.i.i.i.i.i.i.i.i.i.i.i.i.i.i.i.i.d.;X* 6 6 S 6 6 = t.M 6 Z.B.S V.B.M 6 6 6 M @.B.n B Z.M +.C.D.$.C.B.#.$.$.V.C.+.C.$.G.#.M B B B B B M n D @.I +.B 6 6 6 - B I & L D - 6 6 6 6 6 - B D.C.n D C.B.I @.t.+.@.+.& 6 6 6 6 6 6 6 6 6 6 6 6 6 n J.t.- Z.I t.V.V.D.V.Z.F = 6 6 6 6 6 6 6 6 6 6 6 6 6 6 6 t.6 V.I $.V.S t.C.Z.C.F $.I B.n 6 6 6 6 6 6 6 6 6 6 6 6 6 = t.Z.I t.D B.6 I C.V.",
"6 6 6 6 6 6 6 6 6 6 6 B Z 6 6 6 S 6 6 * <Xs.i.i.i.i.i.i.i.i.i.i.i.i.i.i.i.i.i.i.i.i.i.i.i.i.i.i.i.s.i.s.:Xs.a.d.s.s.s.:Xa.i.i.i.i.i.i.i.i.i.i.i.i.i.i.i.i.i.i.i.i.i.i.i.i.i.i.d.;X* 6 6 S 6 6 = B.D n V.6 - V.M 6 6 6 t M I B.6 B.I 6 B.L $.t.C.t.B.t.t.@.L D.t.= C.M M B B B B B M n F F.G.B.M 6 6 6 - B I & L D - 6 6 6 6 6 = D t.$.#.B.C.B.I @.M.+.+.+.& 6 6 6 6 6 6 6 6 6 6 6 6 - Z B.t.+.$.M B.C.@.@.Z.I M 6 6 6 6 6 6 6 6 6 6 6 6 6 6 6 t B.n B.M B.M.- M.B.F B B.Z.n M.M 6 6 6 6 6 6 6 6 6 6 6 6 6 M C.#.B.B.S B.L C.C.Z.",
"6 6 6 6 6 6 6 6 6 6 6 Z Z 6 6 6 S 6 6 * <Xs.i.i.i.i.i.i.i.i.i.i.i.i.i.i.i.i.i.i.i.i.i.i.i.i.i.i.i.i.i.i.i.i.i.i.i.i.i.i.i.i.i.i.i.i.i.i.i.i.i.i.i.i.i.i.i.i.i.i.i.i.i.i.i.i.i.d.;X* 6 6 S 6 6 = +.C.I I 6 6 I 6 6 6 6 t M I t.@.G.#.M I C.D.#.Z.t.D.#.D Z.C.I Z.$.C.$.M B B B B B M M M F.yX#.M 6 6 6 - B I & L D - 6 6 6 6 6 6 M F M @.#.#.D #.+.M #.$.6 6 6 6 6 6 6 6 6 6 6 6 6 6 6 M F n @.F M F S $.M I #.6 6 6 6 6 6 6 6 6 6 6 6 6 6 6 6 6 I 6 I n I I 6 n $.F +.@.I n I t 6 6 6 6 6 6 6 6 6 6 6 6 - S D $ I @.I +.@.#.+.S ",
"6 6 6 6 6 6 6 6 6 6 6 M Z 6 6 6 S 6 6 * ;Xs.7.i.i.i.i.i.i.i.i.i.i.i.i.i.i.i.i.i.i.i.i.i.i.i.i.i.i.i.i.i.i.i.i.i.i.i.i.i.i.i.i.i.i.i.i.i.i.i.i.i.i.i.i.i.i.i.i.i.i.i.i.i.i.i.7.s.;X* 6 6 S 6 6 6 - = 6 - 6 6 - 6 6 6 6 6 B B S D L I B M F F B L I B S M D F M D L S F M B B B B B M M M D $.n B 6 6 6 - B I & L D - 6 6 6 6 6 6 6 - 6 = - - - - - 6 = = 6 6 6 6 6 6 6 6 6 6 6 6 6 6 6 6 - 6 = - 6 - 6 - 6 - - 6 6 6 6 6 6 6 6 6 6 6 6 6 6 6 6 6 - 6 - 6 - - 6 6 - 6 - - - 6 - 6 6 6 6 6 6 6 6 6 6 6 6 6 6 6 - 6 - = - - - - - - ",
"M M M M M M M M M M t S Z 6 6 6 S 6 6 * <X:Xs.d.d.d.d.d.d.d.d.d.d.d.d.d.d.d.d.d.d.d.d.d.d.d.d.d.d.d.d.d.d.d.d.d.d.d.d.d.d.d.d.d.d.d.d.d.d.d.d.d.d.d.d.d.d.d.d.d.d.d.d.d.d.d.s.:X<X* 6 6 S 6 6 6 6 6 6 6 6 6 6 6 6 6 6 6 M B B B M M B B M M B M M B B B M M S M M B M B B B B B B M M S B M B M 6 6 6 - B I & L D - 6 6 6 6 6 6 6 6 6 6 6 6 6 6 6 6 6 6 6 6 6 6 6 6 6 6 6 6 6 6 6 6 6 6 6 6 6 6 6 6 6 6 6 6 6 6 6 6 6 6 6 6 6 6 6 6 6 6 6 6 6 6 6 6 6 6 6 6 6 6 6 6 6 6 6 6 6 6 6 6 6 6 6 6 6 6 6 6 6 6 6 6 6 6 6 6 6 6 6 6 6 6 ",
"D D D D D D D D D D D D M 6 6 6 S 6 6 6 f.;X;X;X;X;X;X;X;X;X;X;X;X;X;X;X;X;X;X;X;X;X;X;X;X;X;X;X;X;X;X;X;X;X;X;X;X;X;X;X;X;X;X;X;X;X;X;X;X;X;X;X;X;X;X;X;X;X;X;X;X;X;X;X;X;X;X<Xf.* 6 6 S 6 6 6 6 6 6 6 6 6 6 6 6 6 6 6 6 6 t 6 t t 6 6 t t 6 t t t 6 6 t t 6 t t t t 6 6 6 6 6 6 6 6 t t t 6 6 6 6 6 - B I & L D - 6 6 6 6 6 6 6 6 6 6 6 6 6 6 6 6 6 6 6 6 6 6 6 6 6 6 6 6 6 6 6 6 6 6 6 6 6 6 6 6 6 6 6 6 6 6 6 6 6 6 6 6 6 6 6 6 6 6 6 6 6 6 6 6 6 6 6 6 6 6 6 6 6 6 6 6 6 6 6 6 6 6 6 6 6 6 6 6 6 6 6 6 6 6 6 6 6 6 6 6 6 6 ",
"6 6 6 6 6 6 6 6 6 6 6 6 6 6 6 6 S 6 6 6 * * * * * * * * * * * * * * * * * * * * * * * * * * * * * * * * * * * * * * * * * * * * * * * * * * * * * * * * * * * * * * * * * * * * * 6 6 6 S 6 6 6 6 6 6 6 6 6 6 6 6 6 6 6 6 6 6 6 6 6 6 6 6 6 6 6 6 6 6 6 6 6 6 6 6 6 6 6 6 6 6 6 6 6 6 6 6 6 6 6 6 6 6 - B I & L D - 6 6 6 6 6 6 6 6 6 6 6 6 6 6 6 6 6 6 6 6 6 6 6 6 6 6 6 6 6 6 6 6 6 6 6 6 6 6 6 6 6 6 6 6 6 6 6 6 6 6 6 6 6 6 6 6 6 6 6 6 6 6 6 6 6 6 6 6 6 6 6 6 6 6 6 6 6 6 6 6 6 6 6 6 6 6 6 6 6 6 6 6 6 6 6 6 6 6 6 6 6 6 ",
"6 6 6 6 6 6 6 6 6 6 6 6 6 6 6 6 S 6 6 6 6 6 6 6 6 - 6 6 6 6 6 6 6 6 6 6 6 6 6 6 6 6 6 6 6 6 6 6 6 6 6 6 6 6 - 6 6 6 6 6 6 6 6 6 6 6 6 6 6 6 6 6 6 6 6 = 6 6 6 6 6 6 6 6 6 6 6 6 6 6 6 6 S 6 6 6 6 6 6 6 6 6 6 = 6 6 6 6 6 6 6 6 6 6 6 6 6 6 6 6 6 6 6 6 6 6 6 6 6 6 6 6 6 6 = 6 6 6 6 6 6 6 6 6 6 6 6 - B I & L D - 6 6 6 6 6 6 6 6 6 6 6 6 6 6 6 6 6 6 6 6 6 6 6 6 6 6 6 6 6 6 6 6 6 6 6 6 6 6 6 6 6 6 6 6 6 6 6 6 6 6 6 6 6 6 6 6 6 6 6 6 6 6 6 6 = = 6 6 6 0 6 = ; 6 6 6 6 6 6 6 6 6 6 6 6 6 6 6 6 6 6 6 6 6 6 6 6 6 6 6 6 6 ",
"t - - 6 M - - 6 6 6 6 6 6 6 6 6 S 6 6 6 6 6 6 6 6 D S 6 - 6 = 6 6 = 6 6 6 6 6 6 6 6 6 6 6 6 6 6 6 6 6 6 6 6 D n - 6 6 6 6 6 6 6 6 6 6 6 6 6 6 6 6 6 6 F M - = 6 S 6 = 6 6 6 6 6 6 6 6 6 S 6 6 6 6 6 6 6 6 6 M F n = 6 6 = 6 - - 6 6 6 6 6 6 6 6 6 6 6 6 6 6 6 6 6 6 6 6 6 6 D 6 6 6 6 6 6 6 6 6 6 6 6 - B I & L D - 6 6 6 6 6 6 6 6 6 6 6 6 6 6 6 6 6 6 6 6 6 6 6 6 6 6 6 6 6 6 6 6 6 6 6 6 6 6 6 6 6 6 6 6 6 6 6 6 6 6 6 6 6 6 6 6 6 6 6 6 6 6 = = -.:.6XbX6XkXkX:.:.6 = 6 6 6 6 6 6 6 6 6 6 6 6 6 6 6 6 6 6 6 6 6 6 6 6 6 6 6 ",
"n n B 6 n t S 6 6 6 6 6 6 6 6 6 S 6 6 6 6 6 6 & +.V.D M D 6 D 6 6 F M 6 6 6 6 6 6 6 6 6 6 6 6 6 6 6 6 6 6 t.$.B.M 6 6 6 6 6 6 6 6 6 6 6 6 6 6 6 6 6 B.#.D n F 6 M n F M 6 6 6 6 6 6 6 6 S 6 6 6 6 6 6 6 6 - C.@.M B M n F - S D 6 6 6 6 6 6 6 6 6 6 6 6 6 6 6 6 6 6 6 6 6 B.$.B.6 6 6 6 6 6 6 6 6 6 6 - B I & L D - 6 6 6 6 6 6 6 6 6 - - * - * - - 6 6 6 6 6 6 6 6 6 6 6 6 6 6 6 6 6 6 6 6 - - * - * - * 6 6 6 6 6 6 6 6 6 6 6 6 6 6 6 6 6 6 = q 2.nXbXbXMXaXbXmXlXnXjXo.= - 6 6 6 6 6 6 6 6 6 6 6 6 6 6 6 6 6 6 5 5 = = = = = ",
"M M @.I F @.+.I - 6 6 6 6 6 6 6 S 6 6 6 6 6 6 & +.B.t Z.@.I C.B.t.B.C.= 6 6 6 6 6 6 6 6 6 6 6 6 6 6 6 - S B.o +.#.& 6 6 6 6 6 6 6 6 6 6 6 6 6 6 & +.@.n D n B.t.#.t.B.B.6 6 6 6 6 6 6 6 S 6 6 6 6 6 6 6 6 - C.I D F.S B.V.t.$.Z.I & 6 6 6 6 6 6 6 6 6 6 6 6 6 6 6 6 6 = L $.. t.L = 6 6 6 6 6 6 6 6 6 - B I & L D - 6 6 6 6 6 6 6 - 6 p j e.6.e.0.j u - 6 6 6 6 6 6 6 6 6 6 6 6 6 6 6 6 * u j 0.b.e.0X6.j 6 - 6 6 6 6 6 6 6 6 6 6 6 6 6 6 6 ; <.bXdXbXNXdX<.o.:.3.fXnXaXkXjX0 = 6 6 6 6 6 6 6 6 6 6 6 6 6 6 6 6 = N A ,.,.,.,.J ",
"#.F #.#.L I 6 @.6 6 6 6 6 6 6 6 S 6 6 6 6 6 6 & +.V.M B.- B.B.t.V.6 B.- 6 6 6 6 6 6 6 6 6 6 6 6 6 6 6 - B V.o +.@.& 6 6 6 6 6 6 6 6 6 6 6 6 6 6 & +.#.t Z.@.B.C.#.t.n t.n 6 6 6 6 6 6 6 S 6 6 6 6 6 6 6 6 - C.I L $.6 F.@.Z.D L +.& 6 6 6 6 6 6 6 6 6 6 6 6 6 6 6 6 6 = L M.o t.L = 6 6 6 6 6 6 6 6 6 - B I & L D - 6 6 6 6 6 6 6 u | 0Xj.9Xj.0X0Xc.c.j 6 6 6 6 6 6 6 6 6 6 6 6 6 6 6 6 j b.SXCXKX0XKXCXHXj.u - 6 6 6 6 6 6 6 6 6 6 6 6 6 - -.fXmXjXo.6 X X X X X o A 2.mXnX3.0 - 6 6 6 6 6 6 6 6 6 6 6 6 6 6 8 E %X#X*X%X%X*X%X",
"+.@.+.+.F L n +.6 6 6 6 6 6 6 6 S 6 6 6 6 6 6 & +.L $ B.6 D B.D #.V.V.= 6 6 6 6 6 6 6 6 6 6 6 6 6 6 6 6 6 $.B.Z.t 6 6 6 6 6 6 6 6 6 6 6 6 6 6 6 6 6 B.t.M.B.V.t.#.$.M $.t 6 6 6 6 6 6 6 S 6 6 6 6 6 6 6 6 6 t.= B $.& $.$.D B.Z.I & 6 6 6 6 6 6 6 6 6 6 6 6 6 6 6 6 6 6 6 t.V.V.6 6 6 6 6 6 6 6 6 6 6 - B I & L D - 6 6 6 6 6 * p SXc.c.0Xj.| 0.c.0Xj.c.j.* 6 6 6 6 6 6 6 6 6 6 6 6 % e.HXc.SXCXb.0.b.SXSXb.SX6.% 6 6 6 6 6 6 6 6 6 6 6 = <.nXbXkXq X X $ 6 6 6 - o X $ 2.bXnXjX6 6 6 6 6 6 6 6 6 6 6 6 6 5 6 #X#X$X%X#X>.,.#X*X",
"6 6 t 6 6 6 6 6 6 6 6 6 6 6 6 6 S 6 6 6 6 6 6 6 6 6 6 6 6 6 M M 6 S V.- 6 6 6 6 6 6 6 6 6 6 6 6 6 6 6 6 6 - D B.6 6 6 6 6 6 6 6 6 6 6 6 6 6 6 6 6 6 6 Z 6 6 M 6 6 6 6 6 6 6 6 6 6 6 6 6 S 6 6 6 6 6 6 6 6 6 6 6 6 6 6 6 Z 6 6 $.I & 6 6 6 6 6 6 6 6 6 6 6 6 6 6 6 6 6 6 6 - I t.6 6 6 6 6 6 6 6 6 6 6 - B I & L D - 6 6 6 6 * | b.CXSXv 6 o . . $ u 0.9Xc.0.6 6 6 6 6 6 6 6 6 6 6 - j.b.HX0Xj &       5 v CXHX0X0.* 6 6 6 6 6 6 6 6 6 6 6 6XnXlX6 X $ M F I +.+.I F 6 . X 2.mXkXJ = 6 6 6 6 6 6 6 6 6 6 5 A ,.#X*XE 8 + . . + 0 ",
"6 6 6 6 6 6 6 6 6 6 6 6 6 6 6 6 S 6 6 6 6 6 6 6 6 6 6 6 6 6 6 6 6 6 S 6 6 6 6 6 6 6 6 6 6 6 6 6 6 6 6 6 6 6 - 6 6 6 6 6 6 6 6 6 6 6 6 6 6 6 6 6 6 6 6 - 6 6 6 6 6 6 6 6 6 6 6 6 6 6 6 6 S 6 6 6 6 6 6 6 6 6 6 6 6 6 6 6 6 6 - M M 6 6 6 6 6 6 6 6 6 6 6 6 6 6 6 6 6 6 6 6 6 = 6 6 6 6 6 6 6 6 6 6 6 6 - B I & L D - 6 6 6 6 * c.KXSX}   X $ & & o X $ 0.0X0Xv * 6 6 6 6 6 6 6 6 - p CXKX0X5   . $ & $ .   u 0XKX0X6 6 6 6 6 6 6 6 6 6 @ 4.kX4.A X $ S I I I I +.@.@.+.M . + 4.6XjX0 6 6 6 6 6 6 6 6 6 6 = >.cX%XE o X o & & o X ",
"6 - - - 6 6 6 6 6 6 6 6 6 6 6 6 S 6 6 6 6 6 6 6 6 6 6 6 * * * * 6 6 - 6 6 6 6 6 6 6 6 6 6 6 6 6 6 6 6 6 6 * 6 * 6 6 6 6 6 6 6 6 6 6 6 6 6 6 6 6 6 6 6 6 6 * * * * 6 6 6 6 6 6 6 6 6 6 6 S 6 6 6 6 6 6 6 6 6 6 6 6 - % * % * 6 6 6 6 6 6 6 6 6 6 6 6 6 6 6 6 6 6 6 6 6 6 - * * * - 6 6 6 6 6 6 6 6 6 6 - B I & L D - 6 6 6 * e.0Xb.|   . $ D I I F 6 X $ 0.e.j.u 6 6 6 6 6 6 6 6 6 0X0Xb.6 X & B L I I S $ X j b.0Xc.* 6 6 6 6 6 6 6 6 6 kXMX6XX o M L L I I I +.+.+.#.+.6 X A nXmX:.; 6 6 6 6 6 6 6 6 = E #X,.>.. . 6 D I I F n ",
"n F S F B 6 - 6 6 6 6 6 6 6 6 6 S 6 6 6 6 6 6 6 6 6 * 6 c c c / r * 6 6 6 6 6 6 6 6 6 6 6 6 6 6 6 6 - 6 p / c / p 6 * 6 6 6 6 6 6 6 6 6 6 6 6 6 6 6 6 - r c c / c 6 * 6 6 6 6 6 6 6 6 6 S 6 6 6 6 6 6 6 6 6 6 * * f 8. .l.| 6 * 6 6 6 6 6 6 6 6 6 6 6 6 6 6 6 6 6 6 * 6 l  .{  .f - - 6 6 6 6 6 6 6 6 - B I & L D - 6 6 6 * j.KXb.: . M 6 n +.+.@.+.6 X 6 0X0Xv * 6 6 6 6 6 6 6 u CXKX| X $ D I I +.@.#.L $   0.KXCX6 6 6 6 6 6 6 6 - A dXnX-.X 6 F L L I I I +.+.+.+.@.F o . jXNX<.- 6 6 6 6 6 6 6 6 = >.cX#X+ . 6 F I I +.@.+.",
"$.G.t.G.B.B.+.- 6 6 6 6 6 6 6 6 S 6 6 6 6 6 6 6 * t a.p.d.:Xf.>Xp.f.p * 6 6 6 6 6 6 6 6 6 6 6 6 6 * ^ f.p.>Xp.>Xp.f./ * 6 6 6 6 6 6 6 6 6 6 6 6 6 * s f.7.>Xf.:Xd.a.p.6 * 6 6 6 6 6 6 6 S 6 6 6 6 6 6 6 6 - %  .rX8XLXwXLXrXwX7X- * 6 6 6 6 6 6 6 6 6 6 6 6 6 6 - 6 l.7X7XeX7XeXk.8X{ * 6 6 6 6 6 6 6 - B I & L D - 6 6 - j 0XSX0.X = F D - S +.+.@.F + O j.c.6.- 6 6 6 6 6 6 * 0.CXSX5   n L L I I +.+.I - X j CXc.j - 6 6 6 6 6 6 @ <.mXlX- . M F F L I I I I +.@.@.@.+.6 X 4.mXkX6 6 6 6 6 6 6 6 6 0 $X%X,.X $ D L I I +.@.#.",
"F.D.#.Z.F.H.t.t.B - 6 6 6 6 6 6 S 6 6 6 6 6 6 * r.a.f.>X:Xa.p.:X>X:X7.p.6 6 6 6 6 6 6 6 6 6 6 * s f.p.>X:X-Xr.:X:X>Xp.a.s * 6 6 6 6 6 6 6 6 6 6 6 a.p.:X>X:X7.f.:X,Xf.a.^ * 6 6 6 6 6 6 S 6 6 6 6 6 6 6 * g rX8XLXLXPX8XrXPXLXwXwXl.% 6 6 6 6 6 6 6 6 6 6 6 6 *  .7X7XeXwX8Xl.wXeXeXk.7Xy - 6 6 6 6 6 - B I & L D - 6 6 * v SXSXj X t F L B D +.+.+.I =   6.0Xj.- 6 6 6 6 6 6 % j.HX0Xo o S F L I I S 6 6 - X & j.0X| * 6 6 6 6 6 6 @ 2.nXaX+ o Z F F L L I I I F D D D D 6 X :.bXkX0 6 6 6 6 6 6 6 6 0 %X%XE X 6 F F L I I D S ",
"D 6 & = Z I t.Z.I n 6 6 6 6 6 6 S 6 6 6 6 6 6 c a.,Xr./ i & & r / r.:X:X^ 6 6 6 6 6 6 6 6 6 6 p r.>Xf./ c = & = c r.f.,X7.i 6 6 6 6 6 6 6 6 6 r / :X:Xr./ r & & i / 7.>Xp.s 6 6 6 6 6 6 S 6 6 6 6 6 6 - f l.LXuXl. .7 & 5 { l.8XLXwX| - 6 6 6 6 6 6 6 6 6 6 6 l k.uXk. .l = & 5 .. .8XeXl.u 6 6 6 6 6 - B I & L D - 6 6 - j b.b.7 X t F F L I I I I I -   } j.0.6 6 6 6 6 6 6 * 0.0Xe.. + S F F L I S B L D o $ 0.j.v - 6 6 6 6 6 6 ; :.sX2.. o S F F F L L I I M 6 6 6 6 $ X J 6X2.6 6 6 6 6 6 6 6 6 0 ,.$XN X 6 F F L I L 6 6 ",
"X X . X X . B #.t.$.6 6 6 6 6 6 S 6 6 6 6 * s >X:Xa.r     . .     & 7.:X>Xr.* 6 6 6 6 6 6 6 6 d.>Xd.c O   . . .   O c -X>Xd.6 6 6 6 6 6 6 6 * r.>X:X7.&   . . .     i 7.i.s.i 6 6 6 6 6 S 6 6 6 6 6 6 % wXLXuXk.O X . . . X : ' rXLXPXf * 6 6 6 6 6 6 6 6 - u wXwX8Xx :   . . . X O  .wXeX7X* 6 6 6 6 - B I & L D - 6 6 * v HXHXv X 6 D F F L I I I F $   e.CXj.- 6 6 6 6 6 6 % c.KX0XO . M F F F L I I I B . 5 c.9X| * 6 6 6 6 6 6 @ 4.MXkX$ . M F F F F L L I I L I I I 6 X -.zXgX6 6 6 6 6 6 6 6 6 0 %XcXE X = D F F L L I I ",
"$ 6 n n & X X M #.I D 6 6 6 6 6 S 6 6 6 6 r 7.a.f.=   $ n D D B - . O p.a.7.p 6 6 6 6 6 6 6 / p.d.c   . 6 S D D t o   c d.p./ - 6 6 6 6 6 6 s p.f.7.O X & M D D M . X - 7.( ^ 6 6 6 6 6 S 6 6 6 6 6 *  .8XrXk.: . 5 M D D M $ X f uXwX7X6 6 6 6 6 6 6 6 6 6 l.k.8Xf   o 6 S D S 6 . :  .8Xk.{ * 6 6 6 - B I & L D - 6 6 6 6 j.HXj.  + B F F F F L I M . & c.c.} - 6 6 6 6 6 6 - j 0XSXj X 6 D F F F L L F 6 X v 0Xj.p 6 6 6 6 6 6 6 ; :.lXbX0 X t D D F F F L L I I I I F $ X <.jX2.6 6 6 6 6 6 6 6 6 6 >.%X$X. o M F F F F L I ",
"M B S S 6 & . . M $.$.6 6 6 6 6 S 6 6 6 * c >Xd.r   & D I I +.@.I t X & p.,X7.* 6 6 6 6 6 6 -X>X/ : . M L I +.@.+.S . O / >X-X6 6 6 6 6 6 * 7.,Xp.& X 6 F I +.@.D = + . r 7.s.s 6 6 6 6 S 6 6 6 6 6 % wXLX7XO . 6 F I +.@.@.F $   ' uXLX' * 6 6 6 6 6 6 - y wXwXl   + B I I +.@.+.M . $  .eX7X* 6 6 6 - B I & L D - 6 6 6 % b.KXb.$ X & B D F F F B + . u c.0Xj * 6 6 6 6 6 6 6 u SXSX|   . 6 D F F F F 6 . O | 0Xc.- 6 6 6 6 6 6 6 6 0 dXnX<.X & S D D F F F L L L L I M . - gXjX-.= 6 6 6 6 6 6 6 6 # >.cX$X- X $ M D F F F S ",
"M M B 6 & B 6 X 6 $.+.M 6 6 6 6 S 6 6 6 6 / d.d.$ . M I I I I +.#.I &   7.:Xr.6 6 6 6 6 6 s a.:Xs   6 F I I I +.#.#.n   s >Xa.i 6 6 6 6 6 r r.:X7.  $ D I I I F - D F . $ 7.i.s 6 6 6 6 S 6 6 6 6 - f 8XLXl.X & D I I I +.@.#.D . 5 PXuX .* 6 6 6 6 6 6 - { 7XwX7   t L I I I +.@.+.6    .eXk.u 6 6 6 - B I & L D - 6 6 6 - j b.CXb.: X $ 6 M n 6 o   u c.j.6.6 6 6 6 6 6 6 6 6 * 0.0XCX} X . & t M t & .   6.c.e.v - 6 6 6 6 6 6 6 6 = jXmX6X+ . 6 D D D F F F F L L S $ X A gXzXo.= 6 6 6 6 6 6 6 6 6 0 ,.#X$X+ X $ 6 n M 6 $ ",
"M M M - n D M . $ @.B.F - 6 6 6 S 6 6 6 6 d.,Xr.  $ D L L I I +.+.+.t   s >X:Xi 6 6 6 6 * r.,Xd.$ . M F L I I L D B 6 X & a.d.c * 6 6 6 - p :X>Xs   6 F L I I n M @.I & . / s.7.6 6 6 6 S 6 6 6 6 %  .LXPXf X t F L I I I F D M . : 8XLX7X% 6 6 6 6 6 6 * k.uX7X: o S L L I I +.+.@.Z . 7 wXeX{ * 6 6 - B I & L D - 6 6 6 6 % c.HXSXb.= . X . . . o j c.0X0Xj - 6 6 6 6 6 6 6 6 6 6 SXHXCX6.O . X . . . $ 6.c.0Xj.* 6 6 6 6 6 6 6 6 6 ; -.6XfX2.X . 6 S D F F F F F B & X 0 6X2.<.6 6 6 6 6 6 6 6 6 6 6 & >.cX%X$X8 .   . . . . ",
"M M M M B S M o o D I S 6 6 6 6 S 6 6 6 6 r.a.c   = D F L I I I +.+.M   r p.p.r 6 6 6 6 * c a.r.O . S F F L I M 6 n n . $ / ( s 6 6 6 6 6 i p.p.r   t F F L I I I +.I 6   s ( / 6 6 6 6 S 6 6 6 6 * { wX8X5   M F F L I D 6 6 t o .  .k. .- 6 6 6 6 6 6 -  .7X .. $ D F L I I I I +.D . = l.k.l * 6 6 - B I & L D - 6 6 6 6 6 6 e.SXSXu 6 - & & 6 * | CXj.j 6 6 6 6 6 6 6 6 6 6 6 - j b.KXb.* 6 = & = 6 6 c.0X6.u 6 6 6 6 6 6 6 6 6 6 6 @ 6XMXnX-.X X $ 6 M S S M 6 o X - 6XzXjX0 - 6 6 6 6 6 6 6 6 6 6 6 6 >.%X*XJ 5 - & & 6 5 ",
"n M M M M B n . o +.B.F - 6 6 6 S 6 6 6 6 f.>X/   & D F F I D 6 L I t   s :X:Xi 6 6 6 6 * r.>Xa.$ . M F F L L I I +.D o $ 7.s.c * 6 6 6 6 p :X:Xi   6 D F F L I I I I =   / s.7.6 6 6 6 S 6 6 6 6 %  .LXuX7   t F F F L L L I L & . k.eXk.* 6 6 6 6 6 6 * k.eXk.: + S F D M F I I I B . 5 wXeX{ * 6 6 - B I & L D - 6 6 6 6 6 6 6 b.e.% 6 6 6 6 6 6 6 j.| * 6 6 6 6 6 6 6 6 6 6 6 6 * v 0Xj - 6 6 6 6 6 * j j.u - 6 6 6 6 6 6 6 6 6 6 6 - A jXkXnX<.$ . X . o o . X o q 6XgX6X<.= 6 6 6 6 6 6 6 6 6 6 6 6 6 = ,.,.& 6 6 6 6 6 6 ",
"n n M M M M 6 X - $.@.Z 6 6 6 6 S 6 6 6 6 r.:Xa.O . M F F F F 6 6 D &   r.:Xp.r 6 6 6 6 - c f.:Xr   6 D F F F L I I t   r i.7.s 6 6 6 6 6 r p.:X/   $ D F F F L L I D o O 7.i./ 6 6 6 6 S 6 6 6 6 - l wXPX .X = D F F F L I I B . & 8X8X .- 6 6 6 6 6 6 -  .8X8X& . n F M 6 D L I L 6 X { wX7Xx - 6 6 - B I & L D - 6 6 6 6 6 6 6 * 6 6 6 6 6 6 6 6 6 6 - 6 6 6 6 6 6 6 6 6 6 6 6 6 6 * - 6 6 6 6 6 6 6 6 6 - 6 6 6 6 6 6 6 6 6 6 6 6 6 6 - 6 fXMXjX- 6 & $ + $ & 6 = -.zXjXo.; 6 6 6 6 6 6 6 6 6 6 6 6 6 6 6 = 6 6 6 6 6 6 6 6 ",
"n n n M M 6 o . M t.$.6 6 6 6 6 S 6 6 6 * c >X-X- X & S F F L F t $ . O p.,X7.* 6 6 6 6 6 t d.>Xc   + M D F F F L B + . s s.7.6 6 6 6 6 6 * 7.,Xp.O . 6 D F F F L D =   6 i.s.s 6 6 6 6 S 6 6 6 6 6 * wXLX7X: o 6 D F F F L D &   y wXwXf - 6 6 6 6 6 6 - f wXeXf X $ M 6 B L F F M o : 8.uX7X- 6 6 6 - B I & L D - 6 6 6 6 6 6 6 6 6 6 6 6 6 6 6 6 6 6 6 6 6 6 6 6 6 6 6 6 6 6 6 6 6 6 6 6 6 6 6 6 6 6 6 6 6 6 6 6 6 6 6 6 6 6 6 6 6 6 6 6 - A aX-.; 6 6 6 6 6 6 6 6 - 3.:.= 6 6 6 6 6 6 6 6 6 6 6 6 6 6 6 6 6 6 6 6 6 6 6 6 6 ",
"& 6 t 6 - o X 6 L I I 6 6 6 6 6 S 6 6 6 6 i a.p.r.O X & n S S B 6 X   / 7.a.c * 6 6 6 6 6 6 7.a.p.r   o 6 B D S n +   r ^ ( ^ 6 6 6 6 6 6 * c f.p./ : . - M S S M & X $ / ^ 7.r 6 6 6 6 S 6 6 6 6 6 % l.wXwX .  . 6 M D S M & X 5 l.k.7X7 6 6 6 6 6 6 6 6 6 k.k.k.5 X . = B D B 6 o   { k.7X .* 6 6 6 - B I & L D - 6 6 6 6 6 6 6 6 6 6 6 6 6 6 6 6 6 6 6 6 6 6 6 6 6 6 6 6 6 6 6 6 6 6 6 6 6 6 6 6 6 6 6 6 6 6 6 6 6 6 6 6 6 6 6 6 6 6 6 6 6 = = 6 6 6 6 6 6 6 6 6 6 6 = = 6 6 6 6 6 6 6 6 6 6 6 6 6 6 6 6 6 6 6 6 6 6 6 6 6 6 ",
"X . . . X . 6 +.B.$.6 6 6 6 6 6 S 6 6 6 6 * c >X>Xr.& . . o + . X $ s -X,Xr.* 6 6 6 6 6 6 6 t -X,Xf.r . . . + o . . r 7.s.7.6 6 6 6 6 6 6 6 * 7.,X:Xc O . . o o . . & ^ s.s.i 6 6 6 6 6 S 6 6 6 6 6 6 * wXLXuX{ . . . o o . . 5 k.eXwXf - 6 6 6 6 6 6 6 6 - f wXeXk.5 X X o + . . o l wXuX7X* 6 6 6 6 - B I & L D - 6 6 6 6 6 6 6 6 6 6 6 6 6 6 6 6 6 6 6 6 6 6 6 6 6 6 6 6 6 6 6 6 6 6 6 6 6 6 6 6 6 6 6 6 6 6 6 6 6 6 6 6 6 6 6 6 6 6 6 6 6 6 6 6 6 6 6 6 6 6 6 6 6 6 6 6 6 6 6 6 6 6 6 6 6 6 6 6 6 6 6 6 6 6 6 6 6 6 6 6 6 6 ",
"= $ o $ & 6 I B.I D 6 6 6 6 6 6 S 6 6 6 6 6 6 7.f.,X/ * & o o $ - p s.i.7.p 6 6 6 6 6 6 6 6 - / a.>Xa.6 = + o $ = 6 7.s.^ s 6 6 6 6 6 6 6 6 6 p p.:X>Xp - $ o + & * c s.7./ 6 6 6 6 6 6 S 6 6 6 6 6 6 *  .wXPXPXu = $ o $ & * l.uXk. .6 6 6 6 6 6 6 6 6 6 6 - 8.7XeXl.* & + o $ = 6 wXwXl.{ - 6 6 6 6 - B I & L D - 6 6 6 6 6 6 6 6 6 6 6 6 6 6 6 6 6 6 6 6 6 6 6 6 6 6 6 6 6 6 6 6 6 6 6 6 - - 6 6 - 6 6 = 6 6 6 6 6 6 6 6 6 6 6 6 6 6 6 6 6 6 6 6 6 6 6 = - 6 6 - - 6 = 6 6 6 6 6 6 6 6 6 6 6 6 6 6 6 6 6 6 6 6 - 6 6 - 6 6 6 ",
"6 6 6 6 6 6 M t.S - 6 6 6 6 6 6 S 6 6 6 6 6 6 - p.-Xr 6 6 6 6 6 6 6 7.7.6 6 6 6 6 6 6 6 6 6 6 * / :Xc * 6 6 6 6 6 * s a.i * 6 6 6 6 6 6 6 6 6 - r -Xp.* 6 6 6 6 6 6 r i.^ * 6 6 6 6 6 6 S 6 6 6 6 6 6 6 % l PX7X% 6 6 6 6 6 - f wX8.% 6 6 6 6 6 6 6 6 6 6 6 6 * 8.wXx - 6 6 6 6 6 * l.wXf * 6 6 6 6 6 - B I & L D - 6 6 6 6 6 6 6 6 6 6 6 6 6 6 6 6 6 6 6 6 6 6 6 6 6 6 6 6 6 6 6 6 6 6 6 - M D 6 6 D M 6 F 6 6 6 6 6 6 6 6 6 6 6 6 6 6 6 6 6 6 6 6 6 M 6 F M 6 6 S B - F n 6 6 6 6 6 6 6 6 6 6 6 6 6 6 6 6 6 6 6 M 6 M D 6 6 M ",
"6 6 6 6 6 6 6 t 6 6 6 6 6 6 6 6 S 6 6 6 6 6 6 6 6 i 6 6 6 6 6 6 6 6 r r 6 6 6 6 6 6 6 6 6 6 6 6 - i 6 6 6 6 6 6 6 6 6 r 6 6 6 6 6 6 6 6 6 6 6 6 6 r r 6 6 6 6 6 6 6 6 r 6 6 6 6 6 6 6 6 S 6 6 6 6 6 6 6 6 * f u - 6 6 6 6 6 6 - f 6 6 6 6 6 6 6 6 6 6 6 6 6 6 6 - f 6 6 6 6 6 6 6 6 7 f - 6 6 6 6 6 6 - B I & L D - 6 6 6 6 6 6 6 6 6 6 6 6 6 6 6 6 6 6 6 6 6 6 6 6 6 6 6 6 6 6 6 6 6 6 = M V.D = D V.$.#.V.#.- 6 6 6 6 6 6 6 6 6 6 6 6 6 6 6 6 6 = $.C.6 #.V.t M V.t.#.V.$.6 6 6 6 6 6 6 6 6 6 6 6 6 6 6 6 6 - F F.t B.B.D 6 B.",
"6 6 6 6 6 6 6 6 6 6 6 6 6 6 6 6 S 6 6 6 6 6 6 6 6 6 6 6 6 6 6 6 6 6 6 6 6 6 6 6 6 6 6 6 6 6 6 6 6 6 6 6 6 6 6 6 6 6 6 6 6 6 6 6 6 6 6 6 6 6 6 6 6 6 6 6 6 6 6 6 6 6 6 6 6 6 6 6 6 6 6 6 S 6 6 6 6 6 6 6 6 6 - 6 6 6 6 6 6 6 6 6 - 6 6 6 6 6 6 6 6 6 6 6 6 6 6 6 6 - 6 6 6 6 6 6 6 6 6 - 6 6 6 6 6 6 6 - B I & L D - 6 6 6 6 6 6 6 6 6 6 6 6 6 6 6 6 6 6 6 6 6 6 6 6 6 6 6 6 6 6 6 6 6 6 6 @.Z.@.= #.S +.F.6 B.6 6 6 6 6 6 6 6 6 6 6 6 6 6 6 6 6 n 6 M B.= = V.6 I L F G.6 t.M 6 6 6 6 6 6 6 6 6 6 6 6 6 6 6 6 6 6 t.L +.S @.M #.",
"6 6 6 6 6 6 6 6 6 6 6 6 6 6 6 6 S 6 6 6 6 6 6 6 6 6 6 6 6 6 6 6 6 6 6 6 6 6 6 6 6 6 6 6 6 6 6 6 6 6 6 6 6 6 6 6 6 6 6 6 6 6 6 6 6 6 6 6 6 6 6 6 6 6 6 6 6 6 6 6 6 6 6 6 6 6 6 6 6 6 6 6 S 6 6 6 6 6 6 6 6 6 6 6 6 6 6 6 6 6 6 6 6 6 6 6 6 6 6 6 6 6 6 6 6 6 6 6 6 6 6 6 6 6 6 6 6 6 6 6 6 6 6 6 6 6 6 - B I & L D - 6 6 6 6 6 6 6 6 6 = - 6 6 & - 6 & 6 6 6 6 6 6 6 6 6 6 6 6 6 6 6 6 Z @.t.F t.Z +.F #.D.M B.6 6 6 6 6 6 6 6 6 6 6 6 6 6 6 6 6 #.D 6 B.& #.F & I I I F.M B.M 6 6 6 6 6 6 6 6 6 6 6 6 6 6 6 6 6 - B.F #.F #.M $.",
"6 6 - 6 6 6 6 6 6 - 6 6 6 6 6 6 S 6 6 6 6 - & - 6 - 6 6 6 - & = 6 6 6 6 6 6 6 6 6 6 6 6 6 6 6 6 6 6 6 6 6 6 6 = 6 6 = 6 6 6 6 6 6 6 6 6 6 6 6 - - 6 6 6 6 6 = 6 6 6 6 - 6 & - 6 6 6 6 6 S 6 6 6 6 6 - 6 6 = 6 6 = 6 - - 6 = 6 6 6 6 6 6 6 6 6 6 6 6 6 6 6 6 6 6 6 - - 6 6 - - 6 = 6 6 = 6 6 6 6 6 6 6 - B I & L D - 6 6 6 6 6 6 6 6 6 +.I - 6 t.F M B.M - 6 6 6 6 6 6 6 6 6 6 6 6 6 6 6 & M V.$.@.F V.$.L Z.+.- 6 6 6 6 6 6 6 6 6 6 6 6 6 6 6 6 - - n #.D G.@.#.F B.M.F C.#.6 6 6 6 6 6 6 6 6 6 6 6 6 6 6 6 6 6 6 $.6 t.B.+.L #.",
"6 t Z 6 6 - 6 D t D n 6 6 6 6 6 S 6 6 6 6 D I S 6 B 6 6 M S I D 6 n n 6 M = & 6 6 6 6 6 6 6 6 6 6 6 6 n n 6 6 L 6 M D 6 6 6 6 6 6 6 6 6 6 6 - S D 6 6 6 M M I 6 6 6 & I n I S 6 6 6 6 6 S 6 6 6 6 6 M 6 6 L 6 M F = D B 6 L t - n n 6 M & & 6 6 6 6 6 6 6 6 6 6 6 D B 6 6 D S - F t 6 F 6 6 6 6 6 6 6 - B I & L D - 6 6 6 6 6 6 6 = L Z.B & @.#.$.V.I t.- 6 6 6 6 6 6 6 6 6 6 6 6 6 6 6 6 6 6 6 6 6 6 6 - t 6 6 6 6 6 6 6 6 6 6 6 6 6 6 6 6 6 6 6 6 6 6 6 t M 6 6 6 6 - t 6 6 6 6 6 6 6 6 6 6 6 6 6 6 6 6 6 6 6 6 6 6 6 6 6 6 6 ",
"L +.@.S - n L +.I L @.6 6 6 6 6 S 6 6 6 6 D $.V.@.Z.$ F F.S @.D.& +.L 6 B.F +.t 6 6 6 6 6 6 6 6 6 6 - F.+.$ $.B.#.t.B.D - 6 6 6 6 6 6 6 6 - S V.S 6 & #.Z.B $.$.= n I V.@.t.B.D - 6 6 6 S 6 6 6 6 6 F.D @.V.#.t.B.#.B.t.$.B.$.& #.D 6 M.F +.6 6 6 6 6 6 6 6 6 - D V.B.6 B V.t.#.B.$.$.V.I = 6 6 6 6 6 - B I & L D - 6 6 6 6 6 6 6 = t.$.B.- #.M #.Z.- B.6 6 6 6 6 6 6 6 6 6 6 6 6 6 6 6 6 6 6 6 - 6 - 6 6 6 6 6 6 6 6 6 6 6 6 6 6 6 6 6 6 6 6 6 6 6 6 6 6 6 = 6 6 6 6 6 6 6 6 6 6 6 6 6 6 6 6 6 6 6 6 6 6 6 6 6 6 6 6 6 6 6 6 6 ",
"$.I n +.- @.+.+.L +.@.6 6 6 6 6 S 6 6 6 6 $ L I 6 B.6 #.B.& D #.$ +.C.$.B.D F.t 6 6 6 6 6 6 6 6 6 - F B.F - B.6 D.@.B $.& 6 6 6 6 6 6 6 6 = $.C.@.- M $.$.6 B.@.& $.$.V.+.B.B.B - 6 6 6 S 6 6 6 6 = @.I $.6 D.#.n H.M +.F.6 B.6 +.V.t.t.D F.6 6 6 6 6 6 6 6 6 = @.D +.D I F F G.6 B.V.6 B.- 6 6 6 6 6 - B I & L D - 6 6 6 6 6 6 6 = #.I t.L +.#.t.V.+.t.- 6 6 6 6 6 6 6 6 6 6 6 6 6 6 6 6 6 6 = D 6 n n - 6 6 6 6 6 6 6 6 6 6 6 6 6 6 6 6 6 6 6 6 6 6 6 6 6 D 6 M 6 6 6 6 6 6 6 6 6 6 6 6 6 6 6 6 6 6 6 6 6 6 6 6 6 6 6 6 6 6 - ",
"$.I B I 6 +.6 +.I D @.M 6 6 6 6 S 6 6 6 6 6 V.t t t.I Z.F.B B.S $ +.t.L t.I F & 6 6 6 6 6 6 6 6 6 6 Z.D.B.6 M.M D.#.F #.& 6 6 6 6 6 6 6 6 = t.D B.M $.Z.F.n I B.& B.t t.#.#.$.I = 6 6 6 S 6 6 6 6 & #.L $.M Z.#.S F.D @.D.M B.- @.$.I $.I D = 6 6 6 6 6 6 6 6 = +.L #.D L I I F.M B.B.B B.= 6 6 6 6 6 - B I & L D - 6 6 6 6 6 6 6 6 6 t.F L M $.F M B.B 6 6 6 6 6 6 6 6 6 6 6 6 6 6 6 6 6 6 6 t B.I V.B.F - 6 6 6 6 6 6 6 6 6 6 6 6 6 6 6 6 6 6 6 6 6 6 6 S B.+.V.M.M 6 6 6 6 6 6 6 6 6 6 6 6 6 6 6 6 6 6 6 6 6 6 6 M n M 6 6 B ",
"D F #.M - L #.L L @.+.6 6 6 6 6 S 6 6 6 - S #.& n $.6 Z B.D $.6 = I F 6 $.Z.t.t 6 6 6 6 6 6 6 6 6 6 n #.$.I I Z.F #.C.M 6 6 6 6 6 6 6 6 6 - S C.#.#.B D B.I B.+.& I V.B.I V.B.S - 6 6 6 S 6 6 6 6 & +.D F Z.L #.V.D B.$.F Z.+.& +.D 6 t.Z.$.6 6 6 6 6 6 6 6 6 6 n V.$.+.F B.t.D Z.+.I Z.D - 6 6 6 6 6 - B I & L D - 6 6 6 6 6 6 6 6 6 & - - 6 & - 6 & 6 6 6 6 6 6 6 6 6 6 6 6 6 6 6 6 6 6 - L B.Z.+.t.$.I = 6 6 6 6 6 6 6 6 6 6 6 6 6 6 6 6 6 6 6 6 6 - #.V.V.@.#.B.B - 6 6 6 6 6 6 6 6 6 6 6 6 6 6 6 6 6 6 6 6 = I Z.C.V.#.I C.",
"6 6 6 6 6 6 6 6 6 t 6 6 6 6 6 6 S 6 6 6 6 6 6 6 6 6 6 - - 6 6 6 6 6 6 6 6 6 n 6 6 6 6 6 6 6 6 6 6 6 - - 6 6 6 6 - 6 6 6 6 6 6 6 6 6 6 6 6 6 6 6 6 6 6 - - 6 n - 6 6 6 6 6 n 6 - 6 6 6 6 S 6 6 6 6 6 6 6 6 6 6 6 6 - 6 6 - 6 6 6 6 6 6 6 6 n 6 6 6 6 6 6 6 6 6 6 6 6 6 6 6 6 6 - 6 6 6 6 6 6 6 6 6 6 6 - B I & L D - 6 6 6 6 6 6 6 6 6 6 6 6 6 6 6 6 6 6 6 6 6 6 6 6 6 6 6 6 6 6 6 6 6 6 6 = B.n #.+.B.$.I = 6 6 6 6 6 6 6 6 6 6 6 6 6 6 6 6 6 6 6 6 6 6 B.6 t.#.B.B.S - 6 6 6 6 6 6 6 6 6 6 6 6 6 6 6 6 6 6 6 6 & +.L #.D $.S $.",
"6 6 6 6 6 6 6 6 6 6 6 6 6 6 6 6 S 6 6 6 6 6 6 6 6 6 6 6 6 6 6 6 6 6 6 6 6 6 6 6 6 6 6 6 6 6 6 6 6 6 6 6 6 6 6 6 6 6 6 6 6 6 6 6 6 6 6 6 6 6 6 6 6 6 6 6 6 6 6 6 6 6 6 6 6 6 6 6 6 6 6 6 S 6 6 6 6 6 6 6 6 6 6 6 6 6 6 6 6 6 6 6 6 6 6 6 6 6 6 6 6 6 6 6 6 6 6 6 6 6 6 6 6 6 6 6 6 6 6 6 6 6 6 6 6 6 6 - B I & L D - 6 6 6 6 6 6 6 6 6 6 6 6 6 6 6 6 6 6 6 6 6 6 6 6 6 6 6 6 6 6 6 6 6 6 6 = I B.C.I B.$.@.= 6 6 6 6 6 6 6 6 6 6 6 6 6 6 6 6 6 6 6 6 6 - $.B.B.@.t.B.F - 6 6 6 6 6 6 6 6 6 6 6 6 6 6 6 6 6 6 6 6 & +.I #.D $.B B.",
"6 6 6 6 6 6 6 6 6 6 6 6 6 6 6 6 S 6 6 6 6 6 6 6 6 6 6 6 6 6 6 6 6 6 6 6 6 6 6 6 6 6 6 6 6 6 6 6 6 6 6 6 6 6 6 6 6 6 6 6 6 6 6 6 6 6 6 6 6 6 6 6 6 6 6 6 6 6 6 6 6 6 6 6 6 6 6 6 6 6 6 6 S 6 6 6 6 6 6 6 6 6 6 6 6 6 6 6 6 6 6 6 6 6 6 6 6 6 6 6 6 6 6 6 6 6 6 6 6 6 6 6 6 6 6 6 6 6 6 6 6 6 6 6 6 6 6 - S I & F D - 6 6 6 6 6 6 6 6 6 6 6 6 6 6 6 6 6 6 6 6 6 6 6 6 6 6 6 6 6 6 6 6 6 6 6 6 6 D M 6 F D 6 6 6 6 6 6 6 6 6 6 6 6 6 6 6 6 6 6 6 6 6 6 6 6 6 D n t L Z - 6 6 6 6 6 6 6 6 6 6 6 6 6 6 6 6 6 6 6 6 6 6 t 6 t 6 t M F ",
"6 6 6 6 6 6 6 6 6 6 6 6 6 6 6 6 D 6 6 6 6 6 6 6 6 6 6 6 6 6 6 6 6 6 6 6 6 6 6 6 6 6 6 6 6 6 6 6 6 6 6 6 6 6 6 6 6 6 6 6 6 6 6 6 6 6 6 6 6 6 6 6 6 6 6 6 6 6 6 6 6 6 6 6 6 6 6 6 6 6 6 6 D 6 6 6 6 6 6 6 6 6 6 6 6 6 6 6 6 6 6 6 6 6 6 6 6 6 6 6 6 6 6 6 6 6 6 6 6 6 6 6 6 6 6 6 6 6 6 6 6 6 6 6 6 6 6 - I D = S I - 6 6 6 6 6 6 6 6 6 6 6 6 6 6 6 6 6 6 6 6 6 6 6 6 6 6 6 6 6 6 6 6 6 6 6 6 6 - 6 6 - - 6 6 6 6 6 6 6 6 6 6 6 6 6 6 6 6 6 6 6 6 6 6 6 6 6 - 6 6 = - 6 6 6 6 6 6 6 6 6 6 6 6 6 6 6 6 6 6 6 6 6 6 6 6 6 6 6 6 6 = ",
"- - - - - - - - - - - - - - - 6 6 - - - - - - - - - - - - - - - - - - - - - - - - - - - - - - - - - - - - - - - - - - - - - - - - - - - - - - - - - - - - - - - - - - - - - - - - - - - 6 6 - - - - - - - - - - - - - - - - - - - - - - - - - - - - - - - - - - - - - - - - - - - - - - - - - - - - - B @.6 6 6 +.S - - - - - - - - - - - - - - - - - - - - - - - - - - - - - - - - - - - - - 6 6 - 6 6 - - - - - - - - - - - - - - - - - - - - - - - - - 6 6 - 6 6 - - - - - - - - - - - - - - - - - - - - - - - - - 6 - 6 6 6 ",
"B B B B B B B B B B B B B B B B M B B B B B B B B B B B B B B B B B B B B B B B B B B B B B B B B B B B B B B B B B B B B B B B B B B B B B B B B B B B B B B B B B B B B B B B B B B B M B B B B B B B B B B B B B B B B B B B B B B B B B B B B B B B B B B B B B B B B B B B B B B B B B B B B S I @.M 6 6 6 6 +.I S B B B B B B B B B B B B B B B B B B B B B B B B B B B B B B B B B B B B B B B B B B B B B B B B B B B B B B B B B B B B B B B B B B B B B B B B B B B B B B B B B B B B B B B B B B B B B B B B B B B B ",
"I I I I I I I I I I I I I I I I I I I I I I I I I I I I I I I I I I I I I I I I I I I I I I I I I I I I I I I I I I I I I I I I I I I I I I I I I I I I I I I I I I I I I I I I I I I I I I I I I I I I I I I I I I I I I I I I I I I I I I I I I I I I I I I I I I I I I I I I I I I I I I I I I I D 6 6 6 6 6 6 6 D I I I I I I I I I I I I I I I I I I I I I I I I I I I I I I I I I I I I I I I I I I I I I I I I I I I I I I I I I I I I I I I I I I I I I I I I I I I I I I I I I I I I I I I I I I I I I I I I I I I I I ",
"& & & & & & & & & & & & & & & & & & & & & & & & & & & & & & & & & & & & & & & & & & & & & & & & & & & & & & & & & & & & & & & & & & & & & & & & & & & & & & & & & & & & & & & & & & & & & & & & & & & & & & & & & & & & & & & & & & & & & & & & & & & & & & & & & & & & & & & & & & & & & & & & & & & = - - - - - - & & & & & & & & & & & & & & & & & & & & & & & & & & & & & & & & & & & & & & & & & & & & & & & & & & & & & & & & & & & & & & & & & & & & & & & & & & & & & & & & & & & & & & & & & & & & & & & & & & & & & & ",
"L L L L L L L L L L L L L L L L L L L L L L L L L L L L L L L L L L L L L L L L L L L L L L L L L L L L L L L L L L L L L L L L L L L L L L L L L L L L L L L L L L L L L L L L L L L L L L L L L L L L L L L L L L L L L L L L L L L L L L L L L L L L L L L L L L L L L L L L L L L L L L L L L L L L L L L L L L L L L L L L L L L L L L L L L L L L L L L L L L L L L L L L L L L L L L L L L L L L L L L L L L L L L L L L L L L L L L L L L L L L L L L L L L L L L L L L L L L L L L L L L L L L L L L L L L L L L L L L ",
"D D D D D D D D D D D D D D D D D D D D D D D D D D D D D D D D D D D D D D D D D D D D D D D D D D D D D D D D D D D D D D D D D D D D D D D D D D D D D D D D D D D D D D D D D D D D D D D D D D D D D D D D D D D D D D D D D D D D D D D D D D D D D D D D D D D D D D D D D D D D D D D D D D D D D D D D D D D D D D D D D D D D D D D D D D D D D D D D D D D D D D D D D D D D D D D D D D D D D D D D D D D D D D D D D D D D D D D D D D D D D D D D D D D D D D D D D D D D D D D D D D D D D D D D D D D D D D D D ",
"- - - - - - - - - - - - - - - - - - - - - - - - - - - - - - - - - - - - - - - - - - - - - - - - - - - - - - - - - - - - - - - - - - - - - - - - - - - - - - - - - - - - - - - - - - - - - - - - - - - - - - - - - - - - - - - - - - - - - - - - - - - - - - - - - - - - - - - - - - - - - - - - - - - - - - - - - - - - - - - - - - - - - - - - - - - - - - - - - - - - - - - - - - - - - - - - - - - - - - - - - - - - - - - - - - - - - - - - - - - - - - - - - - - - - - - - - - - - - - - - - - - - - - - - - - - - - - - - ",
"6 6 6 6 6 6 6 6 6 6 6 6 6 6 6 6 6 6 6 6 6 6 6 6 6 6 6 6 6 6 6 6 6 6 6 6 6 6 6 6 6 6 6 6 6 6 6 6 6 6 6 6 6 6 6 6 6 6 6 6 6 6 6 6 6 6 6 6 6 6 6 6 6 6 6 6 6 6 6 6 6 6 6 6 6 6 6 6 6 6 6 6 6 6 6 6 6 6 6 6 6 6 6 6 6 6 6 6 6 6 6 6 6 6 6 6 6 6 6 6 6 6 6 6 6 6 6 6 6 6 6 6 6 6 6 6 6 6 6 6 6 6 6 6 6 6 6 6 6 6 6 6 6 6 6 6 6 6 6 6 6 6 6 6 6 6 6 6 6 6 6 6 6 6 6 6 6 6 6 6 6 6 6 6 6 6 6 6 6 6 6 6 6 6 6 6 6 6 6 6 6 6 6 6 6 6 6 6 6 6 6 6 6 6 6 6 6 6 6 6 6 6 6 6 6 6 6 6 6 6 6 6 6 6 6 6 6 6 6 6 6 6 6 6 6 6 6 6 6 6 6 6 6 6 6 6 ",
"6 6 6 6 6 6 6 6 6 6 6 6 6 6 6 6 6 6 6 6 6 6 6 6 6 6 6 6 6 6 6 6 6 6 6 6 6 6 6 6 6 6 6 6 6 6 6 6 6 6 6 6 6 6 6 6 6 6 6 6 6 6 6 6 6 6 6 6 6 6 6 6 6 6 6 6 6 6 6 6 6 6 6 6 6 6 6 6 6 6 6 6 6 6 6 6 6 6 6 6 6 6 6 6 6 6 6 6 6 6 6 6 6 6 6 6 6 6 6 6 6 6 6 6 6 6 6 6 6 6 6 6 6 6 6 6 6 6 6 6 6 6 6 6 6 6 6 6 6 6 6 6 6 6 6 6 6 6 6 6 6 6 6 6 6 6 6 6 6 6 6 6 6 6 6 6 6 6 6 6 6 6 6 6 6 6 6 6 6 6 6 6 6 6 6 6 6 6 6 6 6 6 6 6 6 6 6 6 6 6 6 6 6 6 6 6 6 6 6 6 6 6 6 6 6 6 6 6 6 6 6 6 6 6 6 6 6 6 6 6 6 6 6 6 6 6 6 6 6 6 6 6 6 6 6 6 ",
"6 6 6 6 6 6 6 6 6 6 6 6 6 6 6 6 6 6 6 6 6 6 6 6 6 6 6 6 6 6 6 6 6 6 6 6 6 6 6 6 6 6 6 6 6 6 6 6 6 6 6 6 6 6 6 6 6 6 6 6 6 6 6 6 6 6 6 6 6 6 6 6 6 6 6 6 6 6 6 6 6 6 6 6 6 6 6 6 6 6 6 6 6 6 6 6 6 6 6 6 6 6 6 6 6 6 6 6 6 6 6 6 6 6 6 6 6 6 6 6 6 6 6 6 6 6 6 6 6 6 6 6 6 6 6 6 6 6 6 6 6 6 6 6 6 6 6 6 6 6 6 6 6 6 6 6 6 6 6 6 6 6 6 6 6 6 6 6 6 6 6 6 6 6 6 6 6 6 6 6 6 6 6 6 6 6 6 6 6 6 6 6 6 6 6 6 6 6 6 6 6 6 6 6 6 6 6 6 6 6 6 6 6 6 6 6 6 6 6 6 6 6 6 6 6 6 6 6 6 6 6 6 6 6 6 6 6 6 6 6 6 6 6 6 6 6 6 6 6 6 6 6 6 6 6 6 ",
"6 6 6 6 6 6 6 6 6 6 6 6 6 6 6 6 6 6 6 6 6 6 6 6 6 6 6 6 6 6 6 6 6 6 6 6 6 6 6 6 6 6 6 6 6 6 6 6 6 6 6 6 6 6 6 6 6 6 6 6 6 6 6 6 6 6 6 6 6 6 6 6 6 6 6 6 6 6 6 6 6 6 6 6 6 6 6 6 6 6 6 6 6 6 6 6 6 6 6 6 6 6 6 6 6 6 6 6 6 6 6 6 6 6 6 6 6 6 6 6 6 6 6 6 6 6 6 6 6 6 6 6 6 6 6 6 6 6 6 6 6 6 6 6 6 6 6 6 6 6 6 6 6 6 6 6 6 6 6 6 6 6 6 6 6 6 6 6 6 6 6 6 6 6 6 6 6 6 6 6 6 6 6 6 6 6 6 6 6 6 6 6 6 6 6 6 6 6 6 6 6 6 6 6 6 6 6 6 6 6 6 6 6 6 6 6 6 6 6 6 6 6 6 6 6 6 6 6 6 6 6 6 6 6 6 6 6 6 6 6 6 6 6 6 6 6 6 6 6 6 6 6 6 6 6 6 ",
"6 6 6 6 6 6 6 6 6 6 6 6 6 6 6 6 6 6 6 6 6 6 6 6 6 6 6 6 6 6 6 6 6 6 6 6 6 6 6 6 6 6 6 6 6 6 6 6 6 6 6 6 6 6 6 6 6 6 6 6 6 6 6 6 6 6 6 6 6 6 6 6 6 6 6 6 6 6 6 6 6 6 6 6 6 6 6 6 6 6 6 6 6 6 6 6 6 6 6 6 6 6 6 6 6 6 6 6 6 6 6 6 6 6 6 6 6 6 6 6 6 6 6 6 6 6 6 6 6 6 6 6 6 6 6 6 6 6 6 6 6 6 6 6 6 6 6 6 6 6 6 6 6 6 6 6 6 6 6 6 6 6 6 6 6 6 6 6 6 6 6 6 6 6 6 6 6 6 6 6 6 6 6 6 6 6 6 6 6 6 6 6 6 6 6 6 6 6 6 6 6 6 6 6 6 6 6 6 6 6 6 6 6 6 6 6 6 6 6 6 6 6 6 6 6 6 6 6 6 6 6 6 6 6 6 6 6 6 6 6 6 6 6 6 6 6 6 6 6 6 6 6 6 6 6 6 ",
"6 6 6 6 6 6 6 6 6 6 6 6 6 6 6 6 6 6 6 6 6 6 6 6 6 6 6 6 6 6 6 6 6 6 6 6 6 6 6 6 6 6 6 6 6 6 6 6 6 6 6 6 6 6 6 6 6 6 6 6 6 6 6 6 6 6 6 6 6 6 6 6 6 6 6 6 6 6 6 6 6 6 6 6 6 6 6 6 6 6 6 6 6 6 6 6 6 6 6 6 6 6 6 6 6 6 6 6 6 6 6 6 6 6 6 6 6 6 6 6 6 6 6 6 6 6 6 6 6 6 6 6 6 6 6 6 6 6 6 6 6 6 6 6 6 6 6 6 6 6 6 6 6 6 6 6 6 6 6 6 6 6 6 6 6 6 6 6 6 6 6 6 6 6 6 6 6 6 6 6 6 6 6 6 6 6 6 6 6 6 6 6 6 6 6 6 6 6 6 6 6 6 6 6 6 6 6 6 6 6 6 6 6 6 6 6 6 6 6 6 6 6 6 6 6 6 6 6 6 6 6 6 6 6 6 6 6 6 6 6 6 6 6 6 6 6 6 6 6 6 6 6 6 6 6 6 ",
"6 6 6 6 6 6 6 6 6 6 6 6 6 6 6 6 6 6 6 6 6 6 6 6 6 6 6 6 6 6 6 6 6 6 6 6 6 6 6 6 6 6 6 6 6 6 6 6 6 6 6 6 6 6 6 6 6 6 6 6 6 6 6 6 6 6 6 6 6 6 6 6 6 6 6 6 6 6 6 6 6 6 6 6 6 6 6 6 6 6 6 6 6 6 6 6 6 6 6 6 6 6 6 6 6 6 6 6 6 6 6 6 6 6 6 6 6 6 6 6 6 6 6 6 6 6 6 6 6 6 6 6 6 6 6 6 6 6 6 6 6 6 6 6 6 6 6 6 6 6 6 6 6 6 6 6 6 6 6 6 6 6 6 6 6 6 6 6 6 6 6 6 6 6 6 6 6 6 6 6 6 6 6 6 6 6 6 6 6 6 6 6 6 6 6 6 6 6 6 6 6 6 6 6 6 6 6 6 6 6 6 6 6 6 6 6 6 6 6 6 6 6 6 6 6 6 6 6 6 6 6 6 6 6 6 6 6 6 6 6 6 6 6 6 6 6 6 6 6 6 6 6 6 6 6 6 ",
"6 6 6 6 6 6 6 6 6 6 6 6 6 6 6 6 6 6 6 6 6 6 6 6 6 6 6 6 6 6 6 6 6 6 6 6 6 6 6 6 6 6 6 6 6 6 6 6 6 6 6 6 6 6 6 6 6 6 6 6 6 6 6 6 6 6 6 6 6 6 6 6 6 6 6 6 6 6 6 6 6 6 6 6 6 6 6 6 6 6 6 6 6 6 6 6 6 6 6 6 6 6 6 6 6 6 6 6 6 6 6 6 6 6 6 6 6 6 6 6 6 6 6 6 6 6 6 6 6 6 6 6 6 6 6 6 6 6 6 6 6 6 6 6 6 6 6 6 6 6 6 6 6 6 6 6 6 6 6 6 6 6 6 6 6 6 6 6 6 6 6 6 6 6 6 6 6 6 6 6 6 6 6 6 6 6 6 6 6 6 6 6 6 6 6 6 6 6 6 6 6 6 6 6 6 6 6 6 6 6 6 6 6 6 6 6 6 6 6 6 6 6 6 6 6 6 6 6 6 6 6 6 6 6 6 6 6 6 6 6 6 6 6 6 6 6 6 6 6 6 6 6 6 6 6 6 ",
"6 6 6 6 6 6 6 6 6 6 6 6 6 6 6 6 6 6 6 6 6 6 6 6 6 6 6 6 6 6 6 6 6 6 6 6 6 6 6 6 6 6 6 6 6 6 6 6 6 6 6 6 6 6 6 6 6 6 6 6 6 6 6 6 6 6 6 6 6 6 6 6 6 6 6 6 6 6 6 6 6 6 6 6 6 6 6 6 6 6 6 6 6 6 6 6 6 6 6 6 6 6 6 6 6 6 6 6 6 6 6 6 6 6 6 6 6 6 6 6 6 6 6 6 6 6 6 6 6 6 6 6 6 6 6 6 6 6 6 6 6 6 6 6 6 6 6 6 6 6 6 6 6 6 6 6 6 6 6 6 6 6 6 6 6 6 6 6 6 6 6 6 6 6 6 6 6 6 6 6 6 6 6 6 6 6 6 6 6 6 6 6 6 6 6 6 6 6 6 6 6 6 6 6 6 6 6 6 6 6 6 6 6 6 6 6 6 6 6 6 6 6 6 6 6 6 6 6 6 6 6 6 6 6 6 6 6 6 6 6 6 6 6 6 6 6 6 6 6 6 6 6 6 6 6 6 ",
"6 6 6 6 6 6 6 6 6 6 6 6 6 6 6 6 6 6 6 6 6 6 6 6 6 6 6 6 6 6 6 6 6 6 6 6 6 6 6 6 6 6 6 6 6 6 6 6 6 6 6 6 6 6 6 6 6 6 6 6 6 6 6 6 6 6 6 6 6 6 6 6 6 6 6 6 6 6 6 6 6 6 6 6 6 6 6 6 6 6 6 6 6 6 6 6 6 6 6 6 6 6 6 6 6 6 6 6 6 6 6 6 6 6 6 6 6 6 6 6 6 6 6 6 6 6 6 6 6 6 6 6 6 6 6 6 6 6 6 6 6 6 6 6 6 6 6 6 6 6 6 6 6 6 6 6 6 6 6 6 6 6 6 6 6 6 6 6 6 6 6 6 6 6 6 6 6 6 6 6 6 6 6 6 6 6 6 6 6 6 6 6 6 6 6 6 6 6 6 6 6 6 6 6 6 6 6 6 6 6 6 6 6 6 6 6 6 6 6 6 6 6 6 6 6 6 6 6 6 6 6 6 6 6 6 6 6 6 6 6 6 6 6 6 6 6 6 6 6 6 6 6 6 6 6 6 ",
"6 6 6 6 6 6 6 6 6 6 6 6 6 6 6 6 6 6 6 6 6 6 6 6 6 6 6 6 6 6 6 6 6 6 6 6 6 6 6 6 6 6 6 6 6 6 6 6 6 6 6 6 6 6 6 6 6 6 6 6 6 6 6 6 6 6 6 6 6 6 6 6 6 6 6 6 6 6 6 6 6 6 6 6 6 6 6 6 6 6 6 6 6 6 6 6 6 6 6 6 6 6 6 6 6 6 6 6 6 6 6 6 6 6 6 6 6 6 6 6 6 6 6 6 6 6 6 6 6 6 6 6 6 6 6 6 6 6 6 6 6 6 6 6 6 6 6 6 6 6 6 6 6 6 6 6 6 6 6 6 6 6 6 6 6 6 6 6 6 6 6 6 6 6 6 6 6 6 6 6 6 6 6 6 6 6 6 6 6 6 6 6 6 6 6 6 6 6 6 6 6 6 6 6 6 6 6 6 6 6 6 6 6 6 6 6 6 6 6 6 6 6 6 6 6 6 6 6 6 6 6 6 6 6 6 6 6 6 6 6 6 6 6 6 6 6 6 6 6 6 6 6 6 6 6 6 "
};
