/* XPM */
static char *sc_deesser_mono[] = {
/* columns rows colors chars-per-pixel */
"256 256 256 2 ",
"   c #0A0A0C",
".  c #070708",
"X  c #0D0E11",
"o  c #060613",
"O  c #130D12",
"+  c #0E1914",
"@  c #0D1214",
"#  c #111216",
"$  c #15161B",
"%  c #1C151C",
"&  c #16191D",
"*  c #18191F",
"=  c #181517",
"-  c #0F0E0D",
";  c #2D171C",
":  c #17211F",
">  c #1C221D",
",  c #24251E",
"<  c #292A1B",
"1  c #28281B",
"2  c #363719",
"3  c #322F11",
"4  c #161B22",
"5  c #1B1C22",
"6  c #151724",
"7  c #0C1A24",
"8  c #241D24",
"9  c #2D1E24",
"0  c #241E2A",
"q  c #341E25",
"w  c #2C1E34",
"e  c #172126",
"r  c #1E2026",
"t  c #17262D",
"y  c #1B232B",
"u  c #182A2B",
"i  c #15322E",
"p  c #1E2434",
"a  c #1E273A",
"s  c #1E283D",
"d  c #1A2B33",
"f  c #153B36",
"g  c #183437",
"h  c #0B282A",
"j  c #222224",
"k  c #2B2125",
"l  c #23252C",
"z  c #26282F",
"x  c #2B2829",
"c  c #392527",
"v  c #342923",
"b  c #34252B",
"n  c #3A2729",
"m  c #3C2A2C",
"M  c #352727",
"N  c #2A3329",
"B  c #39332A",
"V  c #272930",
"C  c #292B34",
"Z  c #2D2F38",
"A  c #272632",
"S  c #332C33",
"D  c #3C2D31",
"F  c #35253A",
"G  c #2F303A",
"H  c #253637",
"J  c #353335",
"K  c #31333D",
"L  c #3A3737",
"P  c #442C2D",
"I  c #4C2C2C",
"U  c #462726",
"Y  c #562C28",
"T  c #4B372C",
"R  c #54322A",
"E  c #5B332B",
"W  c #573628",
"Q  c #412F32",
"!  c #4A2C37",
"~  c #433335",
"^  c #443539",
"/  c #49363A",
"(  c #4A3A3E",
")  c #483736",
"_  c #523333",
"`  c #583836",
"'  c #5A2C31",
"]  c #66362B",
"[  c #78362C",
"{  c #663833",
"}  c #71302B",
"|  c #4E281C",
" . c #0C483A",
".. c #11473B",
"X. c #364535",
"o. c #3D4719",
"O. c #595900",
"+. c #555506",
"@. c #464813",
"#. c #4D4D0F",
"$. c #6E571C",
"%. c #6E6E06",
"&. c #40403D",
"*. c #484638",
"=. c #534735",
"-. c #6F4D30",
";. c #6A6525",
":. c #0B3D49",
">. c #073E44",
",. c #193B45",
"<. c #1F2A41",
"1. c #353742",
"2. c #363944",
"3. c #393B46",
"4. c #3B3E4A",
"5. c #373A48",
"6. c #322C4A",
"7. c #253C6C",
"8. c #3C1F44",
"9. c #43264C",
"0. c #4C3D42",
"q. c #453B43",
"w. c #543E44",
"e. c #492855",
"r. c #52295C",
"t. c #572F4E",
"y. c #6E3450",
"u. c #592B65",
"i. c #5A3466",
"p. c #5B3568",
"a. c #4D3563",
"s. c #693071",
"d. c #401F4A",
"f. c #0E404C",
"g. c #054848",
"h. c #16434A",
"j. c #075A45",
"k. c #094E5C",
"l. c #184955",
"z. c #13535A",
"x. c #3E414E",
"c. c #384744",
"v. c #304A4F",
"b. c #00644B",
"n. c #05674D",
"m. c #076C52",
"M. c #017354",
"N. c #01795A",
"B. c #057458",
"V. c #18664F",
"C. c #175664",
"Z. c #0E5863",
"A. c #086A75",
"S. c #1A6876",
"D. c #0C727A",
"F. c #126870",
"G. c #206879",
"H. c #347074",
"J. c #2A5C61",
"K. c #46434C",
"L. c #514146",
"P. c #55454B",
"I. c #58484F",
"U. c #59464C",
"Y. c #424553",
"T. c #464857",
"R. c #4A4C5C",
"E. c #484957",
"W. c #574A52",
"Q. c #4A5555",
"!. c #65494C",
"~. c #4E5161",
"^. c #525465",
"/. c #56596B",
"(. c #585A70",
"). c #5A6472",
"_. c #63667B",
"`. c #776875",
"'. c #5F6A52",
"]. c #87352A",
"[. c #97362A",
"{. c #8C3830",
"}. c #A83A2B",
"|. c #B73B2A",
" X c #AB3D32",
".X c #82321D",
"XX c #C73D2B",
"oX c #D23E2C",
"OX c #ED3D26",
"+X c #904B2F",
"@X c #B64731",
"#X c #AB4930",
"$X c #966A32",
"%X c #B16A2F",
"&X c #896908",
"*X c #D8422B",
"=X c #C74931",
"-X c #CC482E",
";X c #E4432B",
":X c #F04D2C",
">X c #D77729",
",X c #CC6F2C",
"<X c #E57928",
"1X c #D9541C",
"2X c #963C67",
"3X c #983A5A",
"4X c #B34472",
"5X c #835444",
"6X c #C64571",
"7X c #078B6B",
"8X c #028864",
"9X c #01966C",
"0X c #009E75",
"qX c #059571",
"wX c #0D827B",
"eX c #0A8A67",
"rX c #5F8F76",
"tX c #7F8201",
"yX c #888900",
"uX c #CD8438",
"iX c #7A3288",
"pX c #137888",
"aX c #217487",
"sX c #2E59AF",
"dX c #70748B",
"fX c #65569A",
"gX c #316EE8",
"hX c #336CDD",
"jX c #8B3B8E",
"kX c #8C3B95",
"lX c #91369E",
"zX c #923A9B",
"xX c #903490",
"cX c #9836A7",
"vX c #A33DAC",
"bX c #A93FAB",
"nX c #A831B5",
"mX c #AA41B0",
"MX c #974599",
"NX c #CD4D8E",
"BX c #B841C7",
"VX c #D047E1",
"CX c #B438C3",
"ZX c #048998",
"AX c #03949D",
"SX c #0D878E",
"DX c #228595",
"FX c #0397A4",
"GX c #0C93A3",
"HX c #2295AB",
"JX c #00AAB8",
"KX c #06A4AF",
"LX c #27A4AB",
"PX c #16AEC3",
"IX c #7B809A",
"UX c #9BA0C1",
/* pixels */
"5 5 5 5 5 5 5 5 5 5 5 5 5 5 5 5 5 5 5 5 5 5 5 5 5 5 5 5 5 5 5 5 5 5 5 5 5 5 5 5 5 5 5 5 5 5 5 5 5 5 5 5 5 5 5 5 5 5 5 5 5 5 5 5 5 5 5 5 5 5 5 5 5 5 5 5 5 5 5 5 5 5 5 5 5 5 5 5 5 5 5 5 5 5 5 5 5 5 5 5 5 5 5 5 5 5 5 5 5 5 5 5 5 5 5 5 5 5 5 5 5 5 5 5 5 5 5 5 5 5 5 5 5 5 5 5 5 5 5 5 5 5 5 5 5 5 5 5 5 5 5 5 5 5 5 5 5 5 5 5 5 5 5 5 5 5 5 5 5 5 5 5 5 5 5 5 5 5 5 5 5 5 5 5 5 5 5 5 5 5 5 5 5 5 5 5 5 5 5 5 5 5 5 5 5 5 5 5 5 5 5 5 5 5 5 5 5 5 5 5 5 5 5 5 5 5 5 5 5 5 5 5 5 5 5 5 5 5 5 5 5 5 5 5 5 5 5 5 5 5 5 5 5 5 5 5 ",
"5 5 5 5 5 5 5 5 5 5 5 5 5 5 5 5 5 5 5 5 5 5 5 5 5 5 5 5 5 5 5 5 5 5 5 5 5 5 5 5 5 5 5 5 5 5 5 5 5 5 5 5 5 5 5 5 5 5 5 5 5 5 5 5 5 5 5 5 5 5 5 5 5 5 5 5 5 5 5 5 5 5 5 5 5 5 5 5 5 5 5 5 5 5 5 5 5 5 5 5 5 5 5 5 5 5 5 5 5 5 5 5 5 5 5 5 5 5 5 5 5 5 5 5 5 5 5 5 5 5 5 5 5 5 5 5 5 5 5 5 5 5 5 5 5 5 5 5 5 5 5 5 5 5 5 5 5 5 5 5 5 5 5 5 5 5 5 5 5 5 5 5 5 5 5 5 5 5 5 5 5 5 5 5 5 5 5 5 5 5 5 5 5 5 5 5 5 5 5 5 5 5 5 5 5 5 5 5 5 5 5 5 5 5 5 5 5 5 5 5 5 5 5 5 5 5 5 5 5 5 5 5 5 5 5 5 5 5 5 5 5 5 5 5 5 5 5 5 5 5 5 5 5 5 5 5 ",
"5 5 5 5 5 5 5 5 5 5 5 5 5 5 5 5 5 5 5 5 5 5 5 5 5 5 5 5 5 5 5 5 5 5 5 5 5 5 5 5 5 5 5 5 5 5 5 5 5 5 5 5 5 5 5 5 5 5 5 5 5 5 5 5 5 5 5 5 5 5 5 5 5 5 5 5 5 5 5 5 5 5 5 5 5 5 5 5 5 5 5 5 5 5 5 5 5 5 5 5 5 5 5 5 5 5 5 5 5 5 5 5 5 5 5 5 5 5 5 5 5 5 5 5 5 5 5 5 5 5 5 5 5 5 5 5 5 5 5 5 5 5 5 5 5 5 5 5 5 5 5 5 5 5 5 5 5 5 5 5 5 5 5 5 5 5 5 5 5 5 5 5 5 5 5 5 5 5 5 5 5 5 5 5 5 5 5 5 5 5 5 5 5 5 5 5 5 5 5 5 5 5 5 5 5 5 5 5 5 5 5 5 5 5 5 5 5 5 5 5 5 5 5 5 5 5 5 5 5 5 5 5 5 5 5 5 5 5 5 5 5 5 5 5 5 5 5 5 5 5 5 5 5 5 5 5 ",
"5 5 5 5 5 5 5 5 5 5 5 5 5 5 5 5 5 5 5 5 5 5 5 5 5 5 5 5 5 5 5 5 5 5 5 5 5 5 5 5 5 5 5 5 5 5 5 5 5 5 5 5 5 5 5 5 5 5 5 5 5 5 5 5 5 5 5 5 5 5 5 5 5 5 5 5 5 5 5 5 5 5 5 5 5 5 5 5 5 5 5 5 5 5 5 5 5 5 5 5 5 5 5 5 5 5 5 5 5 5 5 5 5 5 5 5 5 5 5 5 5 5 5 5 5 5 5 5 5 5 5 5 5 5 5 5 5 5 5 5 5 5 5 5 5 5 5 5 5 5 5 5 5 5 5 5 5 5 5 5 5 5 5 5 5 5 5 5 5 5 5 5 5 5 5 5 5 5 5 5 5 5 5 5 5 5 5 5 5 5 5 5 5 5 5 5 5 5 5 5 5 5 5 5 5 5 5 5 5 5 5 5 5 5 5 5 5 5 5 5 5 5 5 5 5 5 5 5 5 5 5 5 5 5 5 5 5 5 5 & & $ 5 * 5 5 * & $ 5 5 * 5 5 5 $ ",
"5 5 5 5 5 5 5 5 5 5 5 5 5 5 5 5 5 5 5 5 5 5 5 5 5 5 5 5 5 5 5 5 5 5 5 5 5 5 5 5 5 5 5 5 5 5 5 5 5 5 5 5 5 5 5 5 5 5 5 5 5 5 5 5 5 5 5 5 5 5 5 5 5 5 5 5 5 5 5 5 5 5 5 5 5 5 5 5 5 5 5 5 5 5 5 5 5 5 5 5 5 5 5 5 5 5 5 5 5 5 5 5 5 5 5 5 5 5 5 5 5 5 5 5 5 5 5 5 5 5 5 5 5 5 5 5 5 5 5 5 5 5 5 5 5 5 5 5 5 5 5 5 5 5 5 5 5 5 5 5 5 5 5 5 5 5 5 5 5 5 5 5 5 5 5 5 5 5 5 5 5 5 5 5 5 5 5 5 5 5 5 5 5 5 5 5 5 5 5 5 5 5 5 5 5 5 5 5 5 5 5 5 5 5 5 5 5 5 5 5 5 5 5 5 5 5 5 5 5 5 5 5 5 5 5 5 5 5 * G _.(.Z dXY.l _._.R.$ Z _._.4.5 /.",
"5 5 5 5 5 5 5 5 5 5 5 5 5 5 5 5 5 5 5 5 5 5 5 5 5 5 5 5 5 5 5 5 5 5 5 5 5 5 5 5 5 5 5 5 5 5 5 5 5 5 5 5 5 5 5 5 5 5 5 5 5 5 5 5 5 5 5 5 5 5 5 5 5 5 5 5 5 5 5 5 5 5 5 5 5 5 5 5 5 5 5 5 5 5 5 5 5 5 5 5 5 5 5 5 5 5 5 5 5 5 5 5 5 5 5 5 5 5 5 5 5 5 5 5 5 5 5 5 5 5 5 5 5 5 5 5 5 5 5 5 5 5 5 5 5 5 5 5 5 5 5 5 5 5 5 5 5 5 5 5 5 5 5 5 5 5 5 5 5 5 5 5 5 5 5 5 5 5 5 5 5 5 5 5 5 5 5 5 5 5 5 5 5 5 5 5 5 5 5 5 5 5 5 5 5 5 5 5 5 5 5 5 5 5 5 5 5 5 5 5 5 5 5 5 5 5 5 5 5 5 5 5 5 5 5 5 5 5 # dX^.V r dX1.K dXl dXx.1.dXC 5 (.).",
"5 5 5 5 5 5 5 5 5 5 5 5 5 5 5 5 5 5 5 5 5 5 5 5 5 5 5 5 5 5 5 5 5 5 5 5 5 5 5 5 5 5 5 5 5 5 5 5 5 5 5 5 5 5 5 5 5 5 5 5 5 5 5 5 5 5 5 5 5 5 5 5 5 5 5 5 5 5 5 5 5 5 5 5 5 5 5 5 5 5 5 5 5 5 5 5 5 5 5 5 5 5 5 5 5 5 5 5 5 5 5 5 5 5 5 5 5 5 5 5 5 5 5 5 5 5 5 5 5 5 5 5 5 5 5 5 5 5 5 5 5 5 5 5 5 5 5 5 5 5 5 5 5 5 5 5 5 5 5 5 5 5 5 5 5 5 5 5 5 5 5 5 5 5 5 5 5 5 5 5 5 5 5 5 5 5 5 5 5 5 5 5 5 5 5 5 5 5 5 5 5 5 5 5 5 5 5 5 5 5 5 5 5 5 5 5 5 5 5 5 5 5 5 5 5 5 5 5 5 5 5 5 5 5 5 5 5 5 & 3.dXT.$ _.G K _.. 4.).Z IX_.K dXC ",
"5 5 5 5 5 5 5 5 5 5 5 5 5 5 5 5 5 5 5 5 5 5 5 5 5 5 5 5 5 5 5 5 5 5 5 5 5 5 5 5 5 5 5 5 5 5 5 5 5 5 5 5 5 5 5 5 5 5 5 5 5 5 5 5 5 5 5 5 5 5 5 5 5 5 5 5 5 5 5 5 5 5 5 5 5 5 5 5 5 5 5 5 5 5 5 5 5 5 5 5 5 5 5 5 5 5 5 5 5 5 5 5 5 5 5 5 5 5 5 5 5 5 5 5 5 5 5 5 5 5 5 5 5 5 5 5 5 5 5 5 5 5 5 5 5 5 5 5 5 5 5 5 5 5 5 5 5 5 5 5 5 5 5 5 5 5 5 5 5 5 5 5 5 5 5 5 5 5 5 5 5 5 5 5 5 5 5 5 5 5 5 5 5 5 5 5 5 5 5 5 5 5 5 5 5 5 5 5 5 5 5 5 5 5 5 5 5 5 5 5 5 5 5 5 5 5 5 5 5 5 5 5 5 5 5 5 5 5 5 * 5 dX1.).G K _.  _.~.K _.$ $ dXY.",
"5 5 5 5 5 5 5 5 5 5 5 5 5 5 5 5 5 5 5 5 5 5 5 5 5 5 5 5 5 5 5 5 5 5 5 5 5 5 5 5 5 5 5 5 5 5 5 5 5 5 5 5 5 5 5 5 5 5 5 5 5 5 5 5 5 5 5 5 5 5 5 5 5 5 5 5 5 5 5 5 5 5 5 5 5 5 5 5 5 5 5 5 5 5 5 5 5 5 5 5 5 5 5 5 5 5 5 5 5 5 5 5 5 5 5 5 5 5 5 5 5 5 5 5 5 5 5 5 5 5 5 5 5 5 5 5 5 5 5 5 5 5 5 5 5 5 5 5 5 5 5 5 5 5 5 5 5 5 5 5 5 5 5 5 5 5 5 5 5 5 5 5 5 5 5 5 5 5 5 5 5 5 5 5 5 5 5 5 5 5 5 5 5 5 5 5 5 5 5 5 5 5 5 5 5 5 5 5 5 5 5 5 5 5 5 5 5 5 5 5 5 5 5 5 5 5 5 5 5 5 5 5 5 5 5 5 5 5 * ^._._.K dXT.Z dX_.dX5 K dX_.3.Z dX",
"5 5 5 5 5 5 5 5 5 5 5 5 5 5 5 5 5 5 5 5 5 5 5 5 5 5 5 5 5 5 5 5 5 5 5 5 5 5 5 5 5 5 5 5 5 5 5 5 5 5 5 5 5 5 5 5 5 5 5 5 5 5 5 5 5 5 5 5 5 5 5 5 5 5 5 5 5 5 5 5 5 5 5 5 5 5 5 5 5 5 5 5 5 5 5 5 5 5 5 5 5 5 5 5 5 5 5 5 5 5 5 5 5 5 5 5 5 5 5 5 5 5 5 5 5 5 5 5 5 5 5 5 5 5 5 5 5 5 5 5 5 5 5 5 5 5 5 5 5 5 5 5 5 5 5 5 5 5 5 5 5 5 5 5 5 5 5 5 5 5 5 5 5 5 5 5 5 5 5 5 5 5 5 5 5 5 5 5 5 5 5 5 5 5 5 5 5 5 5 5 5 5 5 5 5 5 5 5 5 5 5 5 5 5 5 5 5 5 5 5 5 5 5 5 5 5 5 5 5 5 5 5 5 5 5 5 5 5 5 j Z 5 5 C l 5 V C 5 * 5 z Z l $ r ",
"5 5 5 5 5 5 5 5 5 5 5 5 5 5 5 5 5 5 5 5 5 5 5 5 5 5 5 5 5 5 5 5 5 5 5 5 5 5 5 5 5 5 5 5 5 5 5 5 5 5 5 5 5 5 5 5 5 5 5 5 5 5 5 5 5 5 5 5 5 5 5 5 5 5 5 5 5 5 5 5 5 5 5 5 5 5 5 5 5 5 5 5 5 5 5 5 5 5 5 5 5 5 5 5 5 5 5 5 5 5 5 5 5 5 5 5 5 5 5 5 5 5 5 5 5 5 5 5 5 5 5 5 5 5 5 5 5 5 5 5 5 5 5 5 5 5 5 5 5 5 5 5 5 5 5 5 5 5 5 5 5 5 5 5 5 5 5 5 5 5 5 5 5 5 5 5 5 5 5 5 5 5 5 5 5 5 5 5 5 5 5 5 5 5 5 5 5 5 5 5 5 5 5 5 5 5 5 5 5 5 5 5 5 5 5 5 5 5 5 5 5 5 5 5 5 5 5 5 5 5 5 5 5 5 5 5 5 5 5 5 & 5 5 * * 5 * & 5 5 5 * & 5 5 5 ",
"5 5 5 5 5 5 5 5 5 5 5 5 5 5 5 5 5 5 5 5 5 5 5 5 5 5 5 5 5 5 5 5 5 5 5 5 5 5 5 5 5 5 5 5 5 5 5 5 5 5 5 5 5 5 5 5 5 5 5 5 5 5 5 5 5 5 5 5 5 5 5 5 5 5 5 5 5 5 5 5 5 5 5 5 5 5 5 5 5 5 5 5 5 5 5 5 5 5 5 5 5 5 5 5 5 5 5 5 5 5 5 5 5 5 5 5 5 5 5 5 5 5 5 5 5 5 5 5 5 5 5 5 5 5 5 5 5 5 5 5 5 5 5 5 5 5 5 5 5 5 5 5 5 5 5 5 5 5 5 5 5 5 5 5 5 5 5 5 5 5 5 5 5 5 5 5 5 5 5 5 5 5 5 5 5 5 5 5 5 5 5 5 5 5 5 5 5 5 5 5 5 5 5 5 5 5 5 5 5 5 5 5 5 5 5 5 5 5 5 5 5 5 5 5 5 5 5 5 5 5 5 5 5 5 5 5 5 5 5 5 5 5 5 5 5 5 5 5 5 5 5 5 5 5 5 5 ",
"5 5 5 5 5 5 5 5 5 5 5 5 5 5 5 5 5 5 5 5 5 5 5 5 5 5 5 5 5 5 5 5 5 5 5 5 5 5 5 5 5 5 5 5 5 5 5 5 5 5 5 5 5 5 5 5 5 5 5 5 5 5 5 5 5 5 5 5 5 5 5 5 5 5 5 5 5 5 5 5 5 5 5 5 5 5 5 5 5 5 5 5 5 5 5 5 5 5 5 5 5 5 5 5 5 5 5 5 5 5 5 5 5 5 5 5 5 5 5 5 5 5 5 5 5 5 5 5 5 5 5 5 5 5 5 5 5 5 5 5 5 5 5 5 5 5 5 5 5 5 5 5 5 5 5 5 5 5 5 5 5 5 5 5 5 5 5 5 5 5 5 5 5 5 5 5 5 5 5 5 5 5 5 5 5 5 5 5 5 5 5 5 5 5 5 5 5 5 5 5 5 5 5 5 5 5 5 5 5 5 5 5 5 5 5 5 5 5 5 5 5 5 5 5 5 5 5 5 5 5 5 5 5 5 5 5 5 5 5 5 5 5 5 5 5 5 5 5 5 5 5 5 5 5 5 5 ",
"5 5 5 5 5 5 5 5 5 5 5 5 5 5 5 5 5 5 5 5 5 5 5 5 5 5 5 5 5 5 5 5 5 5 5 5 5 5 5 5 5 5 5 5 5 5 5 5 5 5 5 5 5 5 5 5 5 5 5 5 5 5 5 5 5 5 5 5 5 5 5 5 5 5 5 5 5 5 5 5 5 5 5 5 5 5 5 5 5 5 5 5 5 5 5 5 5 5 5 5 5 5 5 5 5 5 5 5 5 5 5 5 5 5 5 5 5 5 5 5 5 5 5 5 5 5 5 5 5 5 5 5 5 5 5 5 5 5 5 5 5 5 5 5 5 5 5 5 5 5 5 5 5 5 5 * 5 5 5 5 5 5 5 5 5 5 5 5 5 5 5 5 5 5 5 5 5 5 5 5 5 5 5 5 5 5 5 5 5 5 5 & & 5 5 5 5 5 5 5 5 5 5 5 * 5 5 5 5 5 5 5 5 5 5 5 5 5 5 5 5 5 5 5 5 5 5 5 5 5 5 5 5 5 5 5 5 5 5 5 5 5 5 5 5 5 5 5 5 5 5 5 5 5 5 5 ",
"5 5 5 5 5 5 5 5 5 5 5 5 5 5 5 5 5 5 5 5 5 5 5 5 5 5 5 5 5 5 5 5 5 5 5 5 5 5 5 5 5 5 5 5 5 5 5 5 5 5 5 5 5 5 5 5 5 5 5 5 5 5 5 5 5 5 5 5 5 5 5 5 5 5 5 5 5 5 5 5 5 5 5 5 5 5 5 5 5 5 5 5 5 5 5 5 5 5 5 5 5 5 5 5 5 5 5 5 5 5 5 5 5 5 5 5 5 5 5 5 5 5 5 5 5 5 5 5 5 5 5 5 5 5 5 5 5 5 5 5 5 5 5 5 5 5 5 5 5 5 5 5 5 5 5 y 5 5 5 5 5 5 5 5 5 5 5 5 5 5 5 5 5 5 5 5 5 5 5 5 5 5 5 5 5 5 5 5 5 5 j x.x.r * & l T.& * * 5 & * C 5 5 5 & & 5 * & 5 * * * * 5 5 * & l C * 5 5 5 5 5 5 5 5 5 5 5 5 5 5 5 5 5 5 5 5 5 5 5 5 5 5 5 5 5 5 5 ",
"5 5 5 5 5 5 5 5 5 5 5 5 5 5 5 5 5 5 5 5 5 5 5 5 5 5 5 5 5 5 5 5 5 5 5 5 5 5 5 5 5 5 5 5 5 5 5 5 5 5 5 5 5 5 5 5 5 5 5 5 5 5 5 5 5 5 5 5 5 5 5 5 5 5 5 5 5 5 5 5 5 5 5 5 5 5 5 5 5 5 5 5 5 5 5 5 5 5 5 5 5 5 5 5 5 5 5 5 5 5 5 5 5 5 5 5 5 5 5 5 5 5 5 5 5 5 5 5 5 5 5 5 5 5 5 5 5 5 5 5 5 5 5 5 5 5 5 5 5 5 5 5 5 * l.,.* 5 5 5 5 5 5 5 5 5 5 5 5 5 5 5 5 5 5 5 5 5 5 5 5 5 5 5 5 5 5 5 5 $ 4.Y.r 5 2.4.C Y.l Y.G j T.3.(.Y.& l Y.T.V G Y.C 3.4.l Y.3.l x.K 4.(.l 5 5 5 5 5 5 5 5 5 5 5 5 5 5 5 5 5 5 5 5 5 5 5 5 5 5 5 5 5 5 5 ",
"5 5 5 5 5 5 5 5 5 5 5 5 5 5 5 5 5 5 5 5 5 5 5 5 5 5 5 5 5 5 5 5 5 5 5 5 5 5 5 5 5 5 5 5 5 5 5 5 5 5 5 5 5 5 5 5 5 5 5 5 5 5 5 5 5 5 5 5 5 5 5 5 5 5 5 5 5 5 5 5 5 5 5 5 5 5 5 5 5 5 5 5 5 5 5 5 5 5 5 5 5 5 5 5 5 5 5 5 5 5 5 5 5 5 5 5 5 5 5 5 5 5 5 5 5 5 5 5 5 5 5 5 5 5 5 5 5 5 5 5 5 5 5 5 5 5 5 5 5 5 5 5 % h.l.= 5 5 5 5 5 5 5 5 5 5 5 5 5 5 5 5 5 5 5 5 5 5 5 5 5 5 5 5 5 5 5 5 5 * z R.K Z ^.R.R.4.R.T.^.R.K 5 E.V $ G R.C T.T.1.2.~.R.R.R.r Y.R.~.T.4.* 5 5 5 5 5 5 5 5 5 5 5 5 5 5 5 5 5 5 5 5 5 5 5 5 5 5 5 5 5 5 5 ",
"5 5 5 5 5 5 5 5 5 5 5 5 5 5 5 5 5 5 5 5 5 5 5 5 5 5 5 5 5 5 5 5 5 5 5 5 5 5 5 5 5 5 5 5 5 5 5 5 5 5 5 5 5 5 5 5 5 5 5 5 5 5 5 5 5 5 5 5 5 5 5 5 5 5 5 5 5 5 5 5 5 5 5 5 5 5 5 5 5 5 5 5 5 5 5 5 5 5 5 5 5 5 5 5 5 5 5 5 5 5 5 5 5 5 5 5 5 5 5 5 5 5 5 5 5 5 5 5 5 5 5 5 5 5 5 5 5 5 5 5 5 5 5 5 5 5 5 5 5 5 5 5 5 d l.d 5 5 5 5 5 5 5 5 5 5 5 5 5 5 5 5 5 5 5 5 5 5 5 5 5 5 5 5 5 5 5 5 5 5 5 & T.R.R.C G T.~.2.V R.l $ E.j $ Z Y.5 T.Y.l 4.T.C l Z T.R.x.z 2.4.$ 5 5 5 5 5 5 5 5 5 5 5 5 5 5 5 5 5 5 5 5 5 5 5 5 5 5 5 5 5 5 5 ",
"5 5 5 5 5 5 5 5 5 5 5 5 5 5 5 5 5 5 5 5 5 5 5 5 5 5 5 5 5 5 5 5 5 5 5 5 5 5 5 5 5 5 5 5 5 5 5 5 5 5 5 5 5 5 5 5 5 5 5 5 5 5 5 5 5 5 5 5 5 5 5 5 5 5 5 5 5 5 5 5 5 5 5 5 5 5 5 5 5 5 5 5 5 5 5 5 5 5 5 5 5 5 5 5 5 5 5 5 5 5 5 5 5 5 5 5 5 5 5 5 5 5 5 5 5 5 5 5 5 5 5 5 5 5 5 5 5 5 5 5 5 5 5 5 5 5 5 5 5 5 5 5 5 % d ,.5 5 5 5 5 5 5 5 5 5 5 5 5 5 5 5 5 5 5 5 5 5 5 5 5 5 5 5 5 5 5 5 5 * Z Y.Y.C Y.4.G 4.K E.K G ~.K x.Y.$ C /.R.K 4.C l E.3.G x.Y.G T.2.C R.V 5 5 5 5 5 5 5 5 5 5 5 5 5 5 5 5 5 5 5 5 5 5 5 5 5 5 5 5 5 5 5 ",
"5 5 5 5 5 5 5 5 5 5 5 5 5 5 5 5 5 5 5 5 5 5 5 5 5 5 5 5 5 5 5 5 5 5 5 5 5 5 5 5 5 5 5 5 5 5 5 5 5 5 5 5 5 5 5 5 5 5 5 5 5 5 5 5 5 5 5 5 5 5 5 5 5 5 5 5 5 5 5 5 5 5 5 5 5 5 5 5 5 5 5 5 5 5 5 5 5 5 5 5 5 5 5 5 5 5 5 5 5 5 5 5 5 5 5 5 5 5 5 5 5 5 5 5 5 5 5 5 5 5 5 5 5 5 5 5 5 5 5 5 5 5 5 5 5 5 5 5 5 5 5 5 5 5 * * 5 5 5 5 5 5 5 5 5 5 5 5 5 5 5 5 5 5 5 5 5 5 5 5 5 5 5 5 5 5 5 5 5 5 5 l 5 & 5 z 5 5 * l l * l j 5 l & Z Y.5 5 5 5 * r l 5 l 5 & j l 5 r r 5 5 5 5 5 5 5 5 5 5 5 5 5 5 5 5 5 5 5 5 5 5 5 5 5 5 5 5 5 5 5 ",
"5 5 5 5 5 5 5 5 5 5 5 5 5 5 5 5 5 5 5 5 5 5 5 5 5 5 5 5 5 5 5 5 5 5 5 5 5 5 5 5 5 5 5 5 5 5 5 5 5 5 5 5 5 5 5 5 5 5 5 5 5 5 5 5 5 5 5 5 5 5 5 5 5 5 5 5 5 5 5 5 5 5 5 5 5 5 5 5 5 5 5 5 5 5 5 5 5 5 5 5 5 5 5 5 5 5 5 5 5 5 5 5 5 5 5 5 5 5 5 5 5 5 5 5 5 5 5 5 5 5 5 5 5 5 5 5 5 5 5 5 5 5 5 5 5 5 5 5 5 5 5 5 5 5 5 5 5 5 5 5 5 5 5 5 5 5 5 5 5 5 5 5 5 5 5 5 5 5 5 5 5 5 5 5 5 5 5 5 5 5 5 * 5 5 5 * 5 5 5 5 5 5 5 5 5 5 * C 2.$ 5 5 5 5 5 * 5 * 5 5 5 5 5 5 5 5 5 5 5 5 5 5 5 5 5 5 5 5 5 5 5 5 5 5 5 5 5 5 5 5 5 5 5 5 5 5 ",
"5 5 5 5 5 5 5 5 5 5 5 5 5 5 5 5 5 5 5 5 5 5 5 5 5 5 5 5 5 5 5 5 5 5 5 5 5 5 5 5 5 5 5 5 5 5 5 5 5 5 5 5 5 5 5 5 5 5 5 5 5 5 5 5 5 5 5 5 5 5 5 5 5 5 5 5 5 5 5 5 5 5 5 5 5 5 5 5 5 5 5 5 5 5 5 5 5 5 5 5 5 5 5 5 5 5 5 5 5 5 5 5 5 5 5 5 5 5 5 5 5 5 5 5 5 5 5 5 5 5 5 5 5 5 5 5 5 5 5 5 5 5 5 5 5 5 5 5 5 5 5 5 5 5 5 5 5 5 5 5 5 5 5 5 5 5 5 5 5 5 5 5 5 5 5 5 5 5 5 5 5 5 5 5 5 5 5 5 5 5 5 5 5 5 5 5 5 5 5 5 5 5 5 5 5 5 5 5 5 5 5 5 5 5 5 5 5 5 5 5 5 5 5 5 5 5 5 5 5 5 5 5 5 5 5 5 5 5 5 5 5 5 5 5 5 5 5 5 5 5 5 5 5 5 5 5 ",
"* * * * * * * * * * * * * * * * * * * * * * * * * * * * * * * * * * * * * * * * * * * * * * * * * * * * * * * * * * * * * * * * * * * * * * * * * * * * * * * * * * * * * * * * * * * * * * * * * * * * * * * * * * * * * * * * * * * * * * * * * * * * * * * * * * * * * * * * * * * * * * * * * * * * * * * * * * * * * * * * * * * * * * * * * * * * * * * * * * * * * * * * * * * * * * * * * * * * * * * * * * * * * * * * * * * * * * * * * * * * * * * * * * * * * * * * * * * * * * * * * * * * * * * * * * * * * * * * ",
"G G G G G G G G G G G G G G G G G G G G G G G G G G G G G G G G G G G G G G G G G G G G G G G G G G G G G G G G G G G G G G G G G G G G G G G G G G G G G G G G G G G G G G G G G G G G G G G G G G G G G G G G G G G G G G G G G G G G G G G G G G G G G G G G G G G G G G G G G G G G G G G G G G G G G G G G G G G G G G G G G G G G G G G G G G G G G G G G G G G G G G G G G G G G G G G G G G G G G G G G G G G G G G G G G G G G G G G G G G G G G G G G G G G G G G G G G G G G G G G G G G G G G G G G G G G G G G G G ",
"C C C C C C C C C C C C C C C C C C C C C C C C C C C C C C C C C C C C C C C C C C C C C C C C C C C C C C C C C C C C C C C C C C C C C C C C C C C C C C C C C C C C C C C C C C C C C C C C C C C C C C C C C C C C C C C C C C C C C C C C C C C C C C C C C C C C C C C C C C C C C C C C C C C C C C C C C C C C C C C C C C C C C C C C C C C C C C C C C C C C C C C C C C C C C C C C C C C C C C C C C C C C C C C C C C C C C C C C C C C C C C C C C C C C C C C C C C C C C C C C C C C C C C C C C C C C C C C C ",
"* * * * * * * * * * * * * * * * * * * * * * * * * * * * * * * * * * * * * * * * * * * * * * * * * * * * * * * * * * * * * * * * * * * * * * * * * * * * * * * * * * * * * * * * * * * * * * * * * * * * * * * * * * * * * * * * * * * * * * * * * * * * * * * * * * * * * * * * * * * * * * * * * * * * * * * * * * * * * * * * * * * * * * * * * * * * * * * * * * * * * * * * * * * * * * * * * * * * * * * * * * * * * * * * * * * * * * * * * * * * * * * * * * * * * * * * * * * * * * * * * * * * * * * * * * * * * * * * ",
"5 5 5 5 5 5 5 5 5 5 5 5 5 5 5 5 5 5 5 5 5 5 5 5 5 5 5 5 5 5 5 5 5 5 5 5 5 5 5 5 5 5 5 5 5 5 5 5 5 5 5 5 5 5 5 5 5 5 5 5 5 5 5 5 5 5 5 5 5 5 5 5 5 5 5 5 5 5 5 5 5 5 5 5 5 5 5 5 5 5 5 5 5 5 5 5 5 5 5 5 5 5 5 5 5 5 5 5 5 5 5 5 5 5 5 5 5 5 5 5 5 5 5 5 5 5 5 5 5 5 5 5 5 5 5 5 5 5 5 5 5 5 5 5 5 5 5 5 5 5 5 5 5 5 5 5 5 5 5 5 5 5 5 5 5 5 5 5 5 5 5 5 5 5 5 5 5 5 5 5 5 5 5 5 5 5 5 5 5 5 5 5 5 5 5 5 5 5 5 5 5 5 5 5 5 5 5 5 5 5 5 5 5 5 5 5 5 5 5 5 5 5 5 5 5 5 5 5 5 5 5 5 5 5 5 5 5 5 5 5 5 5 5 5 5 5 5 5 5 5 5 5 5 5 5 5 ",
"5 5 5 5 5 5 5 5 5 5 5 5 5 5 5 5 5 5 5 5 5 5 5 5 5 5 5 5 5 5 5 5 5 5 5 5 5 5 5 5 5 5 5 5 5 5 5 5 5 5 5 5 5 5 5 5 5 5 5 5 5 5 5 5 5 5 5 5 5 5 5 5 5 5 5 5 5 5 5 5 5 5 5 5 5 5 5 5 5 5 5 5 5 5 5 5 5 5 5 5 5 5 5 5 5 5 5 5 5 5 5 5 5 5 5 5 5 5 5 5 5 5 5 5 5 5 5 5 5 5 5 5 5 5 5 5 5 5 l l 5 l z 5 5 5 5 5 5 5 5 5 5 5 5 5 5 5 5 5 5 5 5 5 5 5 5 5 5 & 5 5 & * 5 & 5 5 5 5 5 5 5 & * & & * 5 5 * * 5 5 5 5 5 5 5 5 5 5 5 5 5 5 5 5 5 5 5 5 5 5 5 5 5 5 5 5 5 5 5 5 5 5 5 5 5 5 5 5 5 5 5 5 5 5 5 5 5 5 5 5 5 5 5 5 5 5 5 5 5 5 5 5 ",
"5 5 5 5 5 5 5 5 5 5 5 5 5 5 5 5 5 5 5 5 5 5 5 5 5 5 5 5 5 5 5 5 5 5 5 5 5 5 5 5 5 5 5 5 5 5 5 5 5 5 5 5 5 5 5 5 5 5 5 5 5 5 5 5 5 5 5 5 5 5 5 5 5 5 5 5 5 5 5 5 5 5 5 5 5 5 5 5 5 5 5 5 5 5 5 5 5 5 5 5 5 5 5 5 5 5 5 5 5 5 5 5 5 5 5 5 5 5 5 5 5 5 5 5 5 5 5 5 5 5 5 5 5 5 5 5 * V T.Y._.Y.Y.1.$ 5 5 5 5 5 5 5 5 5 & * 5 5 5 5 l 5 5 5 5 5 5 5 r Z j 5 Z V j Z j 5 j 5 j 5 l C V C C V l * C z * l 5 5 r 5 5 5 5 5 5 5 5 5 5 5 5 5 5 5 5 5 5 5 5 5 5 5 5 5 5 5 5 5 5 5 5 5 5 5 5 5 5 5 5 5 5 5 5 5 5 5 5 5 5 5 5 5 5 5 5 5 5 5 ",
"5 5 5 5 5 5 5 5 5 5 5 5 5 5 5 5 5 5 5 5 5 5 5 5 5 5 5 5 5 5 5 5 5 5 5 5 5 5 5 5 5 5 5 5 5 5 5 5 5 5 5 5 5 5 5 5 5 5 5 5 5 5 5 5 5 5 5 5 5 5 5 5 5 5 5 5 5 5 5 5 5 5 5 5 5 5 5 5 5 5 5 5 5 5 5 5 5 5 5 5 5 5 5 5 5 5 5 5 5 5 5 5 5 5 5 5 5 5 5 5 5 5 5 5 5 5 5 5 5 5 5 5 5 5 5 5 * V T.).R.).2.1.& 5 5 5 5 5 5 5 5 5 3.Y.C 5 5 5 l & 5 * 5 5 5 $ 3.Y.x.2.T.l Y.Y.Y.Z Y.$ x.G T.2.K ~.4.Y.2.1.Y.Y.V R.4.z 3.& 5 5 5 5 5 5 5 5 5 5 5 5 5 5 5 5 5 5 5 5 5 5 5 5 5 5 5 5 5 5 5 5 5 5 5 5 5 5 5 5 5 5 5 5 5 5 5 5 5 5 5 5 5 5 5 5 5 5 ",
"5 5 5 5 5 5 5 5 5 5 5 5 5 5 5 5 5 5 5 5 5 5 5 5 5 5 5 5 5 5 5 5 5 5 5 5 5 5 5 5 5 5 5 5 5 5 5 5 5 5 5 5 5 5 5 5 5 5 5 5 5 5 5 5 5 5 5 5 5 5 5 5 5 5 5 5 5 5 5 5 5 5 5 5 5 5 5 5 5 5 5 5 5 5 5 5 5 5 5 5 5 5 5 5 5 5 5 5 5 5 5 5 5 5 5 5 5 5 5 5 5 5 5 5 5 5 5 5 5 5 5 5 5 5 5 5 5 l dX1.. 4.).Z & 5 5 5 5 5 5 5 & 1.x.r 5 C Y.G G 2.T.1.* 5 5 $ 3.Y.4.1.T.l x.5 C T.4.& 4.T.C $ $ 3.l G K Y.& z Y.3.R.1.1.& 5 5 5 5 5 5 5 5 5 5 5 5 5 5 5 5 5 5 5 5 5 5 5 5 5 5 5 5 5 5 5 5 5 5 5 5 5 5 5 5 5 5 5 5 5 5 5 5 5 5 5 5 5 5 5 5 5 5 ",
"5 5 5 5 5 5 5 5 5 5 5 5 5 5 5 5 5 5 5 5 5 5 5 5 5 5 5 5 5 5 5 5 5 5 5 5 5 5 5 5 5 5 5 5 5 5 5 5 5 5 5 5 5 5 5 5 5 5 5 5 5 5 5 5 5 5 5 5 5 5 5 5 5 5 5 5 5 5 5 5 5 5 5 5 5 5 5 5 5 5 5 5 5 5 5 5 5 5 5 5 5 5 5 5 5 5 5 5 5 5 5 5 5 5 5 5 5 5 5 5 5 5 5 5 5 5 5 5 5 5 5 5 5 5 5 5 * l ).^.r (.).Z & 5 5 5 5 5 5 5 $ x.z K x.z T.T.3.Y.V Y.5 5 5 $ 3.R.4.Z Y.5 Y.r G Y.x.$ x.T.G $ * x.V K K Y.5 C x.2.G /.1.& 5 5 5 5 5 5 5 5 5 5 5 5 5 5 5 5 5 5 5 5 5 5 5 5 5 5 5 5 5 5 5 5 5 5 5 5 5 5 5 5 5 5 5 5 5 5 5 5 5 5 5 5 5 5 5 5 5 5 ",
"5 5 5 5 5 5 5 5 5 5 5 5 5 5 5 5 5 5 5 5 5 5 5 5 5 5 5 5 5 5 5 5 5 5 5 5 5 5 5 5 5 5 5 5 5 5 5 5 5 5 5 5 5 5 5 5 5 5 5 5 5 5 5 5 5 5 5 5 5 5 5 5 5 5 5 5 5 5 5 5 5 5 5 5 5 5 5 5 5 5 5 5 5 5 5 5 5 5 5 5 5 5 5 5 5 5 5 5 5 5 5 5 5 5 5 5 5 5 5 5 5 5 5 5 5 5 5 5 5 5 5 5 5 5 5 5 & C 3.R._.dXUXx.$ 5 5 5 5 5 5 5 & G Y.C R.T.T.T.3.x.l T.5 5 5 $ 2.V 2.4.E.C x.T.Y.j 3.Y.3.l E.4.5 3.z 4.3.Z Y.Y.l 4.5 T.4.$ 5 5 5 5 5 5 5 5 5 5 5 5 5 5 5 5 5 5 5 5 5 5 5 5 5 5 5 5 5 5 5 5 5 5 5 5 5 5 5 5 5 5 5 5 5 5 5 5 5 5 5 5 5 5 5 5 5 5 ",
"5 5 5 5 5 5 5 5 5 5 5 5 5 5 5 5 5 5 5 5 5 5 5 5 5 5 5 5 5 5 5 5 5 5 5 5 5 5 5 5 5 5 5 5 5 5 5 5 5 5 5 5 5 5 5 5 5 5 5 5 5 5 5 5 5 5 5 5 5 5 5 5 5 5 5 5 5 5 5 5 5 5 5 5 5 5 5 5 5 5 5 5 5 5 5 5 5 5 5 5 5 5 5 5 5 5 5 5 5 5 5 5 5 5 5 5 5 5 5 5 5 5 5 5 5 5 5 5 5 5 5 5 5 5 5 5 5 l T.1.3.4._.1.$ 5 5 5 5 5 5 5 5 5 G 4.C Z 1.C V C 5 C 5 5 5 5 5 5 5 5 l l 5 z 5 5 5 l 5 * 5 l 5 5 5 j j * l j 5 5 5 5 5 5 5 5 5 5 5 5 5 5 5 5 5 5 5 5 5 5 5 5 5 5 5 5 5 5 5 5 5 5 5 5 5 5 5 5 5 5 5 5 5 5 5 5 5 5 5 5 5 5 5 5 5 5 5 5 5 5 5 5 ",
"* * * * * * * * * * * * * * * * * * * * * * * * * * * * * * * * * * * * * * * * * * * * * * * * * * * * * * * * * * * * * * * * * * * * * * * * * * * * * * * * * * * * * * * * * * * * * * * * * * * * * * * * * * * * * * * * * * * * * * * * * * * * * * 5 5 5 5 5 5 5 5 5 5 5 5 5 5 5 5 $ * 5 5 5 5 5 5 5 5 5 5 & $ * * & * * * 5 * 5 5 5 5 5 5 5 * & & * $ * * * & * * & $ * * * & & 5 & & * * * * * * * * * * * * * * * * * * * * * * * * * * * * * * * * * * * * * * * * * * * * * * * * * * * * * * * * * * * * * * * * ",
"V V V V V V V V V V V V V V V V V V V V V V V V V V V V V V V V V V V V V C V V V V V V V V V V V V V V V V V V V V V V V V V V V V V V V V V V V V V V V V V V V V V V V V V V V V V V V V V V V V V V V V V V V V V V V V V V V V V V V V V V V V V V V V l 5 5 5 5 5 5 5 5 5 5 5 5 l C V 5 5 5 5 5 5 5 5 5 5 5 5 5 5 5 5 5 5 5 5 5 5 5 5 5 5 5 5 5 z C V V C V V V C V V C C V V V C V V C C V V V V V V V V V V V V V V V V V V V V V V V V V V V V V V V V V V C C V V V V V V V V V V V V V V V V V V V V V V V V V V V V ",
"K K K K K G K K K K K G K K K K G K K K G K K G G K G G K K K G G G G G G K K K K K K K K K K K G G K K K K K K K K K K K G G K K K K K K K G G K K K K K G K K K K K G K K K G G K K K G K K G G K K G K K K K K K K K K K K K K K K K K K K K G G K K K K 1.K 5 5 5 5 5 5 5 5 5 5 C 1.G K G 5 5 5 5 5 5 5 5 5 5 5 5 5 5 5 5 5 5 5 5 5 5 5 5 5 5 l 1.K G K K K K K K K K K K K G K K K K K K K K K K K K K G G K K K K K K K K K K K K K G K K K K K K K K K K K K G G K K K K K K K K K K K K K K G K K K K K K K K K K K K K ",
"* * * * * 5 * * * * * 5 * * * * 5 * * * 5 * * * * * * 5 * * * * * * * * 5 4 4 4 * * * * * * * * * * * * * * * * * * * * * * * * * * * * * * * * * * * * * 5 * * * * * 5 * * * * * * * * 5 * * * 5 * * 5 * * * * * * * * * * * * * * * * * * * * * 4 * * 4 4 e 1.G 5 5 5 5 5 5 5 5 * K z $ 5 1.5 5 5 5 5 5 5 5 5 5 5 5 5 5 5 5 5 5 5 5 5 5 5 5 5 l 2.l * * * * * * * * * * * * * 5 * * * * * * * * * * * * * * 5 * * * * * * * * * * * * * 5 * * * * * * * * * * * & 0 5 * * * * * * * * * * * * * * 5 * * * * * * * * * * * * & ",
"5 5 5 5 5 V 5 5 5 5 5 V 5 5 5 5 V 5 5 5 V 5 5 l l * l V 5 5 5 8 8 8 k 9 C k.t t t y y 5 5 5 5 4 b k 5 5 5 5 5 5 5 5 5 5 5 N l 5 5 5 5 5 5 5 l l 5 5 5 5 e H 5 5 5 5 5 V 5 5 5 l l 5 5 5 V 5 5 j z 5 5 C 5 5 5 5 5 5 5 5 5 5 5 5 5 5 5 5 5 5 5 5 l l e y t y :.:.K l 5 5 5 5 5 5 5 * K V * r 1.5 5 5 5 5 5 5 5 5 4 < &X&X&X&X&X&X&X&X&X@.6 5 5 * G C & 5 5 5 5 5 5 5 5 5 5 5 5 5 V 5 5 5 5 5 5 5 5 5 5 5 5 5 l z 5 5 5 5 5 5 5 5 5 5 5 5 5 V 5 5 5 5 5 5 5 5 5 5 5 + lXi.: 5 5 5 5 5 5 5 5 5 5 5 5 5 V 5 5 5 5 5 5 5 5 5 5 5 5 $ ",
"5 5 5 5 5 V 5 5 5 5 5 V 5 5 5 5 V 5 5 5 V 5 5 l l * l V * 5 5 5 8 8 k 9 C k.t t t y e 5 5 5 5 4 b k 4 5 5 5 5 5 5 5 5 5 5 N j 5 5 5 5 5 5 5 l l 5 5 5 5 5 H 5 5 5 5 5 V 5 5 5 l l 5 5 5 V 5 5 r z * 5 C 5 5 5 5 5 5 5 5 5 5 5 5 5 5 5 5 5 5 5 5 l l e y t y f.:.S C * 5 5 5 5 5 5 * K z & 5 1.5 5 5 5 5 5 5 5 5 4 x ;.;.;.;.;.;.;.;.;.B 4 5 5 5 1.j 5 5 5 5 5 5 5 5 5 5 5 5 5 5 V 5 5 5 5 5 5 5 5 5 5 5 5 5 l z * 5 5 5 5 5 5 5 5 5 5 5 5 V 5 5 5 5 5 5 5 5 5 5 5 + lXp.e 5 * 5 5 5 5 5 5 * 5 * 5 5 z 5 5 5 * 5 5 5 5 5 5 5 5 $ ",
"5 5 5 5 5 V 5 5 5 5 5 V 5 5 5 5 z 5 5 5 V 5 5 l l * j V * 5 5 5 8 8 9 9 C k.t t t y e 5 5 5 5 4 b k 4 5 5 5 5 5 5 5 5 5 5 N j 5 5 5 5 5 5 5 l l 5 5 5 5 5 H 5 5 5 5 5 V 5 5 5 l l 5 5 5 V 5 5 r z * 5 C 5 5 5 5 5 5 5 5 5 5 5 5 5 5 5 5 5 5 5 5 l l e y t y f.:.S C * 5 5 5 5 5 5 * K C * j 1.5 5 5 5 5 5 5 5 5 * <.gXgXgXgXgXgXgXgXgX7.= 5 5 5 1.r 5 5 5 5 5 5 5 5 5 5 5 5 5 5 V 5 5 5 5 5 5 5 5 5 5 5 5 5 l z * 5 5 5 5 5 5 5 5 5 5 5 5 V 5 5 5 5 5 5 5 5 5 5 5 + lXjXs.r.9.* 5 0 5 5 * 0 F 9.& 5 C 5 e.* e.F & 5 5 5 5 5 5 $ ",
"5 5 5 5 5 V 5 5 5 5 5 V 5 5 5 5 V 5 5 5 V 5 5 l l * j V * 5 5 5 8 8 9 9 C k.t t t y e 5 5 5 5 4 b k 4 5 5 5 5 5 5 5 5 5 5 N j 5 5 5 5 5 5 5 l l 5 5 5 5 5 H 5 5 5 5 5 V 5 5 5 l l 5 5 5 V 5 5 r z * 5 C 5 5 5 5 5 5 5 5 5 5 5 5 5 5 5 5 5 5 5 5 l l e y t y f.:.S C * 5 5 5 5 5 5 * G 3.1.2.2.5 5 5 5 5 5 5 5 5 * <.sXsXsXsXsXsXsXsXsX7.= 5 5 5 1.r 5 5 5 5 5 5 5 5 5 5 5 5 5 5 V 5 5 5 5 5 5 5 5 5 5 5 5 5 l z * 5 5 5 5 5 5 5 5 5 5 5 5 V 5 5 5 5 5 5 5 5 5 5 5 + lXp.r.F iXr.r.u.r.s.s.r.8.iXr.8.s.9.u.u.iXF & 5 5 5 5 5 5 $ ",
"5 5 5 5 5 V 5 5 5 5 5 V 5 5 5 5 V 5 5 5 V 5 5 l l * j V * 5 5 5 8 8 9 9 C k.t t t y e 5 5 5 5 4 b k 4 5 5 5 5 5 5 5 5 5 5 N j 5 5 5 5 5 5 5 l l 5 5 5 5 5 H 5 5 5 5 5 V 5 5 5 l l 5 5 5 V 5 5 r z * 5 C 5 5 5 5 5 5 5 5 5 5 5 5 5 5 5 5 5 5 5 5 l l e y t y f.:.S C * 5 5 5 5 5 5 * K V 5 j 1.5 5 5 5 5 5 5 5 5 * <.hXhXhXhXhXhXhXhXgX7.= 5 5 5 1.r 5 5 5 5 5 5 5 5 5 5 5 5 5 5 V 5 5 5 5 5 5 5 5 5 5 5 5 5 l z * 5 5 5 5 5 5 5 5 5 5 5 5 V 5 5 5 5 5 5 5 5 5 5 5 + lXs.r.8.e.r.u.F s.r.9.r.e.9.r.s.9.u.s.r.e.8.& 5 5 5 5 5 5 $ ",
"5 5 5 5 5 V 5 5 5 5 5 V 5 5 5 5 V 5 5 5 V 5 5 l l * j V * 5 5 5 8 8 9 9 C k.t t t y e 5 5 5 5 4 b k 4 5 5 5 5 5 5 5 5 5 5 N j 5 5 5 5 5 5 5 l l 5 5 5 5 5 H 5 5 5 5 5 V 5 5 5 l l 5 5 5 V 5 5 r z * 5 C 5 5 5 5 5 5 5 5 5 5 5 5 5 5 5 5 5 5 5 5 l l e y t y f.:.S C * 5 5 5 5 5 5 * K z & 5 1.5 5 5 5 5 5 5 5 5 * <.sXsXsXsXsXsXsXsXsX7.= 5 5 5 1.r 5 5 5 5 5 5 5 5 5 5 5 5 5 5 V 5 5 5 5 5 5 5 5 5 5 5 5 5 l z * 5 5 5 5 5 5 5 5 5 5 5 5 V 5 5 5 5 5 5 5 5 5 5 5 + lXp.9.F 8.9.e.0 9.r.8.s.9.8.9.8.s.8.9.u.s.A & 5 5 5 5 5 5 $ ",
"5 5 5 5 5 V 5 5 5 5 5 V 5 5 5 5 V 5 5 5 V 5 5 l l * j V * 5 5 5 8 8 9 9 C k.t t t y e 5 5 5 5 4 b k 4 5 5 5 5 5 5 5 5 5 5 N j 5 5 5 5 5 5 5 l l 5 5 5 5 5 H 5 5 5 5 5 V 5 5 5 l l 5 5 5 V 5 5 r z * 5 C 5 5 5 5 5 5 5 5 5 5 5 5 5 5 5 5 5 5 5 5 l l e y t y f.:.S C * 5 5 5 5 5 5 * K V * r 1.5 5 5 5 5 5 5 5 5 * <.hXgXhXhXhXhXhXhXgX7.= 5 5 5 1.r 5 5 5 5 5 5 5 5 5 5 5 5 5 5 V 5 5 5 5 5 5 5 5 5 5 5 5 5 l z * 5 5 5 5 5 5 5 5 5 5 5 5 V 5 5 5 5 5 5 5 5 5 5 5 + lXi.: 5 5 5 5 5 * 0 5 5 * 5 * 5 V & * 5 5 5 5 5 5 5 5 5 5 $ ",
"5 5 5 5 5 V 5 5 5 5 5 V 5 5 5 5 V 5 5 5 V 5 5 l l * j V * 5 5 5 8 8 9 9 C k.t t t y e 5 5 5 5 4 b k 4 5 5 5 5 5 5 5 5 5 5 N j 5 5 5 5 5 5 5 l l 5 5 5 5 5 H 5 5 5 5 5 V 5 5 5 l l 5 5 5 V 5 5 r z * 5 C 5 5 5 5 5 5 5 5 5 5 5 5 5 5 5 5 5 5 5 5 l l e y t y f.:.S C * 5 5 5 5 5 5 * K V * r 1.5 5 5 5 5 5 5 5 5 5 5 <.s <.<.<.<.<.s <.p 5 5 5 5 1.r 5 5 5 5 5 5 5 5 5 5 5 5 5 5 V 5 5 5 5 5 5 5 5 5 5 5 5 5 l z * 5 5 5 5 5 5 5 5 5 5 5 5 V 5 5 5 5 5 5 5 5 5 5 5 + lXi.: 5 5 5 5 5 5 5 5 5 5 5 5 5 z 5 5 5 5 5 5 5 5 5 5 5 5 $ ",
"5 5 5 5 5 V 5 5 5 5 5 V 5 5 5 5 V 5 5 5 V 5 5 l l * j V * 5 5 5 8 8 9 9 C k.t t t y e 5 5 5 5 4 b k 4 5 5 5 5 5 5 5 5 5 5 N j 5 5 5 5 5 5 5 l l 5 5 5 5 5 H 5 5 5 5 5 V 5 5 5 l l 5 5 5 V 5 5 r z * 5 C 5 5 5 5 5 5 5 5 5 5 5 5 5 5 5 5 5 5 5 5 l l e y t y f.:.S C * 5 5 5 5 5 5 * K V * r 1.5 5 5 5 5 5 5 5 5 5 5 p p p p p p p p p 5 5 5 5 5 1.r 5 5 5 5 5 5 5 5 5 5 5 5 5 5 V 5 5 5 5 5 5 5 5 5 5 5 5 5 l z * 5 5 5 5 5 5 5 5 5 5 5 5 V 5 5 5 5 5 5 5 5 5 5 5 + lXi.: 5 5 5 5 5 5 5 5 5 5 5 5 5 z 5 5 5 5 5 5 5 5 5 5 5 5 $ ",
"5 5 5 5 5 V 5 5 5 5 5 V 5 5 5 5 V 5 5 5 V 5 5 l l * j V * 5 5 5 8 8 9 9 C k.t t t y e 5 5 5 5 4 b k 4 5 5 5 5 5 5 5 5 5 5 N j 5 5 5 5 5 5 5 l l 5 5 5 5 5 H 5 5 5 5 5 V 5 5 5 l l 5 5 5 V 5 5 r z * 5 C 5 5 5 5 5 5 5 5 5 5 5 5 5 5 5 5 5 5 5 5 l l e y t y f.:.S C * 5 5 5 5 5 5 * K V * r 1.5 5 5 5 5 5 5 5 5 5 5 a a a a a a a a a y 5 5 5 5 1.r 5 5 5 5 5 5 5 5 5 5 5 5 5 5 V 5 5 5 5 5 5 5 5 5 5 5 5 5 l z * 5 5 5 5 5 5 5 5 5 5 5 5 V 5 5 5 5 5 5 5 5 5 5 5 + lXi.: 5 5 5 5 5 5 5 5 5 5 5 5 5 z 5 5 5 5 5 5 5 5 5 5 5 5 $ ",
"5 5 5 5 5 V 5 5 5 5 5 V 5 5 5 5 V 5 5 5 V 5 5 l l * j V * 5 5 5 8 8 9 9 C k.t t t y e 5 5 5 5 4 b k 4 5 5 5 5 5 5 5 5 5 5 N j 5 5 5 5 5 5 5 l l 5 5 5 5 5 H 5 5 5 5 5 V 5 5 5 l l 5 5 5 V 5 5 r z * 5 C 5 5 5 5 5 5 5 5 5 5 5 5 5 5 5 5 5 5 5 5 l l e y t y f.:.S C * 5 5 5 5 5 5 * K V * r 1.5 5 5 5 5 5 5 5 5 5 5 p p p p p p p p p y 5 5 5 5 1.r 5 5 5 5 5 5 5 5 5 5 5 5 5 5 V 5 5 5 5 5 5 5 5 5 5 5 5 5 l z * 5 5 5 5 5 5 5 5 5 5 5 5 V 5 5 5 5 5 5 5 5 5 5 5 + lXi.: 5 5 5 5 5 5 5 5 5 5 5 5 5 z 5 5 5 5 5 5 5 5 5 5 5 5 $ ",
"5 5 5 5 5 V 5 5 5 5 5 V 5 5 5 5 V 5 5 5 V 5 5 l l * j V * 5 5 5 8 8 9 9 C k.t t t y e 5 5 5 5 4 b k 4 5 5 5 5 5 5 5 5 5 5 N j 5 5 5 5 5 5 5 l l 5 5 5 5 5 H 5 5 5 5 5 V 5 5 5 l l 5 5 5 V 5 5 r z * 5 C 5 5 5 5 5 5 5 5 5 5 5 5 5 5 5 5 5 5 5 5 l l e y t y f.:.S C * 5 5 5 5 5 5 * K V * r 1.5 5 5 5 5 5 5 5 5 5 5 a s a a a a a a s y 5 5 5 5 1.r 5 5 5 5 5 5 5 5 5 5 5 5 5 5 V 5 5 5 5 5 5 5 5 5 5 5 5 5 l z * 5 5 5 5 5 5 5 5 5 5 5 5 V 5 5 5 5 5 5 5 5 5 5 5 + lXi.: 5 5 5 5 5 5 5 5 5 5 5 5 5 z 5 5 5 5 5 5 5 5 5 5 5 5 $ ",
"5 5 5 5 5 V 5 5 5 5 5 V 5 5 5 5 V 5 5 5 V 5 5 l l * l V 5 5 5 5 8 8 k 9 C k.t t t y e 5 5 5 5 4 b k 4 5 5 5 5 5 5 5 5 5 5 N l 5 5 5 5 5 5 5 l l 5 5 5 5 5 H 5 5 5 5 5 V 5 5 5 l l 5 5 5 V 5 5 r z 5 5 C 5 5 5 5 5 5 5 5 5 5 5 5 5 5 5 5 5 5 5 5 l l e y t y f.:.S C * 5 5 5 5 5 5 * K V * r 1.5 5 5 5 5 5 5 5 5 5 5 p p p p p p p p p y 5 5 5 5 1.r 5 5 5 5 5 5 5 5 5 5 5 5 5 5 V 5 5 5 5 5 5 5 5 5 5 5 5 5 l z 5 5 5 5 5 5 5 5 5 5 5 5 5 V 5 5 5 5 5 5 5 5 5 5 5 + lXi.: 5 5 5 5 5 5 5 5 5 5 5 5 5 V 5 5 5 5 5 5 5 5 5 5 5 5 $ ",
"* 5 5 5 5 z 5 5 5 5 5 z * 5 5 5 z * 5 5 z 5 * j l & j V & 5 5 5 8 8 8 9 V k.t t t e 5 5 5 5 5 & b 8 * 5 5 5 5 5 5 5 5 5 * B j * 5 5 5 5 5 * l j * 5 5 5 4 H 5 5 5 5 5 z 5 5 * j l * 5 * z 5 * 5 l & 5 C * 5 5 5 5 5 5 5 5 5 5 5 5 5 5 5 5 5 5 * l l 4 y t e :.:.S C * 5 5 5 5 5 5 * K V * r 1.5 5 5 5 5 5 5 5 5 5 5 a s s s s s s s s y 5 5 5 5 1.r 5 5 5 5 5 5 5 5 5 5 5 5 5 * z 5 5 5 5 5 5 5 5 5 5 5 5 & l l & 5 5 5 5 5 5 5 5 5 5 5 5 z 5 5 5 5 5 5 5 5 5 5 5 + lXi.: 5 5 5 5 5 5 5 5 5 5 5 5 5 z * 5 5 5 5 5 5 5 5 5 5 5 # ",
"j l l l l C l l l l l C j l l l C j l l C l j V V r z Z j l l l x x x b Z k.d d d d y l l l l r D x r l l l l l l l l x 2 @.2 < j l l l l j V z j l l l y H l l l l l C l l j z V j l j C l j l C j l Z j l l l l l l l l l l l l l l l l l l j V C y d d d h.:.S C * 5 5 5 5 5 5 * K V * r 1.5 5 5 5 5 5 5 5 5 5 5 p p p p p p p p p y 5 5 5 5 1.r 5 l l l l l l l l l l l l j C l l l l l l l l l l l l j C C j l l l l l l l l l l l l C l l l l l l l l l l l : lXp.r l l l l l l l l l l l l l C j l l l l l l l l l l l 5 ",
"l l l l l C l l l l l C l l l l C l l l C l l V C j V Z l l l l x x b b G k.d d d d V l l l l y D x y l l l l l l l x 2 3 3 3 2 N l l l l l C V l l l l y H l l l l l C l l l V C l l l C l l z C l l G l l l l l l l l l l l l l l l l l l l l V C p d d d h.:.S C * 5 5 5 5 5 5 * K V * r 1.5 5 5 5 5 5 5 5 5 5 5 a a a a a a a a s y 5 5 5 5 1.r r l l l l l l l l l l l l l C l l l l l l l l l l l l l C C l l l l l l l l l l l l l C l l l l l l l l l l l : lXp.y l l l l l l l l l l l l l C l l l l l l l l l l l l 5 ",
"* * * * * z * * * * 5 z * * * 5 z * * 5 z * * j l & j V * * * 8 8 8 k 9 V k.t u y e r 5 * * * & M k * * * * * * * * < 3 3 O.3 3 3 * * * * * l j * * * * e H 5 * * * * z * * * j l * * * z 5 * j z * r C * * * * * * * * * * * * * * * * * * * * l l e y u y f.:.S C * 5 5 5 5 5 5 * K V * r 1.5 5 5 5 5 5 5 5 5 5 5 p p p p p p p p p y 5 5 5 5 1.r 5 5 5 5 5 5 5 5 5 5 5 5 5 * z 5 5 5 5 5 5 5 5 5 5 5 5 & l l & 5 5 5 5 5 5 5 5 5 5 5 5 z 5 5 5 5 5 5 5 5 5 5 5 + lXi.: 5 5 5 5 5 5 5 5 5 5 5 * 5 z * 5 5 5 5 5 5 5 5 5 5 5 # ",
"1 < < < 1 N < < < 1 < N 1 < 1 < N 1 < < N 1 1 N N 1 v B 1 < < < < v v v B z.N N N N x < < < < 1 B v 1 < < < < < < < 2 2 3 O.#.3 2 < 1 < < 1 N v 1 < < < < H < 1 < < 1 N < < 1 v N 1 < 1 N < 1 < N 1 < B 1 < < < < < < < < < < < < < < < < < < 1 N N j N N N h.:.S C * 5 5 5 5 5 5 * K V * r 1.5 5 5 5 5 5 5 5 5 5 5 p a a a a a a a a y 5 5 5 5 1.r 5 5 5 5 5 5 5 5 5 5 5 5 5 5 V 5 5 5 5 5 5 5 5 5 5 5 5 5 l z 5 5 5 5 5 5 5 5 5 5 5 5 5 V 5 5 5 5 5 5 5 5 5 5 5 + lXi.: 5 5 5 5 5 5 5 5 5 5 5 5 5 V 5 5 5 5 5 5 5 5 5 5 5 5 $ ",
"4 5 5 5 5 A 5 5 5 5 5 A 4 5 5 5 A 4 5 5 A 5 4 l l & r A 4 5 5 5 8 8 8 9 V k.t t t y 5 5 5 5 5 4 b 0 4 5 5 5 5 5 5 5 , +.3 3 3 +.2 6 5 5 5 4 l l 4 5 5 5 4 H 5 4 5 5 5 A 5 5 4 r l 4 5 4 A 5 4 5 l 4 5 C 4 5 5 5 5 5 5 5 5 5 5 5 5 5 5 5 5 5 5 4 l y 4 t t y :.:.S C * 5 5 5 5 5 5 * K V * r 1.5 5 5 5 5 5 5 5 5 5 5 p a a a a a a a a y 5 5 5 5 1.r 5 5 5 5 5 5 5 5 5 5 5 5 5 5 V 5 5 5 5 5 5 5 5 5 5 5 5 5 l z * 5 5 5 5 5 5 5 5 5 5 5 5 V 5 5 5 5 5 5 5 5 5 5 5 + lXi.: 5 5 5 5 5 5 5 5 5 5 5 5 5 z 5 5 5 5 5 5 5 5 5 5 5 5 $ ",
"5 5 5 5 5 V 5 5 5 5 5 z 5 5 5 5 z 5 5 5 V 5 5 l l * j V * 5 5 8 8 8 k 9 C k.t t t y e 5 5 5 5 4 b k 4 5 5 5 5 5 5 6 @.#.2 @.2 2 +.< 6 5 5 5 l l 5 5 5 5 5 H 5 5 5 5 5 V 5 5 5 j l 5 5 5 V 5 5 r z * 5 C 5 5 5 5 5 5 5 5 5 5 5 5 5 5 5 5 5 5 5 5 l l e y t y f.:.S C * 5 5 5 5 5 5 * K V * r 1.5 5 5 5 5 5 5 5 5 5 5 p p p p p p p p p y 5 5 5 5 1.r 5 5 5 5 5 5 5 5 5 5 5 5 5 5 V 5 5 5 5 5 5 5 5 5 5 5 5 5 l z * 5 5 5 5 5 5 5 5 5 5 5 5 V 5 5 5 5 5 5 5 5 5 5 5 + lXi.: 5 5 5 5 5 5 5 5 5 5 5 5 5 z 5 5 5 5 5 5 5 5 5 5 5 5 $ ",
"5 5 5 5 5 V 5 5 5 5 5 V 5 5 5 5 V 5 5 5 V 5 5 l l * j V * 5 5 5 8 8 9 9 C k.t t t y e 5 5 5 5 4 b k 4 5 5 5 5 5 6 2 #., 1 2 v , 2 +.j 5 5 5 l l 5 5 5 5 5 H 5 5 5 5 5 V 5 5 5 l l 5 5 5 V 5 5 r z * 5 C 5 5 5 5 5 5 5 5 5 5 5 5 5 5 5 5 5 5 5 5 l l e y t y f.:.S C * 5 5 5 5 5 5 * K V * r 1.5 5 5 5 5 5 5 5 5 5 5 a s a a a a a a s y 5 5 5 5 1.r 5 5 5 5 5 5 5 5 5 5 5 5 5 5 V 5 5 5 5 5 5 5 5 5 5 5 5 5 l z * 5 5 5 5 5 5 5 5 5 5 5 5 V 5 5 5 5 5 5 5 5 5 5 5 + lXi.: 5 5 5 5 5 5 5 5 5 5 5 5 5 z 5 5 5 5 5 5 5 5 5 5 5 5 $ ",
"5 5 5 5 5 V 5 5 5 5 5 V 5 5 5 5 V 5 5 5 V 5 5 l l * j V * 5 5 5 8 8 9 9 C k.t t t y e 5 5 5 5 4 b k 4 5 5 5 5 6 < +.< j , B x , r o.+.5 5 5 l l 5 5 5 5 5 H 5 5 5 5 5 V 5 5 5 l l 5 5 5 V 5 5 r z * 5 C 5 5 5 5 5 5 5 5 5 5 5 5 5 5 5 5 5 5 5 5 l l e y t y f.:.S C * 5 5 5 5 5 5 * K V * r 1.5 5 5 5 5 5 5 5 5 5 5 p p p p p p p p p y 5 5 5 5 1.r 5 5 5 5 5 5 5 5 5 5 5 5 5 5 V 5 5 5 5 5 5 5 5 5 5 5 5 5 l z * 5 5 5 5 5 5 5 5 5 5 5 5 V 5 5 5 5 5 5 5 5 5 5 5 + lXi.: 5 5 5 5 5 5 5 5 5 5 5 5 5 z 5 5 5 5 5 5 5 5 5 5 5 5 $ ",
"5 5 5 5 5 V 5 5 5 5 5 V 5 5 5 5 V 5 5 5 V 5 5 l l * j V * 5 5 5 8 8 9 9 C k.t t t y e 5 5 5 5 4 b k 4 5 5 5 6 < +.< j , , B x , , j @.#.5 4 l l 5 5 5 5 5 H 5 5 5 5 5 V 5 5 5 l l 5 5 5 V 5 5 r z * 5 C 5 5 5 5 5 5 5 5 5 5 5 5 5 5 5 5 5 5 5 5 l l e y t y f.:.S C * 5 5 5 5 5 5 * K V * r 1.5 5 5 5 5 5 5 5 5 5 5 a s s s s s s s s y 5 5 5 5 1.r 5 5 5 5 5 5 5 5 5 5 * 5 * 5 V 5 5 5 5 5 5 5 5 5 5 5 5 * l z * 5 5 5 5 5 5 5 * 5 5 * 5 V 5 5 5 5 5 5 5 5 5 * 5 + lXi.: 5 5 5 5 5 5 5 5 5 5 5 * 5 z 5 5 5 5 5 5 5 5 5 5 5 5 $ ",
"5 5 5 5 5 V 5 5 5 5 5 V 5 5 5 5 V 5 5 5 V 5 5 l l * j V * 5 5 5 8 8 9 9 C k.t t t y e 5 5 5 5 4 b k 4 5 5 6 2 +.2 j , , , B x , , , j @.#.* y l 5 5 5 5 5 H 5 5 5 5 5 V 5 5 5 l l 5 5 5 V 5 5 r z * 5 C 5 5 5 5 5 5 5 5 5 5 5 5 5 5 5 5 5 5 5 5 l l e y t y f.:.S C * 5 5 5 5 5 5 * K V * r 1.5 5 5 5 5 5 5 5 5 5 5 p p p p p p p p p y 5 5 5 5 1.r 5 5 * * 5 5 5 5 5 5 z 5 V 5 V 5 5 5 5 5 5 5 5 5 5 5 l r l z * 5 5 5 5 5 5 5 z l 5 V 5 z 5 5 5 5 5 5 5 5 r V 5 + lXi.: 5 5 5 5 5 5 5 5 j 5 l l 5 V 5 5 5 5 5 5 5 5 5 5 5 5 $ ",
"5 5 5 5 5 V 5 5 5 5 5 V 5 5 5 5 V 5 5 5 V 5 5 l l * j V * 5 5 5 8 8 9 9 C k.t t t y e 5 5 5 5 4 b k 4 6 r @.+.< j , , , * N j , , , , r @.+.B 5 6 5 5 5 5 H 5 5 5 5 5 V 5 5 5 l l 5 5 5 V 5 5 r z * 5 C 5 5 5 5 5 5 5 5 5 5 5 5 5 5 5 5 5 5 5 5 l l e y t y f.:.S C * 5 5 5 5 5 5 * K V * r 1.5 5 5 5 5 5 5 5 5 5 5 a s a a a a a a s y 5 5 5 5 1.r 5 V V V 5 5 5 5 * 1.Z Z 4.C l 5 5 5 5 5 5 5 5 & 3.2.3.1.l z * 5 5 5 5 5 5 5 Z 3.K 1.5 V 5 5 5 5 5 5 5 * l 3.C H mXu.e 5 5 5 5 5 5 5 * 4.Z V 4.l l 5 5 5 5 5 5 5 5 5 5 5 5 $ ",
"5 5 5 5 5 V 5 5 5 5 5 V 5 5 5 5 V 5 5 5 V 5 5 l l * j V * 5 5 5 8 8 9 9 C k.t t t y e 5 5 5 5 4 b 0 5 2 +.@., j , , > , $.%XT > , , , , j 2 +.#.< 6 6 5 5 H 5 5 5 5 5 V 5 5 5 l l 5 5 5 V 5 5 r z * 5 C 5 5 5 5 5 5 5 5 5 5 5 5 5 5 5 5 5 5 5 5 l l e y t y f.:.S C * 5 5 5 5 5 5 * K V * r 1.5 5 5 5 5 5 5 5 5 5 5 p p p p p p p p p y 5 5 5 5 1.r 5 4.4.3.l 5 5 5 j 4.1.3.l 1.l 5 5 5 5 5 5 5 5 C x.G 4.2.l z * 5 5 5 5 5 5 5 l 4.4.1.l z 5 5 5 5 5 5 5 j $ C 2.K MXi.e 5 5 5 5 5 5 5 5 C Z $ 1.l z 5 5 5 5 5 5 5 5 5 5 5 5 $ ",
"5 5 5 5 5 V 5 5 5 5 5 V 5 5 5 5 V 5 5 5 V 5 5 l l * l V 5 5 5 8 8 8 k 9 C k.t t t y 4 4 6 6 5 k W #.#.#.< r , , , > v ,X>X,X<XW > , , , , > N @.+.#.2 , 4 g 6 4 5 5 5 V 5 5 5 l l 5 5 5 V 5 5 r z * 5 C 5 5 5 5 5 5 5 5 5 5 5 5 5 5 5 5 5 5 5 5 l l e y t y f.:.S C * 5 5 5 5 5 5 * K V * r 1.5 5 5 5 5 5 5 5 5 5 5 p a a a a a a a a y 5 5 5 5 1.r 5 x.K K V * 5 l K 1.1.Y.K K l 5 5 5 5 5 5 5 Z 1.x.T.1.3.V l * 5 5 5 5 5 z G r 3.4.K K l 5 5 5 5 5 5 5 Z G 4.C c.MXi.e 5 5 5 5 5 5 C V C Z K 1.5 V 5 5 5 5 5 5 5 5 5 5 5 5 $ ",
"5 5 5 5 5 z 5 5 5 5 5 z 5 5 5 5 z * 5 5 z 5 * l l & j A 4 4 4 5 5 8 0 9 A k.t t t y j x 2 @.#.$.$.W W M j , j j > v ,X,X2 N %X>Xk , j j j , x x , 2 #.+.#.@.2 < j 5 5 A 6 6 6 5 l 6 5 6 A 5 4 5 z 4 5 C 5 5 5 5 5 5 5 5 5 5 5 5 5 5 5 5 5 5 5 5 l l e t t t :.:.S C * 5 5 5 5 5 5 * K V * r 1.5 5 5 5 5 5 5 5 5 5 5 p a a a a a a a a y 5 5 5 5 1.r 5 Z z V l 5 5 5 * V K l 1.r V 5 5 5 5 5 5 5 5 & r z K C l z 5 5 5 5 5 5 5 5 1.Z l 1.r V 5 5 5 5 5 5 5 & Z 3.z + cXi.e 5 5 5 5 5 5 5 * l l K 1.l z 5 5 5 5 5 5 5 5 5 5 5 5 $ ",
"5 5 5 5 5 C 5 5 5 5 r V 5 5 5 r V 5 5 r V 5 r l z r x N , 1 1 3 3 3 2 | T z.o.o.@.@.#.#.@.@.W | | | U I 1 , , > v ,X,X< * 2 x >X+X& , > > > x j > * * > 3 o.@.#.#.#.@.@.o.2 2 2 2 1 1 , N , > j x * r C * 5 5 5 5 4 4 4 4 5 5 4 6 6 6 6 7 7 7 $ 4 t 4 y u y f.:.S C * 5 5 5 5 5 5 * K V * r 1.5 5 5 5 5 5 5 5 5 5 5 p p p p p p p p p y 5 5 5 5 1.r & $ $ $ $ & & & & $ # $ # $ l * $ & & & & & & & $ $ $ # r l $ & & & & & & & # $ $ # $ l & & & & & & & & $ # * @ lXi.& $ & & & & & & & $ $ # # & l $ & & & & & & & & & & * # ",
"FXFXFXFXFXFXFXFXFXFXFXFXFXFXFXFXFXFXFXFXFXFXFXFXFXFXAXAXAXSXSXDXwXeXH.'.*.C.X.X.B B N C V S _ U {. X| R D N z T ,X%XN z N *.C -.>XT m P I R ` ` E ] { { { { { } [ [ -.+X+X+X+X+X+X&X&X$.$.$.$.$.$.$.$.$.$.$.$.$.$.$.$.$.$.$.$.$.$.$.$.$.+X+X$X$X%X%X%X%X%X%X'.h.S C * 5 5 5 5 5 5 * K V * r 1.5 5 5 5 5 5 5 5 5 5 5 a a a a a a a a s y 5 5 5 5 2.5 4./.^.^.^.^.^.^.^.^.^.^.^.^./.^.^.^.^.^.^.^.^.^.^.^.^.^.^./.^.^.^.^.^.^.^.^.^.^.^.^.^./.^.^.^.^.^.^.^.^.^.^.^.Q.mXfX~.^.^.^.^.^.^.^.^.^.^.^.^.^./.^.^.^.^.^.^.^.^.^.^.^.^.~.",
"F.F.F.F.F.S.F.F.F.F.F.S.F.F.F.F.D.D.D.D.D.D.D.wXSXSXSXZXSXZXAXAXAXAXGXGXGXpXZXpXF.C.l.v.v.c.( U } } U ` L K -.,X%XL q.U.!.5X5X!.%X%Xy.y.w.{ !.w.( ( ( ( ( K.( ^ ^ L L 4.K K K 2.3.K K K 3.L L L X.L L c.L L X.X.L X.X.X.=.-.$X%X%X,X,X>X,X%X%X$X$X$X-.-.=.-.Q.f.S C * 5 5 5 5 5 5 * K V * r 1.5 5 5 5 5 5 5 5 5 5 5 p p p p p p p p p y 5 5 5 5 1.5 l G Z Z Z Z Z Z Z Z Z Z Z Z 1.Z Z Z Z Z Z Z Z Z Z Z Z Z K 1.C Z Z Z Z Z Z Z Z Z Z Z Z 1.Z Z Z Z Z Z Z Z Z Z Z z cXs.H Z Z Z Z Z Z Z Z Z Z Z Z G 1.Z Z Z Z Z Z Z Z Z Z Z Z 1.",
"; ; ; ; ; c ; ; ; ; ; c ; ; ; ; c ; ; ; n ; ; M M ; M D k x N N H X.c.v.J.A.ZXFXKXKXKXKXKXFXDXH.v.v.H.pXAXFXLXLXFXGXHXHXHXHXGXGXGXHXAXAXAXAXFXFXAXAXAXAXAXFXAXAXAXAXAXFXAXAXAXFXFXAXAXAXFXFXFXFXFXFXFXFXAXAXAXAXAXAXFXGXLXLXLXLXLXLXLXLXGXGXFXAXAXAXZXZXZXZXZXf.S C * 5 5 5 5 5 5 * K V * r 1.5 5 5 5 5 5 5 5 5 5 5 a s s s s s s s s y 5 5 5 5 1.r & & & & & & & & & & & & & $ l * & & & & & & & & & & & $ j l $ & & & & & & & & & & & & l & & & & & & & & & & 5 @ lXi.& & & & & & & & & & & & & * l $ & & & & & & & & & $ l z ",
"9 k k k k D k k k k k S 9 k k k S 9 8 k D 9 9 b b 9 b D 9 9 9 q q q q U m z.V H H l.z.Z.F.wXwXS.H.J.).rXrX).A.A.A.A.A.A.D.G.D.A.A.rXrXD.A.).H.D.D.D.D.D.D.pXD.D.D.D.D.D.D.D.D.D.D.D.D.D.D.D.D.D.D.A.A.D.G.rXrXrXrXrXG.A.A.A.A.A.A.A.A.A.A.A.A.A.D.D.A.A.A.A.D.f.S C * 5 5 5 5 5 5 * K V * r 1.5 5 5 5 5 5 5 5 5 5 5 p p p p p p p p p y 5 5 5 5 1.r 5 5 5 5 5 5 5 5 5 5 5 5 5 5 V 5 5 5 5 5 5 5 5 5 5 5 5 5 l z 5 5 5 5 5 5 5 5 5 5 5 5 5 V 5 5 5 5 5 5 5 5 5 5 5 + lXi.e 5 5 5 5 5 5 5 5 5 5 5 5 5 V 5 5 5 5 5 5 5 5 5 5 z K & ",
"9 9 9 9 8 [.Y 8 9 9 9 D 9 9 9 k D 9 Y c S 9 9 b b 9 b D 9 9 9 k M c c c S z.A A x 9 9 9 ; 8 x ) !.$X<X>X;.N * ; > e j k < W v & 5 @X<XT 7 [.[ e * 4 r & U ` 4 e r 5 r z e j v l l * r r z r > e t , ] %X<X>X%X[ | ; % % % % % % % % % % % % % = 8 8 * 5 5 5 :.:.S C * 5 5 5 5 5 5 * K V * r 1.5 5 5 5 5 5 5 5 5 5 5 a s a a a a a a s y 5 5 5 5 1.r 5 5 5 5 5 5 5 5 5 5 5 5 5 5 V 5 5 5 5 5 5 5 5 5 5 5 5 5 l z * 5 5 5 5 5 5 5 5 5 5 5 5 V 5 5 5 5 5 5 5 5 5 5 5 + lXi.: 5 5 5 5 5 5 5 5 5 5 5 5 5 z 5 5 5 5 5 5 5 5 * l K r # ",
"9 9 9 9 q oX} 8 q 9 9 D 9 9 9 k D 9 XX} C 9 8 b b 9 b D 9 9 9 q c c c q S z.V C C z x k q }  X1X<X,X-.H g.j.V.Q.f y x B N =.J u u #X,X%Xh +X-.h ] T h h [ +Xh R [ h u H h T #XH g h T +X-.S h B +X>X>X%X-.v 4 7 6 4 5 5 5 5 5 5 5 5 5 5 5 5 5 5 l V e t t t f.:.S C * 5 5 5 5 5 5 * K V * r 1.5 5 5 5 5 5 5 5 5 5 5 p p p p p p p p p y 5 5 5 5 1.r 5 5 5 5 5 5 5 5 5 5 5 5 5 5 V 5 5 5 5 5 5 5 5 5 5 5 5 5 l z * 5 5 5 5 5 5 5 5 5 5 5 5 V 5 5 5 5 5 5 5 5 5 5 5 + lXi.: 5 5 5 5 5 5 5 5 5 5 5 5 5 z 5 5 5 5 5 5 5 5 l K r 5 $ ",
"9 9 9 9 c *X} 8 q 9 9 D 9 9 9 k S c *X} A U Y b b 8 b D 9 9 q q 9 } |.[.S z.z Q { l P [ @X>X<X%X-.j 8 ].; 4 B 5X'.n...B v +X] N N #X#X<X-.#X+Xh [.[ h h [ +Xu [ #Xl ].^ z R =X+XL P T -X-X] +X>X,X+Xv A 7 4 5 5 5 5 5 5 5 5 5 5 5 5 5 5 5 5 5 5 l l e y t y f.:.S C * 5 5 5 5 5 5 * K V * r 1.5 5 5 5 5 5 5 5 5 5 5 a a a a a a a a a y 5 5 5 5 1.r 5 5 5 5 5 5 5 5 5 5 5 5 5 5 V 5 5 5 5 5 5 5 5 5 5 5 5 5 l z * 5 5 5 5 5 5 5 5 5 5 5 5 V 5 5 5 5 5 5 5 5 5 5 5 + lXi.: 5 5 5 5 5 5 5 5 5 5 5 5 5 z 5 5 5 5 5 5 5 l K j 5 5 $ ",
"q q 9 9 U ;X} 8 q 9 9 D 9 9 9 b S U ;X} l } }.x P Y b D 9 9 8 q 9 [.*XXXQ z.d { XX[ #X,X>X%XW 5 b 5 ] ;Xc 7 Y OXXXX.V.V.X.@X].N E @X=X,X>X-X-.h +X[ h t [ #X+X#X@XR @X@XE E -X@X{ #X[ =X,X>X>X-.].Y 7 C 5 5 5 5 5 5 5 5 5 5 5 5 5 5 5 5 5 5 5 5 l l e y t y f.:.S C * 5 5 5 5 5 5 * K V * r 1.5 5 5 5 5 5 5 5 5 5 5 p a a a a a a p a y 5 5 5 5 1.r 5 5 5 5 5 5 5 5 5 5 5 5 5 5 V 5 5 5 5 5 5 5 5 5 5 5 5 5 l z * 5 5 5 5 5 5 5 5 5 5 5 5 V 5 5 5 5 5 5 5 5 5 5 5 + lXi.: 5 5 5 5 5 5 5 5 5 5 5 5 5 z 5 5 5 5 5 5 l K j 5 5 5 $ ",
"[.[ 8 9 U ;X[ 8 q 9 9 D 9 9 8 9 S U ;X[ l ].|.l ] |.b S 8 U ] 9 8 }.*XoX` k.S {.=X,X>X%XP 4 6 r m 5 [ ;XU j } *XoXU } +XQ.'.=.B +X-X@X=X>X,X+XH #X[ h u +X#X#X=X#X[ @X*X{ { -X@X+X@X-X>X>X,X}.7  X].7 C 5 5 5 5 5 5 5 5 5 5 5 5 5 5 5 5 5 5 5 5 l l e y t y f.:.S C * 5 5 5 5 5 5 * K V * r 1.5 5 5 5 5 5 5 5 5 5 5 p p p p p p p p p y 5 5 5 5 1.r 5 5 5 5 5 5 5 5 5 5 5 5 5 5 V 5 5 5 5 5 5 5 5 5 5 5 5 5 l z * 5 5 5 5 5 5 5 5 5 5 5 5 V 5 5 5 5 5 5 5 5 5 5 5 + lXi.: 5 5 5 5 5 5 5 5 5 5 5 5 5 z 5 5 5 5 5 l K l 5 5 5 5 $ ",
"}.[.8 8 Y ;X].8 9 8 M D 9 8 Y } A Y ;X].l [.XXl } |.b ! q ].|.9 ].XXXXoX[.J.#X%X,X-.[.}.j 5 r E I 5 ].*XE }.}.;X*XY ].}.[.=X'.'.+X*X=X=X,X>X@X#X@X].h z +X#X@X+X[ {.#X@X#X@X-.{ -X,X>X,X=XoXXXI #X}.5 C 5 5 5 5 5 5 5 5 5 5 5 5 5 5 5 5 5 5 5 5 l l e y t y f.:.S C * 5 5 5 5 5 5 * K V * r 1.5 5 5 5 5 5 5 5 5 5 5 a a a a a a a a s y 5 5 5 5 1.r 5 5 5 5 5 5 5 5 5 5 5 5 5 5 V 5 5 5 5 5 5 5 5 5 5 5 5 5 l z * 5 5 5 5 5 5 5 5 5 5 5 5 V 5 5 5 5 5 5 5 5 5 5 5 + lXi.: 5 5 5 5 5 5 5 5 5 5 5 5 5 z 5 5 5 5 l K l 5 5 5 5 5 $ ",
"|.[.8 8 Y ;X].5 Y ].[.{ 8 8 [.XXC Y ;X[.A [.oXl } XXk  X|.oX|.U XX] }.XX@XQ.%X%X@Xm }.*X|.] ].*X} k }.|.].XX;X].|.}.*X|.|.;XXX-.'.'.=X=X@X>X,X@X=X{.u +X=X@X=X{ { #X[ -.-X-X_ T >X>X%X-X|.*X*X=X@X*Xn V 5 5 5 5 5 5 5 5 5 5 5 5 5 5 5 5 5 5 5 5 l l e y t y f.:.S C * 5 5 5 5 5 5 * K V * r 1.5 5 5 5 5 5 5 5 5 5 5 p p p p p p p p p y 5 5 5 5 1.r 5 5 5 5 5 5 5 5 5 5 5 5 5 5 V 5 5 5 5 5 5 5 5 5 5 5 5 5 l z * 5 5 5 5 5 5 5 5 5 5 5 5 V 5 5 5 5 5 5 5 5 5 5 5 + lXi.: 5 5 5 5 5 5 5 5 5 5 5 5 5 z 5 5 5 r K l 5 5 5 5 5 5 $ ",
"|.}.8 8 } *X[.6 } oXXX[ 8 8 [.oXS Y *X[.A }.oXb ].XXU XX*XoX|.Y }.' =X>X%XQ.{ {.#X@X[.|.*X}.;X;X[ I |.].XX*X|.m }.*X*X*X*X*X|.} -X'.'.@X#X+X<X=X=X+XT -X=X=X@XJ { @X[ =.-X_ =.,X>X@XXXXX X*X*X*X=X*X].C 5 5 5 5 5 5 5 5 5 5 5 5 5 5 5 5 5 5 5 5 l l e y t y f.:.S C * 5 5 5 5 5 5 * K V * r 1.5 5 5 5 5 5 5 5 5 5 5 a s s s s s s s s y 5 5 5 5 1.r 5 5 5 5 5 5 5 5 5 5 5 5 5 5 V 5 5 5 5 5 5 5 5 5 5 5 5 5 l z * 5 5 5 5 5 5 5 5 5 5 5 5 V 5 5 5 5 5 5 5 5 5 5 5 + lXi.: 5 5 5 5 5 5 5 5 5 5 5 5 5 z 5 5 r K l 5 5 5 5 5 5 5 $ ",
"XX|.9 8 ].=X|.c [ ;X*X[ 8 8 [.*X{ |.|.[.{ *XXXU -XXXY }.XX].}.[.=X,X>X%X+XJ.@X#X{.*X} }.*XoX*XXX[.] }.I *X;X].z }.-X[.*X].oX|.E *XoX5XJ.+XR ,X,X{ #X+X+X) @X@XJ { -X[ =.=X-.>X%X=.XX}.|.{.*X*X;XXX|.;X_ 7 k c 5 5 5 5 5 5 5 5 5 5 5 5 5 5 5 5 5 l l e y t y f.:.S C * 5 5 5 5 5 5 * K V * r 1.5 5 5 5 5 5 5 5 5 5 5 p p p p p p p p p y 5 5 5 5 1.r 5 5 5 5 5 5 5 5 5 5 5 5 5 5 V 5 5 5 5 5 5 5 5 5 5 5 5 5 l z * 5 5 5 5 5 5 5 5 5 5 5 5 V 5 5 5 5 5 5 5 5 5 5 5 + lXi.: 5 5 5 5 5 5 5 5 5 5 5 5 5 V * 5 K l 5 5 5 5 5 5 5 5 $ ",
"XX|.c q |.[.;X[.].;X;X].8 8 [.*X X;X}.}.{.;X|.Y -XoX|.].' I {.:X<X%X-.I ^ C.#X@X_ =X[ }.;X*X*X[.|.-X].P *X|.R x }.XXP XX] XX}.R *X-X].*.V.) @X<X-.[ -X{ g -.@XH ` -X[ ( =X<X%XL S |.|.|.{.[ ].[.XX|.;X] Y ].}.k 5 k M 4 5 5 5 5 5 5 5 5 5 5 5 5 l l e y t y f.:.S C * 5 5 5 5 5 5 * K V * r 1.5 5 5 5 5 5 5 5 5 5 5 a s s s s s s a s y 5 5 5 5 1.r 5 5 5 5 5 5 5 5 5 5 5 5 5 5 V 5 5 5 5 5 5 5 5 5 5 5 5 5 l z 5 5 5 5 5 5 5 5 5 5 5 5 5 V 5 5 5 5 5 5 5 5 5 5 5 + lXi.: 5 5 5 5 5 5 5 5 5 5 5 5 5 z 5 K l 5 5 5 5 5 5 5 5 5 $ ",
"XX|.q } }.{ *X|.[.}.|.[.8 8 }.*X|.;X].}. X|.}.} XX;X X_ I +X>X,X+XP m I ~ k.` @X_ =X[ }.XX}.|.] |.oXP m XX].x b [.}.b E m ] R U *X].x Y X.V.#X,X%X) -X{ H -.@XC ` -XE =.<X%XJ m ~ [ ].|.[ I R E |.}.;X} |.;X|.Y j ].].$ 5 5 5 5 5 5 5 5 5 5 5 * l y 4 e t e :.:.S C * 5 5 5 5 5 5 * K V * r 1.5 5 5 5 5 5 5 5 5 5 5 p p p p p p p p p y 5 5 5 5 1.r 5 5 5 5 5 5 5 5 5 5 5 5 5 * z 5 5 5 5 5 5 5 5 5 5 5 5 & l l & 5 5 5 5 5 5 5 5 5 5 5 5 z 5 5 5 5 5 5 5 5 5 5 5 + lXi.: 5 5 5 5 5 5 5 5 5 5 5 5 5 C K l & 5 5 5 5 5 5 5 5 5 # ",
" X|.I [.[ ` *XoX|.` [ }.A b }.XXoX*X[ }.XX[ [.}.|.{.` [ ,X<X%X` D ~ _ ] ( Z.` #X{ =X[ #X[.~ { ` {.{.) L -X[ J ~ ) ) ~ D ~ =.L _ XX_ L _ ] Q.V.-.<X-.-.( K -.#XL ( +X) %X,Xc.I ) ` W ` |.{ ` ] { { [.;X{.XX*XXX-X}.}.[.t z l l l l l l l l l l l C C V V d V l.:.S C * 5 5 5 5 5 5 * K V * r 1.5 5 5 5 5 5 5 5 5 5 5 a a a a a a a a a y 5 5 5 5 1.5 j z l l l l l l l l l l l l Z z l l l l l l l l l l l l C Z l l l l l l l l l l l l l Z l l l l l l l l l l A e lXp.u l l l l l l l l l l l l l 1.G l z l l l l l l l l z r ",
"[ [.}.|.' ` ].XXXX' ] |.k ].*X}.*X*X] }.;X] {.:X}.! #X<X,X] m D ~ Q _ ] / Z.` #X` =X[ ].].R E R { E P D ].E D Q D D Q Q m T ~ I XXR D P E E v.V.%X,XJ L K -.#XJ L H $X<X*.m E ` _ E E ] / Q E E _ ].;X-X*X|.XX;X*X*X[.e j j j j j j j j j j j r V V y d d d f.:.S C * 5 5 5 5 5 5 * K V * r 1.5 5 5 5 5 5 5 5 5 5 5 p p p p p p p p a y 5 5 5 5 1.r 5 j j j j j j j j j j j j r C j r j j j j j j j j j j 5 V C 5 j j j j j j j j j j j j C j j j j j j j j j j l & lXp.r j j j j j j j j j j r l 1.Z 5 j j j j j j j j j j l 5 ",
"m [ ;X{.m ` m XXoXI I |.[ oXoX[.*X[ P ].XX' I |.-X,X<X+XP b m P P I E ] ) Z.) { _ =X[ I E E E U ] E n m b n m m m m m m n T D P [ P n P W Y R V.c.<X-.C J =.+XJ S -.<X;.x I I R _ Y R R ) m R E R [ *X*X[.].XX*X*X*X[.4 5 5 5 5 5 5 5 5 5 5 5 * l l 4 y t e :.:.S C * 5 5 5 5 5 5 * K V * r 1.5 5 5 5 5 5 5 5 5 5 5 p p p p p p p p a y 5 5 5 5 1.r 5 5 5 5 5 5 5 5 5 5 5 5 5 * z 5 5 5 5 5 5 5 5 5 5 5 5 * l l * 5 5 5 5 5 5 5 5 5 5 5 5 z 5 5 5 5 5 5 5 5 5 5 5 + lXi.: 5 5 5 5 5 5 5 5 5 5 5 G V z 5 5 5 5 5 5 5 5 5 5 5 5 # ",
"P I }.} P ` P [.[.P P |.;X}.|.].*X' P I _ P ' %X<X%X` J n m m m P R ] ] ) C.) ) ) @X} I R P R m _ R m m m m m m m m m m m T Q m b m m P E W E ` m.$X>XL J c.L J L ,X$XL m P I R E W R R ) m P R ` P [ }.R R ].[.;X*X}.4 5 5 5 5 5 5 5 5 5 5 5 5 l l e y t y f.:.S C * 5 5 5 5 5 5 * K V * r 1.5 5 5 5 5 5 5 5 5 5 5 a a a a a a a a a y 5 5 5 5 1.r 5 5 5 5 5 5 5 5 5 5 5 5 5 5 V 5 5 5 5 5 5 5 5 5 5 5 5 5 l z 5 5 5 5 5 5 5 5 5 5 5 5 5 V 5 5 5 5 5 5 5 5 5 5 5 + lXi.: 5 5 5 5 5 5 5 5 5 5 G V 5 V 5 5 5 5 5 5 5 5 5 5 5 5 $ ",
"P I P I I _ I I P I P {.].P ' ] oX' I I / -.>X>X+Xb D / n m m P m R E E ) C.) ) L @X] P I m R m _ P m m m m m m m m m m m T Q m m m m P E R E E X.V.>X+XH c.L C $XuXX._ P P I R E R R R ) m n m _ M P ` R R I ] XX*XXXc 4 8 5 5 5 5 5 5 5 5 5 5 l l e y t y f.:.S C * 5 5 5 5 5 5 * K V * r 1.5 5 5 5 5 5 5 5 5 5 5 p p p p p p p p p y 5 5 5 5 1.r 5 5 5 5 5 5 5 5 5 5 5 5 5 5 V 5 5 5 5 5 5 5 5 5 5 5 5 5 l z * 5 5 5 5 5 5 5 5 5 5 5 5 V 5 5 5 5 5 5 5 5 5 5 5 + lXi.: 5 5 5 5 5 5 5 5 5 G V * 5 V 5 5 5 5 5 5 5 5 5 5 5 5 $ ",
"I I I I I _ I I I I I / P I P '  X' P ' %X<X%X` Q n ~ ^ n m m m P E I Y ` C.) ) L #X] P I m I m _ P m m m m m m m m m m m T Q m m m m m I P E E U j.'.<X) c.J -.<X;.x ` I I I R E R R R ) m m D ~ n P { R R E b [ ;X;X}.5 v k 4 5 5 5 5 5 5 5 5 l l e y t y f.:.S C * 5 5 5 5 5 5 * K V * r 1.5 5 5 5 5 5 5 5 5 5 5 a s s s s s s s s y 5 5 5 5 1.r 5 5 5 5 5 5 5 5 5 5 5 5 5 5 V 5 5 5 5 5 5 5 5 5 5 5 5 5 l z * 5 5 5 5 5 5 5 5 5 5 5 5 V 5 5 5 5 5 5 5 5 5 5 5 + lXi.: 5 5 5 5 5 5 5 5 G C 5 5 5 z 5 5 5 5 5 5 5 5 5 5 5 5 $ ",
"I I I I I _ I I I I I ` I I I I _ P +X>X,X-.b D ~ n Q ^ n m m m R ] I Y ` C.L ) J #X] S P m m n _ P m m m m m m m m m m m T Q m m m m m m m E E Y ~ V.%X$Xv.X.,X$XH Y ` R W P ~ ~ I R P ) m m D ~ n P { I P I b [ *XoX-XI v Y 8 5 5 5 5 5 5 5 5 l l e y t y f.:.S C * 5 5 5 5 5 5 * K V * r 1.5 5 5 5 5 5 5 5 5 5 5 p p p p p p p p p y 5 5 5 5 1.r 5 5 5 5 5 5 5 5 5 5 5 5 5 5 V 5 5 5 5 5 5 5 5 5 5 5 5 5 l z * 5 5 5 5 5 5 5 5 5 5 5 5 V 5 5 5 5 5 5 5 5 5 5 5 + lXi.: 5 5 5 5 5 5 5 G C 5 5 5 5 z 5 5 5 5 5 5 5 5 5 5 5 5 $ ",
"I I I I I _ I I I I I _ I I I Q ` %X<X$X) b P ~ ~ n Q ^ n m m m R E I Y ` C.L ) J ]._ S m m m n _ P m m m m m m m m m m m T Q m m m m m m m E E W I h.V.$XX.;.$Xv.m W { W E P D D I I n ^ m m D ~ n P { P m m b } XXR XXoX] |.U 4 5 5 5 5 5 5 5 l l e y t y f.:.S C * 5 5 5 5 5 5 * K V * r 1.5 5 5 5 5 5 5 5 5 5 5 a s s s s s s s s y 5 5 5 5 1.r 5 5 5 5 5 5 5 5 5 5 5 5 5 5 V 5 5 5 5 5 5 5 5 5 5 5 5 5 l z * 5 5 5 5 5 5 5 5 5 5 5 5 V 5 5 5 5 5 5 5 5 5 5 5 + lXi.: 5 5 5 5 5 5 G Z 5 5 5 5 5 z 5 5 5 5 5 5 5 5 5 5 5 5 $ ",
"I I I I I _ I I I I I _ I I P -.>X,X-.b ~ I R Q ~ n Q ^ n m m I E E I I ^ C.L ) J S D m m m m n _ P n m m m m m m m m m n T Q n m m m m m m E E E I J j.i  .X.V.J P R ` E I m Q ~ U I n ^ m m D ~ n m ` P m m b } |.M E |.|.*XU Y ] 4 5 5 5 5 5 l l 4 y t y :.:.S C * 5 5 5 5 5 5 * K V * r 1.5 5 5 5 5 5 5 5 5 5 5 p p p p p p p p p y 5 5 5 5 1.r 5 5 5 5 5 5 5 5 5 5 5 5 5 5 V 5 5 5 5 5 5 5 5 5 5 5 5 5 l z * 5 5 5 5 5 5 5 5 5 5 5 5 V 5 5 5 5 5 5 5 5 5 5 5 + lXi.: 5 5 5 5 5 G Z 5 5 5 5 5 5 z 5 5 5 5 5 5 5 5 5 5 5 5 $ ",
"I I I I I ` I I I I I ` P E %X<X$XP b m ^ P R D ~ m ~ ` P P R R E I P I L C.L ) J J J D m m m m _ ~ m m m m m m m m m m m T D m m m m m m m ~ ~ R T X.i  .N. .i *.P W ` W m m ~ ~ m m m ^ m m D ~ m D / m m m S E }.Q S [.;X;XU ].}.4 4 5 5 4 5 y d e t t t f.:.S C * 5 5 5 5 5 5 * K V * r 1.5 5 5 5 5 5 5 5 5 5 5 a a a a a a a a a y 5 5 5 5 1.r 5 5 5 5 5 5 5 5 5 5 5 5 5 5 V 5 5 5 5 5 5 5 5 5 5 5 5 5 l z * 5 5 5 5 5 5 5 5 5 5 5 5 V 5 5 5 5 5 5 5 5 5 5 5 + lXi.: 5 5 5 5 G Z 5 5 5 5 5 5 5 z 5 5 5 5 5 5 5 5 5 5 5 r $ ",
") ) ) ) ) ( ) ) ) ) ~ ( -.>X,X-.K J L L L ) T L L J L =.T T W T T L ~ ) L Z.L &.K K L L L L L J ( L J L L L L L L L L L J *.L J L L L L L J L L L W X...h j.h X.*.) T =.` L J L L J L J L L J L L J L &.J L L L J t.jXp.4X-X|.` {.|.u C Z a.d h 1.g a.g 4.4.g.:.S C * 5 5 5 5 5 5 * K V * r 1.5 5 5 5 5 5 5 5 5 5 5 p p p p p p p p a y 5 5 5 5 1.r 5 5 5 5 5 5 5 5 5 5 5 5 5 5 V 5 5 5 5 5 5 5 5 5 5 5 5 5 l z * 5 5 5 5 5 5 5 5 5 5 5 5 V 5 5 5 5 5 5 5 5 5 5 5 + lXi.: 5 5 5 Z Z 5 5 5 5 5 5 5 5 z 5 5 5 5 5 5 5 5 5 % % % O ",
"I I I I I _ I I I P E %X<X$XP b ) m m m ~ I Y Q ~ n Q ` Y R R E P P P I ~ C.J J S S D m m m m n _ P n m m m m m m m m m n T Q n m m m m m n ~ Q m E T H H i f X.T R Y ` R m n Q ~ n m m ~ m n P ~ n m / n m m m m v s.! jX2X3X2X3XNXs.s.w s.u.8.s.r.r.p.iXe.>.:.S C * 5 5 5 5 5 5 * K V * r 1.5 5 5 5 5 5 5 5 5 5 5 p p p p p p p p a y 5 5 5 5 1.r 5 5 5 5 5 5 5 5 5 5 5 5 5 5 V 5 5 5 5 5 5 5 5 5 5 5 5 5 l z * 5 5 5 5 5 5 5 5 5 5 5 5 V 5 5 5 5 5 5 5 5 5 5 5 + lXi.: 5 5 Z G 5 5 5 5 5 5 5 5 5 V 5 5 5 * % % = % e d h.Z.D.",
"I I I I I _ I I P -.>X>X-.b n P ^ m m m ^ I W ~ ) I Q ` R R I E P P P I ^ C.J J J S D m m m m n _ P m m m m m m m m m m m T Q m m m m m m m ~ ~ m R R S X.c.H Q R R I ) m m m ~ ~ m m m ^ m m D ~ n m / m m m m m n s.t.i.t.2X X2X6X9.u.e.e.e.s.9.p.u.s.6.r.>.:.S C * 5 5 5 5 5 5 * K V * r 1.5 5 5 5 5 5 5 5 5 5 5 a a a a a a a a a y 5 5 5 5 1.r 5 5 5 5 5 5 5 5 5 5 5 5 5 5 V 5 5 5 5 5 5 5 5 5 5 5 5 5 l z * 5 5 5 5 5 5 5 5 5 5 5 5 V 5 5 5 5 5 5 5 5 5 5 5 + lXi.: * C Z 5 5 5 5 5 5 5 5 * % k = % 5 d ,.Z.A.ZXFXJXKXFXZX",
"I I I I I ` P R %X<X$X) b m m m ^ m m m ^ I W ~ _ R P ` I P P E P P P I ^ C.J J J J D m m m m n _ Q m m m m m m m m m m m T Q m m m m m m m ~ ~ m m R I T *.m R R E I ^ m m m ~ ~ m m m ^ m m D ~ n m / m m m m m m t.! t.t.y. X@X6X9.u.9.8.8.8.s.e.6.a.s.6.>.:.S C * 5 5 5 5 5 5 * K V * r 1.5 5 5 5 5 5 5 5 5 5 5 p p p p p p p p p y 5 5 5 5 1.r 5 5 5 5 5 5 5 5 5 5 5 5 5 5 V 5 5 5 5 5 5 5 5 5 5 5 5 5 l z 5 5 5 5 5 5 5 5 5 5 5 5 5 V 5 5 5 5 5 5 5 5 5 5 5 + lXp.u ,.v.t 5 5 5 % % % % 5 t ,.C.F.SXFXKXJXKXAXpXF.l.g r O ",
"I I I I I / -.>X>X] b ^ m m m m ^ m P P ^ R Y ~ _ Y E ` n m P R P P P I ^ C.J J S S D m m m m n _ Q m m m m m m m m m m n T Q m m m m m m n ~ Q n m R E E =.P R P E I ^ m m m Q ~ n m m ^ m m Q ~ n m / m m m m m m n m n n n }.*X*Xk 4 * 5 5 & r y 4 e t e :.:.S C * 5 5 5 5 5 5 * K V * r 1.5 5 5 5 5 5 5 5 5 5 5 a s s s s s s a s y 5 5 5 5 1.r * 5 5 5 5 5 5 5 5 5 5 5 5 * z 5 * 5 5 5 5 5 5 5 5 5 5 & l l & 5 5 5 5 5 5 5 5 5 5 * 5 z * 5 5 5 5 5 5 5 5 5 5 + lX^.z.C.z.h.t * y ,.z.F.pXFXFXJXKXAXpXA.l.g t * = = = % 5 # ",
"T T T T W %X>X$XT S B ) B B B T ) B W T ) W T T T W W W B B B Q Q P T T L Z.J J J J J B B B B B T T B B B B B B B B B B B =.L B B B B B B B ~ L B B W W W =.W T Q W B ) B B B L ~ B B B ) B B B ~ B B ) B B B B B B B B B B B }.OXoXv e r r r r z d u u i u g.:.S C * 5 5 5 5 5 5 * K V * r 1.5 5 5 5 5 5 5 5 5 5 5 p p p p p p p p p y 5 5 5 5 1.5 l C C C C C C C C C C C C V K C C C C C C C C C C C C V Z G V C C C C C C C C C C C C K C C C C C C C C C C C r kXfXz.k.g.F.SXZXKXJXJXFXSXpXC.v.1.V k 9 k x V C C C C C C l ",
"jXjXjXjXNXNXNXjXjXjXjXkXjXjXjXjXkXjXjXjXjXjXjXjXMXjXjXMXjXjXjXjXjXjXjXjXkXfXkXkXjXjXjXjXjXjXjXjXjXjXjXjXjXjXjXjXjXjXjXjXjXjXjXjXjXjXjXjXjXjXjXjXjXjXjXxXjXMXxXjXjXjXjXkXjXjXjXjXjXjXjXjXkXjXjXjXjXjXjXkXjXjXjXjXjXjXjXjXjXjXjXMXNXNXjXiXiXiXiXiXiXiXiXiXiXiXfX,.C C * 5 5 5 5 5 5 * K V * r 1.5 5 5 5 5 5 5 5 5 5 5 a s s s s s s s s y 5 5 5 5 1.r 5 j r r r r r r r r r r r 5 C j r r r r r r r r r r r 5 V V 5 j r r r r r r r r r r r C r r r r r r r r r r l & fXfXg.JXFXA.FXpXz.h.d 5 % % % 8 V 5 r r r r r r r r r r j * ",
"vXbXNXNXmXcXcXvXvXvXvXmXvXvXbXbXmXvXbXbXmXbXvXmXmXbXbXvXvXvXvXvXvXvXvXbXvXvXvXvXvXvXvXvXvXvXvXvXbXvXvXvXvXvXvXvXvXvXvXvXvXmXvXvXvXvXvXvXvXvXvXvXvXvXvXvXvXmXbXvXvXvXvXmXvXvXvXvXvXvXvXvXmXvXvXvXvXvXvXmXvXvXvXvXvXvXvXvXvXvXvXbXmXmXbXcXcXcXcXcXvXvXcXcXcXcXvX,.C C * 5 5 5 5 5 5 * K V * r 1.5 5 5 5 5 5 5 5 5 5 5 p p p p p p p p p y 5 5 5 5 1.r 5 5 5 5 5 5 5 5 5 5 5 5 5 5 z 5 5 5 5 5 5 5 5 5 5 5 5 * l l * 5 5 5 5 5 5 5 5 5 5 5 5 z 5 5 5 5 5 5 5 5 5 5 5 8 fXHXZ.AXZXg.l.e = % * 5 5 5 5 5 z 5 5 5 5 5 5 5 5 5 5 5 5 # ",
"] ,X>X$.v D v v v v v D v v U W D c U U T U U W R | P D v v v v c n n U B k.N N N N v v v v v v I m v v v v v v v v v v v T m v v v v v v v B m v v v v v =.R v v v v D v v v m B v v v D v v M B v v ~ v v v v v v v v v v v U .X[..X@ $ + + + e e + 7 h 7 >.:.S C * 5 5 5 5 5 5 * K V * r 1.5 5 5 5 5 5 5 5 5 5 5 a a a a a a a a s y 5 5 5 5 1.r 5 5 5 5 5 5 5 5 5 5 5 5 5 5 V 5 5 5 5 5 5 5 5 5 5 5 5 5 l z 5 5 5 5 5 5 5 5 5 5 5 5 5 V 5 5 5 5 5 5 5 5 5 * l S.KXFXA.g.g.z.h.y 5 5 5 5 5 5 5 5 V 5 5 5 5 5 5 5 5 5 5 5 5 $ ",
"<X%XR b m ^ m m m m m ^ m m I E / I I R ` P I ] _ R ~ ^ m m m P P P P I ^ C.J J J D D D m m m m _ Q m m m m m m m m m m m T Q m m m m m m m ~ ~ m m m m m *.P m m m m ^ m m m Q ~ m m m ^ m m Q ~ m D / m m m m m m m m m Q ! m F ' |.A 5 8 A * l y y p Z y f.:.S C * 5 5 5 5 5 5 * K V * r 1.5 5 5 5 5 5 5 5 5 5 5 p p p p p p p p p y 5 5 5 5 1.r 5 5 5 5 5 5 5 5 5 5 5 5 5 5 V 5 5 5 5 5 5 5 5 5 5 5 5 5 l z * 5 5 5 5 5 5 5 5 5 5 5 5 V 5 5 5 5 5 5 5 5 % g AXKXfXa.h.l.z.h.t 5 5 5 5 5 5 5 5 5 z 5 5 5 5 5 5 5 5 5 5 5 5 $ ",
"+Xb b m m ^ m m m m m ^ m m I R ) I I R ` m I ] R m Q ^ n m m m P P P I ^ C.J J J S D m m m m n _ P m m m m m m m m m m m T Q m m m m m m n ~ Q m m m m m X.m m m m m ^ m m m Q ~ n m m ^ m m D ~ n m / m m m m m m m m n t.s.s.s.Q XX6Xs.9.s.F e 6.r.u.s.e.>.:.S C * 5 5 5 5 5 5 * K V * r 1.5 5 5 5 5 5 5 5 5 5 5 p a p p p p p p a y 5 5 5 5 1.r 5 5 5 5 5 5 5 5 5 5 5 5 5 5 V 5 5 5 5 5 5 5 5 5 5 5 5 5 l z * 5 5 5 5 5 5 5 5 5 5 5 5 V 5 5 5 5 5 5 5 % h.KXFXi lXi.e t t e 5 5 5 5 5 5 5 5 5 5 z 5 5 5 5 5 5 5 5 5 5 5 5 $ ",
"b m m m m ^ m m m m m ^ m P R R _ I P I _ n I E ~ n Q ^ n m m m P P P I ^ C.J J J S D m m m m n _ P m m m m m m m m m m m T Q m m m m m m n ~ Q m m m m m &.m m m m m ^ m m m Q ~ n m m ^ m m D ~ n m / m m m m m m m m m v i.s.s.D [.*Xs.4 9.8.8.s.u.u.iXe.>.:.S C * 5 5 5 5 5 5 * K V * r 1.5 5 5 5 5 5 5 5 5 5 5 a a a a a a a a a y 5 5 5 5 1.r 5 5 5 5 5 5 5 5 5 5 5 5 5 5 V 5 5 5 5 5 5 5 5 5 5 5 5 5 l z * 5 5 5 5 5 5 5 5 5 5 5 5 V 5 5 5 5 5 5 % z.JXpX5 - lXi.: 5 5 5 5 5 5 5 5 5 5 5 5 5 z 5 5 5 5 5 5 5 5 5 5 5 5 $ ",
"m m m m m ) P m m m I ) n P I P _ I P m ^ m m ~ ~ n Q ^ n m m m P P P I ^ C.J J J S D m m m m n _ P m m m m m m m m m m m T Q m m m m m m n ~ Q m m m m m &.m m m m m ^ m m m Q ~ n m m ^ m m D ~ n m / m m m m m m n ! t.t.s.M t.s.| 6Xt.A s.$ u.e.u.u.e.u.:.:.S C * 5 5 5 5 5 5 * K V * r 1.5 5 5 5 5 5 5 5 5 5 5 p p p p p p p p p y 5 5 5 5 1.r 5 5 5 5 5 5 5 5 5 5 5 5 5 5 V 5 5 5 5 5 5 5 5 5 5 5 5 5 l z * 5 5 5 5 5 5 5 5 5 5 5 5 V 5 5 5 5 5 % F.JXF.% 5 + lXi.: 5 5 5 5 5 5 5 5 5 5 5 5 5 z 5 5 5 5 5 5 5 5 5 5 5 5 $ ",
"m m m m m ` I m m m R _ n I I m ` R P m ^ m m ~ ~ n Q ^ n m m m P P P I ^ C.J J J S D m m m m n _ P m m m m m m m m m m m T Q m m m m m m n ~ Q m m m m m &.m m m m m ^ m m m Q ~ n m m ^ m m D ~ n m / m m m m m m m m n s.s.t.s.t.t.4Xy.u.s.w A s.e.e.s.6.:.:.S C * 5 5 5 5 5 5 * K V * r 1.5 5 5 5 5 5 5 5 5 5 5 a s a s s s s a s y 5 5 5 5 1.r 5 5 5 5 5 5 5 5 5 5 5 5 5 5 V 5 5 5 5 5 5 5 5 5 5 5 5 5 l z * 5 5 5 5 5 5 5 5 5 5 5 5 V 5 5 5 5 % F.JXZ.% 5 5 + lXi.: 5 5 5 5 5 5 5 5 5 5 5 5 5 z 5 5 5 5 5 5 5 5 5 5 5 5 $ ",
"m m m m m ` I m m m R { I I I m ` W P m ^ m m ~ ~ n Q ^ n m m m P P P I ^ C.J J J S D m m m m n _ P m m m m m m m m m m m T Q m m m m m m n ~ Q m m m m m &.m m m m m ^ m m m Q ~ n m m ^ m m D ~ n m / m m m m m m m m m M n m n n m }.XX} , 5 r y 4 e t e f.:.S C * 5 5 5 5 5 5 * K V * r 1.5 5 5 5 5 5 5 5 5 5 5 p p p p p p p p p y 5 5 5 5 1.r 5 5 5 5 5 5 5 5 5 5 5 5 5 5 V 5 5 5 5 5 5 5 5 5 5 5 5 5 l z * 5 5 5 5 5 5 5 5 5 5 5 5 V 5 5 5 % F.JXz.% 5 5 5 + lXi.: 5 5 5 5 5 5 5 5 5 5 5 5 5 z 5 5 5 5 5 5 5 5 5 5 5 5 $ ",
"m m m m m { I m m m R { I I P m ) P m m ^ m m ~ ~ n Q ^ n m m m P P P I ^ C.J J J S D m m m m n _ P m m m m m m m m m m m T Q m m m m m m n ~ Q m m m m m &.m m m m m ^ m m m Q ~ n m m ^ m m D ~ n m / m m m m m m m m m m m m m m m }.:X|.U 5 l z e y t y f.:.S C * 5 5 5 5 5 5 * K V * r 1.5 5 5 5 5 5 5 5 5 5 5 a s s s s s s s s y 5 5 5 5 1.r 5 5 5 5 5 5 5 5 5 5 5 5 5 5 V 5 5 5 5 5 5 5 5 5 5 5 5 5 l z * 5 5 5 5 5 5 5 5 5 5 5 5 V 5 5 % Z.JXZ.% 5 5 5 5 + lXi.: 5 5 5 5 5 5 5 5 5 5 5 5 5 z 5 5 5 5 5 5 5 5 5 5 5 5 $ ",
"P P m m P { I m m m E ` R R P m ^ n m m ^ m m ~ ~ n Q ^ n m m m P P P I ^ C.J J J S D m m m m n _ P m m m m m m m m m m m T Q m m m m m m n ~ Q m m m m m &.m m m m m ^ m m m Q ~ n m m ^ m m D ~ n m / m m m m m m m m m m m m m m b } }.*X}.4 l l e y t y f.:.S C * 5 5 5 5 5 5 * K V * r 1.5 5 5 5 5 5 5 5 5 5 5 p p p p p p p p p y 5 5 5 5 1.r 5 5 5 5 5 5 5 5 5 5 5 5 5 5 V 5 5 5 5 5 5 5 5 5 5 5 5 5 l z * 5 5 5 5 5 5 5 5 5 5 5 5 V 5 % Z.JXZ.% 5 5 5 5 5 + lXi.: 5 5 5 5 5 5 5 5 5 5 5 5 5 z 5 5 5 5 5 5 5 5 5 5 5 5 $ ",
"R I m m P { R m m P E _ R R P m ^ m m m ^ m m ~ ~ n Q ^ n m m m P P P I ^ C.J J J S D m m m m n _ P m m m m m m m m m m m T Q m m m m m m n ~ Q m m m m m &.m m m m m ^ m m m Q ~ n m m ^ m m D ~ n m / m m m m m m m m m m m m m m m b I *X}.4 l l e y t y f.:.S C * 5 5 5 5 5 5 * K V * r 1.5 5 5 5 5 5 5 5 5 5 5 a a a a a a a a s y 5 5 5 5 1.r 5 5 5 5 5 5 5 5 5 5 5 5 5 5 V 5 5 5 5 5 5 5 5 5 5 5 5 5 l z * 5 5 5 5 5 5 5 5 5 5 5 5 V % Z.JXF.% 5 5 5 5 5 5 + lXi.: 5 5 5 5 5 5 5 5 5 5 5 5 5 z 5 5 5 5 5 5 5 5 5 5 5 5 $ ",
"R I m m P ` R I m W I ~ R E m m ^ m m m ^ m m ~ ~ n Q ^ n m m m P P P I ^ C.J J J S D m m m m n _ P m m m m m m m m m m m T Q m m m m m m m ~ ~ m m m m m &.m m m m m ^ m m m Q ~ m m m ^ m m D ~ n m / m m m m m m m m m m m m m m m m P -X|.5 l l e y t y f.:.S C * 5 5 5 5 5 5 * K V * r 1.5 5 5 5 5 5 5 5 5 5 5 p p p p p p p p p y 5 5 5 5 1.r 5 5 5 5 5 5 5 5 5 5 5 5 5 5 V 5 5 5 5 5 5 5 5 5 5 5 5 5 l z 5 5 5 5 5 5 5 5 5 5 5 5 5 k l.JXF.% 5 5 5 5 5 5 5 + lXi.: 5 5 5 5 5 5 5 5 5 5 5 5 5 V 5 5 5 5 5 5 5 5 5 5 5 5 $ ",
"R I m n I _ P I P R m ~ I R n m ~ n m m ~ m n Q ~ c Q ^ n m m m P P P I ~ C.J J J S D m m m m n _ P n m m m m m m m m m n T D n m m m m m n ~ Q n m m m m ( m m m m n ~ m m n Q ~ n m n ~ m n m ~ n m / n m m m m m m m m m m m m m m m M |.|.* l l 4 y t e :.:.S C * 5 5 5 5 5 5 * K V * r 1.5 5 5 5 5 5 5 5 5 5 5 p a a a a a a a a y 5 5 5 5 1.r 5 5 5 5 5 5 5 5 5 5 5 5 5 5 z 5 5 5 5 5 5 5 5 5 5 5 5 * l l * 5 5 5 5 5 5 5 5 5 5 5 = z.JXF.= 5 5 5 5 5 5 5 5 + lXi.: 5 5 5 5 5 5 5 5 5 5 5 5 5 z * 5 5 5 5 5 5 5 5 5 5 5 # ",
"` ` ` ^ ` ` ) ` _ _ ^ ( ~ ^ ~ ^ ( ~ ^ ^ ( ~ ~ / / ~ / ( ~ ^ ^ ) ) ) ) _ ( C.3.3.L L ^ ^ ^ ^ ^ ~ ` / ~ ^ ^ ^ ^ ^ ^ ^ ^ ^ ~ =./ ~ ^ ^ ^ ^ ^ ~ / / ~ ^ ^ ~ ^ K.^ ^ ^ ^ ~ ( ^ ^ ~ / / ~ ^ ~ ( ^ ~ ^ ( ~ ^ 0.~ ^ ^ ^ ^ ^ ^ ^ ^ ^ ^ ^ ^ ^ ^ ^ L {.XXV C Z V C H C l.:.S C * 5 5 5 5 5 5 * K V * r 1.5 5 5 5 5 5 5 5 5 5 5 a a a a a a a a a y 5 5 5 5 1.5 j V z z z z z z z z z z V z Z V z z z z z z z z z z V z Z Z z V z z z z z z z V V k l.JXD.k V V z z z z z z V e cXp.l V V z z z z z z z z z z V Z z V z z z z z z z z z V j ",
"R E R P R ^ m R R I m ^ m m m m ^ m m m ^ m m ~ ~ m ~ / m m m P P P P I ^ C.J J J J D D m m m m _ Q m m m m m m m m m m m T ~ m m m m m m m ~ ~ m m m m m &.P m m m m ^ m m m ~ ~ m m m ^ m m Q ~ m D / m m m m m m m m m m m m m m m m m E |.8 l z y t t y f.:.S C * 5 5 5 5 5 5 * K V * r 1.5 5 5 5 5 5 5 5 5 5 5 p p p p p p p p p y 5 5 5 5 1.r 5 5 5 5 5 5 5 5 5 5 5 5 5 5 V 5 5 5 5 5 5 5 5 5 5 5 5 5 l V 5 5 5 5 5 5 5 5 5 r % h.JXD.% 5 5 5 5 5 5 5 5 5 5 + lXi.e 5 5 5 5 5 5 5 5 5 5 5 5 r V 5 5 5 5 5 5 5 5 5 5 5 5 $ ",
"R R R I I ~ m R R m m ^ m m m m ~ m m m ^ m n ~ ~ n Q ^ n m m m P P P I ~ C.J J J S D m m m m n _ P n m m m m m m m m m n T Q n m m m m m n ~ Q n m m m m &.m m m m m ^ m m n Q ~ n m m ^ m n m ~ n m / n m m m m m m m m m m m m m m m m E |.8 y l 4 y t y :.:.S C * 5 5 5 5 5 5 * K V * r 1.5 5 5 5 5 5 5 5 5 5 5 a s a a a a a a s y 5 5 5 5 1.r 5 5 5 5 5 5 5 5 5 5 5 5 5 5 z 5 5 5 5 5 5 5 5 5 5 5 5 * l z * 5 5 5 5 5 5 5 5 % h.JXD.k 5 5 5 5 5 5 5 5 5 5 5 + lXi.: 5 5 5 5 5 5 5 5 5 5 5 5 5 z 5 5 5 5 5 5 5 5 5 5 5 5 $ ",
"I R W R P ^ m m m m m ^ m m m m ^ m m m ^ m m ~ ~ n Q ^ n m m m P P P I ^ C.J J J S D m m m m n _ P m m m m m m m m m m m T Q m m m m m m n ~ Q m m m m m &.m m m m m ^ m m m Q ~ n m m ^ m m D ~ n m / m m m m m m m m m m m m m m m m m I |.8 y l e y t y f.:.S C * 5 5 5 5 5 5 * K V * r 1.5 5 5 5 5 5 5 5 5 5 5 p p p p p p p p p y 5 5 5 5 1.r 5 5 5 5 5 5 5 5 5 5 5 5 5 5 V 5 5 5 5 5 5 5 5 5 5 5 5 5 l z * 5 5 5 5 5 5 5 % h.JXpX% z 5 5 5 5 5 5 5 5 5 5 5 + lXi.: 5 5 5 5 5 5 5 5 5 5 5 5 5 z 5 5 5 5 5 5 5 5 5 5 5 5 $ ",
"P R W R P ^ m m m m m ^ m m m m ^ m m m ^ m m ~ ~ n Q ^ n m m m P P P I ^ C.J J J S D m m m m n _ P m m m m m m m m m m m T Q m m m m m m n ~ Q m m m m m &.m m m m m ^ m m m Q ~ n m m ^ m m D ~ n m / m m m m m m m m m m m m m m m m m m |.c y l e y t y f.:.S C * 5 5 5 5 5 5 * K V * r 1.5 5 5 5 5 5 5 5 5 5 5 a s s s s s s s s y 5 5 5 5 1.r 5 5 5 5 5 5 5 5 5 5 5 5 5 5 V 5 5 5 5 5 5 5 5 5 5 5 5 5 l z * 5 5 5 5 5 5 % ,.JXpX% 5 V 5 5 5 5 5 5 5 5 5 5 5 + lXi.: 5 5 5 5 5 5 5 5 5 5 5 5 5 z 5 5 5 5 5 5 5 5 5 5 5 5 $ ",
"m P R W m ^ m m m m m ^ m m m m ^ m m m ^ m m ~ ~ n Q ^ n m m m P P P I ^ C.J J J S D m m m m n _ P m m m m m m m m m m m T Q m m m m m m n ~ Q m m m m m &.m m m m m ^ m m m Q ~ n m m ^ m m D ~ n m / m m m m m m m m m m m m m m m m m m *X.Xt z e y t y f.:.S C * 5 5 5 5 5 5 * K V * r 1.5 5 5 5 5 5 5 5 5 5 5 p p p p p p p p p y 5 5 5 5 1.r 5 5 5 5 5 5 5 5 5 5 5 5 5 5 V 5 5 5 5 5 5 5 5 5 5 5 5 5 l z * 5 5 5 5 5 % g JXSX5 5 5 V 5 5 5 5 5 5 5 5 5 5 5 + lXi.: 5 5 5 5 5 5 5 5 5 5 5 5 5 z 5 5 5 5 5 5 5 5 5 5 5 5 $ ",
"m m I R m ^ m m m m m ^ m m m m ^ m m m ^ m m ~ ~ n Q ^ n m m m P P P I ^ C.J J J S D m m m m n _ P m m m m m m m m m m m T Q m m m m m m n ~ Q m m m m m &.m m m m m ^ m m m Q ~ n m m ^ m m D ~ n m / m m m m m m m m m m m m m m m m m b {.|.x y e y t y f.:.S C * 5 5 5 5 5 5 * K V * r 1.5 5 5 5 5 5 5 5 5 5 5 a a a a a a a a s y 5 5 5 5 1.r 5 5 5 5 5 5 5 5 5 5 5 5 5 5 V 5 5 5 5 5 5 5 5 5 5 5 5 5 l z * 5 5 5 5 % g JXSX5 5 5 5 V 5 5 5 5 5 5 5 5 5 5 5 + lXi.: 5 5 5 5 5 5 5 5 5 5 5 5 5 z 5 5 5 5 5 5 5 5 5 5 5 5 $ ",
"m m P I m ^ m m m m m ^ m m m m ^ m m m ^ m m ~ ~ n Q ^ n m m m P P P I ^ C.J J J S D m m m m n _ P m m m m m m m m m m m T Q m m m m m m n ~ Q m m m m m &.m m m m m ^ m m m Q ~ n m m ^ m m D ~ n m / m m m m m m m m m m m m m m m m m m I *X].t e y t y f.:.S C * 5 5 5 5 5 5 * K V * r 1.5 5 5 5 5 5 5 5 5 5 5 p p p p p p p p p y 5 5 5 5 1.r 5 5 5 5 5 5 5 5 5 5 5 5 5 5 V 5 5 5 5 5 5 5 5 5 5 5 5 5 l z * 5 5 5 % d KXSX5 5 5 5 5 V 5 5 5 5 5 5 5 5 5 5 5 + lXi.: 5 5 5 5 5 5 5 5 5 5 5 5 5 z 5 5 5 5 5 5 5 5 5 5 5 5 $ ",
"m m m m m ^ m m m m m ^ m m m m ^ m m m ^ m m ~ ~ n Q ^ n m m m P P P I ^ C.J J J S D m m m m n _ P m m m m m m m m m m m T Q m m m m m m n ~ Q m m m m m &.m m m m m ^ m m m Q ~ n m m ^ m m D ~ n m / m m m m m m m m m m m m m m m m m m b }  Xt e y t y f.:.S C * 5 5 5 5 5 5 * K V * r 1.5 5 5 5 5 5 5 5 5 5 5 p a a a a a a a a y 5 5 5 5 1.r 5 5 5 5 5 5 5 5 5 5 5 5 5 5 V 5 5 5 5 5 5 5 5 5 5 5 5 5 l z * 5 5 % d FXZX5 5 5 5 5 5 V 5 5 5 5 5 5 5 5 5 5 5 + lXi.: 5 5 5 5 5 5 5 5 5 5 5 5 5 z 5 5 5 5 5 5 5 5 5 5 5 5 $ ",
"m m m m m ^ m m m m m ^ m m m m ^ m m m ^ m m ~ ~ n Q ^ n m m m P P P I ^ C.J J J S D m m m m n _ P m m m m m m m m m m m T Q m m m m m m n ~ Q m m m m m &.m m m m m ^ m m m Q ~ n m m ^ m m D ~ n m / m m m m m m m m m m m m m m m m m m b E @Xt e y t y f.:.S C * 5 5 5 5 5 5 * K V * r 1.5 5 5 5 5 5 5 5 5 5 5 p a a a a a a a a y 5 5 5 5 1.r 5 5 5 5 5 5 5 5 5 5 5 5 5 5 V 5 5 5 5 5 5 5 5 5 5 5 5 5 l z * 5 % d FXZX5 * 5 5 5 5 5 V 5 5 5 5 5 5 5 5 5 5 5 + lXi.: 5 5 5 5 5 5 5 5 5 5 5 5 5 z 5 5 5 5 5 5 5 5 5 5 5 5 $ ",
"m m m m m ^ m m m m m ^ m m m m ^ m m m ^ m m ~ ~ n Q ^ n m m m P P P I ^ C.J J J S D m m m m n _ P m m m m m m m m m m m T Q m m m m m m n ~ Q m m m m m &.m m m m m ^ m m m Q ~ n m m ^ m m D ~ n m / m m m m m m m m m m m m m m m m m m b Y @Xl e y t y f.:.S C * 5 5 5 5 5 5 * K V * r 1.5 5 5 5 5 5 5 5 5 5 5 p p p p p p p p p y 5 5 5 5 1.r 5 5 5 5 5 5 5 5 5 5 5 5 5 5 V 5 5 5 5 5 5 5 5 5 5 5 5 5 l z 5 % d FXAXy % 5 5 5 5 5 5 V 5 5 5 5 5 5 5 5 5 5 5 + lXi.: 5 5 5 5 5 5 5 5 5 5 5 5 5 z 5 5 5 5 5 5 5 5 5 5 5 5 $ ",
"m m m m m ^ m m m m m ^ m m m m ^ m m m ^ m m ~ ~ n Q ^ n m m m P P P I ^ C.J J J S D m m m m n _ P m m m m m m m m m m m T Q m m m m m m n ~ Q m m m m m &.m m m m m ^ m m m Q ~ n m m ^ m m D ~ n m / m m m m m m m m m m m m m m m m m m m I @Xx e y t y f.:.S C * 5 5 5 5 5 5 * K V * r 1.5 5 5 5 5 5 5 5 5 5 5 a a a a a a a a s y 5 5 5 5 1.r 5 5 5 5 5 5 5 5 5 5 5 5 5 5 V 5 5 5 5 5 5 5 5 5 5 5 5 5 l V % d FXFXt % 5 5 5 5 5 5 5 V 5 5 5 5 5 5 5 5 5 5 5 + lXi.: 5 5 5 5 5 5 5 5 5 5 5 5 5 z 5 5 5 5 5 5 5 5 5 5 5 5 $ ",
"m m m m m ^ m m m m m ^ m m m m ^ m m m ^ m m ~ ~ n Q ^ n m m m P P P I ^ C.J J J S D m m m m n _ P m m m m m m m m m m m T Q m m m m m m n ~ Q m m m m m &.m m m m m ^ m m m Q ~ n m m ^ m m D ~ n m / m m m m m m m m m m m m m m m m m m m P  Xb 4 y t y f.:.S C * 5 5 5 5 5 5 * K V * r 1.5 5 5 5 5 5 5 5 5 5 5 p p p p p p p p p y 5 5 5 5 1.r 5 5 5 5 5 5 5 5 5 5 5 5 5 5 V 5 5 5 5 5 5 5 5 5 5 5 5 5 l l t FXFXd % 5 5 5 5 5 5 5 5 V 5 5 5 5 5 5 5 5 5 5 5 + lXi.: 5 5 5 5 5 5 5 5 5 5 5 5 5 z 5 5 5 5 5 5 5 5 5 5 5 5 $ ",
"m m m m m ^ m m m m m ^ m m m m ^ m m m ^ m m ~ ~ n Q ^ n m m m P P P I ^ C.J J J S D m m m m n _ P m m m m m m m m m m m T Q m m m m m m m ~ ~ m m m m m &.m m m m m ^ m m m Q ~ m m m ^ m m D ~ n m / m m m m m m m m m m m m m m m m m m m P  Xn e y t y f.:.S C * 5 5 5 5 5 5 * K V * r 1.5 5 5 5 5 5 5 5 5 5 5 a s s s s s s s s y 5 5 5 5 1.r 5 5 5 5 5 5 5 5 5 5 5 5 5 5 V 5 5 5 5 5 5 5 5 5 5 5 5 5 l C ZXFXd % 5 5 5 5 5 5 5 5 5 V 5 5 5 5 5 5 5 5 5 5 5 + lXi.: 5 5 5 5 5 5 5 5 5 5 5 5 5 V 5 5 5 5 5 5 5 5 5 5 5 5 $ ",
"m m m m m ^ m m m m m ^ m m m m ~ n m m ^ m n ~ ~ n Q ^ n m m m P P P I ~ C.J J J S D m m m m n _ P n m m m m m m m m m n T Q n m m m m m n ~ Q n m m m m &.m m m m m ^ m m n Q ~ n m m ^ m n m ~ n m / n m m m m m m m m m m m m m m m m m m m  Xn 4 y t y :.:.S C * 5 5 5 5 5 5 * K V * r 1.5 5 5 5 5 5 5 5 5 5 5 p p p p p p p p p y 5 5 5 5 1.r 5 5 5 5 5 5 5 5 5 5 5 5 5 5 z 5 5 5 5 5 5 5 5 5 5 5 5 % y AXFXd % 5 5 5 5 5 5 5 5 5 5 V 5 5 5 5 5 5 5 5 5 5 5 + lXi.: 5 5 5 5 5 5 5 5 5 5 5 5 5 z 5 5 5 5 5 5 5 5 5 5 5 5 $ ",
"/ / / / / 0./ / / / / 0./ / / / 0./ / / 0./ / ( ( / ( 0./ / / / / ( ( ` 0.C.3.3.q.q.( / / / / ^ ` ( / / / / / / / / / / / =.( / / / / / / / ( ( / / / / / K./ / / / / 0./ / / ( ( / / / 0./ / ( 0./ / 0./ / / / / / / / / / / / / / / / / / / / @X_ s H H H l.:.S C * 5 5 5 5 5 5 * K V * r 1.5 5 5 5 5 5 5 5 5 5 5 a s a a a a a a s y 5 5 5 5 1.5 l Z C C C C C C C C C C C C K C C C C C C C C C C Z C C ZXFX,.x Z C C C C C C C C C C K C C C C C C C C C C Z u cXp.z C C C C C C C C C C C C C K C C C C C C C C C C C Z l ",
"m m m m m ^ m m m m m ^ m m m m ^ m m m ^ m m ~ ~ n Q ^ m m m P P P P I ^ C.J J J J D m m m m m _ Q m m m m m m m m m m m T Q m m m m m m m ~ ~ m m m m m &.m m m m m ^ m m m ~ ~ m m m ^ m m Q ~ m m / m m m m m m m m m m m m m m m m m m m b  XI 7 y t y f.:.S C * 5 5 5 5 5 5 * K V * r 1.5 5 5 5 5 5 5 5 5 5 5 p p p p p p p p p y 5 5 5 5 1.r 5 5 5 5 5 5 5 5 5 5 5 5 5 5 V 5 5 5 5 5 5 5 5 5 5 5 5 ZXKXg % 5 5 5 5 5 5 5 5 5 5 5 5 V 5 5 5 5 5 5 5 5 5 5 5 + lXi.e 5 5 5 5 5 5 5 5 5 5 5 5 5 V 5 5 5 5 5 5 5 5 5 5 5 5 $ ",
"m m m m m ^ m m m m m ^ m m m m ^ m m m ^ m m ~ ~ n Q ^ n m m m P P P I ~ C.J J J S D m m m m n _ Q m m m m m m m m m m n T Q m m m m m m n ~ ~ m m m m m &.m m m m m ^ m m m Q ~ n m m ^ m m D ~ n m / m m m m m m m m m m m m m m m m m m m b }.U 7 y t y f.:.S C * 5 5 5 5 5 5 * K V * r 1.5 5 5 5 5 5 5 5 5 5 5 a a a a a a a a a y 5 5 5 5 1.r 5 5 5 5 5 5 5 5 5 5 5 5 5 5 V 5 5 5 5 5 5 5 5 5 * 5 ZXJX,.k 4 5 5 5 5 5 5 5 5 5 5 5 5 V 5 5 5 5 5 5 5 5 5 5 5 + lXi.: 5 5 5 5 5 5 5 5 5 5 5 5 5 z 5 5 5 5 5 5 5 5 5 5 5 5 $ ",
"m m m m m ~ m n n m m ^ m m m m ^ m m m ^ m m ~ ~ n Q ~ n m m m P P P I ^ C.J J J S D m m m m n _ P n n n m m m m m m m m T Q m m m m m m n Q Q n n m m m &.m m m m m ^ m m m Q ~ n m n ~ m n m ~ n m / m m m m m m m m m m m m m m m m m m m b }.].7 y t y f.:.S C * 5 5 5 5 5 5 * K V * r 1.5 5 5 5 5 5 5 5 5 5 5 p a a a a a a a a y 5 5 5 5 1.r 5 5 5 5 5 5 5 5 5 5 5 5 5 5 V 5 5 5 5 5 5 5 5 5 5 SXJXg 8 V * 5 5 5 5 5 5 5 5 5 5 5 5 V 5 5 5 5 5 5 5 5 5 5 5 + lXi.: 5 5 5 5 5 5 5 5 5 5 5 5 5 z 5 5 5 5 5 5 5 5 5 5 5 5 $ ",
"m m m m m P.0.( 0.m m ^ m m m m ^ m m m ^ m m ~ ~ n ~ W.~ / ( m P P P I ^ C.J J J S D m m m m n ` U./ L.0.n m m m m m m m T Q m m m m m m m P.0./ L.Q m m &.m m m m m ^ m m m Q ~ m m ~ I./ 0.0.~ n m / m m m m m m m m m m m m m m m m m m m b }.|.e y t y f.:.S C * 5 5 5 5 5 5 * K V * r 1.5 5 5 5 5 5 5 5 5 5 5 p p p p p p p p p y 5 5 5 5 1.r 5 5 5 5 5 5 5 5 5 5 5 5 5 5 V 5 5 5 5 5 5 5 5 5 pXJX,.= z z * 5 5 5 5 5 5 5 5 5 5 5 5 V 5 5 5 5 5 5 5 5 5 5 5 + lXi.: 5 5 5 5 5 5 5 5 5 5 5 5 5 z 5 5 5 5 5 5 5 5 5 5 5 5 $ ",
"m m m n ( I.n P.0.n m ^ m m m m ^ m m m ^ m m ~ ~ c I.0.m I.^ m P P P I ^ C.J J J S D m m m m D !.~ m / 0.n m m m m m m m T Q m m m m m n ( P.D 0.I.~ n m &.m m m m m ^ m m m Q ~ m m P.( / w.P./ n m / m m m m m m m m m m m m m m m m m m m b [.}.e y t y f.:.S C * 5 5 5 5 5 5 * K V * r 1.5 5 5 5 5 5 5 5 5 5 5 a a a a a a a a s y 5 5 5 5 1.r 5 5 5 5 5 5 5 5 5 5 5 5 5 5 V 5 5 5 5 5 5 5 % pXJX,.% 5 l z * 5 5 5 5 5 5 5 5 5 5 5 5 V 5 5 5 5 5 5 5 5 5 5 5 + lXi.: 5 5 5 5 5 5 5 5 5 5 5 5 5 z 5 5 5 5 5 5 5 5 5 5 5 5 $ ",
"m m m n 0.L.c m w.( n ^ m m m m ^ m m m ^ m m ~ ~ n I.~ Q P.L.~ P P P I ^ C.J J J S D m m m n ~ !.U M w.~ n m m m m m m m T Q m m m m m n 0.0.m 0.I.~ n m &.m m m m m ^ m m m Q ~ n m P.~ m ( W./ n m / m m m m m m m m m m m m m m m m m m m b [  Xy t t y f.:.S C * 5 5 5 5 5 5 * K V * r 1.5 5 5 5 5 5 5 5 5 5 5 p p p p p p p p p y 5 5 5 5 1.r 5 5 5 5 5 5 5 5 5 5 5 5 5 5 V 5 5 5 5 5 5 % D.JX,.% 5 5 l z * 5 5 5 5 5 5 5 5 5 5 5 5 V 5 5 5 5 5 5 5 5 5 5 5 + lXi.: 5 5 5 5 5 5 5 5 5 5 5 5 5 z 5 5 5 5 5 5 5 5 5 5 5 5 $ ",
"m m m n ~ W.( ^ L.^ m ^ m m m m ^ m m m ^ m m ~ ~ c 0.W.~ 0.L.Q P P P I ^ C.J J J S D m m m m m !.w.~ w.m m m m m m m m m T Q m m m m m n ~ W.0.0.P.^ n m &.m m m m m ^ m m m Q ~ m n 0.W.~ ( L.~ n m / m m m m m m m m m m m m m m m m m m m b E  Xr t t y f.:.S C * 5 5 5 5 5 5 * K V * r 1.5 5 5 5 5 5 5 5 5 5 5 a s s s s s s s s y 5 5 5 5 1.r 5 5 5 5 5 5 5 5 5 5 5 5 5 5 V 5 5 5 5 5 % D.JX,.% 5 5 5 l z * 5 5 5 5 5 5 5 5 5 5 5 5 V 5 5 5 5 5 5 5 5 5 5 5 + lXi.: 5 5 5 5 5 5 5 5 5 5 5 5 5 z 5 5 5 5 5 5 5 5 5 5 5 5 $ ",
"m m m m m / ~ Q Q n m ^ m m m m ^ m m m ^ m m ~ ~ n D ( m D D m P P P I ^ C.J J J S D m m m m n _ ) m m m m m m m m m m m T Q m m m m m m n ^ ^ m ~ m m m &.m m m m m ^ m m m Q ~ m m m ( Q Q Q ~ m m / m m m m m m m m m m m m m m m m m m m b E  Xl t t y f.:.S C * 5 5 5 5 5 5 * K V * r 1.5 5 5 5 5 5 5 5 5 5 5 p p p p p p p p p y 5 5 5 5 1.r 5 5 5 5 5 5 5 5 5 5 5 5 5 5 V 5 5 5 5 % A.JXh.% 5 5 5 5 l z * 5 5 5 5 5 5 5 5 5 5 5 5 V 5 5 5 5 5 5 5 5 5 5 5 + lXi.: 5 5 5 5 5 5 5 5 5 5 5 5 5 z 5 5 5 5 5 5 5 5 5 5 5 5 $ ",
"m n m m m ~ n n m m m ~ m m n m ~ m m m ~ m n Q ~ n Q ^ c m m m P P P I ~ C.J J J S D m m n m n _ P M m m m m m m m m m n T D n m m n m m n ~ D n m m n m &.m m m m m ^ m m m Q ~ n m n ~ m n D ~ c m / n m n m m m n m m m m m m n n n n n m M E #Xj t t y f.:.S C * 5 5 5 5 5 5 * K V * r 1.5 5 5 5 5 5 5 5 5 5 5 a s a s s s s a s y 5 5 5 5 1.r 5 5 5 5 5 5 5 5 5 5 5 5 5 5 V 5 5 5 % A.JXh.% 5 5 5 5 5 l z * 5 5 5 5 5 5 5 5 5 5 5 5 V 5 5 5 5 5 5 5 5 5 5 5 + lXi.: 5 5 5 5 5 5 5 5 5 5 5 5 5 z 5 5 5 5 5 5 5 5 5 5 5 5 $ ",
"D L./ n / ~ ( 0.m D L.( n / ( 0.L.m m L.( n ^ L.~ m 0.~ 0./ n / L.~ P ` q.C.4.J 3.K.L m 0.0.m ~ ` ) L.~ n 0.0.m ~ 0./ L.~ T 0.0.m Q L.^ n ( ~ ( 0.m Q L./ J / ( 0.0.m ~ L./ n / L.D m ( ~ L./ n / L.Q D 0./ L./ n ^ L./ m m m m ( w.0.0.0.0.0.0.!.@X2.t t y f.:.S C * 5 5 5 5 5 5 * K V * r 1.5 5 5 5 5 5 5 5 5 5 5 p p p p p p p p p y 5 5 5 5 1.r 5 5 5 5 5 5 5 5 5 5 5 5 5 5 V 5 5 % F.JXz.% 5 5 5 5 5 5 l z * 5 5 5 5 5 5 5 5 5 5 5 5 V 5 5 5 5 5 5 5 5 5 5 5 + lXi.: 5 5 5 5 5 5 5 5 5 5 5 5 5 z 5 5 5 5 5 5 5 5 5 5 5 5 $ ",
"Q W.0.c 0.~ 0.I.m Q I.0.c 0.0.L.P.m Q I.0.c ( W.~ m L.Q I.0.c ( I.) P w.0.C.K.S q.W.L m P.P.n ^ w./ W.~ n P.P.n ~ L.0.I.^ P L.P.m ~ W.( c 0.~ L.P.m ~ I.0.B 0.0.P.P.m Q I.0.c 0.I.Q m L.Q I.0.c ( W.~ m L.0.I.0.c ( I.0.m m m m L.( / / / ^ / / (  XK.t t y f.:.S C * 5 5 5 5 5 5 * K V * r 1.5 5 5 5 5 5 5 5 5 5 5 a a a a a a a a a y 5 5 5 5 1.r 5 5 5 5 5 5 5 5 5 5 5 5 5 5 V 5 % F.JXZ.% 5 5 5 5 5 5 5 l z * 5 5 5 5 5 5 5 5 5 5 5 5 V 5 5 5 5 5 5 5 5 5 5 5 + lXi.: 5 5 5 5 5 5 5 5 5 5 5 5 5 z 5 5 5 5 5 5 5 5 5 5 5 5 $ ",
"Q I.( c 0.~ 0.P.m Q I.0.c ( 0.L.P.m D I.0.c ( I.~ m 0.Q U.0.c ( U.~ P w.0.C.K.S q.W.L m L.L.n ~ w./ I.~ n L.P.n ~ L.0.I.~ T L.P.m ~ I.( c 0.~ 0.P.m ~ I.0.B 0.0.L.P.m Q I.( c ( I.Q m 0.~ I.( c ( I.Q m L.0.U.0.c ( I.0.m m m m 0.^ ~ ~ ~ ( ^ D )  Xq.t t y f.:.S C * 5 5 5 5 5 5 * K V * r 1.5 5 5 5 5 5 5 5 5 5 5 p a p p p p p p a y 5 5 5 5 1.r 5 5 5 5 5 5 5 5 5 5 5 5 5 5 V % Z.JXZ.% 5 5 5 5 5 5 5 5 l z * 5 5 5 5 5 5 5 5 5 5 5 5 V 5 5 5 5 5 5 5 5 5 5 5 + lXi.: 5 5 5 5 5 5 5 5 5 5 5 5 5 z 5 5 5 5 5 5 5 5 5 5 5 5 $ ",
"Q I.( c 0.~ 0.P.m Q I.0.c 0.0.L.P.m D I.0.c ( I.~ m L.Q I.0.c ( I.) P w.0.C.K.S q.W.L m L.P.n ~ w./ I.~ n L.P.n ~ L.0.I.~ P L.P.m ~ I.( c 0.~ 0.P.m ~ I.0.B 0.0.L.P.m Q I.( c ( I.Q m 0.Q I.0.c ( I.Q m L.0.I.0.c ( I.0.m m m m 0./ ~ ( /././.L.~ #X0.t t y f.:.S C * 5 5 5 5 5 5 * K V * r 1.5 5 5 5 5 5 5 5 5 5 5 p p p p p p p p p y 5 5 5 5 1.r 5 5 5 5 5 5 5 5 5 5 5 5 5 5 k z.JXZ.% 5 5 5 5 5 5 5 5 * l z * 5 5 5 5 5 5 5 5 5 5 5 5 V 5 5 5 5 5 5 5 5 5 5 5 + lXi.: 5 5 5 5 5 5 5 5 5 5 5 5 5 z 5 5 5 5 5 5 5 5 5 5 5 5 $ ",
"Q I.( c 0.~ 0.P.m Q I.0.c 0.0.L.P.m D I.0.c ( I.~ m L.Q I.0.c ( I.) P w.0.C.K.S q.W.L m L.P.n ~ w./ I.~ n L.P.n ~ L.0.I.~ P L.P.m ~ I.( c 0.~ 0.P.m ~ I.0.B 0.0.L.P.m Q I.( c ( I.Q m 0.Q I.0.c ( I.Q m L.0.I.0.c ( I.0.m m m m 0./ ~ I.0.~ / W.^  XL.t t y f.:.S C * 5 5 5 5 5 5 * K V * r 1.5 5 5 5 5 5 5 5 5 5 5 a a a a a a a a a y 5 5 5 5 1.r 5 5 5 5 5 5 5 5 5 5 5 5 5 = C.JXZ.% 5 5 5 5 5 5 5 5 5 5 l z 5 5 5 5 5 5 5 5 5 5 5 5 5 V 5 5 5 5 5 5 5 5 5 5 5 + lXi.e 5 5 5 5 5 5 5 5 5 5 5 5 5 V 5 5 5 5 5 5 5 5 5 5 5 5 $ ",
"Q I.( c 0.~ 0.P.m Q I.0.c 0.0.L.P.m Q I.0.c ( I.~ m L.Q I.0.c ( I.) P w.0.C.K.S q.W.L m L.L.n ^ w./ I.~ n L.P.m ~ L.0.I.~ T L.P.m ~ I.( c 0.~ 0.P.m ~ I.0.B 0.0.L.P.m Q I.( c ( I.Q m 0.Q I.0.c ( I.~ m L.0.I.0.c ( I.0.^ ^ ^ ~ L./ ~ W.I.Q 0.W.^  XL.g H C l.:.S C * 5 5 5 5 5 5 * K V * r 1.5 5 5 5 5 5 5 5 5 5 5 p p p p p p p p p y 5 5 5 5 1.5 l V V V V V V V V V V V k C.JXF.k V V V V V V V V V V z Z Z z V V V V V V V V V V V V G V V V V V V V V V V C e cXp.z V V V V V V V V V V V V V Z z V V V V V V V V V V V j ",
"D I.( c 0.~ 0.P.m m I.( c ( 0.L.P.m m I.0.c ( I.Q n 0.Q I.0.c / I.~ P w.0.C.K.C q.W.L n L.P.n ~ w./ I.~ c L.P.n ~ L.0.I.~ U L.P.n Q I.( c 0.~ 0.P.n Q I.0.B ( 0.L.P.m D I.( c ( I.Q m 0.Q I.( c ( I.Q n L.0.I.0.c ( I.0.m m m n 0./ D W.`.~ `.`.J @XL.t t y :.:.S C * 5 5 5 5 5 5 * K V * r 1.5 5 5 5 5 5 5 5 5 5 5 a s s s s s s s s y 5 5 5 5 1.r 5 5 5 5 5 5 5 5 5 5 5 = l.JXS.% 5 5 5 5 5 5 5 5 5 5 5 * l z * 5 5 5 5 5 5 5 5 5 5 5 5 V 5 5 5 5 5 5 5 5 5 5 5 + lXi.: 5 5 5 5 5 5 5 5 5 5 5 5 5 z 5 5 5 5 5 5 5 5 5 5 5 5 $ ",
"0.I.0.~ P.~ 0.P.~ 0.I.0.~ L.0.L.P.^ ( I.0.~ L.I./ ( L.Q U.0.~ L.U./ ( U.0.C.K.2.K.W.( / P.L.~ 0.w./ I./ / P.P.~ 0.w.0.I./ T P.P.~ 0.I.0.^ P.~ 0.P.~ 0.U.0.L L.0.L.P.~ 0.I.0.^ L.U.^ ( L.Q I.0.~ L.U./ ( L.0.U.0.~ L.U.0.m m m m 0./ ~ / W./ W.L.L #XL.t t y f.:.S C * 5 5 5 5 5 5 * K V * r 1.5 5 5 5 5 5 5 5 5 5 5 p p p p p p p p p y 5 5 5 5 1.r 5 5 5 5 5 5 5 5 5 5 % l.JXA.9 5 5 5 5 5 5 5 5 5 5 5 5 5 l z 5 5 5 5 5 5 5 5 5 5 5 5 5 V 5 5 5 5 5 5 5 5 5 5 5 + lXi.: 5 5 5 5 5 5 5 5 5 5 5 5 5 V 5 5 5 5 5 5 5 5 5 5 5 5 $ ",
"P.P.0.0.I.~ 0.P.0.P.P.0.0.I.0.L.P.0.P.P.0.0.I.P.0.P.L.Q P.w.0.U.U.w.U.!.0.C.K.K.E.P.q.P.P.L.0.I.` / I.0.P.U.L.0.I.0.0.I.0.=.U.P.0.U.P.0.0.I.~ 0.P.0.P.U.L.K.I.0.L.P.0.P.P.0.0.I.P.0.P.L.Q I.0.0.I.P.0.P.P.( U.0.0.I.P.0.m m m m 0./ ~ ~ ~ ~ ~ ~ L  XU.t t y f.:.S C * 5 5 5 5 5 5 * K V * r 1.5 5 5 5 5 5 5 5 5 5 5 a s s s s s s s s y 5 5 5 5 1.r 5 5 5 5 5 5 5 5 5 % h.JXD.% V 5 5 5 5 5 5 5 5 5 5 5 5 5 l z * 5 5 5 5 5 5 5 5 5 5 5 5 V 5 5 5 5 5 5 5 5 5 5 5 + lXi.: 5 5 5 5 5 5 5 5 5 5 5 5 5 z 5 5 5 5 5 5 5 5 5 5 5 5 $ ",
"P.U.0.0.I.~ 0.P.( P.U.0.0.I.0.L.P.( P.U.0.0.P.P.0.L.L.Q U.0.0.U.U.( L.!.0.C.K.K.E.E.q.L.P.L.( P.` / I.0.L.U.P.( P.0.0.I.0.=.P.P.( P.U.0.0.I.~ 0.P.( P.U.L.K.U.0.L.P.( P.U.0.0.P.P.0.P.L.Q I.0.0.P.P.0.L.P.( U.0.0.P.P.0.m m m m 0./ ~ ~ ~ ~ ~ ~ L  XU.t t y f.:.S C * 5 5 5 5 5 5 * K V * r 1.5 5 5 5 5 5 5 5 5 5 5 p p p p p p p p p y 5 5 5 5 1.r 5 5 5 5 5 5 5 5 % h.JXD.% 5 V 5 5 5 5 5 5 5 5 5 5 5 5 5 l z * 5 5 5 5 5 5 5 5 5 5 5 5 V 5 5 5 5 5 5 5 5 5 5 5 + lXi.: 5 5 5 5 5 5 5 5 5 5 5 5 5 z 5 5 5 5 5 5 5 5 5 5 5 5 $ ",
"P.P.0.0.I.~ 0.P.( P.P.0.0.I.0.L.P.( P.P.0.0.P.P.0.L.L.Q P.0.0.U.U.( L.!.0.C.K.K.E.P.q.L.P.L.( P.` / I.0.L.P.L.( U.0.0.I.0.=.P.P.0.P.P.0.0.I.~ 0.P.( P.U.L.K.U.0.L.P.( P.P.0.0.P.P.0.P.L.Q I.0.0.P.P.0.L.P.( P.0.0.P.P.0.m m m m 0.P.L.L.L.L.L.L.K.#XU.t t y f.:.S C * 5 5 5 5 5 5 * K V * r 1.5 5 5 5 5 5 5 5 5 5 5 a a a a a a a a a y 5 5 5 5 1.r 5 5 5 5 5 5 5 % ,.JXpX% 5 5 V 5 5 5 5 5 5 5 5 5 5 5 5 5 l z * 5 5 5 5 5 5 5 5 5 5 5 5 V 5 5 5 5 5 5 5 5 5 5 5 + lXi.: 5 5 5 5 5 5 5 5 5 5 5 5 5 z 5 5 5 5 5 5 5 5 5 5 5 5 $ ",
"m D m m D ^ m D m m Q ^ m D m Q / m D Q ^ m m ~ ~ m ~ ^ m m m Q Q P P I ^ C.J J L J D D D m m m _ Q m m m D m m D m m D m T ~ m m D D m m m ~ ~ m m D Q D &.Q m m D m / Q m m ~ ^ m D m ~ Q m Q ^ m Q / m m D m m D D m m m m m m Q Q Q Q Q Q P L #XI h t y f.:.S C * 5 5 5 5 5 5 * K V * r 1.5 5 5 5 5 5 5 5 5 5 5 p p p p p p p p a y 5 5 5 5 1.r 5 5 5 5 5 5 % g JXpX% 5 5 5 V 5 5 5 5 5 5 5 5 5 5 5 5 5 l z * 5 5 5 5 5 5 5 5 5 5 5 5 V 5 5 5 5 5 5 5 5 5 5 5 + lXi.: 5 5 5 5 5 5 5 5 5 5 5 5 5 z 5 5 5 5 5 5 5 5 5 5 5 5 $ ",
"n m m m m ^ m m m m m ^ m m m m ~ n m m ^ m n Q ~ n Q ^ n m m m P P P I ~ C.J J J S D m m m m n _ P n m m m m m m m m m n T Q n m m m m m n ~ Q n m m m m &.m m m m m ~ m m n Q ~ n m m ^ m n m ~ n m / n m m m m m m m m m m m m m m m m m m n S #XI h t y f.:.S C * 5 5 5 5 5 5 * K V * r 1.5 5 5 5 5 5 5 5 5 5 5 p p p p p p p p a y 5 5 5 5 1.r 5 5 5 5 5 % g JXpX% 5 5 5 5 V 5 5 5 5 5 5 5 5 5 5 5 5 5 l z * 5 5 5 5 5 5 5 5 5 5 5 5 V 5 5 5 5 5 5 5 5 5 5 5 + lXi.: 5 5 5 5 5 5 5 5 5 5 5 5 5 V 5 5 5 5 5 5 5 5 5 5 5 5 $ ",
"m m m m m ^ m m m m m ~ n m m m ^ m m m ^ m m ~ ~ n Q ^ n n m m P P P I ^ C.J J J S D m m m m n _ P m m n m m m m m m m m T Q m m m m m m m ~ ~ m m m m m &.m m m m m ^ m m m Q ~ m m m ^ m m D ~ n m / n n m m m m m m m m m m m m m m m m m m J #XY h t y :.:.S C * 5 5 5 5 5 5 * K V * r 1.5 5 5 5 5 5 5 5 5 5 5 a a a a a a a a a y 5 5 5 5 1.r 5 5 5 5 % g KXpX* 5 5 5 5 5 V 5 5 5 5 5 5 5 5 5 5 5 5 5 l z * 5 5 5 5 5 5 5 5 5 5 5 5 V 5 5 5 5 5 5 5 5 5 5 5 + lXi.: 5 * 5 5 5 5 5 * 5 * 5 5 5 l 5 5 5 5 5 5 5 5 5 5 5 5 $ ",
"m m m m m ~ m K.^ q.K.L.K.D n m ^ m m m ^ m m ~ ~ n Q ^ D K.~ / P P P I ^ C.J J J S D m m m m n _ P q.K.q.D m m m m m m m T ~ q.0.( m m m n ~ Q m m m m m &.m K.( q.m ^ m m m Q ~ n m m ^ m m D ~ n m / m K.D K.0.q.m m m m m m m m m m m m m m J +X{ 5.H 4.l.,.C C * 5 5 5 5 5 5 * K V * r 1.5 5 5 5 5 5 5 5 5 5 5 p p p p p p p p p y 5 5 5 5 1.r 5 5 5 % g KXSX5 5 5 5 5 5 5 V 5 5 5 5 5 5 5 5 5 5 5 5 5 l z * 5 5 5 5 5 5 5 5 5 5 5 5 V 5 5 5 5 5 5 5 5 5 5 5 + lXi.r u.9.u.e.* w s.9.r.r.5 $ 9.e.u.u.0 5 5 5 5 5 5 5 5 5 $ ",
"m m m m m ~ ~ E.^ q.q.W.^ q.n m ^ m m m ^ m m ~ ~ n Q ^ m K.^ P.( P P I ^ C.J J J S D m m m m n _ Q n 0.K.K.~ m m m m m m T Q q.K.K.q.m m m ~ Q m m m m m ( m E.^ 0.K.( m m m Q ~ n m m ^ m m D ~ n m / m K.q.q.q.E.q.D m m m m m m m m m m m m J #XY <.T.C J.v.C C * 5 5 5 5 5 5 * K V * r 1.5 5 5 5 5 5 5 5 5 5 5 a s s s s s s s s y 5 5 5 5 1.r 5 5 % g KXZXe * 5 5 5 5 5 5 V 5 5 5 5 5 5 5 5 5 5 5 5 5 l z * 5 5 5 5 5 5 5 5 5 5 5 5 V 5 5 5 5 5 5 5 5 5 5 5 + lXi.: 0 s.s.8.5 5 F u.5 s.0 r.iXi.s.s.0 5 5 5 5 5 5 5 5 5 $ ",
"m m m m m ^ m D W.q.q.~.~ 0.c m ^ m m m ^ m m ~ ~ n Q ^ n q.^ ^.^ P P I ^ C.J J J S D m m m m n _ P ~ q.0.R.n m m m m m m T Q D K.^.0.n m n ~ Q m m m m m &.m m K.R.E.~ m m m Q ~ n m m ^ m m D ~ n m / c q.q.^ q.^.K.n m m m m m m m m m m m m J {.] ,.1.C J.v.C C * 5 5 5 5 5 5 * K V * r 1.5 5 5 5 5 5 5 5 5 5 5 p p p p p p p p p y 5 5 5 5 1.r 5 % g FXZXy * 5 5 5 5 5 5 5 V 5 5 5 5 5 5 5 5 5 5 5 5 5 l z * 5 5 5 5 5 5 5 5 5 5 5 5 V 5 5 5 5 5 5 5 5 5 5 5 + lXiXA e.8.5 s.F $ u.0 9.8.0 r.e.p.r.r.F & 5 5 5 5 5 5 5 5 $ ",
"m m m m m ~ D 0.q.0.K.L.E.~ n m ^ m m m ^ m m ~ ~ n Q ^ n q.^ 0.0.P P I ^ C.J J J S D m m m m n _ P E.K.q.0.^ n m m m m m T ^ 0.0.q.0.D m m ~ Q m m m m m ( m q.0.q.0.0.m m m Q ~ n m m ^ m m D ~ n m / n q.~ K.K.q.0.~ n m m m m m m m m m m m J {.!.v.G x.J.h.C C * 5 5 5 5 5 5 * K V * r 1.5 5 5 5 5 5 5 5 5 5 5 a s s s s s s s s y 5 5 5 5 1.r % d FXAXy % 5 5 5 5 5 5 5 5 V 5 5 5 5 5 5 5 5 5 5 5 5 5 l z * 5 5 5 5 5 5 5 5 5 5 5 5 V 5 5 5 5 5 5 5 5 5 5 5 + lXp.F iXe.e.u.8.9.iXe.iXe.5 r.s.e.s.u.w * 5 5 5 5 5 5 5 5 $ ",
"m m m m m ^ m D m m m ~ m m m m ~ m m m ^ m n ~ ~ n Q ^ n m m m P P P I ~ C.J J J S D m m m m n _ P m m m n m m m m m m n T Q m m m m m m n ~ Q n m m m m X.m m m n n ^ m m n Q ~ n m m ^ m m D ~ n m / n m m m m n m m m m m m m m m m m m m m S {.] h t y :.:.S C * 5 5 5 5 5 5 * K V * r 1.5 5 5 5 5 5 5 5 5 5 5 p p p p p p p p p y 5 5 5 5 1.8 t FXFXy % 5 5 5 5 5 5 5 5 5 V 5 5 5 5 5 5 5 5 5 5 5 5 5 l z * 5 5 5 5 5 5 5 5 5 5 5 5 V 5 5 5 5 5 5 5 5 5 5 5 + lXi.: 5 0 0 5 5 5 5 0 5 0 5 5 0 l 0 5 * 5 5 5 5 5 5 5 5 5 $ ",
"m m m m m / m m m m P / m m m P / m m P / m m ~ ~ m ~ / m m m P P P I I ^ C.J J J J D D m m P m _ I m m m m m m m m m m m T ~ m m m m m m m ~ ~ m m m P m &.P m m m m / P m m ~ ~ m P m / P m Q ^ m Q ( m m m m m m m m m m m m m m m m m m m P J +X} h t y :.f.J l 5 5 5 5 5 5 5 * K z * r 1.5 5 5 5 5 5 5 5 5 5 5 a a a a a a a a a y 5 5 5 5 K V ZXFXy % 5 5 5 5 5 5 5 5 5 5 V 5 5 5 5 5 5 5 5 5 5 5 5 5 l z 5 5 5 5 5 5 5 5 5 5 5 5 5 V 5 5 5 5 5 5 5 5 5 5 5 + lXp.e 5 5 5 5 5 5 5 5 5 5 5 5 5 V 5 5 5 5 5 5 5 5 5 5 5 5 $ ",
"k k k k k k k k k k k k k k k k k k k k k k k k k k k k k k k k k k k k k l k k k k k k k k k k k k k k k k k k k k k k k k k k k k k k k k k k k k k k k k k k k k k k k k k k k k k k k k k k k k k k k k k k k k k k k k k k k k k k k k k k j Y U & 5 4 e G K 5 5 5 5 5 5 5 5 * K V $ 5 1.5 5 5 5 5 5 5 5 5 5 5 p p p p p p p p a y 5 5 5 5 l 2.l.t = 4 * * * * * * * * * * 5 * * * * * * * * * * * * * 5 5 * * * * * * * * * * * * * 5 * * * * * * * * * * * & w 0 * * * * * * * * * * * * * * 5 * * * * * * * * * * * * & ",
"Z Z Z Z Z Z Z Z Z Z Z Z Z Z Z Z Z Z Z Z Z Z Z Z Z Z Z Z Z Z Z Z Z Z Z Z Z Z Z Z Z Z Z Z Z Z Z Z Z Z Z Z Z Z Z Z Z Z Z Z Z Z Z Z Z Z Z Z Z Z Z Z Z Z Z Z Z Z Z Z Z Z Z Z Z Z Z Z Z Z Z Z Z Z Z Z Z Z Z Z Z Z Z Z Z Z Z Z Z Z Z Z Z Z Z Z Z Z Z Z Z C Z G Z Z K K 5 5 5 5 5 5 5 5 5 5 V 1.j K G 5 5 5 5 5 5 5 5 5 5 5 p a p p p p p p a y 5 5 5 5 5 z K G G G G G G G G G G G G G Z G G G G G G G G G G G G G G Z G G G G G G G G G G G G G Z G G G G G G G G G G G G Z Z G G G G G G G G G G G G G G Z G G G G G G G G G G G G G ",
"C C C C C C C C C C C C C C C C C C C C C C C C C C C C C C C C C C C C C C C C C C C C C C C C C C C C C C C C C C C C C C C C C C C C C C C C C C C C C C C C C C C C C C C C C C C C C C C C C C C C C C C C C C C C C C C C C C C C C C C C C C C C C C l 5 5 5 5 5 5 5 5 5 5 5 5 V 1.G 5 5 5 5 5 5 5 5 5 5 5 5 a a a a a a a a a y 5 5 5 5 5 5 5 V C C C C C C C C C C C C C C C C C C C C C C C C C C C C C C C C C C C C C C C C C C C C C C C C C C C C C C C C C C C C C C C C C C C C C C C C C C C C C C C C C C C C ",
"* * * * * * * * * * * * * * * * * * * * * * * * * * * * * * * * * * * * * * * * * * * * * * * * * * * * & * * * * * * * * * * * * * * * * * * * * * * * * * * * * * * * * * * * * * * * * * * * * * * * * * * * * * * * * * * * * * * * * * * * * * * * * * 5 5 5 5 5 5 5 5 5 5 5 5 5 5 5 * 5 5 5 5 5 5 5 5 5 5 5 5 p p p p p p p p p y 5 5 5 5 5 5 5 * * * * * * * * * * * * * * * * * * * * * * * * * * * * * * * * * * * * * * * * * * * * * * * * * * * * * * * * * * * * * * * * * * * * * * * * * * * * * * * * * * * * * ",
"5 5 5 5 5 5 5 5 5 5 5 5 5 5 5 5 5 5 5 5 5 5 5 5 5 5 5 5 5 5 5 5 5 5 5 5 5 5 5 5 5 5 5 5 5 5 5 5 5 5 5 5 j 5 5 5 5 5 5 5 5 5 5 5 5 5 5 5 5 5 5 5 5 5 5 5 5 5 5 5 5 5 5 5 5 5 5 5 5 5 5 5 5 5 5 5 5 5 5 5 5 5 5 5 5 5 5 5 5 5 5 5 5 5 5 5 5 5 5 5 5 5 5 5 5 5 5 5 5 5 5 5 5 5 5 5 5 r 5 5 5 j 5 5 r 5 5 5 5 5 5 5 5 5 a s s s s s s a s y 5 5 5 5 5 5 5 5 5 5 5 5 5 5 5 5 5 5 5 5 5 5 5 5 5 5 5 5 5 5 5 5 5 5 5 5 5 5 5 5 5 5 5 5 5 5 5 5 5 5 5 5 5 5 5 5 5 5 5 5 5 5 5 5 5 5 5 5 5 5 5 5 5 5 5 5 5 5 5 5 5 5 5 5 5 5 5 5 5 5 5 5 ",
"5 5 5 5 5 5 5 5 5 5 5 5 5 5 5 5 5 5 5 5 5 5 5 5 5 5 5 5 5 5 5 5 5 5 5 5 5 5 5 5 5 5 5 5 5 5 5 5 5 5 5 5 C 5 5 5 5 5 5 5 5 5 5 5 5 5 5 5 5 5 5 5 5 5 5 5 5 5 5 5 5 5 5 5 5 5 5 5 5 5 5 5 5 5 5 5 5 5 5 5 5 5 5 5 5 5 5 5 5 5 5 5 5 5 5 5 5 5 5 5 5 5 5 5 5 5 5 5 5 5 5 5 5 5 5 * G R.1.$ Z R.K 2.R.C * 5 5 5 5 5 5 5 p p p p p p p p p y 5 5 5 5 5 5 5 * * * * * * * * * * * * * * * * * * * * * * 5 5 * * * * * * * * * * * * * * * * * * * * * * * * * * * 5 5 5 5 5 5 5 5 5 5 5 5 5 5 5 5 5 5 5 5 5 5 5 5 5 5 5 5 5 5 5 5 5 5 ",
"5 5 5 5 5 5 5 5 5 5 5 5 5 5 5 5 5 5 5 5 5 5 5 5 5 5 5 5 5 5 5 5 5 5 5 5 5 5 5 5 5 5 5 5 5 5 5 5 5 5 5 5 V 5 5 5 K 3.2.2.2.2.2.2.2.2.2.2.2.2.2.2.2.2.2.2.2.2.2.2.2.2.2.2.2.2.2.2.2.2.2.2.2.2.2.2.2.2.2.2.2.2.2.2.2.2.2.2.2.2.2.2.2.2.2.2.2.2.2.2.2.2.2.2.2.2.3.r 5 5 5 5 5 5 5 5 Y.l Y.5 x.l T.Y.z x.& 5 5 5 5 5 5 5 a s s s s s s s s y 5 5 5 5 5 5 z G G G G G G G G G G G G G G G G G G G G G Z 5 r G G G G G G G G G G G G G G G G G G G G G G G G G G G j 5 5 5 5 5 5 5 5 5 5 5 5 5 5 5 5 5 5 5 5 5 5 5 5 5 5 5 5 5 5 5 5 5 ",
"5 5 5 5 5 5 5 5 5 5 5 5 5 5 5 5 5 5 5 5 5 5 5 5 5 5 5 5 5 5 5 5 5 5 5 5 5 5 5 5 5 5 5 5 5 5 5 5 5 5 5 5 V 5 5 * K Z l z z z z z z z z z z z z z z z z z z z z z z z z z z z z z z z z z z z z z z z z z z z z z z z z z z z z z z z z z z z z z z z z z z z 2.j 5 5 5 5 5 5 5 5 x.r Y.* x.5 T.Y.r Y.& 5 5 5 5 5 5 5 p p p p p p p p p y 5 5 5 5 5 * K 2.G K K G K K G K K G K G G K K K G K G K 3.5 l 4.G G K K K K K G G K G K K G G G G K G K K K G K Z 3.z * 5 5 5 5 5 5 5 5 5 5 5 5 5 5 5 5 5 5 5 5 5 5 5 5 5 5 5 5 5 5 5 5 ",
"5 5 5 5 5 5 5 5 5 5 5 5 5 5 5 5 5 5 5 5 5 5 5 5 5 5 5 5 5 5 5 5 5 5 5 5 5 5 5 5 5 5 5 5 5 5 5 5 5 5 5 5 V 5 5 5 K C l z z z z z z z z z z z z z z z z z z z z z z z z z l z z z z l z l l l l z z z z z z z z z z z z z z z z z z z z z z z z z z z z z z l 2.j 5 5 5 5 5 5 5 & 1.T.4.K 1.T.4.4.T.K & 5 5 5 5 5 5 5 a a a a a a a a s y 5 5 5 5 5 * G Z l j r l r r l r j l j l l j j r l l l l 2.5 l 1.l l r j r j r l l r l j r l l l l j l j j l l l l 1.z * 5 5 5 5 5 5 5 5 5 5 5 5 5 5 5 5 5 5 5 5 5 5 5 5 5 5 5 5 5 5 5 5 ",
"5 5 5 5 5 5 5 5 5 5 5 5 5 5 5 5 5 5 5 5 5 5 5 5 5 5 5 5 5 5 5 5 5 5 5 5 5 5 5 5 5 5 5 5 5 5 5 5 5 5 5 5 V 5 5 5 K C l z z z z z z z z z z z z z z z z z z z z z z z z z Y.l K R.3.~.l 4.1.2.4.1.l z z z z z z z z z z z z z z z z z z z z z z z z z z z z l 2.j 5 5 5 5 5 5 5 5 5 Z 5 l 5 Z 5 5 Z 5 5 5 5 5 5 5 5 5 p p p p p p p p p y 5 5 5 5 5 * K G l 1.x.C 3.3.C x.K l 1.Z C 1.K 4.C K V z 2.5 l 1.l V 3.2.3.1.Y.Z G x.C 1.4.K z G V 1.C 2.2.K C G l 1.z * 5 5 5 5 5 5 5 5 5 5 5 5 5 5 5 5 5 5 5 5 5 5 5 5 5 5 5 5 5 5 5 5 ",
"5 5 5 5 5 5 5 5 5 5 5 5 5 5 5 5 5 5 5 5 5 5 5 5 5 5 5 5 5 5 5 5 5 5 5 5 5 5 5 5 5 5 5 5 5 5 5 5 5 5 5 5 V 5 5 5 K C l z z z z z z z z z z z z z z z z z z z z z z z z z R.V Z Y.1.(.2.x.2./.x.l z z z z z z z z z z z z z z z z z z z z z z z z z z z z z l 2.j 5 5 5 5 5 5 5 5 5 & 5 * 5 * 5 5 & 5 5 5 5 5 5 5 5 5 p a a a a a a a a y 5 5 5 5 5 * K G j Y.Y.Y.Y.Y.Y.R.G 5 R.Y.2.~.4.Y.T.x.l V 2.5 l 2.j 3.T.Z E.Y.4.Y.Y.Y.1.T.C Y.3.T.C ^.K Y.Y./.2.3.j 1.z * 5 5 5 5 5 5 5 5 5 5 5 5 5 5 5 5 5 5 5 5 5 5 5 5 5 5 5 5 5 5 5 5 ",
"5 5 5 5 5 5 5 5 5 5 5 5 5 5 5 5 5 5 5 5 5 5 5 5 5 5 5 5 5 5 5 5 5 5 5 5 5 5 5 5 5 5 5 5 5 5 5 5 5 5 5 5 V 5 5 5 K C l z z z z z z z z z z z z z z z z z z z z z z z z z T.j C x.2.4.~.Y.K ).x.j l l l l z z z z z z z z z z z z z z z z z z z z z z z z z l 2.j 5 5 5 5 5 5 5 5 5 5 5 j 5 * 5 * 5 5 5 5 5 5 5 5 5 5 5 5 5 5 5 5 5 5 5 5 5 5 5 5 5 * K G r Y.R.K R.E.1.T.G Z x.T.Y.x.3.C R.3.r V 2.5 l 1.l V Y.3.4.x.l 4.Y.4.4.2.& x.T.T.2.^.Y.2.3.T.^.1.j 1.z * 5 5 5 5 5 5 5 5 5 5 5 5 5 5 5 5 5 5 5 5 5 5 5 5 5 5 5 5 5 5 5 5 ",
"5 5 5 5 5 5 5 5 5 5 5 5 5 5 5 5 5 5 5 5 5 5 5 5 5 5 5 5 5 5 5 5 5 5 5 5 5 5 5 5 5 5 5 5 5 5 5 5 5 5 5 5 V 5 5 5 K C l z z z z z z z z z z z z z z z z z z z z z z z z l ~.4.3.R.4.1.4./.1.4.Y.x.2.3.3.K l z z z z z z z z z z z z z z z z z z z z z z z z l 2.j 5 5 5 5 5 5 5 5 5 5 $ 2.K x.Y.Z * 5 5 5 5 5 5 5 5 5 5 5 5 * 5 5 * 5 5 5 5 5 5 5 5 * K G j Y.G l T.x.x.T.G 1.4.R.T.4.Y.T.4.Y.V z 2.5 l 1.l C 4.E.T.T.Y.x.x.x.K E.G Y.C 3.R.Y.T.R.Y.K ^.x.r 1.z * 5 5 5 5 5 5 5 5 5 5 5 5 5 5 5 5 5 5 5 5 5 5 5 5 5 5 5 5 5 5 5 5 ",
"5 5 5 5 5 5 5 5 5 5 5 5 5 5 5 5 5 5 5 5 5 5 5 5 5 5 5 5 5 5 5 5 5 5 5 5 5 5 5 5 5 5 5 5 5 5 5 5 5 5 5 5 V 5 5 5 K Z l z z z z z z z z z z z z z z z z z z z z z z z z l K 4.K K Z C z G C C V K Z Z G C l z z z z z z z z z z z z z z z z z z z z z z z z l 2.j 5 5 5 5 5 5 5 5 5 j x.~.1.x.K Y.& 5 5 5 5 5 5 5 5 5 * y 7.<.5 7.,.7.7.* 5 5 5 5 5 * K G l Z V z C V Z 2.K j C C C C G 1.z Z V z 2.5 l 2.l Z 2.C K G 3.V C 3.C G 1.Z C C G j C 1.G V C Z l 1.z * 5 5 5 5 5 5 5 5 5 5 5 5 5 5 5 5 5 5 5 5 5 5 5 5 5 5 5 5 5 5 5 5 ",
"5 5 5 5 5 5 5 5 5 5 5 5 5 5 5 5 5 5 5 5 5 5 5 5 5 5 5 5 5 5 5 5 5 5 5 5 5 5 5 5 5 5 5 5 5 5 5 5 5 5 5 5 V 5 5 5 K C l l l l l l l l l l l l l l l l l l l l l l l l l l l r l l l l l l l l l l l l l l l l l l l l l l l l l l l l l l l l l l l l l l l l 2.j 5 5 5 5 5 5 5 5 & 1.K K 1.T.Y.2.* 5 5 5 5 5 5 5 5 5 p 5 7.7.= 7.7.= 7.5 5 5 5 5 5 * G Z l l l l l l l r j l l l l l j r l l l l 2.5 l 1.l l r l j j r l l r l j r l l l j l l r j l l l j 1.z * 5 5 5 5 5 5 5 5 5 5 5 5 5 5 5 5 5 5 5 5 5 5 5 5 5 5 5 5 5 5 5 5 ",
"5 5 5 5 5 5 5 5 5 5 5 5 5 5 5 5 5 5 5 5 5 5 5 5 5 5 5 5 5 5 5 5 5 5 5 5 5 5 5 5 5 5 5 5 5 5 5 5 5 5 5 5 V 5 5 * 1.G V C C C C C C C C C C C C C C C C C C C C C C C C C C C C C C C C C C C C C C C C C C C C C C C C C C C C C C C C C C C C C C C C C C C 3.j 5 5 5 5 5 5 5 5 & Z 4.Y.3.Y.G T.* 5 5 5 5 5 5 5 5 5 <.s 7.7.5 7.7.7.7.* 5 5 5 5 5 * K 3.K 1.K K 1.K 1.1.1.K 1.1.1.K 1.1.K 1.K 1.3.5 l 4.K 1.1.1.1.1.1.K 1.1.K 1.1.1.K 1.1.K 1.1.1.K 1.1.K 4.z * 5 5 5 5 5 5 5 5 5 5 5 5 5 5 5 5 5 5 5 5 5 5 5 5 5 5 5 5 5 5 5 5 ",
"5 5 5 5 5 5 5 5 5 5 5 5 5 5 5 5 5 5 5 5 5 5 5 5 5 5 5 5 5 5 5 5 5 5 5 5 5 5 5 5 5 5 5 5 5 5 5 5 5 5 5 5 V 5 5 5 G 2.1.1.1.1.1.1.1.1.1.1.1.1.1.1.1.1.1.1.1.1.1.1.1.1.1.1.1.1.1.1.1.1.1.1.1.1.1.1.1.1.1.1.1.1.1.1.1.1.1.1.1.1.1.1.1.1.1.1.1.1.1.1.1.1.1.1.1.1.1.5 5 5 5 5 5 5 5 5 5 5 K 1.j 1.4.l 5 5 5 5 5 5 5 5 5 5 = p 7.p s 7.s 7.,.5 5 5 5 5 5 5 l C C C C C C C C C C C C C C C C C C C C C V 5 5 C C C C C C C C C C C C C C C C C C C C C C C C C C C 5 5 5 5 5 5 5 5 5 5 5 5 5 5 5 5 5 5 5 5 5 5 5 5 5 5 5 5 5 5 5 5 5 5 ",
"5 5 5 5 5 5 5 5 5 5 5 5 5 5 5 5 5 5 5 5 5 5 5 5 5 5 5 5 5 5 5 5 5 5 5 5 5 5 5 5 5 5 5 5 5 5 5 5 5 5 5 5 C 5 5 5 5 5 5 5 5 5 5 5 5 5 5 5 5 5 5 5 5 5 5 5 5 5 5 5 5 5 5 5 5 5 5 5 5 5 5 5 5 5 5 5 5 5 5 5 5 5 5 5 5 5 5 5 5 5 5 5 5 5 5 5 5 5 5 5 5 5 5 5 5 5 5 5 5 5 5 5 5 5 5 5 5 5 & & 5 & $ 5 5 5 5 5 5 5 5 5 5 5 5 * = * * = * = = 5 5 5 5 5 5 5 5 * * * * * * * * * * * * * * * * * * * * * 5 5 5 * * * * * * * * * * * * * * * * * * * * * * * * * * * 5 5 5 5 5 5 5 5 5 5 5 5 5 5 5 5 5 5 5 5 5 5 5 5 5 5 5 5 5 5 5 5 5 5 ",
"5 5 5 5 5 5 5 5 5 5 5 5 5 5 5 5 5 5 5 5 5 5 5 5 5 5 5 5 5 5 5 5 5 5 5 5 5 5 5 5 5 5 5 5 5 5 5 5 5 5 5 5 5 5 5 5 5 5 5 5 5 5 5 5 5 5 5 5 5 5 5 5 5 5 5 5 5 5 5 5 5 5 5 5 5 5 5 5 5 5 5 5 5 5 5 5 5 5 5 5 5 5 5 5 5 5 5 5 5 5 5 5 5 5 5 5 5 5 5 5 5 5 5 5 5 5 5 5 5 5 5 5 5 5 5 5 5 5 5 5 5 5 5 5 5 5 5 5 5 5 5 5 5 5 5 5 5 5 5 5 5 5 5 5 5 5 5 5 5 5 5 5 5 5 5 5 5 5 5 5 5 5 5 5 5 5 5 5 5 5 5 5 5 5 5 5 5 5 5 5 5 5 5 5 5 5 5 5 5 5 5 5 5 5 5 5 5 5 5 5 5 5 5 5 5 5 5 5 5 5 5 5 5 5 5 5 5 5 5 5 5 5 5 5 5 5 5 5 5 5 5 5 5 5 5 5 ",
"5 5 5 5 5 5 5 5 5 5 5 5 5 5 5 5 5 5 5 5 5 5 5 5 5 5 5 5 5 5 5 5 5 5 5 5 5 5 5 5 5 5 5 5 5 5 5 5 5 5 5 5 5 5 5 5 5 5 5 5 5 5 5 5 5 5 5 5 5 5 5 5 5 5 5 5 5 5 5 5 5 5 5 5 5 5 5 5 5 5 5 5 5 5 5 5 5 5 5 5 5 5 5 5 5 5 5 5 5 5 5 5 5 5 5 5 5 5 5 5 5 5 5 5 5 5 5 5 5 5 5 5 5 5 5 5 5 5 5 5 5 5 5 5 5 5 5 5 5 5 5 5 5 5 5 5 5 5 5 5 5 5 5 5 5 5 5 5 5 5 5 5 5 5 5 5 5 5 5 5 5 5 5 5 5 5 5 5 5 5 5 5 5 5 5 5 5 5 5 5 5 5 5 5 5 5 5 5 5 5 5 5 5 5 5 5 5 5 5 5 5 5 5 5 5 5 5 5 5 5 5 5 5 5 5 5 5 5 5 5 5 5 5 5 5 5 5 5 5 5 5 5 5 5 5 5 ",
"1.1.1.1.1.1.1.1.1.1.1.1.1.1.1.1.1.1.1.1.1.1.1.1.1.1.1.1.1.1.1.1.1.1.1.1.1.1.1.1.1.1.1.1.1.1.1.1.1.1.1.1.1.1.1.1.1.1.1.1.1.1.1.1.1.1.1.1.1.1.1.1.1.1.1.1.1.1.1.1.1.1.1.1.1.1.1.1.1.1.1.1.1.1.1.1.1.1.1.1.1.1.1.1.1.1.1.1.1.1.1.1.1.1.1.1.1.1.1.1.1.1.1.1.1.1.1.1.1.1.1.1.1.1.1.1.1.1.1.1.1.1.1.1.1.1.1.V 5 5 * Z 4.3.3.4.3.3.3.3.3.3.3.3.3.3.3.3.3.3.3.3.3.3.3.3.3.3.1.1.1.1.1.1.1.1.1.1.1.1.1.1.1.1.1.1.1.1.1.1.1.1.1.1.1.1.1.1.1.1.1.1.1.1.1.1.1.1.1.1.1.1.1.1.1.1.1.1.1.1.1.1.1.1.1.1.1.1.1.1.1.1.1.1.1.1.1.1.1.1.1.1.1.1.1.1.",
"5 5 5 5 5 5 5 5 5 5 5 5 5 5 5 5 5 5 5 5 5 5 5 5 5 5 5 5 5 5 5 5 5 5 5 5 5 5 5 5 5 5 5 5 5 5 5 5 5 5 5 5 5 5 5 5 5 5 5 5 5 5 5 5 5 5 5 5 5 5 5 5 5 5 5 5 5 5 5 5 5 5 5 5 5 5 5 5 5 5 5 5 5 5 5 5 5 5 5 5 5 5 5 5 5 5 5 5 5 5 5 5 5 5 5 5 5 5 5 5 5 5 5 5 5 5 5 5 5 5 5 5 5 5 5 5 5 5 5 5 5 5 5 5 5 5 l 1.C 5 * Z x.4.3.2.4.4.4.4.4.4.4.4.4.4.4.4.4.4.4.4.4.4.4.4.x.G * 5 5 5 5 5 5 5 5 5 5 5 5 5 5 5 5 5 5 5 5 5 5 5 5 5 5 5 5 5 5 5 5 5 5 5 5 5 5 5 5 5 5 5 5 5 5 5 5 5 5 5 5 5 5 5 5 5 5 5 5 5 5 5 5 5 5 5 5 5 5 5 5 5 5 5 5 5 ",
"5 5 5 5 5 5 5 5 5 5 5 5 5 5 5 5 5 5 5 5 5 5 5 5 5 5 5 5 5 5 5 5 5 5 5 5 5 5 5 5 5 5 5 5 5 5 5 5 5 5 5 5 5 5 5 5 5 5 5 5 5 5 5 5 5 5 5 5 5 5 5 5 5 5 5 5 5 5 5 5 5 5 5 5 5 5 5 5 5 5 5 5 5 5 5 5 5 5 5 5 5 5 5 5 5 5 5 5 5 5 5 5 5 5 5 5 5 5 5 5 5 5 5 5 5 5 5 5 5 5 5 5 5 5 5 5 5 5 5 5 5 5 5 5 5 5 * 5 1.l & Z x.3.R.^.Y.3.2.3.4.2.3.3.2.3.2.3.2.3.3.2.4.4.4.4.4.G * 5 5 5 5 5 5 5 5 5 5 5 5 5 5 5 5 5 5 5 5 5 5 5 5 5 5 5 5 5 5 5 5 5 5 5 5 5 5 5 5 5 5 5 5 5 5 5 5 5 5 5 5 5 5 5 5 5 5 5 5 5 5 5 5 5 5 5 5 5 5 5 5 5 5 5 5 5 ",
"5 5 5 5 5 5 5 5 5 5 5 5 5 5 5 5 5 5 5 5 5 5 5 5 5 5 5 5 5 5 5 5 5 5 5 5 5 5 5 5 5 5 5 5 5 5 5 5 5 5 5 5 5 5 5 5 5 5 5 5 5 5 5 5 5 5 5 5 5 5 5 5 5 5 5 5 5 5 5 5 5 5 5 5 5 5 5 5 5 5 5 5 5 5 5 5 5 5 5 5 5 5 5 5 5 5 5 5 5 5 5 5 5 5 5 5 5 5 5 5 5 5 5 5 5 5 5 5 5 5 5 5 5 5 5 5 5 5 5 5 5 5 5 5 5 5 5 * C Z $ Z 4.4._.~._.x.^.T.x.^.x.R.~.E.^.x.^.Y.T.^.4.4.4.4.4.G * 5 5 5 5 5 5 5 5 5 5 5 5 5 5 5 5 5 5 5 5 5 5 5 5 5 5 5 5 5 5 5 5 5 5 5 5 5 5 5 5 5 5 5 5 5 5 5 5 5 5 5 5 5 5 5 5 5 5 5 5 5 5 5 5 5 5 5 5 5 5 5 5 5 5 5 5 5 ",
"5 5 5 5 5 5 5 5 5 5 5 5 5 5 5 5 5 5 5 5 5 5 5 5 5 5 5 5 5 5 5 5 5 5 5 5 5 5 5 5 5 5 5 5 5 5 5 5 5 5 5 5 5 5 5 5 5 5 5 5 5 5 5 5 5 5 5 5 5 5 5 5 5 5 5 5 5 5 5 5 5 5 5 5 5 5 5 5 5 5 5 5 5 5 5 5 5 5 5 5 5 5 5 5 5 5 5 5 5 5 5 5 5 5 5 5 5 5 5 5 5 5 5 5 5 5 5 5 5 5 5 5 5 5 5 5 5 5 5 5 5 5 5 5 5 5 5 * z K $ Z 4.4.).K ^._.)._._.)._._.E._.^.^._.)._.~.3.4.4.4.4.G * 5 5 5 5 5 5 5 5 5 5 5 5 5 5 5 5 5 5 5 5 5 5 5 5 5 5 5 5 5 5 5 5 5 5 5 5 5 5 5 5 5 5 5 5 5 5 5 5 5 5 5 5 5 5 5 5 5 5 5 5 5 5 5 5 5 5 5 5 5 5 5 5 5 5 5 5 5 ",
"5 5 5 5 5 5 5 5 5 5 5 5 5 5 5 5 5 5 5 5 5 5 5 5 5 5 5 5 5 5 5 5 5 5 5 5 5 5 5 5 5 5 5 5 5 5 5 5 5 5 5 5 5 5 5 5 5 5 5 5 5 5 5 5 5 5 5 5 5 5 5 5 5 5 5 5 5 5 5 5 5 5 5 5 5 5 5 5 5 5 5 5 5 5 5 5 5 5 5 5 5 5 5 5 5 5 5 5 5 5 5 5 5 5 5 5 5 5 5 5 5 5 5 5 5 5 5 5 5 5 5 5 5 5 5 5 5 5 5 5 5 5 5 5 5 5 5 * z K $ Z 4.4.).4.(._.).~._./.R.E.).T.(._.).R.).4.3.4.4.4.4.C * 5 5 5 5 5 5 5 5 5 5 5 5 5 5 5 5 5 5 5 5 5 5 5 5 5 5 5 5 5 5 5 5 5 5 5 5 5 5 5 5 5 5 5 5 5 5 5 5 5 5 5 5 5 5 5 5 5 5 5 5 5 5 5 5 5 5 5 5 5 5 5 5 5 5 5 5 5 ",
"5 5 5 5 5 5 5 5 5 5 5 5 5 5 5 5 5 5 5 5 5 5 5 5 5 5 5 5 5 5 5 5 5 5 5 5 5 5 5 5 5 5 5 5 5 5 5 5 5 5 5 5 5 5 5 5 5 5 5 5 5 5 5 5 5 5 5 5 5 5 5 5 5 5 5 5 5 5 5 5 5 5 5 5 5 5 5 5 5 5 5 5 5 5 5 5 5 5 5 5 5 5 5 5 5 5 5 5 5 5 5 5 5 5 5 5 5 5 5 5 5 5 5 5 5 5 5 5 5 5 5 5 5 5 5 5 5 5 5 5 5 5 5 5 5 5 5 * z K $ Z 4.4.).).~.x.(.R.R.(.R.^./.^.(.R.(.R.^.x.3.4.4.4.4.j 5 5 5 5 5 5 5 5 5 5 5 5 5 5 5 5 5 5 5 5 5 5 5 5 5 5 5 5 5 5 5 5 5 5 5 5 5 5 5 5 5 5 5 5 5 5 5 5 5 5 5 5 5 5 5 5 5 5 5 5 5 5 5 5 5 5 5 5 5 5 5 5 5 5 5 5 5 5 ",
"5 5 5 5 5 5 5 5 5 5 5 5 5 5 5 5 5 5 5 5 5 5 5 5 5 5 5 5 5 5 5 5 5 5 5 5 5 5 5 5 5 5 5 5 5 5 5 5 5 5 5 5 5 5 5 5 5 5 5 5 5 5 5 5 5 5 5 5 5 5 5 5 5 5 5 5 5 5 5 5 5 5 5 5 5 5 5 5 5 5 5 5 5 5 5 5 5 5 5 5 5 5 5 5 5 5 5 5 5 5 5 5 5 5 5 5 5 5 5 5 5 5 5 5 5 5 5 5 5 5 5 5 5 5 5 5 5 5 5 5 5 5 5 5 5 5 5 * z K $ Z x.4.3.4.3.4.4.4.3.4.4.4.3.4.4.3.4.4.3.4.4.4.4.4.C 5 5 5 5 5 5 5 5 5 5 5 5 5 5 5 5 5 5 5 5 5 5 5 5 5 5 5 5 5 5 5 5 5 5 5 5 5 5 5 5 5 5 5 5 5 5 5 5 5 5 5 5 5 5 5 5 5 5 5 5 5 5 5 5 5 5 5 5 5 5 5 5 5 5 5 5 5 5 5 ",
"5 5 5 5 5 5 5 5 5 5 5 5 5 5 5 5 5 5 5 5 5 5 5 5 5 5 5 5 5 5 5 5 5 5 5 5 5 5 5 5 5 5 5 5 5 5 5 5 5 5 5 5 5 5 5 5 5 5 5 5 5 5 5 5 5 5 5 5 5 5 5 5 5 5 5 5 5 5 5 5 5 5 5 5 5 5 5 5 5 5 5 5 5 5 5 5 5 5 5 5 5 5 5 5 5 5 5 5 5 5 5 5 5 5 5 5 5 5 5 5 5 5 5 5 5 5 5 5 5 5 5 5 5 5 5 5 5 5 5 5 5 5 5 5 5 5 5 * z K $ Z 4.3.3.3.3.3.3.3.3.3.3.3.3.3.3.3.3.3.3.3.3.2.1.z 5 5 5 5 5 5 5 5 5 5 5 5 5 5 5 5 5 5 5 5 5 5 5 5 5 5 5 5 5 5 5 5 5 5 5 5 5 5 5 5 5 5 5 5 5 5 5 5 5 5 5 5 5 5 5 5 5 5 5 5 5 5 5 5 5 5 5 5 5 5 5 5 5 5 5 5 5 5 5 5 ",
"6 6 6 6 6 6 6 6 6 6 6 6 4 5 5 5 V 5 5 5 % % % % % % % % % % % % % % % % % % % % % % % % % % % % % % % % % % % % % % % % % % % % % % % % % % % % % % % % % % % % % % % % % % % % % 5 5 5 V 5 5 5 5 5 5 5 5 5 5 5 5 5 5 5 5 5 5 5 5 5 5 5 5 5 5 5 5 5 5 5 5 5 5 5 5 5 5 5 5 5 5 5 5 5 5 5 5 5 5 5 5 5 5 * z K $ G C 5 5 5 5 5 5 5 5 5 5 5 5 5 5 5 5 5 5 5 5 5 5 5 5 5 5 5 5 5 5 5 5 5 5 5 5 5 5 5 5 5 5 5 5 5 5 5 5 5 5 5 5 5 5 5 5 5 5 5 5 5 5 5 5 5 5 5 5 5 5 5 5 5 5 5 5 5 5 5 5 5 5 5 5 5 5 5 5 5 5 5 5 5 5 5 5 5 5 5 5 5 5 5 ",
"2 2 2 2 2 2 2 2 2 2 2 2 , 5 5 5 V 5 5 5 i f f f f f f f f f f f f f f f f f f f f f f f f f f f f f f f f f f f f f f f f f f f f f f f f f f f f f f f f f f f f f f f f f f f i 5 5 5 V 5 5 5 5 5 5 5 5 5 5 5 5 5 5 5 5 5 5 5 5 5 5 5 5 5 5 5 5 5 5 5 5 5 5 5 5 5 5 5 5 5 5 5 5 5 5 5 5 5 5 5 5 5 5 * z K $ G C * 5 5 5 5 5 5 5 5 5 5 5 5 5 5 5 5 5 5 5 5 5 5 5 5 5 5 5 5 5 5 5 5 5 5 5 5 5 5 5 5 5 5 5 5 5 5 5 5 5 5 5 5 5 5 5 5 5 5 5 5 5 5 5 5 5 5 5 5 5 5 5 5 5 5 5 5 5 5 5 5 5 5 5 5 5 5 5 5 5 5 5 5 5 5 5 5 5 5 5 5 5 5 ",
"yXyXyXyXyXyXyXyXyXyXyXyX+.6 5 5 V 5 5 % qX0X0X0X0X0X0X0X0X0X0X0X0X0X0X0X0X0X0X0X0X0X0X0X0X0X0X0X0X0X0X0X0X0X0X0X0X0X0X0X0X0X0X0X0X0X0X0X0X0X0X0X0X0X0X0X0X0X0X0X0X0X0X0X0X0X0X0X7X% 5 5 V 5 5 5 5 5 5 5 5 5 5 5 5 5 5 5 5 5 5 5 5 5 5 5 5 5 5 5 5 5 5 5 5 5 5 5 5 5 5 5 5 5 5 5 5 5 5 5 5 5 5 5 5 5 5 * z K $ G C * 5 5 5 5 5 5 5 5 5 5 5 5 5 5 5 5 5 5 5 5 5 5 5 5 5 5 5 5 5 5 5 5 5 5 5 5 5 5 5 5 5 5 5 5 5 5 5 5 5 5 5 5 5 5 5 5 5 5 5 5 5 5 5 5 5 5 5 5 5 5 5 5 5 5 5 5 5 5 5 5 5 5 5 5 5 5 5 5 5 5 5 5 5 5 5 5 5 5 5 5 5 5 ",
"+.+.+.+.+.+.+.+.+.O.+.%.+.6 5 5 V 5 5 % 7XM.j.b.b.b.b.b.b.b.b.b.b.b.b.b.b.b.b.b.b.b.b.b.b.b.b.b.b.j.j.j.j.j.j.j.j.j.j.j.j.b.b.b.b.b.b.b.b.b.b.b.b.b.b.b.b.b.b.b.b.b.b.b.b.b.j.M.7X% 5 5 V 5 5 5 * 5 5 * & 5 * & 5 5 5 5 5 r 5 5 r 5 5 5 5 r 5 5 5 5 5 5 5 5 5 5 5 5 5 5 5 5 5 5 r 5 5 r 5 5 5 5 4 5 5 * z K $ G C * 5 5 5 5 5 5 5 $ & 5 5 5 5 5 5 5 5 5 5 5 5 5 5 5 5 5 5 5 5 5 5 5 5 5 * 5 * 5 5 5 5 5 5 5 5 5 5 5 5 5 5 5 5 5 5 5 5 5 5 5 5 & $ & 5 5 5 5 5 5 5 5 5 5 5 5 5 5 5 5 5 5 5 5 5 5 5 5 5 5 5 5 5 & 5 5 5 5 5 5 5 5 ",
"O.O.O.O.O.O.O.O.O.O.+.%.+.6 5 5 V 5 5 % 7XM.b.b.b.b.b.b.b.b.b.b.b.b.b.b.b.b.b.b.b.b.b.b.b.b.b.b.b.N.N.M.N.m.M.n.M.M.n.N.n.b.b.b.b.b.b.b.b.b.b.b.b.b.b.b.b.b.b.b.b.b.b.b.b.b.b.N.7X% 5 5 V 5 5 5 V 5 5 G K 5 C 1.l 5 5 5 5 5 z r 5 C C Z l 5 5 5 5 5 5 5 5 5 5 5 5 5 5 5 5 5 5 5 5 5 5 5 C Y.5 5 5 5 5 * z K $ G C * 5 5 5 5 5 5 r x.3.5 * & 5 5 l r & & 5 5 5 5 5 5 5 5 5 5 5 5 5 5 5 j C l Z $ & 5 5 & 5 * & 5 5 5 5 5 5 5 5 5 5 5 5 5 5 5 5 2.Y.2.4.$ 5 * & 5 & * * $ 3.l $ 5 5 5 5 5 5 5 5 5 5 5 5 5 5 5 r 1.5 j 5 j 5 * * 5 ",
"O.O.O.O.O.O.O.O.O.O.+.%.+.6 5 5 V 5 5 % qXM.b.b.b.b.b.b.b.b.b.b.b.b.b.b.b.b.b.b.b.b.b.b.b.b.b.b.b.N.8XN.N.N.8XM.8Xb.b.N.M.b.b.b.b.b.b.b.b.b.b.b.b.b.b.b.b.b.b.b.b.b.b.b.b.b.b.N.7X% 5 5 V 5 5 * 2.l 5 5.Z 1.1.l 5 5 5 5 5 1.1.2.l 4.G 4.l 5 5 5 5 5 5 5 5 5 5 5 5 5 5 5 5 5 5 5 5 5 5 r R.).5.5 5 5 5 * z K $ G C * 5 5 5 5 5 & C Y.3.2.Z 1.4.R.Z l 2.4.5 5 5 5 5 5 5 5 5 5 5 5 5 5 * z T.4.C 2.Y.l C 4.r K 2.5 5 5 5 5 5 5 5 5 5 5 5 5 5 5 5 V R.z R.x.z K 2.l 4.C K 1.x.T.K 5 5 5 5 5 5 5 5 5 5 5 5 5 5 * Z ^.j ~.4.^.C 1.1.j ",
"O.O.O.O.O.O.O.O.O.O.+.%.+.6 5 5 V 5 5 % qXM.b.b.b.b.b.b.b.b.b.b.b.b.b.b.b.b.b.b.b.b.b.b.b.b.b.b.b.8XN.N.N.N.8XN.8Xb.b.N.b.b.b.b.b.b.b.b.b.b.b.b.b.b.b.b.b.b.b.b.b.b.b.b.b.b.b.N.7X% 5 5 V 5 5 * 1.j 5 4.1.l 5.1.j 5 5 * V 2.$ G 1.4.G 4.r 5 5 5 5 5 5 5 5 5 5 5 5 5 5 5 5 5 5 5 5 5 5 l C C C 5 5 5 5 * z K $ G C * 5 5 5 5 5 * z ~.E.j C E.Y.K 2.x.1.1.1.& 5 5 5 5 5 5 5 5 5 5 5 5 5 j ).x.* R.K x.T.T.~.T.R.Z & 5 5 5 5 5 5 5 5 5 5 5 5 5 5 5 x.5 T.K 4.T.V x.T.R.R.Z 4.K Y.j 5 5 5 5 5 5 5 5 5 5 5 5 5 & x.R.K x.C Y.5 K R.T.",
"O.O.O.O.O.O.O.O.O.O.+.%.+.6 5 5 V 5 5 % qXM.b.b.b.b.b.b.b.b.b.b.b.b.b.b.b.b.b.b.b.b.b.b.b.b.b.b.b.M.b.M.8XM.m.N.M.M.M.8Xn.b.b.b.b.b.b.b.b.b.b.b.b.b.b.b.b.b.b.b.b.b.b.b.b.b.b.N.7X% 5 5 V 5 5 * 2.z 5 5.5 * 5.r 5 5 5 * V 2.$ G G G l 1.5 r 5 5 5 5 5 5 5 5 5 5 5 5 5 5 5 5 5 5 5 5 5 l x.x.1.5 5 5 5 * z K $ G C * 5 5 5 5 5 & C x.4.3.Y.E.Y.K 2.Y.1.1.1.& 5 5 5 5 5 5 5 5 5 5 5 5 * V Y.x.1.4.l Y.E.2.2.R.K l 5 5 5 5 5 5 5 5 5 5 5 5 5 5 5 r Y.j Y.l Y.Y.* Y.Y.Z z Y.R.j Y.l 5 5 5 5 5 5 5 5 5 5 5 5 5 l E.3.Y.Y.V Y.G E.R.R.",
"O.O.O.O.O.O.O.O.O.O.+.%.+.6 5 5 V 5 5 % qXM.b.b.b.b.b.b.b.b.b.b.b.b.b.b.b.b.b.b.b.b.b.b.b.b.b.b.b.b.b.b.b.b.b.b.b.b.b.b.b.b.b.b.b.b.b.b.b.b.b.b.b.b.b.b.b.b.b.b.b.b.b.b.b.b.b.N.7X% 5 5 V 5 5 * Z 5.C C 5 5 C 5 5 5 5 5 5 1.1.2.l 1.z 1.5 5 5 5 5 5 5 5 5 5 5 5 5 5 5 5 5 5 5 5 5 5 5 5 x.(.Z 5 5 5 5 * z K $ G C * 5 5 5 5 5 5 l Z l 2.3.2.C 3.1.l 3.4.5 5 5 5 5 5 5 5 5 5 5 5 5 5 5 l Z l 2.Z l Z C 4.l K 3.5 5 5 5 5 5 5 5 5 5 5 5 5 5 5 5 5 K 5 K j K K 5 l 4.Z 1.2.K j K r 5 5 5 5 5 5 5 5 5 5 5 5 * C C # K 2.K 1.1.3.1.V ",
"+.+.+.+.+.+.+.+.+.O.+.%.+.6 5 5 V 5 5 % 7XM.j.b.b.b.b.b.b.b.b.b.b.b.b.b.b.b.b.b.b.b.b.b.b.b.b.b.b.b.b.b.b.b.b.b.b.b.b.b.b.b.b.b.b.b.b.b.b.b.b.b.b.b.b.b.b.b.b.b.b.b.b.b.b.b.j.M.7X% 5 5 V 5 5 5 * * 5 5 5 5 * 5 5 5 5 5 5 5 V r 5 r r r 5 5 5 5 5 5 5 5 5 5 5 5 5 5 5 5 5 5 5 5 5 5 5 5 l G 5 r 5 5 5 * z K $ G C * 5 5 5 5 5 5 5 * 5 & * * * * * 5 & & 5 5 5 5 5 5 5 5 5 5 5 5 5 5 5 5 * 5 & * 5 * 5 * 5 * * 5 5 5 5 5 5 5 5 5 5 5 5 5 5 5 5 5 * 5 * 5 * * 5 5 * 5 * * & 5 * 5 5 5 5 5 5 5 5 5 5 5 5 5 5 5 * 5 * & * * * * * * ",
"%.%.%.%.%.%.%.%.%.%.O.yX%.6 5 5 V 5 5 % qX8XM.N.N.N.N.N.N.N.N.N.N.N.N.N.N.N.N.N.N.N.N.N.N.N.N.N.N.N.N.N.N.N.N.N.N.N.N.N.N.N.N.N.N.N.N.N.N.N.N.N.N.N.N.N.N.N.N.N.N.N.N.N.N.N.M.8XqX% 5 5 V 5 5 5 5 5 5 5 5 5 5 5 5 5 5 5 5 5 5 5 5 5 5 5 5 5 5 5 5 5 5 5 5 5 5 5 5 5 5 5 5 5 5 5 r 5 5 r 5 5 r 5 5 5 5 * z K $ G C * 5 5 5 5 5 5 5 5 5 5 5 5 5 5 5 5 5 5 5 5 5 5 5 5 5 5 5 5 5 5 5 5 5 5 5 5 5 5 5 5 5 5 5 5 5 5 5 5 5 5 5 5 5 5 5 5 5 5 5 5 5 5 5 5 5 5 5 5 5 5 5 5 5 5 5 5 5 5 5 5 5 5 5 5 5 5 5 5 5 5 5 5 5 5 5 5 5 5 5 5 5 5 ",
"%.%.%.%.%.%.%.%.%.%.%.yX#.6 5 5 V 5 5 5 B.7X7X7X7X7X7X7X7X7X7X7X7X7X7X7X7X7X7X7X7X7X7X7X7X7X7X7X7X7X7X7X7X7X7X7X7X7X7X7X7X7X7X7X7X7X7X7X7X7X7X7X7X7X7X7X7X7X7X7X7X7X7X7X7X7X7XqXm.% 5 5 V 5 5 5 5 5 5 5 5 5 5 5 5 5 5 5 5 5 5 5 5 5 5 5 5 5 5 5 5 5 5 5 5 5 5 5 5 5 5 5 5 5 5 5 5 5 4 5 5 5 5 5 5 5 5 * z K $ G C * 5 5 5 5 5 5 5 5 5 5 5 5 5 5 5 5 5 5 5 5 5 5 5 5 5 5 5 5 5 5 5 5 5 5 5 5 5 5 5 5 5 5 5 5 5 5 5 5 5 5 5 5 5 5 5 5 5 5 5 5 5 5 5 5 5 5 5 5 5 5 5 5 5 5 5 5 5 5 5 5 5 5 5 5 5 5 5 5 5 5 5 5 5 5 5 5 5 5 5 5 5 5 ",
"6 6 6 6 6 6 6 6 6 6 6 6 4 5 5 5 V 5 5 5 % % % % % % % % % % % % % % % % % % % % % % % % % % % % % % % % % % % % % % % % % % % % % % % % % % % % % % % % % % % % % % % % % % % % % 5 5 5 V 5 5 5 5 5 5 5 5 5 5 5 5 5 5 5 5 5 5 5 5 5 5 5 5 5 5 5 5 5 5 5 5 5 5 5 5 5 5 5 5 5 5 5 5 5 5 5 5 5 5 5 5 5 5 * z K $ G C * 5 5 5 5 5 5 5 5 5 5 5 5 5 5 5 5 5 5 5 5 5 5 5 5 5 5 5 5 5 5 5 5 5 5 5 5 5 5 5 5 5 5 5 5 5 5 5 5 5 5 5 5 5 5 5 5 5 5 5 5 5 5 5 5 5 5 5 5 5 5 5 5 5 5 5 5 5 5 5 5 5 5 5 5 5 5 5 5 5 5 5 5 5 5 5 5 5 5 5 5 5 5 ",
"5 5 5 5 5 5 5 5 5 5 5 5 5 5 5 5 V 5 5 5 5 5 5 5 5 * 4 5 5 5 5 5 5 5 5 5 5 5 5 5 5 5 5 5 5 5 5 5 5 5 5 5 5 5 * 5 5 5 5 5 5 5 5 5 5 5 5 5 5 5 5 5 5 5 5 & 5 5 5 5 5 5 5 5 5 5 5 5 5 5 5 5 V 5 5 5 5 5 5 5 5 5 5 * 5 5 5 5 5 5 5 5 5 5 5 5 5 5 5 5 5 5 5 5 5 5 5 5 5 5 5 5 5 5 * 5 5 5 5 5 5 5 5 5 5 5 5 * z K $ G C * 5 5 5 5 5 5 5 5 5 5 5 5 5 5 5 5 5 5 5 5 5 5 5 5 5 5 5 5 5 5 5 5 5 5 5 5 5 5 5 5 5 5 5 5 5 5 5 5 5 5 5 5 5 5 5 5 5 5 5 5 5 5 5 5 & & 5 5 5 0 5 & $ 5 5 5 5 5 5 5 5 5 5 5 5 5 5 5 5 5 5 5 5 5 5 5 5 5 5 5 5 5 ",
"j * & r l & & 5 5 5 5 5 5 5 5 5 V 5 5 5 5 5 5 5 5 C V 5 * 5 & 5 5 & 5 5 5 5 5 5 5 5 5 5 5 5 5 5 5 5 5 5 5 5 C j * 5 5 5 5 5 5 5 5 5 5 5 5 5 5 5 5 5 5 Z l * & 5 V 5 & 5 5 5 5 5 5 5 5 5 V 5 5 5 5 5 5 5 5 5 j V r * 5 5 * 5 5 * 5 5 5 5 5 5 5 5 5 5 5 5 5 5 5 5 5 5 5 5 5 5 z 5 5 5 5 5 5 5 5 5 5 5 5 * z K $ G C * 5 5 5 5 5 5 5 5 5 5 5 5 5 5 5 5 5 5 5 5 5 5 5 5 5 5 5 5 5 5 5 5 5 5 5 5 5 5 5 5 5 5 5 5 5 5 5 5 5 5 5 5 5 5 5 5 5 5 5 5 5 5 & & 9.e.iXBXiXvXvXe.r.5 * 5 5 5 5 5 5 5 5 5 5 5 5 5 5 5 5 5 5 5 5 5 5 5 5 5 5 5 ",
"l l C r l l Z r 5 5 5 5 5 5 5 5 V 5 5 5 5 5 5 $ 1.T.C l C 5 C 5 5 Z l 5 5 5 5 5 5 5 5 5 5 5 5 5 5 5 5 5 5 x.4.Y.l 5 5 5 5 5 5 5 5 5 5 5 5 5 5 5 5 5 Y.3.C j Z 5 l j Z l 5 5 5 5 5 5 5 5 V 5 5 5 5 5 5 5 5 5 5.Z l l l 5 V * l z 5 5 5 5 5 5 5 5 5 5 5 5 5 5 5 5 5 5 5 5 5 2.K 1.5 5 5 5 5 5 5 5 5 5 5 * z K $ G C * 5 5 5 5 5 5 5 5 5 * * % * % * * 5 5 5 5 5 5 5 5 5 5 5 5 5 5 5 5 5 5 5 5 * * % * % * % 5 5 5 5 5 5 5 5 5 5 5 5 5 5 5 5 5 5 & w s.VXBXBXVXkXBXVXmXVXxXw * * 5 5 5 5 5 5 5 5 5 5 5 5 5 5 5 5 5 5 4 4 & & & & & ",
"z V T.4.2.Y.Y.4.& 5 5 5 5 5 5 5 V 5 5 5 5 5 5 $ 1.Y.r R.2.K E.Y.x.Y.E.& 5 5 5 5 5 5 5 5 5 5 5 5 5 5 5 * V Y.X 1.3.$ 5 5 5 5 5 5 5 5 5 5 5 5 5 5 & 1.2.j C l Y.x.3.x.Y.Y.5 5 5 5 5 5 5 5 V 5 5 5 5 5 5 5 5 5 5.C l x.l 1.5.1.K 4.C * 5 5 5 5 5 5 5 5 5 5 5 5 5 5 5 5 5 * C 1.# 1.C * 5 5 5 5 5 5 5 5 5 * z K $ G C * 5 5 5 5 5 5 5 * 5 t d z.h.z.l.d y * 5 5 5 5 5 5 5 5 5 5 5 5 5 5 5 5 % r d l.G.C.aXh.d 5 * 5 5 5 5 5 5 5 5 5 5 5 5 5 5 5 $ u.BXkXBXmXjXu.8.e.s.cXCXs.xXiX0 * 5 5 5 5 5 5 5 5 5 5 5 5 5 5 5 5 * k b y.y.y.y.b ",
"R.1.T.T.2.4.r Y.* 5 5 5 5 5 5 5 V 5 5 5 5 5 5 $ 1.T.l Y.* Y.Y.x.T.5 Y.* 5 5 5 5 5 5 5 5 5 5 5 5 5 5 5 * z T.X 1.2.$ 5 5 5 5 5 5 5 5 5 5 5 5 5 5 & 1.3.r R.1.Y.E.3.x.j x.j 5 5 5 5 5 5 5 V 5 5 5 5 5 5 5 5 5 5.C V G 5 x.Z 4.z V Z & 5 5 5 5 5 5 5 5 5 5 5 5 5 5 5 5 5 * V 1.# 1.V * 5 5 5 5 5 5 5 5 5 * z K $ G C * 5 5 5 5 5 5 5 y ,.aXC.pXC.aXaXS.S.d 5 5 5 5 5 5 5 5 5 5 5 5 5 5 5 5 d G.HXDXPXaXPXDXLXC.y * 5 5 5 5 5 5 5 5 5 5 5 5 5 * 9.lXVXcX8.5 . . . . . X w r.nXcXu.5 * 5 5 5 5 5 5 5 5 5 5 5 5 5 5 8 ! 4X2X6X4X4X6X4X",
"x.Y.Y.x.2.3.l x.* 5 5 5 5 5 5 5 V 5 5 5 5 5 5 $ 1.G # Y.5 Z Y.C 3.T.T.& 5 5 5 5 5 5 5 5 5 5 5 5 5 5 5 5 5 4.Y.R.r 5 5 5 5 5 5 5 5 5 5 5 5 5 5 5 5 5 Y.x.Y.Y.T.x.3.4.l 4.r 5 5 5 5 5 5 5 V 5 5 5 5 5 5 5 5 5 1.* l G & 1.G z 1.4.C * 5 5 5 5 5 5 5 5 5 5 5 5 5 5 5 5 5 5 5 1.5.2.5 5 5 5 5 5 5 5 5 5 5 * z K $ G C * 5 5 5 5 5 % y HXS.S.aXC.,.l.S.pXC.S.C.% 5 5 5 5 5 5 5 5 5 5 5 5 = l.HXS.HXDXG.l.G.HXHXG.HXh.= 5 5 5 5 5 5 5 5 5 5 5 & r.BXBXvXw . . # 5 5 5 & . . # r.lXcXiX5 5 5 5 5 5 5 5 5 5 5 5 5 4 5 2X2X2X4X2Xt.y.2X6X",
"5 r l 5 5 5 5 5 5 5 5 5 5 5 5 5 V 5 5 5 5 5 5 5 5 5 5 5 5 5 l l 5 V T.* 5 5 5 5 5 5 5 5 5 5 5 5 5 5 5 5 5 * C Y.5 5 5 5 5 5 5 5 5 5 5 5 5 5 5 5 5 5 5 V 5 5 l 5 5 5 5 5 5 5 5 5 5 5 5 5 V 5 5 5 5 5 5 5 5 5 5 5 5 5 5 5 l 5 5 K C & 5 5 5 5 5 5 5 5 5 5 5 5 5 5 5 5 5 5 5 5 C 1.5 5 5 5 5 5 5 5 5 5 5 * z K $ G C * 5 5 5 5 % ,.G.HXHXg 4 -     # y l.pXS.l.5 5 5 5 5 5 5 5 5 5 5 * C.G.LXaXd $       4 g DXLXaXl.% 5 5 5 5 5 5 5 5 5 5 5 iXVXbX5 . # l Z K 1.2.V & 5     r.nXxXw & 5 5 5 5 5 5 5 5 5 5 4 b y.2X6X! 8 X     X 8 ",
"5 5 5 5 5 5 5 5 5 5 5 5 5 5 5 5 V 5 5 5 5 5 5 5 5 5 5 5 5 5 5 5 5 5 V 5 5 5 5 5 5 5 5 5 5 5 5 5 5 5 5 5 5 5 * 5 5 5 5 5 5 5 5 5 5 5 5 5 5 5 5 5 5 5 5 * 5 5 5 5 5 5 5 5 5 5 5 5 5 5 5 5 V 5 5 5 5 5 5 5 5 5 5 5 5 5 5 5 5 5 5 j j 5 5 5 5 5 5 5 5 5 5 5 5 5 5 5 5 5 5 5 5 5 * 5 5 5 5 5 5 5 5 5 5 5 5 * z K $ G C * 5 5 5 5 % S.PXHX,.  . # $ $ X . # l.pXaXg % 5 5 5 5 5 5 5 5 * y HXPXaX4 .   # $ #   . y aXPXaX5 5 5 5 5 5 5 5 5 5 + s.vXs.F . # V K K K K 1.5 z 2.l   # u.s.iX0 5 5 5 5 5 5 5 5 5 5 & t.NX4X! X . X $ $ X . ",
"5 6 6 6 4 5 5 5 5 5 5 5 5 5 5 5 V 5 5 5 5 5 5 5 5 5 5 5 % % % % 5 5 * 5 5 5 5 5 5 5 5 5 5 5 5 5 5 5 5 5 5 % 5 % 5 5 5 5 5 5 5 5 5 5 5 5 5 5 5 5 5 5 5 5 5 5 5 5 5 5 5 5 5 5 5 5 5 5 5 5 V 5 5 5 5 5 5 5 5 5 5 5 5 5 * * * * 5 5 5 5 5 5 5 5 5 5 5 5 5 5 5 5 5 5 5 5 5 5 5 * 5 * 5 5 5 5 5 5 5 5 5 5 5 * z K $ G C * 5 5 5 % l.aXG.,..   # C K K Z 5 . # l.l.C.y 5 5 5 5 5 5 5 5 5 aXaXG.4 . $ z G K K V $ . d G.aXS.% 5 5 5 5 5 5 5 5 5 vXVXiX. X l G G K K 1.Z 5 K 3.1.5 . w cXnXd.& 5 5 5 5 5 5 5 5 & ! 2Xy.t.    5 C K K Z j ",
", 2 2 2 < 5 6 5 5 5 5 5 5 5 5 5 V 5 5 5 5 5 5 5 5 5 % 5 f f f ..e % 5 5 5 5 5 5 5 5 5 5 5 5 5 5 5 5 % 5 u ..i ..u 5 % 5 5 5 5 5 5 5 5 5 5 5 5 5 5 5 5 5 e i i i i 5 5 5 5 5 5 5 5 5 5 5 V 5 5 5 5 5 5 5 5 5 5 5 5 r Z V Z V 5 * 5 5 5 5 5 5 5 5 5 5 5 5 5 5 5 5 5 5 5 5 l z l V r 5 5 5 5 5 5 5 5 5 5 * z K $ G C * 5 5 5 % C.PXG.-   l 5 j 1.1.2.1.5 . 5 aXpXg % 5 5 5 5 5 5 5 y DXPX,.. # C K K 1.2.3.G # . l.PXDX5 5 5 5 5 5 5 5 * A jXBX9.. 5 Z G G K K K r l 2.1.2.Z X X iXlX9.5 5 5 5 5 5 5 5 5 & t.NX2X@   5 Z K K 1.2.1.",
"#.yX+.tXO.O.@.6 6 5 5 5 5 5 5 5 V 5 5 5 5 5 5 5 % e m.n.N.8XB.9Xn.B.u % 5 5 5 5 5 5 5 5 5 5 5 5 5 % ..B.n.9Xn.9Xn.B...% 5 5 5 5 5 5 5 5 5 5 5 5 5 % u j. .m.j.n.b. . .5 5 5 5 5 5 5 5 5 V 5 5 5 5 5 5 5 5 5 * C T.3./.Y.^.T.Y.2.5 * 5 5 5 5 5 5 5 5 5 5 5 5 5 5 5 5 Z 1.1.x.K Y.K 2.l * 5 5 5 5 5 5 5 * z K $ G C * 5 5 * d aXHXl.. & Z C * V 1.1.2.Z X O C.S.h.* 5 5 5 5 5 5 % l.DXHX4 . j G G K K 1.1.K * . d DXS.d * 5 5 5 5 5 5 + u.VXbX*   l Z Z G K K G 5 Z 1.1.2.1.5 . u.nXxX5 5 5 5 5 5 5 5 5 8 3X4Xy.. # C G K K 1.2.3.",
"%.%.#.%.%.yX+.O.2 6 5 5 5 5 5 5 V 5 5 5 5 5 5 % j.m.B.9X8Xm.n.8X9X8Xj.n.5 5 5 5 5 5 5 5 5 5 5 % i B.n.9X8X8Xj.8X8X9Xn.m.i % 5 5 5 5 5 5 5 5 5 5 5  . .n.M.n. .j.n.M.j. ...% 5 5 5 5 5 5 V 5 5 5 5 5 5 5 5 r Y.4.^.^.~.3.E.^.(.Y.Y.G & 5 5 5 5 5 5 5 5 5 5 5 5 * V 1.K Y.4.3.G 4.x.x.G 1.5 5 5 5 5 5 5 * z K $ G C * 5 5 % g HXHXd . r Z G z C 1.1.1.K &   h.pXC.* 5 5 5 5 5 5 = C.LXaXX X V Z G K K V 5 5 * . $ C.pX,.% 5 5 5 5 5 5 + s.BXkXX X z Z Z G G K K K K 1.1.1.1.j . d.cXxX0 5 5 5 5 5 5 5 4 0 4X4X! . 5 Z Z G K K C V ",
"2 * $ = 3 @.+.yX+.< 4 5 5 5 5 5 V 5 5 5 5 5 5 f m.0Xj...u $ $ e ..g.7X8X..5 5 5 5 5 5 5 5 5 5 i j.9Xm...i & $ & f h.B.0Xj.u 5 5 5 5 5 5 5 5 5 e i b.n.f i 4 $ $ e f  .M.j.i 5 5 5 5 5 5 V 5 5 5 5 5 5 5 j K ^.R.K Z 5 $ & l K 4.(.Y.V 5 5 5 5 5 5 5 5 5 5 5 5 l G Y.K C j $ $ * z C 3.Y.Z 5 5 5 5 5 5 * z K $ G C * 5 5 * d G.G.5 . r Z Z G K K K K K *   ,.C.l.5 5 5 5 5 5 5 % l.aXC.  X V Z Z G K V z G C X $ l.C.g * 5 5 5 5 5 5 $ r.lXs.  X V Z Z Z G G K K K K K K 1.r . F s.u.5 5 5 5 5 5 5 5 5 8 y.3Xb . 5 Z Z G K G 5 5 ",
"o       . o < %.%.%.r 5 5 5 5 5 V 5 5 5 5 % i 9X8Xm.e   .       . $ j.8X9Xj.% 5 5 5 5 5 5 5 5 N.9XN.f O .       . O f 8X9XN.5 5 5 5 5 5 5 5 % ..M.b. .$         .   e j.n.M.u 5 5 5 5 5 V 5 5 5 5 5 5 & 4./.R.1.# . .   . .   l T.^.^.j 5 5 5 5 5 5 5 5 5 5 5 4.4.2.j   .     . . # C 4.Y.K * 5 5 5 5 * z K $ G C * 5 5 % g LXLXg . 5 C Z Z G K K K Z #   z.DXC.* 5 5 5 5 5 5 = S.PXaXO   l Z Z Z G K K K z   4 S.pX,.% 5 5 5 5 5 5 + s.VXvX#   l Z Z Z Z G G K K K K K K 5 . e.nXlX8 5 5 5 5 5 5 5 4 0 4XNX! . & C Z Z G G K K ",
"* z C C j # o < %.+.2 4 5 5 5 5 V 5 5 5 5 e j.m.B.& . # j C C z * . O n.m.j.u 5 5 5 5 5 5 5 ..n.N.f .   5 V C C r X . f N.n...% 5 5 5 5 5 5 u  .j. .O . $ l C C l # . * j. . .5 5 5 5 5 V 5 5 5 5 5 * C 4.T.1.  . # 5 j j *   . r E.4.1.5 5 5 5 5 5 5 5 5 5 Z K 2.5 .   $ 5 j 5 $ .   Z 2.K l 5 5 5 5 * z K $ G C * 5 5 5 5 C.HXC.. # z Z Z Z Z G K l   $ S.S.,.* 5 5 5 5 5 5 * d aXHXd . 5 C Z Z Z G G Z 4 . g aXC.t 5 5 5 5 5 5 5 $ e.bXBX0 . r C C Z Z Z G G K K K K Z # . u.cXs.5 5 5 5 5 5 5 5 5 5 t.4X3X  X l Z Z Z Z G K ",
"Z K 1.2.2.Z   o < O.O., 5 5 5 5 V 5 5 5 % f 9XN.e . $ C K K 1.2.K 5 . $ n.0Xj.% 5 5 5 5 5 5 8X9X..-   l G K 1.2.1.V   O ..9X8X5 5 5 5 5 5 %  .M. .$ . 5 Z K 1.1.2.G $   e j.M.i 5 5 5 5 V 5 5 5 5 5 * x./.2.# . $ l z V C C l X   l R.^.l * 5 5 5 5 5 5 5 5 4.4.l     5 l z V C V 5 . # C Y.1.5 5 5 5 * z K $ G C * 5 5 5 = G.PXG.= . & z C Z Z Z z @   y S.pXg % 5 5 5 5 5 5 5 y HXHX,.    5 C Z Z Z Z 5   O ,.pXS.* 5 5 5 5 5 5 5 5 0 kXVXu.. $ V C C Z Z Z G G G G K l   * xXcX9.& 5 5 5 5 5 5 5 5 $ t.NX3X* . # l C Z Z Z V ",
"K K K 1.K z # . * O.#.1 5 5 5 5 V 5 5 5 5 ..N.B.#   l K K K K 2.3.K $   j.9Xj.5 5 5 5 5 5 i m.8Xi . 5 Z K K K 1.3.3.j . i 9Xm.u 5 5 5 5 5 e ..n...  # C K K K 1.1.3.C   # j.b.i 5 5 5 5 V 5 5 5 5 5 j 3.^.K . # j l l z V C C 5 . & ~.E.C 5 5 5 5 5 5 5 5 l 1.4.5 . & l l l z V C V $ . V x.G 5 5 5 5 * z K $ G C * 5 5 5 * d G.DXG.- . # 5 l j 5 X . y S.C.h.5 5 5 5 5 5 5 5 5 % l.aXDX,..   $ r l r $     h.S.C.g * 5 5 5 5 5 5 5 5 & cXVXiX@   5 C C C Z Z Z Z G G V # . w lXnX8.& 5 5 5 5 5 5 5 5 4 0 y.2X2X@ . # 5 l l 5 # ",
"G K K V 5 5 l X # #.O.2 6 5 5 5 V 5 5 5 5 N.0Xj.  $ C G G K K Z C l # . i N.M.e 5 5 5 5 % j.0XN.#   l Z G K K G C z 5 . $ m.N.f % 5 5 5 5 u n.M.u . 5 Z G K K K 1.1.K $   ..M.j.5 5 5 5 V 5 5 5 5 * C /.^.5 . & l l l z l l j 5 . X 4.~.2.* 5 5 5 5 5 5 * K Y.1.X   5 l l l z V V C 5 . 5 4.x.l 5 5 5 * z K $ G C * 5 5 5 5 = S.LXHXG.&   .       X d S.aXaXd * 5 5 5 5 5 5 5 5 5 5 HXLXDXh.O   .       # h.S.aXC.% 5 5 5 5 5 5 5 5 5 $ 9.iXlXs..   5 V C Z Z Z Z Z z $ . 0 iXs.u.5 5 5 5 5 5 5 5 5 5 5 $ t.NX4X3X8   .         ",
"Z G K C V 1.K # X 2 @.3 4 5 5 5 V 5 5 5 5 j.m.g . & C Z G K K 5 5 l * . e  . .e 5 5 5 5 % f m.j.O   V Z Z G K l 5 j j   # .. .i 5 5 5 5 5 e  . .4 . r Z Z C K K K 1.K 5   i  ...5 5 5 5 V 5 5 5 5 5 l 4.3.& . 5 l l l z j $ * 4     V K C 5 5 5 5 5 5 5 5 C K C     r l l l z z z V r . & G K l 5 5 5 * z K $ G C * 5 5 5 5 5 5 C.HXHXy 5 * $ & 5 % ,.DXC.d 5 5 5 5 5 5 5 5 5 5 5 * d G.PXG.% 5 & $ & 5 5 S.pXh.y 5 5 5 5 5 5 5 5 5 5 5 + iXVXBX9.. . # 5 l V V l 5 X . * iXnXcX0 * 5 5 5 5 5 5 5 5 5 5 5 5 t.4X6Xb 4 * $ $ 5 4 ",
"Z G G K K K Z # X @.O.2 6 5 5 5 V 5 5 5 5 B.9X... $ C Z Z G K G K K j . u n.n.e 5 5 5 5 % j.9Xm.#   l Z Z G G K K 1.C X # j.M.f % 5 5 5 5 u n.n.e . 5 C r 5 Z K K K K &   ..M.j.5 5 5 5 V 5 5 5 5 * C ^.R.5 . & j l l l l l z l X   K Y.K * 5 5 5 5 5 5 * K Y.K X   5 l j 5 l l l z 5 . * 4.x.l 5 5 5 * z K $ G C * 5 5 5 5 5 5 5 G.l.= 5 5 5 5 5 5 5 C.,.% 5 5 5 5 5 5 5 5 5 5 5 5 % g aXd * 5 5 5 5 5 % d C.y * 5 5 5 5 5 5 5 5 5 5 5 * F cXvXBXu.#   .   X X   . X w iXlXiXr.& 5 5 5 5 5 5 5 5 5 5 5 5 5 & y.y.$ 5 5 5 5 5 5 ",
"Z Z Z G G K l   = +.#.3 4 5 5 5 V 5 5 5 5 g.8Xm.O   l Z Z Z G G K Z $   ..n. .e 5 5 5 5 * f B.8Xe . 5 C Z Z Z G K K r . e n.j.i 5 5 5 5 5 e  .n.f   @ 5 5 V Z G G K C X O j.b...5 5 5 5 V 5 5 5 5 5 l x.^.C . # r j l l l l l 5 . $ 3.3.C 5 5 5 5 5 5 5 5 V 3.3.$ . * l 5 $ j l l l $ . l 4.1.l 5 5 5 * z K $ G C * 5 5 5 5 5 5 5 % 5 5 5 5 5 5 5 5 5 5 * 5 5 5 5 5 5 5 5 5 5 5 5 5 5 % * 5 5 5 5 5 5 5 5 5 * 5 5 5 5 5 5 5 5 5 5 5 5 5 5 * 5 lXVXcX* 5 & # @ # $ 5 & 9.nXcX8.& 5 5 5 5 5 5 5 5 5 5 5 5 5 5 5 & 5 5 5 5 5 5 5 5 ",
"C Z Z Z G V #   1 O.+., 5 5 5 5 V 5 5 5 % f 9X8X* . $ V Z Z Z G Z 5   O  .M. .% 5 5 5 5 5 e N.9Xf . X l C Z Z Z G z X   i M.j.5 5 5 5 5 5 %  .M. .O . & C Z Z Z G C & . 5 b.M.i 5 5 5 5 V 5 5 5 5 5 * 4.(.2.  . & j j l l l r X . 5 4.4.j 5 5 5 5 5 5 5 5 r 4.x.r . X 5 & 5 l l l 5   X Z Y.1.5 5 5 5 * z K $ G C * 5 5 5 5 5 5 5 5 5 5 5 5 5 5 5 5 5 5 5 5 5 5 5 5 5 5 5 5 5 5 5 5 5 5 5 5 5 5 5 5 5 5 5 5 5 5 5 5 5 5 5 5 5 5 5 5 5 5 5 5 * A kX9.$ 5 5 5 5 5 5 5 5 * s.e.* 5 5 5 5 5 5 5 5 5 5 5 5 5 5 5 5 5 5 5 5 5 5 5 5 5 ",
"5 l C V l # . * @.@.@.5 5 5 5 5 V 5 5 5 5 u m.n.j.O . $ j V C z 5   - f  .j.i 5 5 5 5 5 5 5 j.m.n.u . X 5 z C V j X . e  . . .5 5 5 5 5 5 5 i j.j...    * l V V l $ . $ .. .j.e 5 5 5 5 V 5 5 5 5 5 * K Y.4.C . . $ 5 5 5 5 X . & G G K 5 5 5 5 5 5 5 5 5 5 K K K * . . # 5 r 5 &   . l G 1.C 5 5 5 5 * z K $ G C * 5 5 5 5 5 5 5 5 5 5 5 5 5 5 5 5 5 5 5 5 5 5 5 5 5 5 5 5 5 5 5 5 5 5 5 5 5 5 5 5 5 5 5 5 5 5 5 5 5 5 5 5 5 5 5 5 5 5 5 5 5 & & 5 5 5 5 5 5 5 5 5 5 5 & & 5 5 5 5 5 5 5 5 5 5 5 5 5 5 5 5 5 5 5 5 5 5 5 5 5 5 ",
".   X X     * #.O.+.r 5 5 5 5 5 V 5 5 5 5 % f 9X9Xj.$     X X   . # i n.M...% 5 5 5 5 5 5 5 e 8X0XB.e   .   X X .   e j.M.j.5 5 5 5 5 5 5 5 % j.0X8Xf O .   X X     $ ..M.M.u 5 5 5 5 5 V 5 5 5 5 5 5 * x.(.R.z X . .     .   * K Y.4.r 5 5 5 5 5 5 5 5 5 5 j 4.Y.K * . .       . X l 3.Y.K 5 5 5 5 5 * z K $ G C * 5 5 5 5 5 5 5 5 5 5 5 5 5 5 5 5 5 5 5 5 5 5 5 5 5 5 5 5 5 5 5 5 5 5 5 5 5 5 5 5 5 5 5 5 5 5 5 5 5 5 5 5 5 5 5 5 5 5 5 5 5 5 5 5 5 5 5 5 5 5 5 5 5 5 5 5 5 5 5 5 5 5 5 5 5 5 5 5 5 5 5 5 5 5 5 5 5 5 5 5 5 5 ",
"& # X # $ 6 @.O.@.2 5 5 5 5 5 5 V 5 5 5 5 5 5 j.B.0X..% $ X X # * u M.b. .u 5 5 5 5 5 5 5 5 * ..m.9Xm.5 & @ X # & 5 j.M. .i 5 5 5 5 5 5 5 5 5 u n.8X9Xu * # X X $ % f M.j...5 5 5 5 5 5 V 5 5 5 5 5 5 5 V x.^.~.5 & # X # $ * Z Y.K C 5 5 5 5 5 5 5 5 5 5 5 5 C 1.Y.G 5 $ X X # & 5 3.4.G l 5 5 5 5 5 * z K $ G C * 5 5 5 5 5 5 5 5 5 5 5 5 5 5 5 5 5 5 5 5 5 5 5 5 5 5 5 5 5 5 5 5 5 5 5 5 * * 5 5 * 5 5 & 5 5 5 5 5 5 5 5 5 5 5 5 5 5 5 5 5 5 5 5 * * 5 & & 5 5 & * 5 & 5 5 5 5 5 5 5 5 5 5 5 5 5 5 5 5 5 5 5 5 * 5 5 * 5 5 5 ",
"5 5 5 5 5 4 < O.3 6 5 5 5 5 5 5 V 5 5 5 5 5 5 % n.8Xe 5 5 5 5 5 5 5 j.j.5 5 5 5 5 5 5 5 5 5 5 % ..8Xf % 5 5 5 5 5 % i n.i % 5 5 5 5 5 5 5 5 5 * e 8Xn.% 5 5 5 5 5 5 e b. .% 5 5 5 5 5 5 V 5 5 5 5 5 5 5 * l ~.2.* 5 5 5 5 5 5 j 4.C * 5 5 5 5 5 5 5 5 5 5 5 5 * C 4.j 5 5 5 5 5 5 * Z 4.r * 5 5 5 5 5 * z K $ G C * 5 5 5 5 5 5 5 5 5 5 5 5 5 5 5 5 5 5 5 5 5 5 5 5 5 5 5 5 5 5 5 5 5 5 5 * l C 5 5 C l 5 Z 5 5 5 5 5 5 5 5 5 5 5 5 5 5 5 5 5 5 5 5 V C 5 C C 5 5 C l 5 Z r 5 5 5 5 5 5 5 5 5 5 5 5 5 5 5 5 5 5 5 l 5 l C 5 5 l ",
"5 5 5 5 5 5 5 , 5 5 5 5 5 5 5 5 V 5 5 5 5 5 5 5 5 u 5 5 5 5 5 5 5 5 e e 5 5 5 5 5 5 5 5 5 5 5 5 * u 5 5 5 5 5 5 5 5 5 e 5 5 5 5 5 5 5 5 5 5 5 5 5 e e 5 5 5 5 5 5 5 5 e 5 5 5 5 5 5 5 5 V 5 5 5 5 5 5 5 5 * j 5 5 5 5 5 5 5 5 5 r 5 5 5 5 5 5 5 5 5 5 5 5 5 5 5 5 r 5 5 5 5 5 5 5 5 5 r 5 5 5 5 5 5 5 * z K $ G C * 5 5 5 5 5 5 5 5 5 5 5 5 5 5 5 5 5 5 5 5 5 5 5 5 5 5 5 5 5 5 5 5 5 5 & l T.Z & C T.4.3.T.3.* 5 5 5 5 5 5 5 5 5 5 5 5 5 5 5 5 5 5 1.Y.4.R.C 5 j 3.Y.K 4.Y.5 5 5 5 5 5 5 5 5 5 5 5 5 5 5 5 5 * Z ^.r Y.Y.C 5 Y.",
"5 5 5 5 5 5 5 5 5 5 5 5 5 5 5 5 V 5 5 5 5 5 5 5 5 5 5 5 5 5 5 5 5 5 5 5 5 5 5 5 5 5 5 5 5 5 5 5 5 5 5 5 5 5 5 5 5 5 5 5 5 5 5 5 5 5 5 5 5 5 5 5 5 5 5 5 5 5 5 5 5 5 5 5 5 5 5 5 5 5 5 5 V 5 5 5 5 5 5 5 5 5 5 5 5 5 5 5 5 5 5 5 5 5 5 5 5 5 5 5 5 5 5 5 5 5 5 5 5 5 5 5 5 5 5 5 5 5 5 5 5 5 5 5 5 5 5 * z K $ G C * 5 5 5 5 5 5 5 5 5 5 5 5 5 5 5 5 5 5 5 5 5 5 5 5 5 5 5 5 5 5 5 5 5 5 5 2.R.2.& 3.V 1.^.5 Y.5 5 5 5 5 5 5 5 5 5 5 5 5 5 5 5 5 j r # 2.3.Y.3.5 5 $ Y.j 5 Y.5 5 5 5 5 5 5 5 5 5 5 5 5 5 5 5 5 5 5 x.G 1.V 2.l 3.",
"5 5 5 5 5 5 5 5 5 5 5 5 5 5 5 5 V 5 5 5 5 5 5 5 5 5 5 5 5 5 5 5 5 5 5 5 5 5 5 5 5 5 5 5 5 5 5 5 5 5 5 5 5 5 5 5 5 5 5 5 5 5 5 5 5 5 5 5 5 5 5 5 5 5 5 5 5 5 5 5 5 5 5 5 5 5 5 5 5 5 5 5 V 5 5 5 5 5 5 5 5 5 5 5 5 5 5 5 5 5 5 5 5 5 5 5 5 5 5 5 5 5 5 5 5 5 5 5 5 5 5 5 5 5 5 5 5 5 5 5 5 5 5 5 5 5 5 * z K $ G C * 5 5 5 5 5 5 5 5 5 & * 5 5 $ * 5 $ 5 5 5 5 5 5 5 5 5 5 5 5 5 5 5 5 V 2.x.Z x.V 1.Z 2.~.l Y.5 5 5 5 5 5 5 5 5 5 5 5 5 5 5 5 5 3.V C 3.& # Y.Z $ 2.G & Y.l * 5 5 5 5 5 5 5 5 5 5 5 5 5 5 5 5 5 * Y.Z 2.Z 3.l 4.",
"5 5 5 & 5 5 5 5 * 5 & * 5 5 5 5 V 5 5 5 5 5 5 5 5 & 5 5 5 5 $ * 5 5 5 5 5 5 5 5 5 5 5 5 5 5 5 5 5 5 5 5 5 5 5 & 5 5 & 5 5 5 5 5 5 5 5 5 5 5 5 * 5 * * 5 5 5 5 * & & 5 5 5 * 5 & & 5 5 5 V 5 5 5 5 5 5 5 5 * 5 5 * 5 * 5 5 * 5 5 5 5 5 5 5 5 5 5 5 5 5 5 5 5 5 5 5 * 5 5 5 * 5 5 * 5 5 * 5 5 5 5 5 5 5 * z K $ G C * 5 5 5 5 5 5 5 5 5 1.K * 5 x.Z l Y.l * 5 5 5 5 5 5 5 5 5 5 5 5 5 5 5 $ l T.4.2.Z T.4.G R.1.* 5 5 5 5 5 5 5 5 5 5 5 5 5 5 5 5 & 5 ~.Y.K x.4.1.2.^.2.Y.~.1.5 5 5 5 5 5 5 5 5 5 5 5 5 5 5 5 5 5 5 4.5 x.Y.1.G 3.",
"l r j K 5 5 5 $ K l G C 5 5 5 5 V 5 5 5 5 5 j j l Z 5 5 l r K V * j j 5 l & $ 5 5 5 5 5 5 5 5 5 5 5 5 l j 5 5 G 5 l C 5 5 5 5 5 5 5 5 5 5 5 5 z * C V * 5 5 l z K Z 5 5 $ G z Z Z 5 5 5 V 5 5 5 5 5 l 5 5 V 5 j V * z l 5 V 5 5 r 5 5 r * * 5 5 5 5 5 5 5 5 5 5 5 z l 5 5 l l 5 V 5 5 V 5 5 5 5 5 5 5 * z K $ G C * 5 5 5 5 5 5 5 & G R.z $ 2.3.4.T.K x.* 5 5 5 5 5 5 5 5 5 5 5 5 5 5 5 5 5 5 5 5 5 5 5 * r 5 5 5 5 5 5 5 5 5 5 5 5 5 5 5 5 5 5 5 5 5 l r l 5 5 5 5 l 5 r l 5 5 5 5 5 5 5 5 5 5 5 5 5 5 5 5 5 5 5 5 5 5 5 5 5 5 ",
"~.K l 3.x.* 5 G T.1.Y.x.K & 5 5 V 5 5 5 5 $ E.Y.3.Y.C C ^.3.T.l $ 1.G 5 Y.Z 1.r 5 5 5 5 5 5 5 5 5 5 * ^.1.# 4.Y.3.x.Y.C * 5 5 5 5 5 5 5 5 & 3.R.l Y.x.l & V /.C 1.~.5 5 C T.1.Y.4.2.& 5 V 5 5 5 5 5 x.z Z 2.G 1.1.G 2.1.G 2.K $ G z 5 1.V Z 5 5 5 5 5 5 5 5 5 * l 2.1.5 l 5.1.G 2.G 1.2.C * 5 5 5 5 5 * z K $ G C * 5 5 5 5 5 5 5 & x.4.Y.* 3.l 3.R.* Y.5 5 5 5 5 5 5 5 5 5 5 5 5 5 5 5 5 5 5 5 * 5 * 5 5 5 5 5 5 5 5 5 5 5 5 5 5 5 5 5 5 5 5 5 5 5 5 5 5 5 * 5 * 5 5 5 5 5 5 5 5 5 5 5 5 5 5 5 5 5 5 5 5 5 5 5 5 5 5 5 5 5 5 5 ",
"K 1.$ x.4.$ 3.4.T.K T.Y.C * 5 5 V 5 5 5 * C x.4.4.K Y.K x.G Y.1.$ K E.4.Y.C ^.r 5 5 5 5 5 5 5 5 5 * Z Y.Z * Y.5 ~.2.z 4.$ 5 5 5 5 5 5 5 l 5 l 4.K 3.4.K & 2.Y.& l 4.# K x.T.K T.Y.K & 5 V 5 5 5 5 * Z C K 5 4.Z r Y.l Z x.5 1.5 Z 5.1.1.z x.5 5 5 5 5 5 5 5 5 * Z l Z l C V V Y.5 2.2.5 1.* 5 5 5 5 5 * z K $ G C * 5 5 5 5 5 5 5 & 3.K x.G 1.3.x.T.1.x.* 5 5 5 5 5 5 5 5 5 5 5 5 5 5 5 5 5 5 & C 5 j j * 5 5 5 5 5 5 5 5 5 5 5 5 5 5 5 5 5 5 5 5 5 5 5 5 5 C 5 l 5 5 5 5 5 5 5 5 5 5 5 5 5 5 5 5 5 5 5 5 5 5 5 5 5 5 5 5 5 5 * ",
"K 2.$ Z T.& Y.l 4.2.4.2.2.& 5 5 V 5 5 5 5 T.R.R.C T.^.T./.z & R.5 1.x.G x.K Z $ 5 5 5 5 5 5 5 5 5 5 R.~.Y.5 Y.l ~.3.Z 3.$ 5 5 5 5 5 5 5 2.C 5 Y.5 1.~.z G R.^.C x.C # 4.V 2.2.x.K 4.& 5 V 5 5 5 5 & G C K l 4.G l x.z Z 4.j 2.* Z G C K C z * 5 5 5 5 5 5 5 5 * Z C G z C C C x.j 2.2.l 1.* 5 5 5 5 5 * z K $ G C * 5 5 5 5 5 5 5 5 5 x.Z G l 4.Z l Y.z 5 5 5 5 5 5 5 5 5 5 5 5 5 5 5 5 5 5 5 r Y.K T.Y.Z * 5 5 5 5 5 5 5 5 5 5 5 5 5 5 5 5 5 5 5 5 5 5 5 V Y.1.T.Y.l 5 5 5 5 5 5 5 5 5 5 5 5 5 5 5 5 5 5 5 5 5 5 5 l j l 5 5 z ",
"Z K C Y.3.& Z T.Y.G T.Y.Z * 5 5 V 5 5 5 5 r 1.3.Z x.l l Y.K Y.2.$ K Z 5 4.R.x.r 5 5 5 5 5 5 5 5 5 5 j 2.4.K K R.Z 3.E.l 5 5 5 5 5 5 5 5 & * r 4.5 3.1.K G j Y.C 4.5 * V Y.T.Z T.Y.K * 5 V 5 5 5 5 * Z l V 4.V G 5.l 2.K V 5.Z $ Z l 5 1.4.K 5 5 5 5 5 5 5 5 5 5 r 5.K Z V 1.1.z 5.Z C 4.z 5 5 5 5 5 5 * z K $ G C * 5 5 5 5 5 5 5 5 5 $ * * 5 & * 5 $ 5 5 5 5 5 5 5 5 5 5 5 5 5 5 5 5 5 5 & G Y.R.1.x.4.K & 5 5 5 5 5 5 5 5 5 5 5 5 5 5 5 5 5 5 5 5 5 * 3.T.T.2.3.Y.z * 5 5 5 5 5 5 5 5 5 5 5 5 5 5 5 5 5 5 5 5 & K R.E.T.3.K E.",
"5 5 5 j 5 5 5 5 5 5 r 5 * 5 5 5 V 5 5 5 5 5 * * j 5 * * * 5 j 5 5 5 5 5 5 5 j 5 5 5 5 5 5 5 5 5 5 5 * * 5 5 5 5 * 5 5 5 5 5 5 5 5 5 5 5 5 5 5 5 5 l 5 5 5 * * 5 5 5 5 5 5 5 5 5 r * 5 5 V 5 5 5 5 5 5 5 5 5 5 5 5 * 5 5 5 5 5 5 5 5 5 5 5 r 5 5 5 5 5 5 5 5 5 5 5 5 5 5 5 5 5 5 5 5 5 5 5 5 5 5 5 5 5 * z K $ G C * 5 5 5 5 5 5 5 5 5 5 5 5 5 5 5 5 5 5 5 5 5 5 5 5 5 5 5 5 5 5 5 5 5 5 5 & Y.j 3.1.Y.4.K & 5 5 5 5 5 5 5 5 5 5 5 5 5 5 5 5 5 5 5 5 5 5 Y.5 x.3.Y.Y.V * 5 5 5 5 5 5 5 5 5 5 5 5 5 5 5 5 5 5 5 5 $ 1.G 3.C 4.V 4.",
"5 5 5 5 5 5 5 5 5 5 5 5 5 5 5 5 V 5 5 5 5 5 5 5 5 5 5 5 5 5 5 5 5 5 5 5 5 5 5 5 5 5 5 5 5 5 5 5 5 5 5 5 5 5 5 5 5 5 5 5 5 5 5 5 5 5 5 5 5 5 5 5 5 5 5 5 5 5 5 5 5 5 5 5 5 5 5 5 5 5 5 5 V 5 5 5 5 5 5 5 5 5 5 5 5 5 5 5 5 5 5 5 5 5 5 5 5 5 5 5 5 5 5 5 5 5 5 5 5 5 5 5 5 5 5 5 5 5 5 5 5 5 5 5 5 5 5 * z K $ G C * 5 5 5 5 5 5 5 5 5 5 5 5 5 5 5 5 5 5 5 5 5 5 5 5 5 5 5 5 5 5 5 5 5 5 5 & K Y.E.K Y.4.2.& 5 5 5 5 5 5 5 5 5 5 5 5 5 5 5 5 5 5 5 5 5 * 4.Y.Y.2.x.Y.Z * 5 5 5 5 5 5 5 5 5 5 5 5 5 5 5 5 5 5 5 5 $ 1.K 3.C 4.z Y.",
"5 5 5 5 5 5 5 5 5 5 5 5 5 5 5 5 V 5 5 5 5 5 5 5 5 5 5 5 5 5 5 5 5 5 5 5 5 5 5 5 5 5 5 5 5 5 5 5 5 5 5 5 5 5 5 5 5 5 5 5 5 5 5 5 5 5 5 5 5 5 5 5 5 5 5 5 5 5 5 5 5 5 5 5 5 5 5 5 5 5 5 5 V 5 5 5 5 5 5 5 5 5 5 5 5 5 5 5 5 5 5 5 5 5 5 5 5 5 5 5 5 5 5 5 5 5 5 5 5 5 5 5 5 5 5 5 5 5 5 5 5 5 5 5 5 5 5 * V K $ Z C * 5 5 5 5 5 5 5 5 5 5 5 5 5 5 5 5 5 5 5 5 5 5 5 5 5 5 5 5 5 5 5 5 5 5 5 5 5 C l 5 Z C 5 5 5 5 5 5 5 5 5 5 5 5 5 5 5 5 5 5 5 5 5 5 5 5 5 C l r G z * 5 5 5 5 5 5 5 5 5 5 5 5 5 5 5 5 5 5 5 5 5 5 r 5 r 5 r l Z ",
"5 5 5 5 5 5 5 5 5 5 5 5 5 5 5 5 C 5 5 5 5 5 5 5 5 5 5 5 5 5 5 5 5 5 5 5 5 5 5 5 5 5 5 5 5 5 5 5 5 5 5 5 5 5 5 5 5 5 5 5 5 5 5 5 5 5 5 5 5 5 5 5 5 5 5 5 5 5 5 5 5 5 5 5 5 5 5 5 5 5 5 5 C 5 5 5 5 5 5 5 5 5 5 5 5 5 5 5 5 5 5 5 5 5 5 5 5 5 5 5 5 5 5 5 5 5 5 5 5 5 5 5 5 5 5 5 5 5 5 5 5 5 5 5 5 5 5 * K C & V K * 5 5 5 5 5 5 5 5 5 5 5 5 5 5 5 5 5 5 5 5 5 5 5 5 5 5 5 5 5 5 5 5 5 5 5 5 5 * 5 5 & * 5 5 5 5 5 5 5 5 5 5 5 5 5 5 5 5 5 5 5 5 5 5 5 5 5 * 5 5 & * 5 5 5 5 5 5 5 5 5 5 5 5 5 5 5 5 5 5 5 5 5 5 5 5 5 5 5 5 5 & ",
"* * * * * * * * * * * * * * * 5 5 * * * * * * * * * * * * * * * * * * * * * * * * * * * * * * * * * * * * * * * * * * * * * * * * * * * * * * * * * * * * * * * * * * * * * * * * * * * 5 5 * * * * * * * * * * * * * * * * * * * * * * * * * * * * * * * * * * * * * * * * * * * * * * * * * * * * * z 2.5 5 5 1.V * * * * * * * * * * * * * * * * * * * * * * * * * * * * * * * * * * * * * 5 5 * 5 5 * * * * * * * * * * * * * * * * * * * * * * * * * 5 5 * 5 5 * * * * * * * * * * * * * * * * * * * * * * * * * 5 * 5 5 5 ",
"z z z z z z z z z z z z z z z z l z z z z z z z z z z z z z z z z z z z z z z z z z z z z z z z z z z z z z z z z z z z z z z z z z z z z z z z z z z z z z z z z z z z z z z z z z z z l z z z z z z z z z z z z z z z z z z z z z z z z z z z z z z z z z z z z z z z z z z z z z z z z z z z z V K 2.l 5 5 5 5 1.K V z z z z z z z z z z z z z z z z z z z z z z z z z z z z z z z z z z z z z z z z z z z z z z z z z z z z z z z z z z z z z z z z z z z z z z z z z z z z z z z z z z z z z z z z z z z z z z z z z z z z ",
"K K K K K K K K K K K K K K K K K K K K K K K K K K K K K K K K K K K K K K K K K K K K K K K K K K K K K K K K K K K K K K K K K K K K K K K K K K K K K K K K K K K K K K K K K K K K K K K K K K K K K K K K K K K K K K K K K K K K K K K K K K K K K K K K K K K K K K K K K K K K K K K K K K C 5 5 5 5 5 5 5 C K K K K K K K K K K K K K K K K K K K K K K K K K K K K K K K K K K K K K K K K K K K K K K K K K K K K K K K K K K K K K K K K K K K K K K K K K K K K K K K K K K K K K K K K K K K K K K K K K K K K K ",
"$ $ $ $ $ $ $ $ $ $ $ $ $ $ $ $ $ $ $ $ $ $ $ $ $ $ $ $ $ $ $ $ $ $ $ $ $ $ $ $ $ $ $ $ $ $ $ $ $ $ $ $ $ $ $ $ $ $ $ $ $ $ $ $ $ $ $ $ $ $ $ $ $ $ $ $ $ $ $ $ $ $ $ $ $ $ $ $ $ $ $ $ $ $ $ $ $ $ $ $ $ $ $ $ $ $ $ $ $ $ $ $ $ $ $ $ $ $ $ $ $ $ $ $ $ $ $ $ $ $ $ $ $ $ $ $ $ $ $ $ $ $ $ $ $ $ $ & * * * * * * $ $ $ $ $ $ $ $ $ $ $ $ $ $ $ $ $ $ $ $ $ $ $ $ $ $ $ $ $ $ $ $ $ $ $ $ $ $ $ $ $ $ $ $ $ $ $ $ $ $ $ $ $ $ $ $ $ $ $ $ $ $ $ $ $ $ $ $ $ $ $ $ $ $ $ $ $ $ $ $ $ $ $ $ $ $ $ $ $ $ $ $ $ $ $ $ $ $ $ $ $ $ ",
"G G G G G G G G G G G G G G G G G G G G G G G G G G G G G G G G G G G G G G G G G G G G G G G G G G G G G G G G G G G G G G G G G G G G G G G G G G G G G G G G G G G G G G G G G G G G G G G G G G G G G G G G G G G G G G G G G G G G G G G G G G G G G G G G G G G G G G G G G G G G G G G G G G G G G G G G G G G G G G G G G G G G G G G G G G G G G G G G G G G G G G G G G G G G G G G G G G G G G G G G G G G G G G G G G G G G G G G G G G G G G G G G G G G G G G G G G G G G G G G G G G G G G G G G G G G G G G G G ",
"C C C C C C C C C C C C C C C C C C C C C C C C C C C C C C C C C C C C C C C C C C C C C C C C C C C C C C C C C C C C C C C C C C C C C C C C C C C C C C C C C C C C C C C C C C C C C C C C C C C C C C C C C C C C C C C C C C C C C C C C C C C C C C C C C C C C C C C C C C C C C C C C C C C C C C C C C C C C C C C C C C C C C C C C C C C C C C C C C C C C C C C C C C C C C C C C C C C C C C C C C C C C C C C C C C C C C C C C C C C C C C C C C C C C C C C C C C C C C C C C C C C C C C C C C C C C C C C C ",
"* * * * * * * * * * * * * * * * * * * * * * * * * * * * * * * * * * * * * * * * * * * * * * * * * * * * * * * * * * * * * * * * * * * * * * * * * * * * * * * * * * * * * * * * * * * * * * * * * * * * * * * * * * * * * * * * * * * * * * * * * * * * * * * * * * * * * * * * * * * * * * * * * * * * * * * * * * * * * * * * * * * * * * * * * * * * * * * * * * * * * * * * * * * * * * * * * * * * * * * * * * * * * * * * * * * * * * * * * * * * * * * * * * * * * * * * * * * * * * * * * * * * * * * * * * * * * * * * ",
"5 5 5 5 5 5 5 5 5 5 5 5 5 5 5 5 5 5 5 5 5 5 5 5 5 5 5 5 5 5 5 5 5 5 5 5 5 5 5 5 5 5 5 5 5 5 5 5 5 5 5 5 5 5 5 5 5 5 5 5 5 5 5 5 5 5 5 5 5 5 5 5 5 5 5 5 5 5 5 5 5 5 5 5 5 5 5 5 5 5 5 5 5 5 5 5 5 5 5 5 5 5 5 5 5 5 5 5 5 5 5 5 5 5 5 5 5 5 5 5 5 5 5 5 5 5 5 5 5 5 5 5 5 5 5 5 5 5 5 5 5 5 5 5 5 5 5 5 5 5 5 5 5 5 5 5 5 5 5 5 5 5 5 5 5 5 5 5 5 5 5 5 5 5 5 5 5 5 5 5 5 5 5 5 5 5 5 5 5 5 5 5 5 5 5 5 5 5 5 5 5 5 5 5 5 5 5 5 5 5 5 5 5 5 5 5 5 5 5 5 5 5 5 5 5 5 5 5 5 5 5 5 5 5 5 5 5 5 5 5 5 5 5 5 5 5 5 5 5 5 5 5 5 5 5 5 ",
"5 5 5 5 5 5 5 5 5 5 5 5 5 5 5 5 5 5 5 5 5 5 5 5 5 5 5 5 5 5 5 5 5 5 5 5 5 5 5 5 5 5 5 5 5 5 5 5 5 5 5 5 5 5 5 5 5 5 5 5 5 5 5 5 5 5 5 5 5 5 5 5 5 5 5 5 5 5 5 5 5 5 5 5 5 5 5 5 5 5 5 5 5 5 5 5 5 5 5 5 5 5 5 5 5 5 5 5 5 5 5 5 5 5 5 5 5 5 5 5 5 5 5 5 5 5 5 5 5 5 5 5 5 5 5 5 5 5 5 5 5 5 5 5 5 5 5 5 5 5 5 5 5 5 5 5 5 5 5 5 5 5 5 5 5 5 5 5 5 5 5 5 5 5 5 5 5 5 5 5 5 5 5 5 5 5 5 5 5 5 5 5 5 5 5 5 5 5 5 5 5 5 5 5 5 5 5 5 5 5 5 5 5 5 5 5 5 5 5 5 5 5 5 5 5 5 5 5 5 5 5 5 5 5 5 5 5 5 5 5 5 5 5 5 5 5 5 5 5 5 5 5 5 5 5 5 ",
"5 5 5 5 5 5 5 5 5 5 5 5 5 5 5 5 5 5 5 5 5 5 5 5 5 5 5 5 5 5 5 5 5 5 5 5 5 5 5 5 5 5 5 5 5 5 5 5 5 5 5 5 5 5 5 5 5 5 5 5 5 5 5 5 5 5 5 5 5 5 5 5 5 5 5 5 5 5 5 5 5 5 5 5 5 5 5 5 5 5 5 5 5 5 5 5 5 5 5 5 5 5 5 5 5 5 5 5 5 5 5 5 5 5 5 5 5 5 5 5 5 5 5 5 5 5 5 5 5 5 5 5 5 5 5 5 5 5 5 5 5 5 5 5 5 5 5 5 5 5 5 5 5 5 5 5 5 5 5 5 5 5 5 5 5 5 5 5 5 5 5 5 5 5 5 5 5 5 5 5 5 5 5 5 5 5 5 5 5 5 5 5 5 5 5 5 5 5 5 5 5 5 5 5 5 5 5 5 5 5 5 5 5 5 5 5 5 5 5 5 5 5 5 5 5 5 5 5 5 5 5 5 5 5 5 5 5 5 5 5 5 5 5 5 5 5 5 5 5 5 5 5 5 5 5 5 ",
"5 5 5 5 5 5 5 5 5 5 5 5 5 5 5 5 5 5 5 5 5 5 5 5 5 5 5 5 5 5 5 5 5 5 5 5 5 5 5 5 5 5 5 5 5 5 5 5 5 5 5 5 5 5 5 5 5 5 5 5 5 5 5 5 5 5 5 5 5 5 5 5 5 5 5 5 5 5 5 5 5 5 5 5 5 5 5 5 5 5 5 5 5 5 5 5 5 5 5 5 5 5 5 5 5 5 5 5 5 5 5 5 5 5 5 5 5 5 5 5 5 5 5 5 5 5 5 5 5 5 5 5 5 5 5 5 5 5 5 5 5 5 5 5 5 5 5 5 5 5 5 5 5 5 5 5 5 5 5 5 5 5 5 5 5 5 5 5 5 5 5 5 5 5 5 5 5 5 5 5 5 5 5 5 5 5 5 5 5 5 5 5 5 5 5 5 5 5 5 5 5 5 5 5 5 5 5 5 5 5 5 5 5 5 5 5 5 5 5 5 5 5 5 5 5 5 5 5 5 5 5 5 5 5 5 5 5 5 5 5 5 5 5 5 5 5 5 5 5 5 5 5 5 5 5 5 ",
"5 5 5 5 5 5 5 5 5 5 5 5 5 5 5 5 5 5 5 5 5 5 5 5 5 5 5 5 5 5 5 5 5 5 5 5 5 5 5 5 5 5 5 5 5 5 5 5 5 5 5 5 5 5 5 5 5 5 5 5 5 5 5 5 5 5 5 5 5 5 5 5 5 5 5 5 5 5 5 5 5 5 5 5 5 5 5 5 5 5 5 5 5 5 5 5 5 5 5 5 5 5 5 5 5 5 5 5 5 5 5 5 5 5 5 5 5 5 5 5 5 5 5 5 5 5 5 5 5 5 5 5 5 5 5 5 5 5 5 5 5 5 5 5 5 5 5 5 5 5 5 5 5 5 5 5 5 5 5 5 5 5 5 5 5 5 5 5 5 5 5 5 5 5 5 5 5 5 5 5 5 5 5 5 5 5 5 5 5 5 5 5 5 5 5 5 5 5 5 5 5 5 5 5 5 5 5 5 5 5 5 5 5 5 5 5 5 5 5 5 5 5 5 5 5 5 5 5 5 5 5 5 5 5 5 5 5 5 5 5 5 5 5 5 5 5 5 5 5 5 5 5 5 5 5 5 ",
"5 5 5 5 5 5 5 5 5 5 5 5 5 5 5 5 5 5 5 5 5 5 5 5 5 5 5 5 5 5 5 5 5 5 5 5 5 5 5 5 5 5 5 5 5 5 5 5 5 5 5 5 5 5 5 5 5 5 5 5 5 5 5 5 5 5 5 5 5 5 5 5 5 5 5 5 5 5 5 5 5 5 5 5 5 5 5 5 5 5 5 5 5 5 5 5 5 5 5 5 5 5 5 5 5 5 5 5 5 5 5 5 5 5 5 5 5 5 5 5 5 5 5 5 5 5 5 5 5 5 5 5 5 5 5 5 5 5 5 5 5 5 5 5 5 5 5 5 5 5 5 5 5 5 5 5 5 5 5 5 5 5 5 5 5 5 5 5 5 5 5 5 5 5 5 5 5 5 5 5 5 5 5 5 5 5 5 5 5 5 5 5 5 5 5 5 5 5 5 5 5 5 5 5 5 5 5 5 5 5 5 5 5 5 5 5 5 5 5 5 5 5 5 5 5 5 5 5 5 5 5 5 5 5 5 5 5 5 5 5 5 5 5 5 5 5 5 5 5 5 5 5 5 5 5 5 ",
"5 5 5 5 5 5 5 5 5 5 5 5 5 5 5 5 5 5 5 5 5 5 5 5 5 5 5 5 5 5 5 5 5 5 5 5 5 5 5 5 5 5 5 5 5 5 5 5 5 5 5 5 5 5 5 5 5 5 5 5 5 5 5 5 5 5 5 5 5 5 5 5 5 5 5 5 5 5 5 5 5 5 5 5 5 5 5 5 5 5 5 5 5 5 5 5 5 5 5 5 5 5 5 5 5 5 5 5 5 5 5 5 5 5 5 5 5 5 5 5 5 5 5 5 5 5 5 5 5 5 5 5 5 5 5 5 5 5 5 5 5 5 5 5 5 5 5 5 5 5 5 5 5 5 5 5 5 5 5 5 5 5 5 5 5 5 5 5 5 5 5 5 5 5 5 5 5 5 5 5 5 5 5 5 5 5 5 5 5 5 5 5 5 5 5 5 5 5 5 5 5 5 5 5 5 5 5 5 5 5 5 5 5 5 5 5 5 5 5 5 5 5 5 5 5 5 5 5 5 5 5 5 5 5 5 5 5 5 5 5 5 5 5 5 5 5 5 5 5 5 5 5 5 5 5 5 ",
"5 5 5 5 5 5 5 5 5 5 5 5 5 5 5 5 5 5 5 5 5 5 5 5 5 5 5 5 5 5 5 5 5 5 5 5 5 5 5 5 5 5 5 5 5 5 5 5 5 5 5 5 5 5 5 5 5 5 5 5 5 5 5 5 5 5 5 5 5 5 5 5 5 5 5 5 5 5 5 5 5 5 5 5 5 5 5 5 5 5 5 5 5 5 5 5 5 5 5 5 5 5 5 5 5 5 5 5 5 5 5 5 5 5 5 5 5 5 5 5 5 5 5 5 5 5 5 5 5 5 5 5 5 5 5 5 5 5 5 5 5 5 5 5 5 5 5 5 5 5 5 5 5 5 5 5 5 5 5 5 5 5 5 5 5 5 5 5 5 5 5 5 5 5 5 5 5 5 5 5 5 5 5 5 5 5 5 5 5 5 5 5 5 5 5 5 5 5 5 5 5 5 5 5 5 5 5 5 5 5 5 5 5 5 5 5 5 5 5 5 5 5 5 5 5 5 5 5 5 5 5 5 5 5 5 5 5 5 5 5 5 5 5 5 5 5 5 5 5 5 5 5 5 5 5 5 ",
"5 5 5 5 5 5 5 5 5 5 5 5 5 5 5 5 5 5 5 5 5 5 5 5 5 5 5 5 5 5 5 5 5 5 5 5 5 5 5 5 5 5 5 5 5 5 5 5 5 5 5 5 5 5 5 5 5 5 5 5 5 5 5 5 5 5 5 5 5 5 5 5 5 5 5 5 5 5 5 5 5 5 5 5 5 5 5 5 5 5 5 5 5 5 5 5 5 5 5 5 5 5 5 5 5 5 5 5 5 5 5 5 5 5 5 5 5 5 5 5 5 5 5 5 5 5 5 5 5 5 5 5 5 5 5 5 5 5 5 5 5 5 5 5 5 5 5 5 5 5 5 5 5 5 5 5 5 5 5 5 5 5 5 5 5 5 5 5 5 5 5 5 5 5 5 5 5 5 5 5 5 5 5 5 5 5 5 5 5 5 5 5 5 5 5 5 5 5 5 5 5 5 5 5 5 5 5 5 5 5 5 5 5 5 5 5 5 5 5 5 5 5 5 5 5 5 5 5 5 5 5 5 5 5 5 5 5 5 5 5 5 5 5 5 5 5 5 5 5 5 5 5 5 5 5 5 ",
"5 5 5 5 5 5 5 5 5 5 5 5 5 5 5 5 5 5 5 5 5 5 5 5 5 5 5 5 5 5 5 5 5 5 5 5 5 5 5 5 5 5 5 5 5 5 5 5 5 5 5 5 5 5 5 5 5 5 5 5 5 5 5 5 5 5 5 5 5 5 5 5 5 5 5 5 5 5 5 5 5 5 5 5 5 5 5 5 5 5 5 5 5 5 5 5 5 5 5 5 5 5 5 5 5 5 5 5 5 5 5 5 5 5 5 5 5 5 5 5 5 5 5 5 5 5 5 5 5 5 5 5 5 5 5 5 5 5 5 5 5 5 5 5 5 5 5 5 5 5 5 5 5 5 5 5 5 5 5 5 5 5 5 5 5 5 5 5 5 5 5 5 5 5 5 5 5 5 5 5 5 5 5 5 5 5 5 5 5 5 5 5 5 5 5 5 5 5 5 5 5 5 5 5 5 5 5 5 5 5 5 5 5 5 5 5 5 5 5 5 5 5 5 5 5 5 5 5 5 5 5 5 5 5 5 5 5 5 5 5 5 5 5 5 5 5 5 5 5 5 5 5 5 5 5 5 ",
"5 5 5 5 5 5 5 5 5 5 5 5 5 5 5 5 5 5 5 5 5 5 5 5 5 5 5 5 5 5 5 5 5 5 5 5 5 5 5 5 5 5 5 5 5 5 5 5 5 5 5 5 5 5 5 5 5 5 5 5 5 5 5 5 5 5 5 5 5 5 5 5 5 5 5 5 5 5 5 5 5 5 5 5 5 5 5 5 5 5 5 5 5 5 5 5 5 5 5 5 5 5 5 5 5 5 5 5 5 5 5 5 5 5 5 5 5 5 5 5 5 5 5 5 5 5 5 5 5 5 5 5 5 5 5 5 5 5 5 5 5 5 5 5 5 5 5 5 5 5 5 5 5 5 5 5 5 5 5 5 5 5 5 5 5 5 5 5 5 5 5 5 5 5 5 5 5 5 5 5 5 5 5 5 5 5 5 5 5 5 5 5 5 5 5 5 5 5 5 5 5 5 5 5 5 5 5 5 5 5 5 5 5 5 5 5 5 5 5 5 5 5 5 5 5 5 5 5 5 5 5 5 5 5 5 5 5 5 5 5 5 5 5 5 5 5 5 5 5 5 5 5 5 5 5 5 "
};
