/* XPM */
static char *sc_deesser_stereo[] = {
/* columns rows colors chars-per-pixel */
"256 256 256 2 ",
"   c #0A0A0C",
".  c #070707",
"X  c #15120F",
"o  c #0D0E11",
"O  c #050513",
"+  c #0B1811",
"@  c #0E1115",
"#  c #131213",
"$  c #15161B",
"%  c #1C151A",
"&  c #16191D",
"*  c #18191E",
"=  c #1A1517",
"-  c #0F0F0E",
";  c #2A1919",
":  c #301812",
">  c #16231E",
",  c #1F201D",
"<  c #25251C",
"1  c #353619",
"2  c #332D12",
"3  c #141623",
"4  c #151A22",
"5  c #1B1C22",
"6  c #1A1D27",
"7  c #0D1723",
"8  c #231D23",
"9  c #2E1D23",
"0  c #261E2A",
"q  c #2F1E31",
"w  c #1E2027",
"e  c #17252D",
"r  c #1C222B",
"t  c #192527",
"y  c #162634",
"u  c #1D2434",
"i  c #1E273A",
"p  c #152C3C",
"a  c #1D293C",
"s  c #192A34",
"d  c #18333B",
"f  c #0D2934",
"g  c #222225",
"h  c #2C2D24",
"j  c #23252C",
"k  c #26282F",
"l  c #2A2427",
"z  c #382729",
"x  c #353429",
"c  c #272830",
"v  c #292B34",
"b  c #2D2E39",
"n  c #272734",
"m  c #312B33",
"M  c #362737",
"N  c #2F303A",
"B  c #263339",
"V  c #31333D",
"C  c #3B393A",
"Z  c #2A322A",
"A  c #423B3E",
"S  c #483639",
"D  c #56383A",
"F  c #4D312B",
"G  c #683731",
"H  c #502F1A",
"J  c #595900",
"K  c #555503",
"L  c #49480F",
"P  c #6C5219",
"I  c #6F6E05",
"U  c #554735",
"Y  c #6E4F2D",
"T  c #6B601B",
"R  c #1B2D44",
"E  c #0B3E4A",
"W  c #05394C",
"Q  c #193545",
"!  c #133957",
"~  c #08324E",
"^  c #2A2D48",
"/  c #372945",
"(  c #263447",
")  c #353642",
"_  c #363844",
"`  c #393B46",
"'  c #32314A",
"]  c #3B3D4A",
"[  c #393749",
"{  c #273657",
"}  c #373854",
"|  c #342D55",
" . c #2D3B6B",
".. c #223156",
"X. c #463B46",
"o. c #4A3C45",
"O. c #443D49",
"+. c #4A3E49",
"@. c #463643",
"#. c #543A44",
"$. c #583C45",
"%. c #4A2755",
"&. c #473C55",
"*. c #4B2B50",
"=. c #6D344C",
"-. c #53326B",
";. c #692F75",
":. c #401F49",
">. c #0E404C",
",. c #0B4859",
"<. c #184955",
"1. c #174A54",
"2. c #3E414D",
"3. c #394144",
"4. c #364854",
"5. c #195766",
"6. c #195969",
"7. c #0E4D6E",
"8. c #374A7A",
"9. c #2D496F",
"0. c #146774",
"q. c #256878",
"w. c #43424D",
"e. c #4D424D",
"r. c #474244",
"t. c #52444C",
"y. c #5C434C",
"u. c #594346",
"i. c #424453",
"p. c #4E4452",
"a. c #464856",
"s. c #474958",
"d. c #4A4C5C",
"f. c #4A455A",
"g. c #514653",
"h. c #544856",
"j. c #554B5A",
"k. c #594E5C",
"l. c #5A4755",
"z. c #5B505F",
"x. c #56515C",
"c. c #4A545B",
"v. c #644645",
"b. c #6C4945",
"n. c #67484A",
"m. c #724C46",
"M. c #654A56",
"N. c #6C5256",
"B. c #4A4965",
"V. c #4E5161",
"C. c #525465",
"Z. c #5D5262",
"A. c #56586B",
"S. c #474A79",
"D. c #564E72",
"F. c #68526E",
"G. c #596473",
"H. c #63667A",
"J. c #6F6F6C",
"K. c #797351",
"L. c #3E4010",
"P. c #8E3427",
"I. c #A53D3A",
"U. c #8D5632",
"Y. c #AF6931",
"T. c #9B611E",
"R. c #D1752C",
"E. c #E47B28",
"W. c #E07434",
"Q. c #DA7518",
"!. c #89365A",
"~. c #993A62",
"^. c #AF4371",
"/. c #9D6B61",
"(. c #C96169",
"). c #888900",
"_. c #E88133",
"`. c #743781",
"'. c #7A3185",
"]. c #783886",
"[. c #723187",
"{. c #0B4E95",
"}. c #0B5598",
"|. c #0C5288",
" X c #324E8C",
".X c #147689",
"XX c #25738D",
"oX c #185BAA",
"OX c #1D5FB1",
"+X c #305AB1",
"@X c #0465A9",
"#X c #076BB6",
"$X c #2464B9",
"%X c #2C63A7",
"&X c #464A87",
"*X c #4A548A",
"=X c #575389",
"-X c #4B5697",
";X c #535394",
":X c #6D5090",
">X c #6D7188",
",X c #4A5AA6",
"<X c #525CB1",
"1X c #6659A6",
"2X c #4161A7",
"3X c #5262B9",
"4X c #6C67B2",
"5X c #4A6C8D",
"6X c #0176C8",
"7X c #2C6AC5",
"8X c #3274D6",
"9X c #316BD1",
"0X c #3A7BE5",
"qX c #3170ED",
"wX c #3C58C0",
"eX c #4B65C9",
"rX c #4B69D9",
"tX c #576AD8",
"yX c #5767CA",
"uX c #696ACD",
"iX c #4D6EE9",
"pX c #556EE6",
"aX c #5270ED",
"sX c #5971EA",
"dX c #4B75F9",
"fX c #5274F6",
"gX c #4870ED",
"hX c #656FE8",
"jX c #5A5DC7",
"kX c #2A3F85",
"lX c #873494",
"zX c #9A30A9",
"xX c #A637B7",
"cX c #8E4999",
"vX c #88469B",
"bX c #954B96",
"nX c #AA41B7",
"mX c #AB43B9",
"MX c #B446B9",
"NX c #946F97",
"BX c #D04E8B",
"VX c #B543C9",
"CX c #8E54D6",
"ZX c #CE46DE",
"AX c #098795",
"SX c #21859A",
"DX c #039AA7",
"FX c #2394AD",
"GX c #00ABB9",
"HX c #00ACBA",
"JX c #23A3BC",
"KX c #018EEF",
"LX c #12A6C6",
"PX c #4D8CFB",
"IX c #7C819A",
"UX c #8D9161",
/* pixels */
"5 5 5 5 5 5 5 5 5 5 5 5 5 5 5 5 5 5 5 5 5 5 5 5 5 5 5 5 5 5 5 5 5 5 5 5 5 5 5 5 5 5 5 5 5 5 5 5 5 5 5 5 5 5 5 5 5 5 5 5 5 5 5 5 5 5 5 5 5 5 5 5 5 5 5 5 5 5 5 5 5 5 5 5 5 5 5 5 5 5 5 5 5 5 5 5 5 5 5 5 5 5 5 5 5 5 5 5 5 5 5 5 5 5 5 5 5 5 5 5 5 5 5 5 5 5 5 5 5 5 5 5 5 5 5 5 5 5 5 5 5 5 5 5 5 5 5 5 5 5 5 5 5 5 5 5 5 5 5 5 5 5 5 5 5 5 5 5 5 5 5 5 5 5 5 5 5 5 5 5 5 5 5 5 5 5 5 5 5 5 5 5 5 5 5 5 5 5 5 5 5 5 5 5 5 5 5 5 5 5 5 5 5 5 5 5 5 5 5 5 5 5 5 5 5 5 5 5 5 5 5 5 5 5 5 5 5 5 5 5 5 5 5 5 5 5 5 5 5 5 5 5 5 5 5 5 ",
"5 5 5 5 5 5 5 5 5 5 5 5 5 5 5 5 5 5 5 5 5 5 5 5 5 5 5 5 5 5 5 5 5 5 5 5 5 5 5 5 5 5 5 5 5 5 5 5 5 5 5 5 5 5 5 5 5 5 5 5 5 5 5 5 5 5 5 5 5 5 5 5 5 5 5 5 5 5 5 5 5 5 5 5 5 5 5 5 5 5 5 5 5 5 5 5 5 5 5 5 5 5 5 5 5 5 5 5 5 5 5 5 5 5 5 5 5 5 5 5 5 5 5 5 5 5 5 5 5 5 5 5 5 5 5 5 5 5 5 5 5 5 5 5 5 5 5 5 5 5 5 5 5 5 5 5 5 5 5 5 5 5 5 5 5 5 5 5 5 5 5 5 5 5 5 5 5 5 5 5 5 5 5 5 5 5 5 5 5 5 5 5 5 5 5 5 5 5 5 5 5 5 5 5 5 5 5 5 5 5 5 5 5 5 5 5 5 5 5 5 5 5 5 5 5 5 5 5 5 5 5 5 5 5 5 5 5 5 5 5 5 5 5 5 5 5 5 5 5 5 5 5 5 5 5 5 ",
"5 5 5 5 5 5 5 5 5 5 5 5 5 5 5 5 5 5 5 5 5 5 5 5 5 5 5 5 5 5 5 5 5 5 5 5 5 5 5 5 5 5 5 5 5 5 5 5 5 5 5 5 5 5 5 5 5 5 5 5 5 5 5 5 5 5 5 5 5 5 5 5 5 5 5 5 5 5 5 5 5 5 5 5 5 5 5 5 5 5 5 5 5 5 5 5 5 5 5 5 5 5 5 5 5 5 5 5 5 5 5 5 5 5 5 5 5 5 5 5 5 5 5 5 5 5 5 5 5 5 5 5 5 5 5 5 5 5 5 5 5 5 5 5 5 5 5 5 5 5 5 5 5 5 5 5 5 5 5 5 5 5 5 5 5 5 5 5 5 5 5 5 5 5 5 5 5 5 5 5 5 5 5 5 5 5 5 5 5 5 5 5 5 5 5 5 5 5 5 5 5 5 5 5 5 5 5 5 5 5 5 5 5 5 5 5 5 5 5 5 5 5 5 5 5 5 5 5 5 5 5 5 5 5 5 5 5 5 5 5 5 5 5 5 5 5 5 5 5 5 5 5 5 5 5 5 ",
"5 5 5 5 5 5 5 5 5 5 5 5 5 5 5 5 5 5 5 5 5 5 5 5 5 5 5 5 5 5 5 5 5 5 5 5 5 5 5 5 5 5 5 5 5 5 5 5 5 5 5 5 5 5 5 5 5 5 5 5 5 5 5 5 5 5 5 5 5 5 5 5 5 5 5 5 5 5 5 5 5 5 5 5 5 5 5 5 5 5 5 5 5 5 5 5 5 5 5 5 5 5 5 5 5 5 5 5 5 5 5 5 5 5 5 5 5 5 5 5 5 5 5 5 5 5 5 5 5 5 5 5 5 5 5 5 5 5 5 5 5 5 5 5 5 5 5 5 5 5 5 5 5 5 5 5 5 5 5 5 5 5 5 5 5 5 5 5 5 5 5 5 5 5 5 5 5 5 5 5 5 5 5 5 5 5 5 5 5 5 5 5 5 5 5 5 5 5 5 5 5 5 5 5 5 5 5 5 5 5 5 5 5 5 5 5 5 5 5 5 5 5 5 5 5 5 5 5 5 5 5 5 5 5 5 5 5 5 5 $ & & 5 * 5 * * $ & 5 * * 5 5 & $ ",
"5 5 5 5 5 5 5 5 5 5 5 5 5 5 5 5 5 5 5 5 5 5 5 5 5 5 5 5 5 5 5 5 5 5 5 5 5 5 5 5 5 5 5 5 5 5 5 5 5 5 5 5 5 5 5 5 5 5 5 5 5 5 5 5 5 5 5 5 5 5 5 5 5 5 5 5 5 5 5 5 5 5 5 5 5 5 5 5 5 5 5 5 5 5 5 5 5 5 5 5 5 5 5 5 5 5 5 5 5 5 5 5 5 5 5 5 5 5 5 5 5 5 5 5 5 5 5 5 5 5 5 5 5 5 5 5 5 5 5 5 5 5 5 5 5 5 5 5 5 5 5 5 5 5 5 5 5 5 5 5 5 5 5 5 5 5 5 5 5 5 5 5 5 5 5 5 5 5 5 5 5 5 5 5 5 5 5 5 5 5 5 5 5 5 5 5 5 5 5 5 5 5 5 5 5 5 5 5 5 5 5 5 5 5 5 5 5 5 5 5 5 5 5 5 5 5 5 5 5 5 5 5 5 5 5 5 5 5 5 d.>X2.i.>Xj a.>XG.V $ d.>XG.5 V H.",
"5 5 5 5 5 5 5 5 5 5 5 5 5 5 5 5 5 5 5 5 5 5 5 5 5 5 5 5 5 5 5 5 5 5 5 5 5 5 5 5 5 5 5 5 5 5 5 5 5 5 5 5 5 5 5 5 5 5 5 5 5 5 5 5 5 5 5 5 5 5 5 5 5 5 5 5 5 5 5 5 5 5 5 5 5 5 5 5 5 5 5 5 5 5 5 5 5 5 5 5 5 5 5 5 5 5 5 5 5 5 5 5 5 5 5 5 5 5 5 5 5 5 5 5 5 5 5 5 5 5 5 5 5 5 5 5 5 5 5 5 5 5 5 5 5 5 5 5 5 5 5 5 5 5 5 5 5 5 5 5 5 5 5 5 5 5 5 5 5 5 5 5 5 5 5 5 5 5 5 5 5 5 5 5 5 5 5 5 5 5 5 5 5 5 5 5 5 5 5 5 5 5 5 5 5 5 5 5 5 5 5 5 5 5 5 5 5 5 5 5 5 5 5 5 5 5 5 5 5 5 5 5 5 5 5 5 5 & b IXb k ` >X# H.a.] >X* >Xd.k c >X` ",
"5 5 5 5 5 5 5 5 5 5 5 5 5 5 5 5 5 5 5 5 5 5 5 5 5 5 5 5 5 5 5 5 5 5 5 5 5 5 5 5 5 5 5 5 5 5 5 5 5 5 5 5 5 5 5 5 5 5 5 5 5 5 5 5 5 5 5 5 5 5 5 5 5 5 5 5 5 5 5 5 5 5 5 5 5 5 5 5 5 5 5 5 5 5 5 5 5 5 5 5 5 5 5 5 5 5 5 5 5 5 5 5 5 5 5 5 5 5 5 5 5 5 5 5 5 5 5 5 5 5 5 5 5 5 5 5 5 5 5 5 5 5 5 5 5 5 5 5 5 5 5 5 5 5 5 5 5 5 5 5 5 5 5 5 5 5 5 5 5 5 5 5 5 5 5 5 5 5 5 5 5 5 5 5 5 5 5 5 5 5 5 5 5 5 5 5 5 5 5 5 5 5 5 5 5 5 5 5 5 5 5 5 5 5 5 5 5 5 5 5 5 5 5 5 5 5 5 5 5 5 5 5 5 5 5 5 5 5 5 G.>Xj V H.@ H.`   >XV G.>XV.2.H.o ",
"5 5 5 5 5 5 5 5 5 5 5 5 5 5 5 5 5 5 5 5 5 5 5 5 5 5 5 5 5 5 5 5 5 5 5 5 5 5 5 5 5 5 5 5 5 5 5 5 5 5 5 5 5 5 5 5 5 5 5 5 5 5 5 5 5 5 5 5 5 5 5 5 5 5 5 5 5 5 5 5 5 5 5 5 5 5 5 5 5 5 5 5 5 5 5 5 5 5 5 5 5 5 5 5 5 5 5 5 5 5 5 5 5 5 5 5 5 5 5 5 5 5 5 5 5 5 5 5 5 5 5 5 5 5 5 5 5 5 5 5 5 5 5 5 5 5 5 5 5 5 5 5 5 5 5 5 5 5 5 5 5 5 5 5 5 5 5 5 5 5 5 5 5 5 5 5 5 5 5 5 5 5 5 5 5 5 5 5 5 5 5 5 5 5 5 5 5 5 5 5 5 5 5 5 5 5 5 5 5 5 5 5 5 5 5 5 5 5 5 5 5 5 5 5 5 5 5 5 5 5 5 5 5 5 5 5 5 5 5 # s.>XN H.o H._ w >Xg H.` # V >X5 ",
"5 5 5 5 5 5 5 5 5 5 5 5 5 5 5 5 5 5 5 5 5 5 5 5 5 5 5 5 5 5 5 5 5 5 5 5 5 5 5 5 5 5 5 5 5 5 5 5 5 5 5 5 5 5 5 5 5 5 5 5 5 5 5 5 5 5 5 5 5 5 5 5 5 5 5 5 5 5 5 5 5 5 5 5 5 5 5 5 5 5 5 5 5 5 5 5 5 5 5 5 5 5 5 5 5 5 5 5 5 5 5 5 5 5 5 5 5 5 5 5 5 5 5 5 5 5 5 5 5 5 5 5 5 5 5 5 5 5 5 5 5 5 5 5 5 5 5 5 5 5 5 5 5 5 5 5 5 5 5 5 5 5 5 5 5 5 5 5 5 5 5 5 5 5 5 5 5 5 5 5 5 5 5 5 5 5 5 5 5 5 5 5 5 5 5 5 5 5 5 5 5 5 5 5 5 5 5 5 5 5 5 5 5 5 5 5 5 5 5 5 5 5 5 5 5 5 5 5 5 5 5 5 5 5 5 5 5 * b H.>Xs.s.IX5 G.>X>Xd.# H.>XA.w A.>X",
"5 5 5 5 5 5 5 5 5 5 5 5 5 5 5 5 5 5 5 5 5 5 5 5 5 5 5 5 5 5 5 5 5 5 5 5 5 5 5 5 5 5 5 5 5 5 5 5 5 5 5 5 5 5 5 5 5 5 5 5 5 5 5 5 5 5 5 5 5 5 5 5 5 5 5 5 5 5 5 5 5 5 5 5 5 5 5 5 5 5 5 5 5 5 5 5 5 5 5 5 5 5 5 5 5 5 5 5 5 5 5 5 5 5 5 5 5 5 5 5 5 5 5 5 5 5 5 5 5 5 5 5 5 5 5 5 5 5 5 5 5 5 5 5 5 5 5 5 5 5 5 5 5 5 5 5 5 5 5 5 5 5 5 5 5 5 5 5 5 5 5 5 5 5 5 5 5 5 5 5 5 5 5 5 5 5 5 5 5 5 5 5 5 5 5 5 5 5 5 5 5 5 5 5 5 5 5 5 5 5 5 5 5 5 5 5 5 5 5 5 5 5 5 5 5 5 5 5 5 5 5 5 5 5 5 5 5 5 5 c c & j c 6 w v j $ 5 g v v 5 & c ",
"5 5 5 5 5 5 5 5 5 5 5 5 5 5 5 5 5 5 5 5 5 5 5 5 5 5 5 5 5 5 5 5 5 5 5 5 5 5 5 5 5 5 5 5 5 5 5 5 5 5 5 5 5 5 5 5 5 5 5 5 5 5 5 5 5 5 5 5 5 5 5 5 5 5 5 5 5 5 5 5 5 5 5 5 5 5 5 5 5 5 5 5 5 5 5 5 5 5 5 5 5 5 5 5 5 5 5 5 5 5 5 5 5 5 5 5 5 5 5 5 5 5 5 5 5 5 5 5 5 5 5 5 5 5 5 5 5 5 5 5 5 5 5 5 5 5 5 5 5 5 5 5 5 5 5 5 5 5 5 5 5 5 5 5 5 5 5 5 5 5 5 5 5 5 5 5 5 5 5 5 5 5 5 5 5 5 5 5 5 5 5 5 5 5 5 5 5 5 5 5 5 5 5 5 5 5 5 5 5 5 5 5 5 5 5 5 5 5 5 5 5 5 5 5 5 5 5 5 5 5 5 5 5 5 5 5 5 5 5 * * 5 * * 5 5 & * 5 5 5 & & 5 5 * ",
"5 5 5 5 5 5 5 5 5 5 5 5 5 5 5 5 5 5 5 5 5 5 5 5 5 5 5 5 5 5 5 5 5 5 5 5 5 5 5 5 5 5 5 5 5 5 5 5 5 5 5 5 5 5 5 5 5 5 5 5 5 5 5 5 5 5 5 5 5 5 5 5 5 5 5 5 5 5 5 5 5 5 5 5 5 5 5 5 5 5 5 5 5 5 5 5 5 5 5 5 5 5 5 5 5 5 5 5 5 5 5 5 5 5 5 5 5 5 5 5 5 5 5 5 5 5 5 5 5 5 5 5 5 5 5 5 5 5 5 5 5 5 5 5 5 5 5 5 5 5 5 5 5 5 5 5 5 5 5 5 5 5 5 5 5 5 5 5 5 5 5 5 5 5 5 5 5 5 5 5 5 5 5 5 5 5 5 5 5 5 5 5 5 5 5 5 5 5 5 5 5 5 5 5 5 5 5 5 5 5 5 5 5 5 5 5 5 5 5 5 5 5 5 5 5 5 5 5 5 5 5 5 5 5 5 5 5 5 5 5 5 5 5 5 5 5 5 5 5 5 5 5 5 5 5 5 ",
"5 5 5 5 5 5 5 5 5 5 5 5 5 5 5 5 5 5 5 5 5 5 5 5 5 5 5 5 5 5 5 5 5 5 5 5 5 5 5 5 5 5 5 5 5 5 5 5 5 5 5 5 5 5 5 5 5 5 5 5 5 5 5 5 5 5 5 5 5 5 5 5 5 5 5 5 5 5 5 5 5 5 5 5 5 5 5 5 5 5 5 5 5 5 5 5 5 5 5 5 5 5 5 5 5 5 5 5 5 5 5 5 5 5 5 5 5 5 5 5 5 5 5 5 5 5 5 5 5 5 5 5 5 5 5 5 5 5 5 5 5 5 5 5 5 5 5 5 5 5 5 5 5 5 5 5 5 5 5 5 5 5 5 5 5 5 5 5 5 5 5 5 5 5 5 5 5 5 5 5 5 5 5 5 5 5 5 5 5 5 5 5 5 5 5 5 5 5 5 5 5 5 5 5 5 5 5 5 5 5 5 5 5 5 5 5 5 5 5 5 5 5 5 5 5 5 5 5 5 5 5 5 5 5 5 5 5 5 5 5 5 5 5 5 5 5 5 5 5 5 5 5 5 5 5 5 ",
"5 5 5 5 5 5 5 5 5 5 5 5 5 5 5 5 5 5 5 5 5 5 5 5 5 5 5 5 5 5 5 5 5 5 5 5 5 5 5 5 5 5 5 5 5 5 5 5 5 5 5 5 5 5 5 5 5 5 5 5 5 5 5 5 5 5 5 5 5 5 5 5 5 5 5 5 5 5 5 5 5 5 5 5 5 5 5 5 5 5 5 5 5 5 5 5 5 5 5 5 5 5 5 5 5 5 5 5 5 5 5 5 5 5 5 5 5 5 5 5 5 5 5 5 5 5 5 5 5 5 5 5 5 5 5 5 5 5 5 5 5 5 5 5 5 5 5 5 5 5 5 5 5 5 5 * 5 5 5 5 5 5 5 5 5 5 5 5 5 5 5 5 5 5 5 5 5 5 5 5 5 5 5 5 5 5 5 5 5 5 5 & & 5 5 5 5 6 5 5 5 5 5 5 * 5 5 5 5 5 5 5 5 5 5 5 5 5 5 5 5 5 5 5 5 5 5 5 5 5 5 5 5 5 5 5 5 5 5 5 5 5 5 5 5 5 5 5 5 5 5 5 5 5 5 5 ",
"5 5 5 5 5 5 5 5 5 5 5 5 5 5 5 5 5 5 5 5 5 5 5 5 5 5 5 5 5 5 5 5 5 5 5 5 5 5 5 5 5 5 5 5 5 5 5 5 5 5 5 5 5 5 5 5 5 5 5 5 5 5 5 5 5 5 5 5 5 5 5 5 5 5 5 5 5 5 5 5 5 5 5 5 5 5 5 5 5 5 5 5 5 5 5 5 5 5 5 5 5 5 5 5 5 5 5 5 5 5 5 5 5 5 5 5 5 5 5 5 5 5 5 5 5 5 5 5 5 5 5 5 5 5 5 5 5 5 5 5 5 5 5 5 5 5 5 5 5 5 5 5 5 5 5 e 5 5 5 5 5 5 5 5 5 5 5 5 5 5 5 5 5 5 5 5 5 5 5 5 5 5 5 5 5 5 5 5 5 5 g 2.2.w * & j a.& * * 5 & * v 5 5 5 & & 5 * & 5 * * * * 5 5 * & j v * 5 5 5 5 5 5 5 5 5 5 5 5 5 5 5 5 5 5 5 5 5 5 5 5 5 5 5 5 5 5 5 ",
"5 5 5 5 5 5 5 5 5 5 5 5 5 5 5 5 5 5 5 5 5 5 5 5 5 5 5 5 5 5 5 5 5 5 5 5 5 5 5 5 5 5 5 5 5 5 5 5 5 5 5 5 5 5 5 5 5 5 5 5 5 5 5 5 5 5 5 5 5 5 5 5 5 5 5 5 5 5 5 5 5 5 5 5 5 5 5 5 5 5 5 5 5 5 5 5 5 5 5 5 5 5 5 5 5 5 5 5 5 5 5 5 5 5 5 5 5 5 5 5 5 5 5 5 5 5 5 5 5 5 5 5 5 5 5 5 5 5 5 5 5 5 5 5 5 5 5 5 5 5 5 5 5 * 1.Q * 5 5 5 5 5 5 5 5 5 5 5 5 5 5 5 5 5 5 5 5 5 5 5 5 5 5 5 5 5 5 5 5 $ ] i.w 6 _ ] v i.j i.N g a.` A.w.& j w.a.c N i.v ` ] j i._ g 2.V ] A.j 5 5 5 5 5 5 5 5 5 5 5 5 5 5 5 5 5 5 5 5 5 5 5 5 5 5 5 5 5 5 5 ",
"5 5 5 5 5 5 5 5 5 5 5 5 5 5 5 5 5 5 5 5 5 5 5 5 5 5 5 5 5 5 5 5 5 5 5 5 5 5 5 5 5 5 5 5 5 5 5 5 5 5 5 5 5 5 5 5 5 5 5 5 5 5 5 5 5 5 5 5 5 5 5 5 5 5 5 5 5 5 5 5 5 5 5 5 5 5 5 5 5 5 5 5 5 5 5 5 5 5 5 5 5 5 5 5 5 5 5 5 5 5 5 5 5 5 5 5 5 5 5 5 5 5 5 5 5 5 5 5 5 5 5 5 5 5 5 5 5 5 5 5 5 5 5 5 5 5 5 5 5 5 5 5 % 1.<.= 5 5 5 5 5 5 5 5 5 5 5 5 5 5 5 5 5 5 5 5 5 5 5 5 5 5 5 5 5 5 5 5 5 * k d.V b C.d.d.] d.s.C.d.V 5 s.c $ N d.v a.s.) _ V.d.d.d.w i.d.V.a.] * 5 5 5 5 5 5 5 5 5 5 5 5 5 5 5 5 5 5 5 5 5 5 5 5 5 5 5 5 5 5 5 ",
"5 5 5 5 5 5 5 5 5 5 5 5 5 5 5 5 5 5 5 5 5 5 5 5 5 5 5 5 5 5 5 5 5 5 5 5 5 5 5 5 5 5 5 5 5 5 5 5 5 5 5 5 5 5 5 5 5 5 5 5 5 5 5 5 5 5 5 5 5 5 5 5 5 5 5 5 5 5 5 5 5 5 5 5 5 5 5 5 5 5 5 5 5 5 5 5 5 5 5 5 5 5 5 5 5 5 5 5 5 5 5 5 5 5 5 5 5 5 5 5 5 5 5 5 5 5 5 5 5 5 5 5 5 5 5 5 5 5 5 5 5 5 5 5 5 5 5 5 5 5 5 5 5 e <.s 5 5 5 5 5 5 5 5 5 5 5 5 5 5 5 5 5 5 5 5 5 5 5 5 5 5 5 5 5 5 5 5 5 5 5 & s.d.s.v N a.V._ c d.j $ s.g $ b i.5 s.i.j ] a.v j b a.d.2.k _ ] $ 5 5 5 5 5 5 5 5 5 5 5 5 5 5 5 5 5 5 5 5 5 5 5 5 5 5 5 5 5 5 5 ",
"5 5 5 5 5 5 5 5 5 5 5 5 5 5 5 5 5 5 5 5 5 5 5 5 5 5 5 5 5 5 5 5 5 5 5 5 5 5 5 5 5 5 5 5 5 5 5 5 5 5 5 5 5 5 5 5 5 5 5 5 5 5 5 5 5 5 5 5 5 5 5 5 5 5 5 5 5 5 5 5 5 5 5 5 5 5 5 5 5 5 5 5 5 5 5 5 5 5 5 5 5 5 5 5 5 5 5 5 5 5 5 5 5 5 5 5 5 5 5 5 5 5 5 5 5 5 5 5 5 5 5 5 5 5 5 5 5 5 5 5 5 5 5 5 5 5 5 5 5 5 5 5 5 % s Q 5 5 5 5 5 5 5 5 5 5 5 5 5 5 5 5 5 5 5 5 5 5 5 5 5 5 5 5 5 5 5 5 5 * b i.i.v i.] N ] V s.V N V.V 2.i.$ v A.d.V ] v j s.` N 2.i.N s._ v d.c 5 5 5 5 5 5 5 5 5 5 5 5 5 5 5 5 5 5 5 5 5 5 5 5 5 5 5 5 5 5 5 ",
"5 5 5 5 5 5 5 5 5 5 5 5 5 5 5 5 5 5 5 5 5 5 5 5 5 5 5 5 5 5 5 5 5 5 5 5 5 5 5 5 5 5 5 5 5 5 5 5 5 5 5 5 5 5 5 5 5 5 5 5 5 5 5 5 5 5 5 5 5 5 5 5 5 5 5 5 5 5 5 5 5 5 5 5 5 5 5 5 5 5 5 5 5 5 5 5 5 5 5 5 5 5 5 5 5 5 5 5 5 5 5 5 5 5 5 5 5 5 5 5 5 5 5 5 5 5 5 5 5 5 5 5 5 5 5 5 5 5 5 5 5 5 5 5 5 5 5 5 5 5 5 5 5 5 * * 5 5 5 5 5 5 5 5 5 5 5 5 5 5 5 5 5 5 5 5 5 5 5 5 5 5 5 5 5 5 5 5 5 5 5 j 6 & 5 k 5 5 * j j * g g 5 j & b i.5 5 5 5 * w j 5 j 5 & g j 5 w w 5 5 5 5 5 5 5 5 5 5 5 5 5 5 5 5 5 5 5 5 5 5 5 5 5 5 5 5 5 5 5 ",
"5 5 5 5 5 5 5 5 5 5 5 5 5 5 5 5 5 5 5 5 5 5 5 5 5 5 5 5 5 5 5 5 5 5 5 5 5 5 5 5 5 5 5 5 5 5 5 5 5 5 5 5 5 5 5 5 5 5 5 5 5 5 5 5 5 5 5 5 5 5 5 5 5 5 5 5 5 5 5 5 5 5 5 5 5 5 5 5 5 5 5 5 5 5 5 5 5 5 5 5 5 5 5 5 5 5 5 5 5 5 5 5 5 5 5 5 5 5 5 5 5 5 5 5 5 5 5 5 5 5 5 5 5 5 5 5 5 5 5 5 5 5 5 5 5 5 5 5 5 5 5 5 5 5 5 5 5 5 5 5 5 5 5 5 5 5 5 5 5 5 5 5 5 5 5 5 5 5 5 5 5 5 5 5 5 5 5 5 5 5 5 * 5 5 5 * 5 5 5 5 5 5 5 5 5 5 * v _ $ 5 5 5 5 5 * 5 * 5 5 5 5 5 5 5 5 5 5 5 5 5 5 5 5 5 5 5 5 5 5 5 5 5 5 5 5 5 5 5 5 5 5 5 5 5 5 ",
"5 5 5 5 5 5 5 5 5 5 5 5 5 5 5 5 5 5 5 5 5 5 5 5 5 5 5 5 5 5 5 5 5 5 5 5 5 5 5 5 5 5 5 5 5 5 5 5 5 5 5 5 5 5 5 5 5 5 5 5 5 5 5 5 5 5 5 5 5 5 5 5 5 5 5 5 5 5 5 5 5 5 5 5 5 5 5 5 5 5 5 5 5 5 5 5 5 5 5 5 5 5 5 5 5 5 5 5 5 5 5 5 5 5 5 5 5 5 5 5 5 5 5 5 5 5 5 5 5 5 5 5 5 5 5 5 5 5 5 5 5 5 5 5 5 5 5 5 5 5 5 5 5 5 5 5 5 5 5 5 5 5 5 5 5 5 5 5 5 5 5 5 5 5 5 5 5 5 5 5 5 5 5 5 5 5 5 5 5 5 5 5 5 5 5 5 5 5 5 5 5 5 5 5 5 5 5 5 5 5 5 5 5 5 5 5 5 5 5 5 5 5 5 5 5 5 5 5 5 5 5 5 5 5 5 5 5 5 5 5 5 5 5 5 5 5 5 5 5 5 5 5 5 5 5 5 ",
"* * * * * * * * * * * * * * * * * * * * * * * * * * * * * * * * * * * * * * * * * * * * * * * * * * * * * * * * * * * * * * * * * * * * * * * * * * * * * * * * * * * * * * * * * * * * * * * * * * * * * * * * * * * * * * * * * * * * * * * * * * * * * * * * * * * * * * * * * * * * * * * * * * * * * * * * * * * * * * * * * * * * * * * * * * * * * * * * * * * * * * * * * * * * * * * * * * * * * * * * * * * * * * * * * * * * * * * * * * * * * * * * * * * * * * * * * * * * * * * * * * * * * * * * * * * * * * * * ",
"N N N N N N N N N N N N N N N N N N N N N N N N N N N N N N N N N N N N N N N N N N N N N N N N N N N N N N N N N N N N N N N N N N N N N N N N N N N N N N N N N N N N N N N N N N N N N N N N N N N N N N N N N N N N N N N N N N N N N N N N N N N N N N N N N N N N N N N N N N N N N N N N N N N N N N N N N N N N N N N N N N N N N N N N N N N N N N N N N N N N N N N N N N N N N N N N N N N N N N N N N N N N N N N N N N N N N N N N N N N N N N N N N N N N N N N N N N N N N N N N N N N N N N N N N N N N N N N N ",
"v v v v v v v v v v v v v v v v v v v v v v v v v v v v v v v v v v v v v v v v v v v v v v v v v v v v v v v v v v v v v v v v v v v v v v v v v v v v v v v v v v v v v v v v v v v v v v v v v v v v v v v v v v v v v v v v v v v v v v v v v v v v v v v v v v v v v v v v v v v v v v v v v v v v v v v v v v v v v v v v v v v v v v v v v v v v v v v v v v v v v v v v v v v v v v v v v v v v v v v v v v v v v v v v v v v v v v v v v v v v v v v v v v v v v v v v v v v v v v v v v v v v v v v v v v v v v v v v ",
"* * * * * * * * * * * * * * * * * * * * * * * * * * * * * * * * * * * * * * * * * * * * * * * * * * * * * * * * * * * * * * * * * * * * * * * * * * * * * * * * * * * * * * * * * * * * * * * * * * * * * * * * * * * * * * * * * * * * * * * * * * * * * * * * * * * * * * * * * * * * * * * * * * * * * * * * * * * * * * * * * * * * * * * * * * * * * * * * * * * * * * * * * * * * * * * * * * * * * * * * * * * * * * * * * * * * * * * * * * * * * * * * * * * * * * * * * * * * * * * * * * * * * * * * * * * * * * * * ",
"5 5 5 5 5 5 5 5 5 5 5 5 5 5 5 5 5 5 5 5 5 5 5 5 5 5 5 5 5 5 5 5 5 5 5 5 5 5 5 5 5 5 5 5 5 5 5 5 5 5 5 5 5 5 5 5 5 5 5 5 5 5 5 5 5 5 5 5 5 5 5 5 5 5 5 5 5 5 5 5 5 5 5 5 5 5 5 5 5 5 5 5 5 5 5 5 5 5 5 5 5 5 5 5 5 5 5 5 5 5 5 5 5 5 5 5 5 5 5 5 5 5 5 5 5 5 5 5 5 5 5 5 5 5 5 5 5 5 5 5 5 5 5 5 5 5 5 5 5 5 5 5 5 5 5 5 5 5 5 5 5 5 5 5 5 5 5 5 5 5 5 5 5 5 5 5 5 5 5 5 5 5 5 5 5 5 5 5 5 5 5 5 5 5 5 5 5 5 5 5 5 5 5 5 5 5 5 5 5 5 5 5 5 5 5 5 5 5 5 5 5 5 5 5 5 5 5 5 5 5 5 5 5 5 5 5 5 5 5 5 5 5 5 5 5 5 5 5 5 5 5 5 5 5 5 5 ",
"5 5 5 5 5 5 5 5 5 5 5 5 5 5 5 5 5 5 5 5 5 5 5 5 5 5 5 5 5 5 5 5 5 5 5 5 5 5 5 5 5 5 5 5 5 5 5 5 5 5 5 5 5 5 5 5 5 5 5 5 5 5 5 5 5 5 5 5 5 5 5 5 5 5 5 5 5 5 5 5 5 5 5 5 5 5 5 5 5 5 5 5 5 5 5 5 5 5 5 5 5 5 5 5 5 5 5 5 5 5 5 5 5 5 5 5 5 5 5 5 5 5 5 5 5 5 5 5 5 5 5 5 5 5 5 5 5 5 j j 5 j k 5 5 5 5 5 5 5 5 5 5 5 5 5 5 5 5 5 5 5 5 5 5 5 5 5 5 & 5 5 & * 5 & 5 5 5 5 5 5 5 & * & & * 5 5 * * 5 5 5 5 5 5 5 5 5 5 5 5 5 5 5 5 5 5 5 5 5 5 5 5 5 5 5 5 5 5 5 5 5 5 5 5 5 5 5 5 5 5 5 5 5 5 5 5 5 5 5 5 5 5 5 5 5 5 5 5 5 5 5 5 ",
"5 5 5 5 5 5 5 5 5 5 5 5 5 5 5 5 5 5 5 5 5 5 5 5 5 5 5 5 5 5 5 5 5 5 5 5 5 5 5 5 5 5 5 5 5 5 5 5 5 5 5 5 5 5 5 5 5 5 5 5 5 5 5 5 5 5 5 5 5 5 5 5 5 5 5 5 5 5 5 5 5 5 5 5 5 5 5 5 5 5 5 5 5 5 5 5 5 5 5 5 5 5 5 5 5 5 5 5 5 5 5 5 5 5 5 5 5 5 5 5 5 5 5 5 5 5 5 5 5 5 5 5 5 5 5 5 * c i.i.H.i.i.) $ 5 5 5 5 5 5 5 5 5 & * 5 5 5 5 g 5 5 5 5 5 5 5 w b g 5 b c g b g 5 g 5 g 5 j v c v v c j * v k * j 5 5 w 5 5 5 5 5 5 5 5 5 5 5 5 5 5 5 5 5 5 5 5 5 5 5 5 5 5 5 5 5 5 5 5 5 5 5 5 5 5 5 5 5 5 5 5 5 5 5 5 5 5 5 5 5 5 5 5 5 5 5 ",
"5 5 5 5 5 5 5 5 5 5 5 5 5 5 5 5 5 5 5 5 5 5 5 5 5 5 5 5 5 5 5 5 5 5 5 5 5 5 5 5 5 5 5 5 5 5 5 5 5 5 5 5 5 5 5 5 5 5 5 5 5 5 5 5 5 5 5 5 5 5 5 5 5 5 5 5 5 5 5 5 5 5 5 5 5 5 5 5 5 5 5 5 5 5 5 5 5 5 5 5 5 5 5 5 5 5 5 5 5 5 5 5 5 5 5 5 5 5 5 5 5 5 5 5 5 5 5 5 5 5 5 5 5 5 5 5 * c a.G.d.G._ ) & 5 5 5 5 5 5 5 5 5 ` i.v 5 5 5 j & 5 * 5 5 5 $ ` i.2._ s.j i.i.i.b w.$ 2.N a._ V V.] i._ ) w.i.k d.] k ` & 5 5 5 5 5 5 5 5 5 5 5 5 5 5 5 5 5 5 5 5 5 5 5 5 5 5 5 5 5 5 5 5 5 5 5 5 5 5 5 5 5 5 5 5 5 5 5 5 5 5 5 5 5 5 5 5 5 5 ",
"5 5 5 5 5 5 5 5 5 5 5 5 5 5 5 5 5 5 5 5 5 5 5 5 5 5 5 5 5 5 5 5 5 5 5 5 5 5 5 5 5 5 5 5 5 5 5 5 5 5 5 5 5 5 5 5 5 5 5 5 5 5 5 5 5 5 5 5 5 5 5 5 5 5 5 5 5 5 5 5 5 5 5 5 5 5 5 5 5 5 5 5 5 5 5 5 5 5 5 5 5 5 5 5 5 5 5 5 5 5 5 5 5 5 5 5 5 5 5 5 5 5 5 5 5 5 5 5 5 5 5 5 5 5 5 5 5 j >X) . ] G.b & 5 5 5 5 5 5 5 & ) 2.w 5 v i.N N _ a.) * 5 5 $ ` i.] ) a.j 2.6 v a.] & ] a.v $ $ ` j N V i.& k w.` d.) ) & 5 5 5 5 5 5 5 5 5 5 5 5 5 5 5 5 5 5 5 5 5 5 5 5 5 5 5 5 5 5 5 5 5 5 5 5 5 5 5 5 5 5 5 5 5 5 5 5 5 5 5 5 5 5 5 5 5 5 ",
"5 5 5 5 5 5 5 5 5 5 5 5 5 5 5 5 5 5 5 5 5 5 5 5 5 5 5 5 5 5 5 5 5 5 5 5 5 5 5 5 5 5 5 5 5 5 5 5 5 5 5 5 5 5 5 5 5 5 5 5 5 5 5 5 5 5 5 5 5 5 5 5 5 5 5 5 5 5 5 5 5 5 5 5 5 5 5 5 5 5 5 5 5 5 5 5 5 5 5 5 5 5 5 5 5 5 5 5 5 5 5 5 5 5 5 5 5 5 5 5 5 5 5 5 5 5 5 5 5 5 5 5 5 5 5 5 * j G.C.w G.G.b & 5 5 5 5 5 5 5 $ 2.k V 2.k a.a.` i.c i.5 5 5 $ ` d.] b i.5 i.w N i.2.$ 2.a.N $ * 2.c V V i.5 v 2._ N A.) & 5 5 5 5 5 5 5 5 5 5 5 5 5 5 5 5 5 5 5 5 5 5 5 5 5 5 5 5 5 5 5 5 5 5 5 5 5 5 5 5 5 5 5 5 5 5 5 5 5 5 5 5 5 5 5 5 5 5 ",
"5 5 5 5 5 5 5 5 5 5 5 5 5 5 5 5 5 5 5 5 5 5 5 5 5 5 5 5 5 5 5 5 5 5 5 5 5 5 5 5 5 5 5 5 5 5 5 5 5 5 5 5 5 5 5 5 5 5 5 5 5 5 5 5 5 5 5 5 5 5 5 5 5 5 5 5 5 5 5 5 5 5 5 5 5 5 5 5 5 5 5 5 5 5 5 5 5 5 5 5 5 5 5 5 5 5 5 5 5 5 5 5 5 5 5 5 5 5 5 5 5 5 5 5 5 5 5 5 5 5 5 5 5 5 5 5 & v ` d.H.>XIX2.$ 5 5 5 5 5 5 5 & N i.v d.s.a.s.` 2.j i.5 5 5 $ _ c _ ] s.v 2.a.i.g ` i.` j s.] 6 ` k ] ` b i.i.j ] 5 a.] $ 5 5 5 5 5 5 5 5 5 5 5 5 5 5 5 5 5 5 5 5 5 5 5 5 5 5 5 5 5 5 5 5 5 5 5 5 5 5 5 5 5 5 5 5 5 5 5 5 5 5 5 5 5 5 5 5 5 5 ",
"5 5 5 5 5 5 5 5 5 5 5 5 5 5 5 5 5 5 5 5 5 5 5 5 5 5 5 5 5 5 5 5 5 5 5 5 5 5 5 5 5 5 5 5 5 5 5 5 5 5 5 5 5 5 5 5 5 5 5 5 5 5 5 5 5 5 5 5 5 5 5 5 5 5 5 5 5 5 5 5 5 5 5 5 5 5 5 5 5 5 5 5 5 5 5 5 5 5 5 5 5 5 5 5 5 5 5 5 5 5 5 5 5 5 5 5 5 5 5 5 5 5 5 5 5 5 5 5 5 5 5 5 5 5 5 5 5 j a.) ` ] H.) $ 5 5 5 5 5 5 5 5 5 N ] v b ) v c v 6 v 5 5 5 5 5 5 5 6 j j 5 k 5 5 5 j 5 * 6 j 5 5 5 g g * j g 5 5 5 5 5 5 5 5 5 5 5 5 5 5 5 5 5 5 5 5 5 5 5 5 5 5 5 5 5 5 5 5 5 5 5 5 5 5 5 5 5 5 5 5 5 5 5 5 5 5 5 5 5 5 5 5 5 5 5 5 5 5 5 5 ",
"* * * * * * * * * * * * * * * * * * * * * * * * * * * * * * * * * * * * * * * * * * * * * * * * * * * * * * * * * * * * * * * * * * * * * * * * * * * * * * * * * * * * * * * * * * * * * * * * * * * * * * * * * * * * * * * * * * * * * * * * * * * * * * 5 5 5 5 5 5 5 5 5 5 5 5 5 5 5 5 $ * 5 5 5 5 5 5 5 5 5 5 & $ * * & * * * 5 * 5 5 5 5 5 5 5 * & & * $ * * * $ * * & $ * * * & & 5 & & * * * * * * * * * * * * * * * * * * * * * * * * * * * * * * * * * * * * * * * * * * * * * * * * * * * * * * * * * * * * * * * * ",
"c c c c c c c c c c c c c c c c c c c c c c c c c c c c c c c c c c c c c c c c c c c c c c c c c c c c c c c c c c c c c c c c c c c c c c c c c c c c c c c c c c c c c c c c c c c c c c c c c c c c c c c c c c c c c c c c c c c c c c c c c c c c c c g 5 5 5 5 5 5 5 5 5 5 5 5 j v c 6 5 5 5 5 5 5 5 5 5 5 5 5 5 5 5 5 5 5 5 5 5 5 5 5 5 5 5 5 k v c c v c c c v c c c v c c c c c c c c c c c c c c c c c c c c c c c c c c c c c c c c c c c c c c c c c c c c v v c c c c c c c c c c c c c c c c c c c c c c c c c c ",
"V V V V V N V V V V V N V V V V N V V V N V V N N V N N N N N N N V V V V V V V V V V V V V V V N N V V V V V V V V V V N N N V V V V V V V N N V V V V V N V V V V V N V V V N N V V V N V V N N V V N V V V V V V V V V V V V V V V V V V V V N N V V V V ) V 5 5 5 5 5 5 5 5 5 5 v ) N V N 5 5 5 5 5 5 5 5 5 5 5 5 5 5 5 5 5 5 5 5 5 5 5 5 5 5 j ) V N V V V V V V V V V V V N V V V V V V V V V V V V V N N V V V V V V V V V V V V V N V V V V V V V V V V V V V V N N V V V V V V V V V V V V N V V V V V V V V V V V V V ",
"* * * * * 5 * * * * * 5 * * * * 5 * * * * * * * * * * 5 * * * * 5 4 * 4 * * * * * * * * * * * * * * * * * * * * * * * * * * * * * * * * * * * * * * * * 4 * * * * * * 5 * * * * * * * * 5 * * * 5 * * 5 * * * * * * * * * * * * * * * * * * * * * 5 * * 4 4 w ) N 5 5 5 5 5 5 5 5 * V k $ 5 ) 5 5 5 5 5 5 5 5 5 5 5 5 5 5 5 g 5 5 5 5 5 5 5 5 5 g _ j * * * * * * * * * * * * * 5 * * * * * * * * * * * * * * 5 * * * * * * * * * * * * * 5 * * * * * * * * * * * * * * 8 0 & * * * * * * * * * * * 5 * * * * * * * * * * * * & ",
"5 5 5 5 5 c 5 5 5 5 5 c 5 5 5 5 c 5 5 5 z 5 5 j j * j v 8 8 l 9 v ,.e e e r r 6 5 5 5 5 5 5 5 5 k g 5 5 5 5 5 5 5 5 5 5 < h r 5 5 5 5 5 5 5 j j 5 5 5 6 p k w 5 5 5 5 c 5 5 5 j j 5 5 5 c 5 5 g k 5 6 v 5 5 5 5 5 5 5 5 5 5 5 5 5 5 5 5 5 5 5 5 j j t e e e E E V j 5 5 5 5 5 5 5 * V c * w ) 5 5 5 5 5 5 5 5 5 4 < T.T.T.T.J I T.T.T.L 3 5 5 * N v & 5 5 5 5 5 5 5 5 5 5 5 5 5 c 5 5 5 5 5 5 5 5 5 5 5 5 5 j k 5 5 5 5 5 5 5 5 5 5 5 5 5 c 5 5 5 5 5 5 5 5 5 5 5 5 5 t `.'.+ 6 5 5 5 5 5 5 5 5 5 5 c 5 5 5 5 5 5 5 5 5 5 5 5 $ ",
"5 5 5 5 5 c 5 5 5 5 5 c 5 5 5 5 c 5 5 5 z 5 5 j j * g v 8 8 l 9 v ,.e e e t t 6 5 5 5 5 5 5 5 5 j g 5 5 5 5 5 5 5 5 5 5 < h r 5 5 5 5 5 5 5 j g 5 5 5 6 p k 6 5 5 5 5 c 5 5 5 g j 5 5 5 c 5 5 w k * 6 v 5 5 5 5 5 5 5 5 5 5 5 5 5 5 5 5 5 5 5 5 j j t e e e >.E m v * 5 5 5 5 5 5 * V k & 6 ) 5 5 5 5 5 5 5 5 5 4 l Y T Y T U Y T Y T x 4 5 5 5 ) g 5 5 5 5 5 5 5 5 5 5 5 5 5 5 c 5 5 5 5 5 5 5 5 5 5 5 5 5 j k * 5 5 5 5 5 5 5 5 5 * 5 5 k 5 5 5 5 5 * 5 5 5 5 5 5 * > `.'.+ 5 5 5 5 5 5 5 5 5 5 5 c 5 5 5 5 5 5 5 5 5 5 5 5 $ ",
"5 5 5 5 5 c 5 5 5 5 5 c 5 5 5 5 k 5 5 5 z 5 5 j j * g v 8 8 l 9 v ,.e e e t t 6 5 5 5 5 5 5 5 5 j w 5 5 5 5 5 5 5 5 5 5 < h r 5 5 5 5 5 5 5 j g 5 5 5 6 p j 6 5 5 5 5 c 5 5 5 g j 5 5 5 c 5 5 w k * 6 v 5 5 5 5 5 5 5 5 5 5 5 5 5 5 5 5 5 5 5 5 j j t e e e >.E m v * 5 5 5 5 5 5 * V v * g ) 5 5 5 5 5 5 5 5 5 * R qXqXqXqX+X9XqXqXqX9.= 6 5 5 ) w 5 5 5 5 5 5 5 5 5 5 5 5 5 5 c 5 5 5 5 5 5 5 5 5 5 5 5 5 j k * 5 5 5 5 5 & / '.%.%.5 5 v 5 5 & 8 n %.5 * 0 * %.6 :./ ;.'.+ 5 5 5 5 5 5 5 5 5 5 5 k 5 5 5 5 5 5 5 5 5 5 5 5 $ ",
"5 5 5 5 5 c 5 5 5 5 5 c 5 5 5 5 c 5 5 5 z 5 5 j j * g v 8 8 l 9 v ,.e e e t t 6 5 5 5 5 5 5 5 5 j w 5 5 5 5 5 5 5 5 5 5 < h r 5 5 5 5 5 5 5 j g 5 5 5 6 p j 6 5 5 5 5 c 5 5 5 g j 5 5 5 c 5 5 w k * 6 v 5 5 5 5 5 5 5 5 5 5 5 5 5 5 5 5 5 5 5 5 j j t e e e >.E m v * 5 5 5 5 5 5 * N ` ) _ _ 5 5 5 5 5 5 5 5 5 * R +X+X+X+X X+X+X+X+X .= 5 5 5 ) w 5 5 5 5 5 5 5 5 5 5 5 5 5 5 c 5 5 5 5 5 5 5 5 5 5 5 5 5 j k * 5 5 5 5 5 5 * -.M `.-.%.;.%.;.;.-.M ;.-./ ;.%.%.-.'.@.;.'.+ 5 5 5 5 5 5 5 5 5 5 5 k 5 5 5 5 5 5 5 5 5 5 5 5 $ ",
"5 5 5 5 5 c 5 5 5 5 5 c 5 5 5 5 c 5 5 5 z 5 5 j j * g v 8 8 l 9 v ,.e e e t t 6 5 5 5 5 5 5 5 5 j w 5 5 5 5 5 5 5 5 5 5 < h r 5 5 5 5 5 5 5 j g 5 5 5 6 p j 6 5 5 5 5 c 5 5 5 g j 5 5 5 c 5 5 w k * 6 v 5 5 5 5 5 5 5 5 5 5 5 5 5 5 5 5 5 5 5 5 j j t e e e >.E m v * 5 5 5 5 5 5 * V c 5 g ) 5 5 5 5 5 5 5 5 5 * R 9XqX8XqX%X9XqX8XqX9.= 5 5 5 ) w 5 5 5 5 5 5 5 5 5 5 5 5 5 5 c 5 5 5 5 5 5 5 5 5 5 5 5 5 j k * 5 5 5 5 5 5 5 -./ %.%.;.*.;.-.:.%.%.%.%.;./ -.;.;.:.*.;.'.+ 5 5 5 5 5 5 5 5 5 5 5 k 5 5 5 5 5 5 5 5 5 5 5 5 $ ",
"5 5 5 5 5 c 5 5 5 5 5 c 5 5 5 5 c 5 5 5 z 5 5 j j * g v 8 8 l 9 v ,.e e e t t 6 5 5 5 5 5 5 5 5 j w 5 5 5 5 5 5 5 5 5 5 < h r 5 5 5 5 5 5 5 j g 5 5 5 6 p j 6 5 5 5 5 c 5 5 5 g j 5 5 5 c 5 5 w k * 6 v 5 5 5 5 5 5 5 5 5 5 5 5 5 5 5 5 5 5 5 5 j j t e e e >.E m v * 5 5 5 5 5 5 * V k & 6 ) 5 5 5 5 5 5 5 5 5 * R +X+X+X+X X+X+X+X+X .= 5 5 5 ) w 5 5 5 5 5 5 5 5 5 5 5 5 5 5 c 5 5 5 5 5 5 5 5 5 5 5 5 5 j k * 5 5 5 5 5 5 5 %.M :./ %./ / -./ ;.:./ :./ ;.:.:.%.;.M ;.'.+ 5 5 5 5 5 5 5 5 5 5 5 k 5 5 5 5 5 5 5 5 5 5 5 5 $ ",
"5 5 5 5 5 c 5 5 5 5 5 c 5 5 5 5 c 5 5 5 z 5 5 j j * g v 8 8 l 9 v ,.e e e t t 6 5 5 5 5 5 5 5 5 j w 5 5 5 5 5 5 5 5 5 5 < h r 5 5 5 5 5 5 5 j g 5 5 5 6 p j 6 5 5 5 5 c 5 5 5 g j 5 5 5 c 5 5 w k * 6 v 5 5 5 5 5 5 5 5 5 5 5 5 5 5 5 5 5 5 5 5 j j t e e e >.E m v * 5 5 5 5 5 5 * V c * w ) 5 5 5 5 5 5 5 5 5 * R 9X9X9X9X%X7X8X9XqX9.= 5 5 5 ) w 5 5 5 5 5 5 5 5 5 5 5 5 5 5 c 5 5 5 5 5 5 5 5 5 5 5 5 5 j k * 5 5 5 5 5 5 5 * 5 5 5 5 k * 6 8 5 * 5 5 * 5 * * 5 5 > `.'.+ 5 5 5 5 5 5 5 5 5 5 5 k 5 5 5 5 5 5 5 5 5 5 5 5 $ ",
"5 5 5 5 5 c 5 5 5 5 5 c 5 5 5 5 c 5 5 5 z 5 5 j j * g v 8 8 l 9 v ,.e e e t t 6 5 5 5 5 5 5 5 5 j w 5 5 5 5 5 5 5 5 5 5 < h r 5 5 5 5 5 5 5 j g 5 5 5 6 p j 6 5 5 5 5 c 5 5 5 g j 5 5 5 c 5 5 w k * 6 v 5 5 5 5 5 5 5 5 5 5 5 5 5 5 5 5 5 5 5 5 j j t e e e >.E m v * 5 5 5 5 5 5 * V c * w ) 5 5 5 5 5 5 5 5 5 * R $X$X$X7X X+X7X+X7X .= 5 5 5 ) w 5 5 5 5 5 5 5 5 5 5 5 5 5 5 c 5 5 5 5 5 5 5 5 5 5 5 5 5 j k * 5 5 5 5 5 5 5 5 5 5 5 5 c 5 5 5 5 5 5 5 5 5 5 5 5 5 > `.'.+ 5 5 5 5 5 5 5 5 5 5 5 k 5 5 5 5 5 5 5 5 5 5 5 5 $ ",
"5 5 5 5 5 c 5 5 5 5 5 c 5 5 5 5 c 5 5 5 z 5 5 j j * g v 8 8 l 9 v ,.e e e t t 6 5 5 5 5 5 5 5 5 j w 5 5 5 5 5 5 5 5 5 5 < h r 5 5 5 5 5 5 5 j g 5 5 5 6 p j 6 5 5 5 5 c 5 5 5 g j 5 5 5 c 5 5 w k * 6 v 5 5 5 5 5 5 5 5 5 5 5 5 5 5 5 5 5 5 5 5 j j t e e e >.E m v * 5 5 5 5 5 5 * V c * w ) 5 5 5 5 5 5 5 5 5 * R 7X7X7X7X X+X7X7X9X .= 5 5 5 ) w 5 5 5 5 5 5 5 5 5 5 5 5 5 5 c 5 5 5 5 5 5 5 5 5 5 5 5 5 j k * 5 5 5 5 5 5 5 5 5 5 5 5 c 5 5 5 5 5 5 5 5 5 5 5 5 5 > `.'.+ 5 5 5 5 5 5 5 5 5 5 5 k 5 5 5 5 5 5 5 5 5 5 5 5 $ ",
"5 5 5 5 5 c 5 5 5 5 5 c 5 5 5 5 c 5 5 5 z 5 5 j j * g v 8 8 l 9 v ,.e e e t t 6 5 5 5 5 5 5 5 5 j w 5 5 5 5 5 5 5 5 5 5 < h w 5 5 5 5 5 5 5 j g 5 5 5 6 p j 6 5 5 5 5 c 5 5 5 g j 5 5 5 c 5 5 w k * 6 v 5 5 5 5 5 5 5 5 5 5 5 5 5 5 5 5 5 5 5 5 j j t e e e >.E m v * 5 5 5 5 5 5 * V c * w ) 5 5 5 5 5 5 5 5 5 * R 9X9X9X9X X7X9X9X9X .= 5 5 5 ) w 5 5 5 5 5 5 5 5 5 5 5 5 5 5 c 5 5 5 5 5 5 5 5 5 5 5 5 5 j k * 5 5 5 5 5 5 5 5 5 5 5 5 c 5 5 5 5 5 5 5 5 5 5 5 5 5 > `.'.+ 5 5 5 5 5 5 5 5 5 5 5 k 5 5 5 5 5 5 5 5 5 5 5 5 $ ",
"5 5 5 5 5 c 5 5 5 5 5 c 5 5 5 5 c 5 5 5 z 5 5 j j * g v 8 8 l 9 v ,.e e e t t 6 5 5 5 5 5 5 5 5 j w 5 5 5 5 5 5 5 5 5 < 2 1 h * 5 5 5 5 5 5 j g 5 5 5 6 p j 6 5 5 5 5 c 5 5 5 g j 5 5 5 c 5 5 w k * 6 v 5 5 5 5 5 5 5 5 5 5 5 5 5 5 5 5 5 5 5 5 j j t e e e >.E m v * 5 5 5 5 5 5 * V c * w ) 5 5 5 5 5 5 5 5 5 * R +X+X+X+X X+X+X+X$X .= 5 5 5 ) w 5 5 5 5 5 5 5 5 5 5 5 5 5 5 c 5 5 5 5 5 5 5 5 5 5 5 5 5 j k * 5 5 5 5 5 5 5 5 5 5 5 5 c 5 5 5 5 5 5 5 5 5 5 5 5 5 > `.'.+ 5 5 5 5 5 5 5 5 5 5 5 k 5 5 5 5 5 5 5 5 5 5 5 5 $ ",
"5 5 5 5 5 c 5 5 5 5 5 c 5 5 5 5 k 5 5 5 z 5 5 j j * g v 8 8 l 9 v ,.e e e t t 6 5 5 5 5 5 5 5 5 j g 5 5 5 5 5 5 5 5 < 1 2 2 1 2 w 5 5 5 5 5 j g 5 5 5 6 p k 6 5 5 5 5 c 5 5 5 g j 5 5 5 c 5 5 w k * 6 v 5 5 5 5 5 5 5 5 5 5 5 5 5 5 5 5 5 5 5 5 j j t e e t >.E m v * 5 5 5 5 5 5 * V c * w ) 5 5 5 5 5 5 5 5 5 * R 8XqXqXqX+X9XqXqXqX9.= 5 5 5 ) w 5 5 5 5 5 5 5 5 5 5 5 5 5 5 c 5 5 5 5 5 5 5 5 5 5 5 5 5 j k * 5 5 5 5 5 5 5 5 5 5 5 5 c 5 5 5 5 5 5 5 5 5 5 5 5 5 > `.'.+ 5 5 5 5 5 5 5 5 5 5 5 k 5 5 5 5 5 5 5 5 5 5 5 5 $ ",
"5 5 5 5 5 c 5 5 5 5 5 c 5 5 5 6 c 5 5 5 z 4 5 j j * g v 8 8 0 9 v ,.e y e r 6 6 5 5 5 5 5 5 5 4 j w 5 5 5 5 5 5 5 5 2 2 2 L 2 1 < 5 5 5 5 4 j j 4 5 5 6 p j 6 5 5 5 5 c 5 5 4 g j 4 5 5 c 5 5 6 j 4 6 v 4 5 5 5 5 5 5 5 5 5 5 5 5 5 5 5 5 5 5 4 j j 6 e e e E E m v * 5 5 5 5 5 5 * V c * w ) 5 5 5 5 5 5 5 5 5 * u 9.9.9.9. .9.9.9. X{ * 5 5 5 ) w 5 5 5 5 5 5 5 5 5 5 5 5 5 5 c 5 5 5 5 5 5 5 5 5 5 5 5 5 j k 5 5 5 5 5 5 5 5 5 5 5 5 5 c 5 5 5 5 5 5 5 5 5 5 5 5 5 > `.'.+ 6 5 5 5 5 5 5 5 5 5 5 c 5 5 5 5 5 5 5 5 5 5 5 5 $ ",
"* , , , , Z < , , , < Z * , * < Z * , < z * * g l * g m ; l l 9 v ,.t e t t w w , , , , , , < * l g * , , , , , , < 1 2 K I 2 2 2 , , , < * l g * , * w s h g * , , * Z < , * g l * < * Z < * g h * g Z * < , , , , , , , , , , , , , , , , , * g j t t t t >.E m v * 5 5 5 5 5 5 * V c * w ) 5 5 5 5 5 5 5 5 5 5 5 r u u u 6 r u u u 6 5 5 5 5 ) w 5 5 5 5 5 5 5 5 5 5 5 5 5 * k 5 5 5 5 5 5 5 5 5 5 5 5 * j j & 5 5 5 5 5 5 5 5 5 5 5 5 k 5 5 5 5 5 5 5 5 5 5 5 5 5 > `.'.+ 5 5 5 5 5 5 5 5 5 5 5 k * 5 5 5 5 5 5 5 5 5 5 5 # ",
"h h h h h x h h h h h x h h h h x h h h F h h x x h x x h x x z C ,.Z Z Z Z Z h h h h h h h h h x h h h h h h h h h 1 L 2 2 L.L 1 h h h h h x x h h h Z B x h h h h h x h h h x x h h h x h h h x h h x h h h h h h h h h h h h h h h h h h h h x Z Z Z Z Z 1.E m v * 5 5 5 5 5 5 * V c * w ) 5 5 5 5 5 5 5 5 5 5 6 u u u u u u u u u r 5 5 5 5 ) w 6 j j j j j j j j j j j j g v j g j j j j j j j j j j g c v g j j j j j j j j j j j j v j j j j j j j j j j j j j t `.'.> j j j j j j j j j g j v g j j j j j j j j j j j 5 ",
"j j j j j v j j j j j v j j j j v j j j M r j c n r c b j l l z N ,.s s s u u j j j j j j j j j v k j j j j j j j j g T.P L.T.F r j j j j j n c j j j j R v j j j j j v j j j c n j j j v j j k v r j b j j j j j j j j j j j j j j j j j j j j n v u s s s 1.E m v * 5 5 5 5 5 5 * V c * w ) 5 5 5 5 5 5 5 5 5 5 5 i i i i u i i i a r 5 5 5 5 ) w w j j j j j j j j j j j j j v j j j j j j j j j j j j j v v j j j j j j j j j j j j j v j j j j j j j j j j j j j t ].].> k j j j j j j j j j j v j j j j j j j j j j j j 5 ",
"* 5 5 5 * k 5 5 5 * 5 k * 5 * 5 k * 5 5 z * * g j & g c ; 8 8 ; v ,.e e t t 6 5 5 5 5 5 5 5 5 * j w * 5 5 5 5 5 5 4 l R.P L R.P 7 5 5 5 5 * j g * 5 * 5 p j 5 * 5 5 * k 5 5 * g j * 5 * k 5 * 5 j & 5 v * 5 5 5 5 5 5 5 5 5 5 5 5 5 5 5 5 5 5 * j j 4 t e t E E m v * 5 5 5 5 5 5 * V c * w ) 5 5 5 5 5 5 5 5 5 5 6 u u u u r u u u u r 5 5 5 5 ) w 5 5 5 5 5 5 5 5 5 5 5 5 5 * k 5 5 5 5 5 5 5 5 5 5 5 5 & j j & 5 5 5 5 5 5 5 5 5 5 5 5 k 5 5 5 5 5 5 5 5 5 5 5 5 5 > `.'.+ 5 5 5 5 5 5 5 5 5 * 5 k * 5 5 5 5 5 5 5 5 5 5 5 # ",
"5 5 5 5 5 c 5 5 5 5 5 c 5 5 5 5 c 5 5 5 z 5 5 j j * g v 8 8 l 9 v ,.e e e r t 6 5 5 5 5 5 5 5 5 j g 5 5 5 5 5 5 5 7 Y E.H F Y.Y.4 5 5 5 5 5 j j 5 5 5 6 p k 6 5 5 5 5 c 5 5 5 g j 5 5 5 c 5 5 w k 5 6 v 5 5 5 5 5 5 5 5 5 5 5 5 5 5 5 5 5 5 5 5 j j t e e e >.E m v * 5 5 5 5 5 5 * V c * w ) 5 5 5 5 5 5 5 5 5 5 6 u i i i r u i i i r 5 5 5 5 ) w 5 5 5 5 5 5 5 5 5 5 5 5 5 5 c 5 5 5 5 5 5 5 5 5 5 5 5 5 j k 5 5 5 5 5 5 5 5 5 5 5 5 5 c 5 5 5 5 5 5 5 5 5 5 5 5 5 > `.'.+ 6 5 5 5 5 5 5 5 5 5 5 c 5 5 5 5 5 5 5 5 5 5 5 5 $ ",
"5 5 5 5 5 c 5 5 5 5 5 c 5 5 5 5 c 5 5 5 z 5 5 j j * g v 8 8 l 9 v ,.e e e t t 6 5 5 5 5 5 5 5 5 j w 5 5 5 5 5 5 5 4 Y.T.1 U Y R.l 4 5 5 5 5 j g 5 5 5 6 p j 6 5 5 5 5 c 5 5 5 g j 5 5 5 c 5 5 w k * 6 v 5 5 5 5 5 5 5 5 5 5 5 5 5 5 5 5 5 5 5 5 j j t e e e >.E m v * 5 5 5 5 5 5 * V c * w ) 5 5 5 5 5 5 5 5 5 5 6 i i i i u u i i i r 5 5 5 5 ) w 5 5 5 5 5 5 5 5 5 5 5 5 5 5 c 5 5 5 5 5 5 5 5 5 5 5 5 5 j k * 5 5 5 5 5 5 5 5 5 5 5 5 c 5 5 5 5 5 5 5 5 5 5 5 5 5 > `.'.+ 5 5 5 5 5 5 5 5 5 5 5 k 5 5 5 5 5 5 5 5 5 5 5 5 $ ",
"5 5 5 5 5 c 5 5 5 5 5 c 5 5 5 5 c 5 5 5 z 5 5 j j * g v 8 8 l 9 v ,.e e e t t 6 5 5 5 5 5 5 5 5 j w 5 5 5 5 5 5 3 F E.P 1 Y F R.Y 7 5 5 5 5 j g 5 5 5 6 p j 6 5 5 5 5 c 5 5 5 g j 5 5 5 c 5 5 w k * 6 v 5 5 5 5 5 5 5 5 5 5 5 5 5 5 5 5 5 5 5 5 j j t e e e >.E m v * 5 5 5 5 5 5 * V c * w ) 5 5 5 5 5 5 5 5 5 5 6 u u u u r u u u u r 5 5 5 5 ) w 5 5 5 5 5 5 5 5 5 5 5 5 5 5 c 5 5 5 5 5 5 5 5 5 5 5 5 5 j k * 5 5 5 5 5 5 5 5 5 5 5 5 c 5 5 5 5 5 5 5 5 5 5 5 5 5 > `.'.+ 5 5 5 5 5 5 5 5 5 5 5 k 5 5 5 5 5 5 5 5 5 5 5 5 $ ",
"5 5 5 5 5 c 5 5 5 5 5 c 5 5 5 5 c 5 5 5 z 5 5 j j * g v 8 8 l 9 v ,.e e e t t 6 5 5 5 5 5 5 5 5 j w 5 5 5 5 5 5 7 T.R.< H Y z T.Y.4 5 5 5 5 j g 5 5 5 6 p j 6 5 5 5 5 c 5 5 5 g j 5 5 5 c 5 5 w k * 6 v 5 5 5 5 5 5 5 5 5 5 5 5 5 5 5 5 5 5 5 5 j j t e e e >.E m v * 5 5 5 5 5 5 * V c * w ) 5 5 5 5 5 5 5 5 5 5 5 i i i a u i a i a r 5 5 5 5 ) w 5 5 5 5 5 5 5 5 5 5 5 5 5 5 c 5 5 5 5 5 5 5 5 5 5 5 5 5 j k * 5 5 5 5 5 5 5 5 5 5 5 5 c 5 5 5 5 5 5 5 5 5 5 5 5 5 > `.'.+ 5 5 5 5 5 5 5 5 5 5 5 k 5 5 5 5 5 5 5 5 5 5 5 5 $ ",
"5 5 5 5 5 c 5 5 5 5 5 c 5 5 5 5 c 5 5 5 z 5 5 j j * g v 8 8 l 9 v ,.e e e t t 6 5 5 5 5 5 5 5 5 j w 5 5 5 5 5 7 F E.P * H Y x H E.F 3 5 5 5 j g 5 5 5 6 p j 6 5 5 5 5 c 5 5 5 g j 5 5 5 c 5 5 w k * 6 v 5 5 5 5 5 5 5 5 5 5 5 5 5 5 5 5 5 5 5 5 j j t e e e >.E m v * 5 5 5 5 5 5 * V c * w ) 5 5 5 5 5 5 5 5 5 5 6 u u u u r u u u u r 5 5 5 5 ) w 5 5 5 5 5 5 5 5 5 5 5 5 5 5 c 5 5 5 5 5 5 5 5 5 5 5 5 5 j k * 5 5 5 5 5 5 5 5 5 5 5 5 c 5 5 5 5 5 5 5 5 5 5 5 5 5 > `.'.+ 5 5 5 5 5 5 5 5 5 5 5 k 5 5 5 5 5 5 5 5 5 5 5 5 $ ",
"5 5 5 5 5 c 5 5 5 5 5 c 5 5 5 5 c 5 5 5 z 5 5 j j * g v 8 8 l 9 v ,.e e e t t 6 5 5 5 5 5 5 5 5 j w 5 5 5 5 4 g R.Y.< g H Y F x R.T.3 5 5 5 j g 5 5 5 6 p j 6 5 5 5 5 c 5 5 5 g j 5 5 5 c 5 5 w k * 6 v 5 5 5 5 5 5 5 5 5 5 5 5 5 5 5 5 5 5 5 5 j j t e e e >.E m v * 5 5 5 5 5 5 * V c * w ) 5 5 5 5 5 5 5 5 5 5 5 i a a a u i a a a r 5 5 5 5 ) w 5 5 5 5 5 5 5 5 5 5 * 5 * 5 c 5 5 5 5 5 5 5 5 5 5 5 5 * j k * 5 5 5 5 5 5 5 * 5 5 * 5 c 5 5 5 5 5 5 5 5 5 * 5 5 5 > `.'.+ 5 5 5 5 5 5 5 5 5 * 5 k 5 5 5 5 5 5 5 5 5 5 5 5 $ ",
"5 5 5 5 5 c 5 5 5 5 5 c 5 5 5 5 c 5 5 5 z 5 5 j j * g v 8 8 l 9 v ,.e e e t t 6 5 5 5 5 5 5 5 5 j g 5 5 5 7 l Y.E.L l F H Y U F Y E.F 3 5 5 j g 5 5 5 6 p k 6 5 5 5 5 c 5 5 5 g j 5 5 5 c 5 5 w k * 6 v 5 5 5 5 5 5 5 5 5 5 5 5 5 5 5 5 5 5 5 5 j j t e e e >.E m v * 5 5 5 5 5 5 * V c * w ) 5 5 5 5 5 5 5 5 5 5 6 u u u u r u u u u r 5 5 5 5 ) w 5 6 * * 5 5 5 5 5 5 k 6 c 5 c 5 5 5 5 5 5 5 5 5 6 6 j w j k * 5 5 5 5 5 5 5 k j 5 c 6 k 5 5 5 5 5 5 5 5 w c 5 5 g > `.'.+ 5 5 5 5 5 5 g 6 j j 5 c 5 5 5 5 5 5 5 5 5 5 5 5 $ ",
"5 5 5 5 5 c 5 5 5 5 5 c 5 5 5 5 k 5 5 5 z 5 5 j j * g v 8 8 l 9 v ,.e e e t t 6 5 5 5 5 5 5 5 5 k w 3 7 5 F R.E.T < z G H U F F l T.R.5 4 5 j g 5 5 5 6 p k 6 5 5 5 5 c 5 5 5 g j 5 5 5 c 5 5 w k * 6 v 5 5 5 5 5 5 5 5 5 5 5 5 5 5 5 5 5 5 5 5 j j t e e e >.E m v * 5 5 5 5 5 5 * V c * w ) 5 5 5 5 5 5 5 5 5 5 5 i i i a u i a i a r 5 5 5 5 ) w 5 c c c 5 5 5 5 * ) b b ] v j 5 5 5 5 5 5 5 5 & ` _ ` ) j k * 5 5 5 5 5 5 5 b ` V ) 5 c 5 5 5 5 5 5 5 * j ` v V ` > `.'.+ 5 5 5 5 5 * ] b c ] j j 5 5 5 5 5 5 5 5 5 5 5 5 $ ",
"5 5 5 5 5 c 5 * 5 5 5 c 5 5 5 5 c 5 5 5 z 5 5 j j * j v 8 8 l 9 v ,.e e e r t 6 5 5 5 5 5 4 3 $ r g F Y R.E.R.T H l x F 2 Y F F h h R.T.5 3 j g 5 5 5 6 p j 6 5 5 5 5 c 5 5 5 g j 5 5 5 c 5 5 w k * 6 v 5 5 5 5 5 5 5 5 5 5 5 5 5 5 5 5 5 5 5 5 j j t e e e >.E m v * 5 5 5 5 5 5 * V c * w ) 5 5 5 5 5 5 5 5 5 5 6 u u u u r u u u u r 5 5 5 5 ) w 5 ] ] ` j 5 5 5 g ] ) ` j ) j 5 5 5 5 5 5 5 5 v 2.N ] _ j k * 5 5 5 5 5 5 5 j ] ] ) j k 5 5 5 5 5 5 5 g $ v ) ] V > `.'.+ 5 5 5 5 6 5 v b $ ) j k 5 5 5 5 5 5 5 5 5 5 5 5 $ ",
"5 5 5 5 5 k 6 n 5 5 5 c 5 5 5 5 c 5 8 z F 9 5 6 r @ 6 c 8 l l 9 v ,.e e e r t 4 4 3 7 4 5 z F Y T.R.R.R.T.T K L F < x x < U h x x & H _.Y.< j 6 4 5 e p ! B w 5 5 5 5 c 5 5 5 g j 5 5 5 c 5 5 w k * 6 v 5 5 5 5 5 5 5 5 5 5 5 5 5 5 5 5 5 5 5 5 j j t e e e >.E m v * 5 5 5 5 5 5 * V c * w ) 5 5 5 5 5 5 5 5 5 5 6 i i i i u u i i i r 5 5 5 5 ) w 5 2.V V c * 5 j V ) ) i.V V j 5 5 5 5 5 5 5 b ) 2.a.) _ c j * 5 5 5 5 5 k N w ` ] V V j 5 5 5 5 5 5 5 b N ] v i.O.> `.'.+ 5 5 5 5 v c v b V ) 5 c 5 5 5 5 5 5 5 5 5 5 5 5 $ ",
"* 5 5 5 5 g ^ 3X5 * 5 k * 5 5 5 c 9 F F F F z U.Y.T.Y m 4 5 8 8 c ,.e f 7 7 t l z G U.Y.R.W.W.W.R.Y.U.P P P G P.G G G F 1 F h F F g , F R.R.T 1 < s Q ~ ~ ! p 4 4 4 4 k 4 4 4 r j 4 5 4 c 5 4 w k 4 6 v 5 5 5 5 5 5 5 5 5 5 5 5 5 5 5 5 5 5 5 5 j j t e e r >.E m v * 5 5 5 5 5 5 * V c * w ) 5 5 5 5 5 5 5 5 5 5 6 u i i i r u i i i r 5 5 5 5 ) w 5 b k c g 5 5 5 * c V j ) w c 5 5 5 5 5 5 5 5 & w k V v j k 5 5 5 5 5 5 5 5 ) b j ) w c 5 5 5 5 5 5 5 * b ` j 5 k > `.'.+ 6 5 5 5 5 * j j V ) j k 5 5 5 5 5 5 5 5 5 5 5 5 $ ",
"6 6 6 6 6 j { iXu 5 6 v 6 6 * 5 l z H H H H Y.R.T.Y.E.Q.T.Y F H C 5.x U Y U.Y.R.E.Q.Q.Q.T.T.T.T.P P K P.G G P.P.P.P.P.P.P.P.P.P.P.P.P.G P.W.E.T.P U 3.~ ~ Q 4.x 2 2 < x < < < h l ; < ; c 8 * g j * 5 v * 4 4 4 4 4 5 4 3 3 3 3 3 3 3 3 3 3 3 $ r r 4 e e 6 E E m v * 5 5 5 5 5 5 * V c * w ) 5 5 5 5 5 5 5 5 5 5 6 u u u u r u u u u r 5 5 5 5 ) w & $ $ $ $ & & & & $ $ $ # $ j * $ & & & & & & & $ $ $ # w j $ & & & & & & & $ $ $ # $ j & & & & & & & & $ # $ & $ & ;.'.+ 5 & & & & & $ $ # # * j $ & & & & & & & & & & * # ",
"rXrXrXrXrXrXiXfXrXrXrXiXrXrXrXrXeX1X@.P.I.H /.>X Xq.G.J.Y.R.R.W.Y.c.R.Y.Y././.J.5XG.q.q.q.q.q.q.q.9.9.8.9.9.9.V.c.h.h.] C r.C F Y G G D D Y Y.W.R.N.Q }.@XE c.Y T T T T T T T T T T T P T P P P T P P Y P P P P P P P P P P P P P P P P P P P P P Y Y Y U Y 4.>.m v * 5 5 5 5 5 5 * V c * w ) 5 5 5 5 5 5 5 5 5 5 5 i i i i u i i i a r 5 5 5 5 _ 5 ] A.C.C.C.C.C.C.C.C.C.C.C.C.A.C.C.C.C.C.C.C.C.C.C.C.C.C.C.A.C.C.C.C.C.C.C.C.C.C.C.C.C.A.C.C.C.C.C.C.C.C.C.C.C.C.C.c.cXcXc.C.C.C.C.C.C.C.C.C.C.C.A.C.C.C.C.C.C.C.C.C.C.C.C.V.",
" X&X X&X&X&X<XsX-X X&X-X X&X-X-X-X=X*.H G F :XtXfXdXdXwX8.O.S D t.5.] } { { { { { { 9.9. . . .B.8.9.9.D.8.S.8.*X*X5X X X X%X%X%X%X5X X9.B.l.&.#.U./.2.7.7.~ 9.{ | } ' } [ [ [ ] &.[ ] ] i.] ] O.w.O.O.p.O.O.O.O.O.O.O.O.O.O.O.O.O.O.O.O.O.O.O.O.w.w.2.2.2.2.5.E m v * 5 5 5 5 5 5 * V c * w ) 5 5 5 5 5 5 5 5 5 5 6 u u u u r u u u u r 5 5 5 5 ) 6 j N b b b b b b b b b b b b ) b b b b b b b b b b b b v V ) v b b b b b b b b b b b b ) b b b b b b b b b b b b b B ].lXt b b b b b b b b b b N ) b b b b b b b b b b b b ) ",
"; ; ; ; ; : -.hX/ : ; z ; ; : ; z : F z G U.F b {  .,XtXpXyX&X@.b ,.^ ^ b b m m M l F D l m l D S M D G F D F G G G M n m _ ' ' j.B.S. X X%X X X .d.N.r.3.9.! ^ ' ' ^ } ' ' ' } ' ^ ^ ^ } ^ ^ ' } ^ ' } ^ ^ ^ ^ ^ ^ ^ ^ ^ ^ ^ ^ ^ ^ ^ ^ ^ ^ ^ ^ ' } ^ ( { ( 5.E m v * 5 5 5 5 5 5 * V c * w ) 5 5 5 5 5 5 5 5 5 5 5 i a a a u i a a a r 5 5 5 5 ) w * & & & & & & & & & & & & $ j * & & & & & & & & & & & $ g j $ & & & & & & & & & & & & j & & & & & & & & & & & & & > ;.'.+ 5 & & & & & & & & & * j $ & & & & & & & & & $ j k ",
"9 9 9 9 l z &XhX} ; l M 9 9 9 9 z 9 z G R.G 5 g g # * v ' -XtXhX-X5.b b ^ ^ V b M M D D m M S D @.V D $.S D $.@.#.D M M m A M M G D F D D n.B.8. XoX}.5XJ./.U.O.^ ' ' } ' ' } &.[ ' ' ' } ' ' ' } ' ' } ' ' ' ' ' ' ' ' ' ' ' ' ' ' ' ' ' ' ' ' [ } ' ' { ' 5.E m v * 5 5 5 5 5 5 * V c * w ) 5 5 5 5 5 5 5 5 5 5 6 u u u u r u u u u r 5 5 5 5 ) w 5 5 5 5 5 5 5 5 5 5 5 5 5 5 c 5 5 5 5 5 5 5 5 5 5 5 5 5 j k 5 5 5 5 5 5 5 5 5 5 5 5 5 c 5 5 5 5 5 5 5 5 5 5 5 5 5 t `.'.+ 6 5 5 5 5 5 5 5 5 5 5 c 5 5 5 5 5 5 5 5 5 5 k V & ",
"9 9 9 9 M =X;XhX} ; l M 9 9 9 / &X9 0 U.Y.5 5 F j 5 j v % ; c S.,X%X3XB.b M D n M D $.$.n S D D @.C D #.D G G / #.D M M m A / M D S M D D v.#.M m ' 9.|.%X>X(.W.U.[ ^ } [ [ } &.' ' ' ' } ' [ ' } ^ ' } ' ' ' ' ' ' ' ' ' ' ' ' ' ' ' ' ' ' ' ' } } ' ' { ( 5.E m v * 5 5 5 5 5 5 * V c * w ) 5 5 5 5 5 5 5 5 5 5 5 i a i a u i a i a r 5 5 5 5 ) w 5 5 5 5 5 5 5 5 5 5 5 5 5 5 c 5 5 5 5 5 5 5 5 5 5 5 5 5 j k * 5 5 5 5 5 5 5 5 5 5 5 5 c 5 5 5 5 5 5 5 5 5 5 5 5 5 > `.'.+ 5 5 5 5 5 5 5 5 5 5 5 k 5 5 5 5 5 5 5 5 * j V w $ ",
"9 9 9 ; M tX3XuX .; l M 9 l : -.hX/ 1XE.U.@ l l.j * g v 8 l 8 : k 0.3XgXeX*Xl.z D G $.$.m S D $.o.@.#.o.$.$.#.[ #.D M M M @./ @.D M M D $.$.$./ S M m M B.S.%X>XW.R.b.} ' } } f.} ' ' ' } [ } ' } ' ' } ' ' ' ' ' ' ' ' ' ' ' ' ' ' ' ' ' ' ' ' } } ' { { ' 5.E m v * 5 5 5 5 5 5 * V c * w ) 5 5 5 5 5 5 5 5 5 5 6 u u u u r u u u u r 5 5 5 5 ) w 5 5 5 5 5 5 5 5 5 5 5 5 5 5 c 5 5 5 5 5 5 5 5 5 5 5 5 5 j k * 5 5 5 5 5 5 5 5 5 5 5 5 c 5 5 5 5 5 5 5 5 5 5 5 5 5 > `.'.+ 5 5 5 5 5 5 5 5 5 5 5 k 5 5 5 5 5 5 5 5 j V w 5 $ ",
"9 9 9 ; / sXuX4XS.: l M 9 9 | 3XtX| NXQ.D  X' tXv & w S F F l 9 v 5.D B.+XgXgXeX;XF.M.$.M F G G G F D S G F z D D D l m z S M S F M M D G l.$.D Y D 0 S n.G m 9. X/.W.Y.u.[ [ &.) b b b [ ) [ ) _ b ^ [ b b b b b b b b b b b b b b b b b b b b ' ' ^ ( ( ( <.E m v * 5 5 5 5 5 5 * V c * w ) 5 5 5 5 5 5 5 5 5 5 6 i i i i u u i i i r 5 5 5 5 ) w 5 5 5 5 5 5 5 5 5 5 5 5 5 5 c 5 5 5 5 5 5 5 5 5 5 5 5 5 j k * 5 5 5 5 5 5 5 5 5 5 5 5 c 5 5 5 5 5 5 5 5 5 5 5 5 5 > `.'.+ 5 5 5 5 5 5 5 5 5 5 5 k 5 5 5 5 5 5 5 j V g 5 5 $ ",
"; 9 9 ; | hXtX1X,X-.9 M 9 ; ;XhXyX .W.T./ rX .pX^ $ g S G Y l 9 b 5.U U F g.*X<XaXfXfXaXtXjX4X1X1X;X1X;X=X;X&X:X=X=X&X&XS.=X&X=XS.&X=X=X=XjX1XF.:X=XS.=X:X=X&X=X=X+X4X/.NX=X*X;X&X&X&X&X*X*X;X&X*X&X&X*X&X&X&X&X&X&X&X&X&X&X&X&X&X&X&X&X&X&X&X&X&X&X X X X X X>.m v * 5 5 5 5 5 5 * V c * w ) 5 5 5 5 5 5 5 5 5 5 6 u i i i r u i i i r 5 5 5 5 ) w 5 5 5 5 5 5 5 5 5 5 5 5 5 5 c 5 5 5 5 5 5 5 5 5 5 5 5 5 j k * 5 5 5 5 5 5 5 5 5 5 5 5 c 5 5 5 5 5 5 5 5 5 5 5 5 5 > `.'.+ 5 5 5 5 5 5 5 5 5 5 5 k 5 5 5 5 5 5 j V g 5 5 5 $ ",
"/ l 9 ; } uX1X;XjX3X9 M 9 ; ;XsXrXv.E.D [ iX*XfX} < r Y :X1Xz 9 x q.,X-XD U S F u.l.S.;X,X3XeXrXiXpXiXfXaXiXaXdXfXaXaXaXaXaXaXaXaXaXaXiXaXfXaXaXaXaXaXaXfXfXaXaXaXpXgXgXgXsXhXsXgXaXaXiXaXiXiXaXaXaXaXaXaXaXaXaXaXaXaXaXaXaXaXaXaXaXaXaXaXaXaXaXiXiXiXiXrXrX7X,.m v * 5 5 5 5 5 5 * V c * w ) 5 5 5 5 5 5 5 5 5 5 6 u u u u r u u u u r 5 5 5 5 ) w 5 5 5 5 5 5 5 5 5 5 5 5 5 5 c 5 5 5 5 5 5 5 5 5 5 5 5 5 j k * 5 5 5 5 5 5 5 5 5 5 5 5 c 5 5 5 5 5 5 5 5 5 5 5 5 5 > `.'.+ 5 5 5 5 5 5 5 5 5 5 5 k 5 5 5 5 5 j V g 5 5 5 5 $ ",
"pX/ 9 ; &X1XD D.tX3X0 M 9 ; ,XuXtXY.(. .@.gX<XfXf.H z 1XsX3XF 9 S XXgXeXU n.N.S X.G g.f.H G S z F F ] rX&.S  .fXrX} ) [ ) O.] &.^ ] f.[ &.pX;Xv.l.M.b D 4X3XS M.y.n b i.p.*X/.R.U.{ R { 4.9.8.} 4.{ ( { R R R R R R R R R R R R R R R R R R R R { { Q Q ! Q 7.E m v * 5 5 5 5 5 5 * V c * w ) 5 5 5 5 5 5 5 5 5 5 5 i i i i u i i i i r 5 5 5 5 ) w 5 5 5 5 5 5 5 5 5 5 5 5 5 5 c 5 5 5 5 5 5 5 5 5 5 5 5 5 j k * 5 5 5 5 5 5 5 5 5 5 5 5 c 5 5 5 5 5 5 5 5 5 5 5 5 5 > `.'.+ 5 5 5 5 5 5 5 5 5 5 5 k 5 5 5 5 j V g 5 5 5 5 5 $ ",
"uX .; 9 <XD.D D.sXyXF z 9 9 <X~.NXR.NXkX@.dXpXfXD.F G yXdXtX$.F S XXgXrXU =XyXC A F ;XeXz D o.S.i.z } pX' F S.fXiX' m C S S.B.A m A @.S <XdX=XY S U z G 4X3XG M.k.l S.A D F.dXNXE.Y.N ( w.8.eX] } ( ( ( y y y y y y y y y y y y y y y y y y y y a d y p p p ,.E m v * 5 5 5 5 5 5 * V c * w ) 5 5 5 5 5 5 5 5 5 5 6 u u u u r u u u u r 5 5 5 5 ) w 5 5 5 5 5 5 5 5 5 5 5 5 5 5 c 5 5 5 5 5 5 5 5 5 5 5 5 5 j k * 5 5 5 5 5 5 5 5 5 5 5 5 c 5 5 5 5 5 5 5 5 5 5 5 5 5 > `.'.+ 5 5 5 5 5 5 5 5 5 5 5 k 5 5 5 w V j 5 5 5 5 5 5 $ ",
"bX8.; l <XZ.D k.hXsX4XF 9 l <XB.Y.R.tX X&.aXfXfX3X<Xy.uXcX3XD.G U %XgXgXS.3XrX+.*XD.3XeXS D o.rXS.< B.fX .:X=XfXaX} #.N.D.fX,XeX[ X.f.B.yXdX;XU B.j.U F.tXyXY tXtX' iX-XD.yXfXgXZ.R.R.y.4. XrXi.2.' ' ( a a y y y y y y y y y y y y y y y y s y R R p p Q p ,.E m v * 5 5 5 5 5 5 * V c * w ) 5 5 5 5 5 5 5 5 5 5 5 i a a a u i a i a r 5 5 5 5 ) w 5 5 5 5 5 5 5 5 5 5 5 5 5 5 c 5 5 5 5 5 5 5 5 5 5 5 5 5 j k * 5 5 5 5 5 5 5 5 5 5 5 5 c 5 5 5 5 5 5 5 5 5 5 5 5 5 > `.'.+ 5 5 5 5 5 5 5 5 5 5 5 k 5 5 w V j 5 5 5 5 5 5 5 $ ",
"=X-X9 F 3Xz.D l.pX4XuX&.; M 3Xy.Q.NXrX&X&.eXiXrXtXtXuX,XG =X;X=X<X|.rXrXgXiXeXS.dXtXyXrXX.m @.rX*Xx <XfX&XrX-XfXfX} D.hX3XdX3XpXrXS.*XeXeXdX,XF 3X<XY 3XdX3X/.yXeX .iXfXtXdXfXpXO.X.Y.E.U.+XgXB.,X X_ 4.B B i y y y y y y y y y y y y y y y y y a R p p Q p ,.E m v * 5 5 5 5 5 5 * V c * w ) 5 5 5 5 5 5 5 5 5 5 6 u u u u r u u u u r 5 5 5 5 ) w 5 5 5 5 5 5 5 5 5 5 5 5 5 5 c 5 5 5 5 5 5 5 5 5 5 5 5 5 j k * 5 5 5 5 5 5 5 5 5 5 5 5 c 5 5 5 5 5 5 5 5 5 5 5 5 5 > `.'.+ 5 5 5 5 5 5 5 5 5 5 5 c * 6 V j 5 5 5 5 5 5 5 5 $ ",
"D.sXjX:X3Xl.#.$.sXF.1XD.: [ jXU.E.4X3XeXrX3XyXeXaXfXdX;XS D.tXtXeX5.S.-XgXyX3XrXfXpXsXeX&X;XF.iX*Xi.uXuX,XrX<XfXdX&.&XdXfXaXrXaXfXeXpXrXtXtXeXS.eXrXD yXdXyXuX3X3X&XaXfXaXaXfXaX3XS.V /.E./.dXgXaX+X` B.' ( B y s y y y y y y y y y y y y y s y R R p p Q p ,.E m v * 5 5 5 5 5 5 * V c * w ) 5 5 5 5 5 5 5 5 5 5 5 i a i a u i a i a r 5 5 5 5 ) w 5 5 5 5 5 5 5 5 5 5 5 5 5 5 c 5 5 5 5 5 5 5 5 5 5 5 5 5 j k 5 5 5 5 5 5 5 5 5 5 5 5 5 c 5 5 5 5 5 5 5 5 5 5 5 5 5 > `.'.+ 6 5 5 5 5 5 5 5 5 5 5 k 5 V j 5 5 5 5 5 5 5 5 5 $ ",
"D.sXsXhXjXy.#.$.uX=X=XuXz } 3XR./.gX1XaXdX,Xn.;XfXaXsXD.S #.<XpXeX6.` 4.iX3X:XtX1XdX<X<X<XfXsXfX;XB.3X1XeXaXrXdXfX,XpX,XeXdXiX<XdXaX:XpXeXB.aXaXdXpXy.tXdXaXfX-X<X,XiXfXfXfXfXfXdXrX+.tXuXE.R.pXdX-X_ B.[ ' ( a i y y y y y y y y y y y y y y y a R p p p p ,.E m v * 5 5 5 5 5 5 * V c * w ) 5 5 5 5 5 5 5 5 5 5 6 u u u u r u u u u r 5 5 5 5 ) w 5 5 5 5 5 5 5 5 5 5 5 5 5 * k 5 5 5 5 5 5 5 5 5 5 5 5 & j j & 5 5 5 5 5 5 5 5 5 5 5 5 k 5 5 5 5 5 5 5 5 5 5 5 5 5 > `.'.+ 5 5 5 5 5 5 5 5 5 5 5 v V j & 5 5 5 5 5 5 5 5 5 # ",
"k.tXtXsXjXy.y.$.uX=XD.fX&. .NXQ.4XdX:XpXdX-XF *XfXrX4Xy.e.#.,XuX3X6.a.r.,XeXy.l.p.iX*XyXpXfXfXdXtX=X3X,XpXfXaXtXsXpXdXS.f.fXrX*XdXrXf.aXrXB.aXfXaXtX4XaXfXdXiXp.<X3XiXfXaXtXfXaXdXtX;XfXpXtXR.R.uX9X3XD.i.2.2.} ( ( ( ( ( ( ( ( ( ( ( ( ( ( ( ( ( ( Q Q Q Q ,.E m v * 5 5 5 5 5 5 * V c * w ) 5 5 5 5 5 5 5 5 5 5 6 i i i i u i i i i r 5 5 5 5 ) 6 g k j j j j j j j j j j j j b k j j j j j j j j j j j j v b j j j j j j j j j j j j j b j j j j j j j j j j j j j t ].].> c j j j j j j j j j j ) N j k j j j j j j j j k w ",
"#.$.yXsX3Xy.$.$.~.N.B.hX-. .(.Y.;XfXH.pX4XM.X.B.*X-X-Xu.+.D -X1X!.6.i.3.-X3XX.O.+.eXB.eXfXaXfXfXaX-X,X&XaXtXiXg.<XdX,Xo.B.fXrXD.fXrX+.aX*Xf.aXdX1X=XdX<XpXfXrXo.-XyXaXaXiXF.tXaXpXpXfXpX=XdXyX/.E.4XqX*Xi.S.s.s.' ( ( a a a a a a a a a a a a a ( ( p Q Q Q ,.E m v * 5 5 5 5 5 5 * V c * w ) 5 5 5 5 5 5 5 5 5 5 6 u i u i r u i u i r 5 5 5 5 ) w 5 g g g g g g g g g g g g w v g w g g g g g g g g g g 6 c v 6 g g g g g g g g g g g g v g g g g g g g g g g g g g t `.'.+ j g g g g g g g w j ) b 5 g g g g g g g g g g g 5 ",
"#.D jXfX<X$.$.#.G =.D 1X-.l._.Y =XfXF.tXN.D X.+.o.@.+.t.o.o.&.$.u.5.2.2.4.B.O.O.X.+.@.*X;XrXiX3XeXdX,XA iX,X-XS *XaXX.S f.fXrXf.pXS.@.;X+.&.iXdXS.B.aX*XyX;XiXS *XaXpXpXeXn.F.tX3X3XdX,XB.sXl.eXNXQ.NX9XrXiX4.w.} ( B y y y y y y y y y y y y y a R p p p p ,.E m v * 5 5 5 5 5 5 * V c * w ) 5 5 5 5 5 5 5 5 5 5 6 u u u u r u u u i r 5 5 5 5 ) w 5 5 5 5 5 5 5 5 5 5 5 5 5 * k 5 5 5 5 5 5 5 5 5 5 5 5 * j j * 5 5 5 5 5 5 5 5 5 5 5 5 k 5 5 5 5 5 5 5 5 5 5 5 5 5 > `.'.+ 5 5 5 5 5 5 5 5 5 N c k 5 5 5 5 5 5 5 5 5 5 5 5 $ ",
"#.#.k.yX<X$.$.$.#.#.D :X<XY.R.D =XfXM.=XN.X.X.e.e.X.+.t.o.o.#.D w.5.2.2.] O.O.O.X.X.X.S p.iX&X&.D.hXB.S 1XB.S S S.rXX.@.f.aXeX+.D.X.X.S X.+.iXtXf.B.iXB.D.*XrXS S.fX-XB.i.v.Y F.=X1XdX&Xh.pXn.D.dX/.Q.NXdXgXS.B.4.[ ( a y y y y y y y y y y y y R R p p Q p ,.E m v * 5 5 5 5 5 5 * V c * w ) 5 5 5 5 5 5 5 5 5 5 6 i i i i u i i i i r 5 5 5 5 ) w 5 5 5 5 5 5 5 5 5 5 5 5 5 5 c 5 5 5 5 5 5 5 5 5 5 5 5 5 j k 5 5 5 5 5 5 5 5 5 5 5 5 5 c 5 5 5 5 5 5 5 5 5 5 5 5 5 > `.'.+ 6 5 5 5 5 5 5 5 N c 5 c 5 5 5 5 5 5 5 5 5 5 5 5 $ ",
"#.$.D <X1X$.$.#.$.$.D =XuXE.U.o.F.,Xv.Y n.X.X.e.e.X.+.t.o.o.#.#.w.5.2.2.2.O.O.O.X.X.X.X.+.*XX.A t.y.@.X.A X.X.X.&.B.X.X.p.fXeX@.A X.X.X.X.X.eX;XS f.3X&.X.*XrXS S.sXy.r.X.#.n.b.Y 1XdX&Xn.F.v.p.tXrXNXQ./.dX3XeX*X] ( B y y y y y y y y y y y y a R p p Q p ,.E m v * 5 5 5 5 5 5 * V c * w ) 5 5 5 5 5 5 5 5 5 5 6 u u u u r u u u u r 5 5 5 5 ) w 5 5 5 5 5 5 5 5 5 5 5 5 5 5 c 5 5 5 5 5 5 5 5 5 5 5 5 5 j k * 5 5 5 5 5 5 5 5 5 5 5 5 c 5 5 5 5 5 5 5 5 5 5 5 5 5 > `.'.+ 5 5 5 5 5 5 5 N c * 5 c 5 5 5 5 5 5 5 5 5 5 5 5 $ ",
"#.$.D <X;XD $.#.#.$.D D./.Q.#.t.b.D u.b.n.X.X.e.e.X.+.t.o.o.#.#.w.5.2.2.2.O.O.O.X.X.X.X.X.S X.X.e.O.X.X.X.X.X.X.X.@.X.X.t.bXF.X.+.X.X.X.X.X.p.p.X.X.X.+.i.z.:XA B.1X#.p.X.X.v.n.v.F.fX=XY b.b.M.tXeX3XN.E./.gXdX-Xw.( ( i y y y y y y y y y y y a R p p Q p ,.E m v * 5 5 5 5 5 5 * V c * w ) 5 5 5 5 5 5 5 5 5 5 5 i a i a u i a i a r 5 5 5 5 ) w 5 5 5 5 5 5 5 5 5 5 5 5 5 5 c 5 5 5 5 5 5 5 5 5 5 5 5 5 j k * 5 5 5 5 5 5 5 5 5 5 5 5 c 5 5 5 5 5 5 5 5 5 5 5 5 5 > `.'.+ 5 5 5 5 5 5 N v 5 5 5 k 5 5 5 5 5 5 5 5 5 5 5 5 $ ",
"#.$.#.l.&.y.$.#.#.$.#.N.E.U.[ u.m.v.u.v.n.X.X.e.e.X.+.t.o.o.#.#.w.5.2.2.2.O.O.O.X.X.X.X.X.X.X.X.e.+.X.X.X.X.X.X.X.X.X.X.o.b.o.X.X.X.X.X.X.X.e.+.X.X.X.O.i.t.D X.o.#.X.e.X.X.o.e.e.Y 1XF.m.m.b.N.rX3X<XB.4XE./.iXgX&X4.) y i s i y i y i y y i y R R p p Q p ,.E m v * 5 5 5 5 5 5 * V c * w ) 5 5 5 5 5 5 5 5 5 5 6 u u u u r u u u u r 5 5 5 5 ) w 5 5 5 5 5 5 5 5 5 5 5 5 5 5 c 5 5 5 5 5 5 5 5 5 5 5 5 5 j k * 5 5 5 5 5 5 5 5 5 5 5 5 c 5 5 5 5 5 5 5 5 5 5 5 5 5 > `.'.+ 5 5 5 5 5 N v 5 5 5 5 k 5 5 5 5 5 5 5 5 5 5 5 5 $ ",
"#.#.$.#.#.y.$.#.#.$.o.Y.R.X.#.b.m.v.u.X.y.X.X.e.e.X.+.t.o.o.#.#.w.5.2.2.2.O.O.O.X.X.X.X.X.X.X.X.e.+.X.X.X.X.X.X.X.X.X.X.o.e.+.X.X.X.X.X.X.X.e.+.X.X.X.O.i.e.O.X.X.O.X.e.X.X.X.+.e.u.m.b.m.b.b.N.4X*X*XD ,X4XQ./.gXaX<X&.a s a a y y y e i a y y p d ^ p p R ,.E m v * 5 5 5 5 5 5 * V c * w ) 5 5 5 5 5 5 5 5 5 5 5 i a i a u i a i a r 5 5 5 5 ) w 5 5 5 5 5 5 5 5 5 5 5 5 5 5 c 5 5 5 5 5 5 5 5 5 5 5 5 5 j k * 5 5 5 5 5 5 5 5 5 5 5 5 c 5 5 5 5 5 5 5 5 5 5 5 5 5 > `.'.+ 5 5 5 5 N b 5 5 5 5 5 k 5 5 5 5 5 5 5 5 5 5 5 6 $ ",
"#.#.#.$.#.y.$.#.$.#.v.E.U.[ u.m.m.v.u.X.y.X.X.e.e.X.+.t.o.o.#.#.w.5.2.2.2.O.O.O.X.X.X.X.X.X.X.X.e.+.X.X.X.X.X.X.X.X.X.X.o.t.+.X.X.X.X.X.X.X.e.+.X.X.X.O.i.e.+.X.X.X.X.e.X.X.X.+.e.u.m.v.n.b.b.m.U.u.X.u.-X3XY E./.dXCXjX[.| ' &.^ | ^ | ^ ;.| y &.( -.| -.-.,.E m v * 5 5 5 5 5 5 * V c * w ) 5 5 5 5 5 5 5 5 5 5 6 u u u u r u u u u r 5 5 5 5 ) w 5 5 5 5 5 5 5 5 5 5 5 5 5 5 c 5 5 5 5 5 5 5 5 5 5 5 5 5 j k * 5 5 5 5 5 5 5 5 5 5 5 5 c 5 5 5 5 5 5 5 5 5 5 5 5 5 > `.'.+ 6 5 5 N b * 5 5 5 5 5 k 5 5 5 5 5 5 5 5 5 5 % % X ",
"#.#.#.#.#.y.$.#.$.o.Y.R.o.X.u.n.n.b.u.X.y.X.X.e.e.X.+.t.o.o.#.#.w.5.2.2.2.O.O.O.X.X.X.X.X.X.X.X.e.+.X.X.X.X.X.X.X.X.X.X.o.t.+.X.X.X.X.X.X.X.e.+.X.X.X.O.i.e.+.X.X.X.X.e.X.X.X.+.e.o.b.u.t.b.b.b.m.u.O.e.f.z.[ b.Q./.uXtX:X;.;.;.-.].[.;.^ ;.-.-.-.-.-.;.;.-.,.E m v * 5 5 5 5 5 5 * V c * w ) 5 5 5 5 5 5 5 5 5 5 6 i i i i u i i i i r 5 5 5 5 ) w 5 5 5 5 5 5 5 5 5 5 5 5 5 5 c 5 5 5 5 5 5 5 5 5 5 5 5 5 j k * 5 5 5 5 5 5 5 5 5 5 5 5 c 5 5 5 5 5 5 5 5 5 5 5 5 5 > `.'.+ 5 5 N v 5 l n j 5 5 6 c 5 6 5 5 * % % % % 6 d 1.6.",
"#.#.#.#.#.y.$.$.#.b.E.U.[ X.v.#.n.b.#.X.y.X.X.e.e.X.+.t.o.o.#.#.w.5.2.2.2.O.O.O.X.X.X.X.X.X.X.X.e.+.X.X.X.X.X.X.X.X.X.X.o.t.+.X.X.X.X.X.X.X.e.+.X.X.X.O.i.e.+.X.X.X.X.e.X.X.X.+.e.X.v.u.t.b.#.n.m.v.X.g.@.@.o._ N.E.bXfX:X-.`.&.-.-.^ -.-.%.%.;.-.-.-.`.-.-.>.E m v * 5 5 5 5 5 5 * V c * w ) 5 5 5 5 5 5 5 5 5 5 6 u u u u r u u u i r 5 5 5 5 ) w 5 5 5 5 5 5 5 5 5 5 5 5 5 5 c 5 5 5 5 5 5 5 5 5 5 5 5 5 j k * 5 5 5 5 5 5 5 5 5 5 5 5 c 5 5 5 5 5 5 5 5 5 5 5 5 5 > `.'.+ 5 b b 8 S -.D.-./ 6 * l = % % 5 s >.5..XAXDXGXGXDX",
"#.#.#.#.#.y.$.$.o.Y.R.e.X.X.v.#.n.b.#.X.y.X.X.e.e.X.+.t.o.o.#.#.w.5.2.2.2.O.O.O.X.X.X.X.X.X.X.X.e.+.X.X.X.X.X.X.X.X.X.X.o.t.+.X.X.X.X.X.X.X.e.+.X.X.X.O.i.e.+.X.X.X.X.e.X.X.X.+.e.X.v.u.t.b.X.t.m.b.n.g.X.X.X.S &XNXW.NX XN.F.&.' -.| -.^ ^ ' ^ -.| ^ } -.^ ,.E m v * 5 5 5 5 5 5 * V c * w ) 5 5 5 5 5 5 5 5 5 5 6 u i u i r u i u i r 5 5 5 5 ) w 5 5 5 5 5 5 5 5 5 5 5 5 5 5 c 5 5 5 5 5 5 5 5 5 5 5 5 5 j k * 5 5 5 5 5 5 5 5 5 5 5 5 c 5 5 5 5 5 5 5 5 5 5 5 5 5 > `.'.+ b N 5 S F.-.} -.D.^ s 1.5.0.AXDXGXGXDXAX.X5.1.d $ ",
"#.$.$.$.$.y.$.#.Y E.Y &.o.X.v.+.n.m.o.X.y.X.X.e.e.X.+.t.o.o.#.#.w.6.2.2.2.O.O.O.X.X.X.X.X.X.X.X.e.+.X.X.X.X.X.X.X.X.X.X.o.t.+.X.X.X.X.X.X.X.e.+.X.X.X.+.i.e.+.X.X.X.X.p.X.X.X.+.e.X.o.o.t.u.X.+.m.b.m.g.X.X.X.X.f.<X/.E.m.3X-X4.' ( y y y y y y p d p p f p ,.E m v * 5 5 5 5 5 5 * V c * w ) 5 5 5 5 5 5 5 5 5 5 6 i i i i u i i i i r 5 5 5 5 ) w 5 5 5 5 5 5 5 5 5 5 5 5 5 5 c 5 5 5 5 5 5 5 5 5 5 5 5 5 j k * 5 5 5 5 5 5 5 5 5 5 5 5 c 5 5 5 5 5 5 5 5 5 5 5 5 5 > `.'.t V % ; $.-. .rX X*XFXGXGXDXAX.X5.>.d 5 % % % % * $ ",
"D #.D #.D u.#.D Y.Y.` e.@.X.U X.u.Y o.X.u.X.A r.r.A X.e.A o.S D w.5.3.3.3.` ` X.X.X.X.X.X.X.X.A r.X.@.X.X.X.X.X.X.X.X.X.A r.O.A X.X.X.X.X.A r.X.A X.X.X.2.r.X.X.X.X.X.e.X.X.A X.r.A X.@.e.X.@.o.b.U b.t.A X.X.X.A A ] /.E.uXgXeX+X X4 y y y y y p d f p p p ,.E m v * 5 5 5 5 5 5 * V c * w ) 5 5 5 5 5 5 5 5 5 5 6 u u u u r u u u u r 5 5 5 5 ) w 5 5 5 5 5 5 5 5 5 5 5 5 5 5 c 5 5 5 5 5 5 5 5 5 5 5 5 5 j k 5 5 5 5 5 5 5 5 5 5 5 5 5 c 5 5 5 5 5 5 5 5 5 5 5 5 5 t ;.lXg 5 d 6.5X8. XPXwX8.%X<.Q t % % % % % 5 5 5 6 5 6 $ ",
"nXnXnXnXnXmXnXmXMXMXnXmXnXnXmXnXmXMXnXnXmXnXnXmXmXnXmXmXnXnXnXnXmXmXmXmXmXnXnXnXnXnXnXnXnXnXnXnXmXnXnXnXnXnXnXnXnXnXnXnXnXmXmXnXnXnXnXnXnXnXmXmXnXnXnXnXmXmXnXnXnXnXnXmXnXnXnXmXmXnXnXnXmXnXnXnXMXMXMXmXnXnXnXnXnXmXxXVXBXMXCXVXVXVXxXxXxXxXxXxXxXxXxXxXxXxXmX! v v * 5 5 5 5 5 5 * V c * w ) 5 5 5 5 5 5 5 5 5 5 5 i a i a u i a i a r 5 5 5 5 ) w * 5 5 5 5 5 5 5 5 5 5 5 5 * k 5 * 5 5 5 5 5 5 5 5 5 5 & j j & 5 5 5 5 5 5 5 5 5 5 * 5 k * 5 5 5 5 5 5 5 5 5 5 5 5 > ].lX>.AXGXDXG.=X{  X .D./ % l & 5 5 5 5 5 5 5 5 5 5 5 # ",
"bXbXbXbXbXbXbX(.bXvXcXcXcXcXbXcXbXbXcXcXbXcXcXcXcXcXcXcXcXcXbXbXcX1XvXvXvXcXcXcXcXcXcXcXcXcXcXcXcXcXcXcXcXcXcXcXcXcXcXcXcXbXcXcXcXcXcXcXcXcXcXcXcXcXcXcXvXcXcXcXcXcXcXcXcXcXcXcXcXcXcXcXcXcXcXcXbXbXbXbXbXbXcXcXcXcXcXCXCXBX(.CXCXCX:X:X:X:X:X:X:X:X:X:X:X:X1X! v v * 5 5 5 5 5 5 * V c * w ) 5 5 5 5 5 5 5 5 5 5 6 u u u u r u u u u r 5 5 5 5 ) 6 j v v v v v v v v v v v v c V v v v v v v v v v v v v c b N c v v v v v v v v v v v v V v v v v v v v v v v v v c l S.FXGXAX5.B S l.F.D.D.B.' v N v v v v v v v v v v v v j ",
"D D D D D o.U.Q.U C A r.C U U C t.U C A u.C C r.r.C r.r.A A S D 3.5.3.3.3.3.3.` C A A A A A A C r.r.C A A A A A A A A C U r.r.C A A A A A C r.r.C A A ` 2.r.X.C A A C r.A A C r.r.C A C r.A C r.v.U U n.Y U C A A X.C -XdX4XQ.NXqX+Xt f f f f f d d f f f f ,.E m v * 5 5 5 5 5 5 * V c * w ) 5 5 5 5 5 5 5 5 5 5 5 i a a a u i a i a r 5 5 5 5 ) w 5 g w w w w w w w w w w w 6 v g w w w w w w w w w w w 6 c c 5 g w w w w w w w w w w w v w w w w w w w w w w w 8 B .XGXAXQ % ; 5 g m @.&.[ n 6 g v 6 w w w w w w w w w w g * ",
"$.$.$.$.#.n.R.Y.O.o.+.g.X.$.v.X.p.X.X.o.y.X.X.+.e.X.+.g.o.#.#.#.w.6.w.2.O.O.O.O.X.X.X.X.X.X.o.X.e.+.X.o.X.X.X.X.X.X.o.X.o.t.+.X.o.X.X.X.o.X.e.+.X.o.X.+.i.t.+.X.o.o.X.g.o.X.X.+.e.X.o.X.g.+.X.+.n.v.v.l.m.b.o.X.o.o.X.j.=XpX(.W.hXeXn y ^ n ^ y R d ^ ' } R ,.E m v * 5 5 5 5 5 5 * V c * w ) 5 5 5 5 5 5 5 5 5 5 6 u u u u r u u u u r 5 5 5 5 ) w 5 5 5 5 5 5 5 5 5 5 5 5 5 5 k 5 5 5 5 5 5 5 5 5 5 5 5 * j j * 5 5 5 5 5 5 5 5 5 5 5 5 k 5 5 5 5 5 5 5 5 5 5 % Q DXDX<X;.- 6 5 5 5 5 5 5 5 5 5 5 k * 5 5 5 5 5 5 5 5 5 5 5 $ ",
"#.$.#.$.o.Y.R.m.o.X.o.e.X.u.u.X.e.X.X.o.y.X.X.e.e.X.+.t.o.o.#.#.w.5.2.2.2.O.O.O.X.X.X.X.X.X.X.X.e.+.X.X.X.X.X.X.X.X.X.X.o.t.+.X.X.X.X.X.X.X.e.+.X.X.X.O.i.e.+.X.X.X.X.e.X.X.X.+.e.X.X.X.e.X.X.+.t.u.v.l.b.b.u.X.X.X.X.@.A M.^.(.(.uXB ^ ].| `.y ( -.-.-.[.-.,.E m v * 5 5 5 5 5 5 * V c * w ) 5 5 5 5 5 5 5 5 5 5 5 i i i i u i i i i r 5 5 5 5 ) w 5 5 5 5 5 5 5 5 5 5 5 5 5 5 c 5 5 5 5 5 5 5 5 5 5 5 5 5 j k 5 5 5 5 5 5 5 5 5 5 5 5 5 c 5 5 5 5 5 5 5 5 5 % 1.HXAXs ;.'.+ 6 5 5 5 5 5 5 5 5 5 5 c 5 5 5 5 5 5 5 5 5 5 5 5 $ ",
"#.#.$.#.b.E.U.n.u.X.X.e.X.u.u.X.e.X.X.o.y.X.X.e.e.X.+.t.o.o.#.#.w.5.2.2.2.O.O.O.X.X.X.X.X.X.X.X.e.+.X.X.X.X.X.X.X.X.X.X.o.t.+.X.X.X.X.X.X.X.e.+.X.X.X.O.i.e.+.X.X.X.X.e.X.X.X.+.e.X.X.X.e.X.X.+.e.u.v.g.v.m.v.X.X.X.X.+.&.A ;.M.(.NXS.-.;.^ -.y -.-.-.-.`.-.,.E m v * 5 5 5 5 5 5 * V c * w ) 5 5 5 5 5 5 5 5 5 5 6 u u u u r u u u i r 5 5 5 5 ) w 5 5 5 5 5 5 5 5 5 5 5 5 5 5 c 5 5 5 5 5 5 5 5 5 5 5 5 5 j k * 5 5 5 5 5 5 5 5 5 5 5 5 c 5 5 5 5 5 5 5 5 % 6.HX0.% > `.'.+ 5 5 5 5 5 5 5 5 5 5 5 k 5 5 5 5 5 5 5 5 5 5 5 5 $ ",
"#.$.$.#.R.R.u.b.u.v.o.e.X.u.u.X.e.X.X.o.y.X.X.e.e.X.+.t.o.o.#.#.w.5.2.2.2.O.O.O.X.X.X.X.X.X.X.X.e.+.X.X.X.X.X.X.X.X.X.X.o.t.+.X.X.X.X.X.X.X.e.+.X.X.X.O.i.e.+.X.X.X.X.e.X.X.X.+.e.X.X.X.e.X.X.+.e.#.u.p.u.m.v.X.X.X.X.+.-.;.;.S.NX(.F.-.lX| -.y -.-.-.-.-.-.,.E m v * 5 5 5 5 5 5 * V c * w ) 5 5 5 5 5 5 5 5 5 5 6 u i i i r u i i i r 5 5 5 5 ) w 5 5 5 5 5 5 5 5 5 5 5 5 5 5 c 5 5 5 5 5 5 5 5 5 5 5 5 5 j k * 5 5 5 5 5 5 5 5 5 5 5 5 c 5 5 5 5 5 5 5 % 0.HX5.% 5 t `.'.+ 5 5 5 5 5 5 5 5 5 5 5 k 5 5 5 5 5 5 5 5 5 5 5 5 $ ",
"#.$.o.U.E.m.u.b.v.b.b.e.X.v.u.X.e.X.X.o.y.X.X.e.e.X.+.t.o.o.#.#.w.5.2.2.2.O.O.O.X.X.X.X.X.X.X.X.e.+.X.X.X.X.X.X.X.X.X.X.o.t.+.X.X.X.X.X.X.X.e.+.X.X.X.O.i.e.+.X.X.X.X.e.X.X.X.+.e.X.X.X.e.X.X.+.e.X.+.p.u.b.v.u.o.X.X.X.A ;.;.F.hX(.Y.( ^ B ^ y ( -.| | -.( ,.E m v * 5 5 5 5 5 5 * V c * w ) 5 5 5 5 5 5 5 5 5 5 6 i i i i u u i i i r 5 5 5 5 ) w 5 5 5 5 5 5 5 5 5 5 5 5 5 5 c 5 5 5 5 5 5 5 5 5 5 5 5 5 j k * 5 5 5 5 5 5 5 5 5 5 5 5 c 5 5 5 5 5 5 % 0.HX1.% 5 5 > `.'.+ 5 5 5 5 5 5 5 5 5 5 5 k 5 5 5 5 5 5 5 5 5 5 5 5 $ ",
"#.#.$.R.Y.&.u.v.v.b.m.n.X.v.#.X.e.X.X.o.y.X.X.e.e.X.+.t.o.o.#.#.w.5.2.2.2.O.O.O.X.X.X.X.X.X.X.X.e.+.X.X.X.X.X.X.X.X.X.X.o.t.+.X.X.X.X.X.X.X.e.+.X.X.X.O.i.e.+.X.X.X.X.e.X.X.X.+.e.X.X.X.e.X.X.+.e.X.+.p.u.v.u.m.u.X.X.X.o.X.A i.iXF.E.m.p a y y a p f p f p ,.E m v * 5 5 5 5 5 5 * V c * w ) 5 5 5 5 5 5 5 5 5 5 6 u u u u r u u u u r 5 5 5 5 ) w 5 5 5 5 5 5 5 5 5 5 5 5 5 5 c 5 5 5 5 5 5 5 5 5 5 5 5 5 j k * 5 5 5 5 5 5 5 5 5 5 5 5 c 5 5 5 5 5 % 0.HX1.% 5 5 5 > `.'.+ 5 5 5 5 5 5 5 5 5 5 5 k 5 5 5 5 5 5 5 5 5 5 5 5 $ ",
"$.o.Y.R.u.y.v.v.b.b.v.m.#.v.o.X.e.X.X.o.y.X.X.e.e.X.+.t.o.o.#.#.w.5.2.2.2.O.O.O.X.X.X.X.X.X.X.X.e.+.X.X.X.X.X.X.X.X.X.X.o.t.+.X.X.X.X.X.X.X.e.+.X.X.X.O.i.e.+.X.X.X.X.e.X.X.X.+.e.X.X.X.e.X.X.+.e.X.+.p.o.#.X.v.v.X.X.X.X.+.X.f.yX&X/.Q.O.@.y y R R p p R p ,.E m v * 5 5 5 5 5 5 * V c * w ) 5 5 5 5 5 5 5 5 5 5 5 i a i a u i a i a r 5 5 5 5 ) w 5 5 5 5 5 5 5 5 5 5 5 5 5 5 c 5 5 5 5 5 5 5 5 5 5 5 5 5 j k * 5 5 5 5 5 5 5 5 5 5 5 5 c 5 5 5 5 % 0.HX1.% 6 5 5 5 > `.'.+ 5 5 5 5 5 5 5 5 5 5 5 k 5 5 5 5 5 5 5 5 5 5 5 5 $ ",
"#.b.E.U.O.m.b.u.b.u.u.m.v.v.o.X.e.X.X.o.y.X.X.e.e.X.+.t.o.o.#.#.w.5.2.2.2.O.O.O.X.X.X.X.X.X.X.X.e.+.X.X.X.X.X.X.X.X.X.X.o.t.+.X.X.X.X.X.X.X.e.+.X.X.X.O.i.e.+.X.X.X.X.e.X.X.X.+.e.X.X.X.e.X.X.+.e.X.+.g.X.X.X.u.m.u.o.X.X.X.X.f.rX&XtXE./.+Xt y a R p p Q p ,.E m v * 5 5 5 5 5 5 * V c * w ) 5 5 5 5 5 5 5 5 5 5 6 u u u u r u u u u r 5 5 5 5 ) w 5 5 5 5 5 5 5 5 5 5 5 5 5 5 c 5 5 5 5 5 5 5 5 5 5 5 5 5 j k * 5 5 5 5 5 5 5 5 5 5 5 5 c 5 5 5 % 0.HX,.% 5 5 5 5 5 > `.'.+ 5 5 5 5 5 5 5 5 5 5 5 k 5 5 5 5 5 5 5 5 5 5 5 5 $ ",
"#.R.R.X.o.m.b.u.m.u.X.n.m.u.X.o.e.X.X.o.y.X.X.e.e.X.+.t.o.o.#.#.w.5.2.2.2.O.O.O.X.X.X.X.X.X.X.X.e.+.X.X.X.X.X.X.X.X.X.X.o.t.+.X.X.X.X.X.X.X.e.+.X.X.X.O.i.e.+.X.X.X.X.e.X.X.X.+.e.X.X.X.e.X.X.+.e.X.+.g.X.X.X.#.b.b.u.X.X.X.X.+.*XB.dXNXW.,Xy y R R p p Q p ,.E m v * 5 5 5 5 5 5 * V c * w ) 5 5 5 5 5 5 5 5 5 5 5 i a a a u i a a a r 5 5 5 5 ) w 5 5 5 5 5 5 5 5 5 5 5 5 5 5 c 5 5 5 5 5 5 5 5 5 5 5 5 5 j k * 5 5 5 5 5 5 5 5 5 5 5 5 c 5 5 % 6.HX5.% 5 5 5 5 5 5 > `.'.+ 5 5 5 5 5 5 5 5 5 5 5 k 5 5 5 5 5 5 5 5 5 5 5 5 $ ",
"U.E.v.[ u.n.#.#.m.u.O.y.b.X.X.o.e.X.X.o.y.X.X.e.e.X.+.t.o.o.#.#.w.5.2.2.2.O.O.O.X.X.X.X.X.X.X.X.e.+.X.X.X.X.X.X.X.X.X.X.o.t.+.X.X.X.X.X.X.X.e.+.X.X.X.O.i.e.+.X.X.X.X.e.X.X.X.+.e.X.X.X.e.X.X.+.e.X.+.g.X.X.X.X.u.m.u.X.X.X.X.X.A X.B.yXW.U.R y R R p p Q p ,.E m v * 5 5 5 5 5 5 * V c * w ) 5 5 5 5 5 5 5 5 5 5 6 u u u u r u u u u r 5 5 5 5 ) w 5 5 5 5 5 5 5 5 5 5 5 5 5 5 c 5 5 5 5 5 5 5 5 5 5 5 5 5 j k * 5 5 5 5 5 5 5 5 5 5 5 5 c 5 % 5.HX6.% 5 5 5 5 5 5 5 > `.'.+ 5 5 5 5 5 5 5 5 5 5 5 k 5 5 5 5 5 5 5 5 5 5 5 5 $ ",
"R.U.[ X.u.n.X.o.b.u.X.t.v.X.X.o.e.X.X.o.y.X.X.e.e.X.+.t.o.o.#.#.w.5.2.2.2.O.O.O.X.X.X.X.X.X.X.X.e.+.X.X.X.X.X.X.X.X.X.X.o.t.+.X.X.X.X.X.X.X.e.+.X.X.X.O.i.e.+.X.X.X.X.e.X.X.X.+.e.X.X.X.e.X.X.+.e.X.+.g.X.X.X.X.u.m.u.X.X.X.X.X.X.O.F <XNXQ.' y R R p p Q p ,.E m v * 5 5 5 5 5 5 * V c * w ) 5 5 5 5 5 5 5 5 5 5 5 i i i i u i i i a r 5 5 5 5 ) w 5 5 5 5 5 5 5 5 5 5 5 5 5 5 c 5 5 5 5 5 5 5 5 5 5 5 5 5 j k * 5 5 5 5 5 5 5 5 5 5 5 5 c % 5.HX0.% 5 5 5 5 5 5 5 5 > `.'.+ 5 5 5 5 5 5 5 5 5 5 5 k 5 5 5 5 5 5 5 5 5 5 5 5 $ ",
"R.o.X.X.u.n.X.o.b.u.X.t.#.X.X.o.e.X.X.o.y.X.X.e.e.X.+.t.o.o.#.#.w.5.2.2.2.O.O.O.X.X.X.X.X.X.X.X.e.+.X.X.X.X.X.X.X.X.X.X.o.t.+.X.X.X.X.X.X.X.e.+.X.X.X.O.i.e.+.X.X.X.X.e.X.X.X.+.e.X.X.X.e.X.X.+.e.X.+.g.X.X.X.X.u.m.v.X.X.X.X.X.X.+.S ;XsXW.N.f B R p p Q p ,.E m v * 5 5 5 5 5 5 * V c * w ) 5 5 5 5 5 5 5 5 5 5 6 u u u u r u u u u r 5 5 5 5 ) w 5 5 5 5 5 5 5 5 5 5 5 5 5 5 c 5 5 5 5 5 5 5 5 5 5 5 5 5 j k 5 5 5 5 5 5 5 5 5 5 5 5 5 l 1.HX0.% 5 5 5 5 5 5 5 5 5 > `.'.+ 6 5 5 5 5 5 5 5 5 5 5 c 5 5 5 5 5 5 5 5 5 5 5 5 $ ",
"Y [ o.X.v.y.X.X.v.#.X.e.X.X.X.X.e.X.X.X.y.X.X.+.e.@.+.t.o.o.o.#.w.5.2.2.] O.O.O.X.X.X.X.X.X.X.X.e.+.X.X.X.X.X.X.X.X.X.X.o.t.+.X.X.X.X.X.X.X.e.+.X.X.X.O.i.e.X.X.X.X.X.e.X.X.X.+.e.X.X.X.e.X.X.+.e.@.o.g.X.X.X.X.o.u.v.u.o.X.X.X.X.X.S S.dX/.R.y a R p p p p ,.E m v * 5 5 5 5 5 5 * V c * w ) 5 5 5 5 5 5 5 5 5 5 6 u i i i r u i i i r 5 5 5 5 ) w 5 5 5 5 5 5 5 5 5 5 5 5 5 5 k 5 5 5 5 5 5 5 5 5 5 5 5 * j j * 5 5 5 5 5 5 5 5 5 5 5 = <.HX0.% 5 5 5 5 5 5 5 5 5 5 > `.'.+ 5 5 5 5 5 5 5 5 5 5 5 k * 5 5 5 5 5 5 5 5 5 5 5 $ ",
"i.t.e.e.n.l.e.e.t.t.e.g.e.e.e.e.g.e.e.e.M.e.e.g.g.e.g.h.t.t.t.$.p.6.a.a.i.i.p.p.e.e.e.e.e.e.e.e.g.g.e.e.e.e.e.e.e.e.e.p.t.t.p.e.e.e.e.e.e.e.g.g.e.e.e.p.d.g.p.e.e.e.e.g.e.e.e.g.g.e.e.e.g.e.e.p.g.e.p.h.e.e.e.e.e.t.m.m.t.e.e.e.e.p.e.D.dXuXE.U Q ( Q Q Q Q ,.E m v * 5 5 5 5 5 5 * V c * w ) 5 5 5 5 5 5 5 5 5 5 6 i i i i u u i i i r 5 5 5 5 ) 6 g c k k k k k k k k k k c k b c k k k k k k k k k k c k b b k c k k k k k k k c c l <.GX0.l c c k k k k k k k c c t ].].t v k k k k k k k k k c b k c k k k k k k k k k c g ",
"O.o.X.o.v.t.X.o.X.X.+.p.X.o.X.+.e.X.X.+.y.X.X.e.e.X.e.g.o.o.#.#.w.6.2.2.w.O.O.O.o.o.o.o.o.o.o.X.e.+.X.o.o.o.o.o.o.o.o.X.r.t.+.X.o.o.o.o.o.X.e.e.X.o.o.+.i.e.+.X.o.o.X.p.+.o.X.e.e.X.+.X.p.+.X.+.e.X.+.g.X.o.o.o.X.+.b.b.+.X.o.o.o.+.X.+.:XiX(.T.R ( p R Q p ,.E m v * 5 5 5 5 5 5 * V c * w ) 5 5 5 5 5 5 5 5 5 5 6 u u u u r u u u u r 5 5 5 5 ) w 5 5 5 5 5 5 5 5 5 5 5 5 5 5 c 6 5 5 5 5 5 5 5 5 5 5 5 5 j c 5 5 5 5 5 5 5 5 5 w % 1.HX0.% 5 6 5 5 5 5 5 5 5 5 5 5 t `.'.+ 8 5 5 5 5 5 5 5 5 5 w c 5 5 5 5 5 5 5 5 5 5 5 6 $ ",
"o.X.X.o.v.t.X.X.X.X.X.e.X.X.X.X.e.X.X.o.y.X.X.+.e.@.+.t.o.o.o.#.w.5.2.2.2.O.O.O.X.X.X.X.X.X.X.X.e.+.X.X.X.X.X.X.X.X.X.X.o.t.+.X.X.X.X.X.X.X.e.+.X.X.X.O.i.e.+.X.X.X.X.e.X.X.X.+.e.X.X.X.e.X.X.+.e.X.+.g.X.X.X.X.X.X.v.m.o.X.X.X.X.X.X.X.S gXNXQ.) R p p R p ,.E m v * 5 5 5 5 5 5 * V c * w ) 5 5 5 5 5 5 5 5 5 5 5 i i i a u i a i a r 5 5 5 5 ) w 5 5 5 5 5 5 5 5 5 5 5 5 5 5 k 5 5 5 5 5 5 5 5 5 5 5 5 * j k * 5 5 5 5 5 5 5 5 % >.HX0.l 5 5 5 5 5 5 5 5 5 5 5 5 5 > `.'.+ 5 5 5 5 5 5 5 5 5 5 5 k 5 5 5 5 5 5 5 5 5 5 5 5 $ ",
"X.X.X.o.v.t.X.X.X.X.X.e.X.X.X.o.e.X.X.o.y.X.X.e.e.X.+.t.o.o.#.#.w.5.2.2.2.O.O.O.X.X.X.X.X.X.X.X.e.+.X.X.X.X.X.X.X.X.X.X.o.t.+.X.X.X.X.X.X.X.e.+.X.X.X.O.i.e.+.X.X.X.X.e.X.X.X.+.e.X.X.X.e.X.X.+.e.X.+.g.X.X.X.X.X.X.o.b.#.X.X.X.X.X.X.X.@.;XtXR.Y R p p Q p ,.E m v * 5 5 5 5 5 5 * V c * w ) 5 5 5 5 5 5 5 5 5 5 6 u u u u r u u u u r 5 5 5 5 ) w 5 5 5 5 5 5 5 5 5 5 5 5 5 5 c 5 5 5 5 5 5 5 5 5 5 5 5 5 j k * 5 5 5 5 5 5 6 % >.HX.X% k 5 5 5 5 5 5 5 5 5 5 5 5 5 > `.'.+ 5 5 5 5 5 5 5 5 5 5 5 k 5 5 5 5 5 5 5 5 5 5 5 5 $ ",
"X.X.X.o.v.e.X.X.X.X.X.e.X.X.X.o.e.X.X.o.y.X.X.e.e.X.+.t.o.o.#.#.w.5.2.2.2.O.O.O.X.X.X.X.X.X.X.X.e.+.X.X.X.X.X.X.X.X.X.X.o.t.+.X.X.X.X.X.X.X.e.+.X.X.X.O.i.e.+.X.X.X.X.e.X.X.X.+.e.X.X.X.e.X.X.+.e.X.+.g.X.X.X.X.X.X.X.u.u.X.X.X.X.X.X.X.X.e.eXY.Y.R p p Q p ,.E m v * 5 5 5 5 5 5 * V c * w ) 5 5 5 5 5 5 5 5 5 5 5 i a a a u i a a a r 5 5 5 5 ) w 5 5 5 5 5 5 5 5 5 5 5 5 5 5 c 5 5 5 5 5 5 5 5 5 5 5 5 5 j k * 5 5 5 5 5 6 % Q HX.X% 5 c 5 5 5 5 5 5 5 5 5 5 5 5 5 > `.'.+ 5 5 5 5 5 5 5 5 5 5 5 k 5 5 5 5 5 5 5 5 5 5 5 5 $ ",
"X.X.o.u.v.e.X.X.X.X.X.e.X.X.X.o.e.X.X.o.y.X.X.e.e.X.+.t.o.o.#.#.w.5.2.2.2.O.O.O.X.X.X.X.X.X.X.X.e.+.X.X.X.X.X.X.X.X.X.X.o.t.+.X.X.X.X.X.X.X.e.+.X.X.X.O.i.e.+.X.X.X.X.e.X.X.X.+.e.X.X.X.e.X.X.+.e.X.+.g.X.X.X.X.X.X.X.u.v.#.o.X.X.X.X.X.X.f.eXG R.N p p Q p ,.E m v * 5 5 5 5 5 5 * V c * w ) 5 5 5 5 5 5 5 5 5 5 6 u u u u r u u u u r 5 5 5 5 ) w 5 5 5 5 5 5 5 5 5 5 5 5 5 5 c 5 5 5 5 5 5 5 5 5 5 5 5 5 j k * 5 5 5 5 6 % d GXAX5 5 5 c 5 5 5 5 5 5 5 5 5 5 5 5 5 > `.'.+ 5 5 5 5 5 5 5 5 5 5 5 k 5 5 5 5 5 5 5 5 5 5 5 5 $ ",
"v.o.#.m.v.e.X.X.X.X.X.e.X.X.X.o.e.X.X.o.y.X.X.e.e.X.+.t.o.o.#.#.w.5.2.2.2.O.O.O.X.X.X.X.X.X.X.X.e.+.X.X.X.X.X.X.X.X.X.X.o.t.+.X.X.X.X.X.X.X.e.+.X.X.X.O.i.e.+.X.X.X.X.e.X.X.X.+.e.X.X.X.e.X.X.+.e.X.+.g.X.X.X.X.X.X.X.u.m.b.#.X.X.X.X.X.X.o.iX8.Q.Y f p Q p ,.E m v * 5 5 5 5 5 5 * V c * w ) 5 5 5 5 5 5 5 5 5 5 5 i i i i u i i i a r 5 5 5 5 ) w 5 5 5 5 5 5 5 5 5 5 5 5 5 5 c 5 5 5 5 5 5 5 5 5 5 5 5 5 j k * 5 5 5 6 % d GXAX5 5 5 5 c 5 5 5 5 5 5 5 5 5 5 5 5 5 > `.'.+ 5 5 5 5 5 5 5 5 5 5 5 k 5 5 5 5 5 5 5 5 5 5 5 5 $ ",
"m.u.u.m.v.e.X.X.X.X.X.e.X.X.X.o.e.X.X.o.y.X.X.e.e.X.+.t.o.o.#.#.w.5.2.2.2.O.O.O.X.X.X.X.X.X.X.X.e.+.X.X.X.X.X.X.X.X.X.X.o.t.+.X.X.X.X.X.X.X.e.+.X.X.X.O.i.e.+.X.X.X.X.e.X.X.X.+.e.X.X.X.e.X.X.+.e.X.+.g.X.X.X.X.X.X.X.u.b.m.u.X.X.X.X.X.X.X.sX XT.Y.f p Q p ,.E m v * 5 5 5 5 5 5 * V c * w ) 5 5 5 5 5 5 5 5 5 5 6 u u u u r u u u u r 5 5 5 5 ) w 5 5 5 5 5 5 5 5 5 5 5 5 5 5 c 5 5 5 5 5 5 5 5 5 5 5 5 5 j k * 5 5 6 % s GXAX5 5 5 5 5 c 5 5 5 5 5 5 5 5 5 5 5 5 5 > `.'.+ 5 5 5 5 5 5 5 5 5 5 5 k 5 5 5 5 5 5 5 5 5 5 5 5 $ ",
"b.b.b.m.u.e.X.X.X.X.X.e.X.X.X.o.e.X.X.o.y.X.X.e.e.X.+.t.o.o.#.#.w.5.2.2.2.O.O.O.X.X.X.X.X.X.X.X.e.+.X.X.X.X.X.X.X.X.X.X.o.t.+.X.X.X.X.X.X.X.e.+.X.X.X.O.i.e.+.X.X.X.X.e.X.X.X.+.e.X.X.X.e.X.X.+.e.X.+.g.X.X.X.X.X.X.X.u.m.b.v.u.X.X.X.X.X.X.pX XP R.B p Q p ,.E m v * 5 5 5 5 5 5 * V c * w ) 5 5 5 5 5 5 5 5 5 5 6 i i i i r u i i i r 5 5 5 5 ) w 5 5 5 5 5 5 5 5 5 5 5 5 5 5 c 5 5 5 5 5 5 5 5 5 5 5 5 5 j k * 5 6 % s DXAX5 5 5 5 5 5 c 5 5 5 5 5 5 5 5 5 5 5 5 5 > `.'.+ 5 5 5 5 5 5 5 5 5 5 5 k 5 5 5 5 5 5 5 5 5 5 5 5 $ ",
"v.b.b.m.u.e.X.X.X.X.X.e.X.X.X.o.e.X.X.o.y.X.X.e.e.X.+.t.o.o.#.#.w.5.2.2.2.O.O.O.X.X.X.X.X.X.X.X.e.+.X.X.X.X.X.X.X.X.X.X.o.t.+.X.X.X.X.X.X.X.e.+.X.X.X.O.i.e.+.X.X.X.X.e.X.X.X.+.e.X.X.X.e.X.X.+.e.X.+.g.X.X.X.X.X.X.X.#.b.v.m.b.o.X.X.X.X.X.aX+X2 R.U p Q p ,.E m v * 5 5 5 5 5 5 * V c * w ) 5 5 5 5 5 5 5 5 5 5 6 u i i i r u i i i r 5 5 5 5 ) w 5 5 5 5 5 5 5 5 5 5 5 5 5 5 c 5 5 5 5 5 5 5 5 5 5 5 5 5 j k * 6 % s DXAX6 * 5 5 5 5 5 c 5 5 5 5 5 5 5 5 5 5 5 5 5 > `.'.+ 5 5 5 5 5 5 5 5 5 5 5 k 5 5 5 5 5 5 5 5 5 5 5 5 $ ",
"u.b.b.m.u.e.X.X.X.X.X.e.X.X.X.o.e.X.X.o.y.X.X.e.e.X.+.t.o.o.#.#.w.5.2.2.2.O.O.O.X.X.X.X.X.X.X.X.e.+.X.X.X.X.X.X.X.X.X.X.o.t.+.X.X.X.X.X.X.X.e.+.X.X.X.O.i.e.+.X.X.X.X.e.X.X.X.+.e.X.X.X.e.X.X.+.e.X.+.g.X.X.X.X.X.X.X.#.v.u.m.b.o.X.X.X.X.S 4X+X, R.Y f Q p ,.E m v * 5 5 5 5 5 5 * V c * w ) 5 5 5 5 5 5 5 5 5 5 6 u u u u r u u u u r 5 5 5 5 ) w 5 5 5 5 5 5 5 5 5 5 5 5 5 5 c 5 5 5 5 5 5 5 5 5 5 5 5 5 j k 5 % s DXDXt * 5 5 5 5 5 5 c 5 5 5 5 5 5 5 5 5 5 5 5 5 > `.'.+ 5 5 5 5 5 5 5 5 5 5 5 k 5 5 5 5 5 5 5 5 5 5 5 5 $ ",
"o.b.v.v.u.e.X.X.X.X.X.e.X.X.X.o.e.X.X.o.y.X.X.e.e.X.+.t.o.o.#.#.w.5.2.2.2.O.O.O.X.X.X.X.X.X.X.X.e.+.X.X.X.X.X.X.X.X.X.X.o.t.+.X.X.X.X.X.X.X.e.+.X.X.X.O.i.e.+.X.X.X.X.e.X.X.X.+.e.X.X.X.e.X.X.+.e.X.+.g.X.X.X.X.X.X.X.o.o.u.b.v.o.X.X.X.X.S D.3X6 U.Y.p Q p ,.E m v * 5 5 5 5 5 5 * V c * w ) 5 5 5 5 5 5 5 5 5 5 5 i i i i u i i i a r 5 5 5 5 ) w 5 5 5 5 5 5 5 5 5 5 5 5 5 5 c 5 5 5 5 5 5 5 5 5 5 5 5 5 j c % s DXDXe * 5 5 5 5 5 5 5 c 5 5 5 5 5 5 5 5 5 5 5 5 5 > `.'.+ 5 5 5 5 5 5 5 5 5 5 5 k 5 5 5 5 5 5 5 5 5 5 5 5 $ ",
"o.u.X.o.o.e.X.X.X.X.X.e.X.X.X.o.e.X.X.o.y.X.X.e.e.X.+.t.o.o.#.#.w.5.2.2.2.O.O.O.X.X.X.X.X.X.X.X.e.+.X.X.X.X.X.X.X.X.X.X.o.t.+.X.X.X.X.X.X.X.e.+.X.X.X.O.i.e.+.X.X.X.X.e.X.X.X.+.e.X.X.X.e.X.X.+.e.X.+.g.X.X.X.X.X.X.X.X.X.u.b.v.v.#.X.X.X.S S.3Xr Y R.B R p ,.E m v * 5 5 5 5 5 5 * V c * w ) 5 5 5 5 5 5 5 5 5 5 6 u u u u r u u u u r 5 5 5 5 ) w 5 5 5 5 5 5 5 5 5 5 5 5 5 5 c 5 5 5 5 5 5 5 5 5 5 5 5 5 j j e DXDXs % 5 5 5 5 5 5 5 5 c 5 5 5 5 5 5 5 5 5 5 5 5 5 > `.'.+ 5 5 5 5 5 5 5 5 5 5 5 k 5 5 5 5 5 5 5 5 5 5 5 5 $ ",
"X.X.X.X.X.e.X.X.X.X.X.e.X.X.X.o.e.X.X.o.y.X.X.e.e.X.+.t.o.o.#.#.w.5.2.2.2.O.O.O.X.X.X.X.X.X.X.X.e.+.X.X.X.X.X.X.X.X.X.X.o.t.+.X.X.X.X.X.X.X.e.+.X.X.X.O.i.e.+.X.X.X.X.e.X.X.X.+.e.X.X.X.e.X.X.+.e.X.+.g.X.X.X.X.X.X.X.X.X.u.v.u.m.u.X.X.X.A B.rXn F R.A R p ,.E m v * 5 5 5 5 5 5 * V c * w ) 5 5 5 5 5 5 5 5 5 5 5 i a a a u i a a a r 5 5 5 5 ) w 5 5 5 5 5 5 5 5 5 5 5 5 5 5 c 5 5 5 5 5 5 5 5 5 5 5 5 5 j v AXDXs % 6 5 5 5 5 5 5 5 5 c 5 5 5 5 5 5 5 5 5 5 5 5 5 > `.'.+ 6 5 5 5 5 5 5 5 5 5 5 c 5 5 5 5 5 5 5 5 5 5 5 5 $ ",
"X.X.X.X.X.e.X.X.X.X.X.e.X.X.X.X.e.X.X.o.y.X.X.+.e.@.+.t.o.o.o.#.w.5.2.2.2.O.O.O.X.X.X.X.X.X.X.X.e.+.X.X.X.X.X.X.X.X.X.X.o.t.+.X.X.X.X.X.X.X.e.+.X.X.X.O.i.e.+.X.X.X.X.e.X.X.X.+.e.X.X.X.e.X.X.+.e.X.o.g.X.X.X.X.X.X.X.X.X.o.u.#.m.u.X.X.X.@.f.fX Xg Y.Y ~ p ,.E m v * 5 5 5 5 5 5 * V c * w ) 5 5 5 5 5 5 5 5 5 5 6 u u u u r u u u u r 5 5 5 5 ) w 5 5 5 5 5 5 5 5 5 5 5 5 5 5 k 5 5 5 5 5 5 5 5 5 5 5 5 % r AXDXs % 5 5 5 5 5 5 5 5 5 5 c 5 5 5 5 5 5 5 5 5 5 5 5 5 > `.'.+ 5 5 5 5 5 5 5 5 5 5 5 k 5 5 5 5 5 5 5 5 5 5 5 5 $ ",
"p.g.g.g.g.h.g.g.g.g.g.h.g.g.g.g.h.g.g.g.M.g.g.h.h.g.h.l.t.g.y.y.p.6.s.s.a.a.p.p.g.g.g.g.g.g.g.g.h.g.g.g.g.g.g.g.g.g.g.g.t.l.h.g.g.g.g.g.g.g.h.h.g.g.g.g.d.h.g.g.g.g.g.h.g.g.g.h.h.g.g.g.h.g.g.g.h.g.g.j.g.g.g.g.g.g.g.g.g.g.y.l.m.n.p.g.g.t.j.aX<Xc Y.U.! ( 5.E m v * 5 5 5 5 5 5 * V c * w ) 5 5 5 5 5 5 5 5 5 5 5 i a i a u i a i a r 5 5 5 5 ) 6 j b v v v v v v v v v v v v V v v v v v v v v v v v v v AXDX( c b v v v v v v v v v v V v v v v v v v v v v v v v Z ].lXt b v v v v v v v v v v V v v v v v v v v v v v v j ",
"X.X.X.X.X.e.X.X.X.X.o.e.X.X.X.+.e.X.X.o.y.X.X.e.e.X.+.t.o.o.#.#.w.5.2.2.2.O.O.O.X.X.X.X.X.X.X.X.e.+.X.X.X.X.X.X.X.X.X.X.o.t.+.X.X.X.X.X.X.X.e.e.X.X.X.+.i.e.+.X.X.X.X.e.X.X.X.+.e.X.X.X.e.o.X.+.e.X.+.g.X.X.X.X.X.X.X.X.X.X.X.o.m.v.X.X.X.X.A &X3X4 U.Y.R p ,.E m v * 5 5 5 5 5 5 * V c * w ) 5 5 5 5 5 5 5 5 5 5 6 u u u u r u u u u r 5 5 5 5 ) w 5 5 5 5 5 5 5 5 5 5 5 5 5 5 c 5 5 5 5 5 5 5 5 5 5 5 5 AXGXd % 6 5 5 5 5 5 5 5 5 5 5 5 c 5 5 5 5 5 5 5 5 5 5 5 5 5 > `.'.+ 6 5 5 5 5 5 5 5 5 5 5 c 5 5 5 5 5 5 5 5 5 5 5 5 $ ",
"X.X.X.X.X.e.X.X.X.X.X.e.X.X.X.o.e.X.X.o.y.X.X.e.e.X.+.t.o.o.#.#.w.5.2.2.2.O.O.O.X.X.X.X.X.X.X.X.e.+.X.X.X.X.X.X.X.X.X.X.o.t.+.X.X.X.X.X.X.X.e.+.X.X.X.O.i.e.+.X.X.X.X.e.X.X.X.+.e.X.X.X.e.X.X.+.e.X.+.g.X.X.X.X.X.X.X.X.X.X.X.o.b.v.X.X.X.X.A B.eX4 U R.d p ,.E m v * 5 5 5 5 5 5 * V c * w ) 5 5 5 5 5 5 5 5 5 5 6 i i i i u u i i i r 5 5 5 5 ) w 5 5 5 5 5 5 5 5 5 5 5 5 5 5 c 5 5 5 5 5 5 5 5 5 * 5 AXGX( l 5 5 5 5 5 5 5 5 5 5 5 5 5 c 5 5 5 5 5 5 5 5 5 5 5 5 5 > `.'.+ 5 5 5 5 5 5 5 5 5 5 5 k 5 5 5 5 5 5 5 5 5 5 5 5 $ ",
"X.X.X.X.X.e.X.X.X.X.X.e.X.X.X.o.e.X.X.o.y.X.X.e.e.X.+.t.o.o.o.#.w.5.2.2.2.O.O.O.X.X.X.X.X.X.X.X.e.+.X.X.X.X.X.X.X.X.X.X.o.t.+.X.X.X.X.X.X.X.+.+.@.X.X.O.i.e.+.X.X.X.X.e.X.X.X.+.e.X.X.X.e.X.@.o.e.X.+.g.X.X.X.X.X.X.X.X.X.X.X.o.b.b.o.X.X.X.A B.eXt F R.C p ,.E m v * 5 5 5 5 5 5 * V c * w ) 5 5 5 5 5 5 5 5 5 5 6 u i i i r u i i i r 5 5 5 5 ) w 5 5 5 5 5 5 5 5 5 5 5 5 5 5 c 5 5 5 5 5 5 5 5 5 5 AXGXd 8 c * 5 5 5 5 5 5 5 5 5 5 5 5 c 5 5 5 5 5 5 5 5 5 5 5 5 5 > `.'.+ 5 5 5 5 5 5 5 5 5 5 5 k 5 5 5 5 5 5 5 5 5 5 5 5 $ ",
"X.X.X.X.X.Z.h.g.j.+.X.e.X.X.X.o.e.X.X.o.y.X.X.e.e.@.e.Z.t.t.l.#.w.5.2.2.2.O.O.O.X.X.X.X.X.X.X.X.j.k.g.k.j.X.X.X.X.X.X.X.o.t.+.X.X.X.X.X.X.X.z.j.g.k.+.O.i.e.+.X.X.X.X.e.X.X.X.+.e.X.X.e.Z.g.h.j.e.X.+.g.X.X.X.X.X.X.X.X.X.X.X.o.b.b.o.X.X.X.@.f.eXu g R.U f ,.E m v * 5 5 5 5 5 5 * V c * w ) 5 5 5 5 5 5 5 5 5 5 6 u u u u r u u u u r 5 5 5 5 ) w 5 5 5 5 5 5 5 5 5 5 5 5 5 5 c 5 5 5 5 5 5 5 5 5 .XHXQ = k k * 5 5 5 5 5 5 5 5 5 5 5 5 c 5 5 5 5 5 5 5 5 5 5 5 5 5 > `.'.+ 5 5 5 5 5 5 5 5 5 5 5 k 5 5 5 5 5 5 5 5 5 5 5 5 $ ",
"X.X.X.X.h.Z.X.z.j.X.X.e.X.X.X.o.e.X.X.o.y.X.X.e.e.@.Z.h.o.Z.y.#.w.5.2.2.2.O.O.O.X.X.X.X.X.X.X.+.Z.e.X.g.j.@.X.X.X.X.X.X.o.t.+.X.X.X.X.X.X.h.k.+.j.Z.e.X.i.e.+.X.X.X.X.e.X.X.X.+.e.X.X.k.h.g.j.Z.g.@.+.g.X.X.X.X.X.X.X.X.X.X.X.o.b.b.o.X.X.X.X.f.eXn 4 Y.Y f ,.E m v * 5 5 5 5 5 5 * V c * w ) 5 5 5 5 5 5 5 5 5 5 5 i i i i u i i i a r 5 5 5 5 ) w 5 5 5 5 5 5 5 5 5 5 5 5 5 5 c 5 5 5 5 5 5 5 % .XHXE % 5 j k * 5 5 5 5 5 5 5 5 5 5 5 5 c 5 5 5 5 5 5 5 5 5 5 5 5 5 > `.'.+ 5 5 5 5 5 5 5 5 5 5 5 k 5 5 5 5 5 5 5 5 5 5 5 5 $ ",
"X.X.X.@.j.k.@.+.j.g.X.e.X.X.X.o.e.X.X.o.y.X.X.e.e.X.Z.t.+.M.l.$.w.5.2.2.2.O.O.O.X.X.X.X.X.X.X.e.Z.X.@.j.e.X.X.X.X.X.X.X.o.t.+.X.X.X.X.X.X.j.h.X.j.Z.e.X.i.e.+.X.X.X.X.e.X.X.X.+.e.X.o.k.e.X.g.Z.g.@.+.g.X.X.X.X.X.X.X.X.X.X.X.o.v.v.u.X.X.X.X.&.eX^ 4 T.U.p ,.E m v * 5 5 5 5 5 5 * V c * w ) 5 5 5 5 5 5 5 5 5 5 6 u u u u r u u u u r 5 5 5 5 ) w 5 5 5 5 5 5 5 5 5 5 5 5 5 5 c 5 5 5 5 5 5 % 0.HXE % 6 5 j k * 5 5 5 5 5 5 5 5 5 5 5 5 c 5 5 5 5 5 5 5 5 5 5 5 5 5 > `.'.+ 5 5 5 5 5 5 5 5 5 5 5 k 5 5 5 5 5 5 5 5 5 5 5 5 $ ",
"X.X.X.X.e.Z.g.p.k.e.X.e.X.X.X.o.e.X.X.o.y.X.X.e.e.@.j.Z.t.l.l.$.w.5.2.2.2.O.O.O.X.X.X.X.X.X.X.X.Z.k.e.j.X.X.X.X.X.X.X.X.o.t.+.X.X.X.X.X.X.e.Z.h.j.k.g.X.i.e.+.X.X.X.X.e.X.X.X.+.e.X.X.h.Z.e.g.k.e.X.+.g.X.X.X.X.X.X.X.X.X.X.X.o.u.u.u.X.X.X.X.+.eX( 7 U.Y.p ,.E m v * 5 5 5 5 5 5 * V c * w ) 5 5 5 5 5 5 5 5 5 5 5 i a a a u i a i a r 5 5 5 5 ) w 5 5 5 5 5 5 5 5 5 5 5 5 5 5 c 5 5 5 5 5 % 0.HXE % 6 5 5 j k * 5 5 5 5 5 5 5 5 5 5 5 5 c 5 5 5 5 5 5 5 5 5 5 5 5 5 > `.'.+ 5 5 5 5 5 5 5 5 5 5 5 k 5 5 5 5 5 5 5 5 5 5 5 5 $ ",
"X.X.X.X.X.g.e.+.+.X.o.e.X.X.X.o.e.X.X.o.y.X.X.e.e.X.+.h.o.#.#.#.w.5.2.2.2.O.O.O.X.X.X.X.X.X.X.X.e.p.o.X.X.X.X.X.X.X.X.X.o.t.+.X.X.X.X.X.X.X.e.e.X.e.X.+.i.e.+.X.X.X.X.e.X.X.X.+.e.X.X.X.g.+.+.+.e.X.+.g.X.X.X.X.X.X.X.X.X.X.X.X.X.u.v.X.X.X.X.X.eX{ @ Y Y.p ,.E m v * 5 5 5 5 5 5 * V c * w ) 5 5 5 5 5 5 5 5 5 5 6 u u u u r u u u u r 5 5 5 5 ) w 5 5 5 5 5 5 5 5 5 5 5 5 5 5 c 5 5 5 5 % 0.HX>.% 6 5 5 5 j k * 5 5 5 5 5 5 5 5 5 5 5 5 c 5 5 5 5 5 5 5 5 5 5 5 5 5 > `.'.+ 5 5 5 5 5 5 5 5 5 5 5 k 5 5 5 5 5 5 5 5 5 5 5 5 $ ",
"X.X.X.X.X.e.X.X.X.X.X.e.X.X.X.X.e.X.X.X.y.X.X.+.e.X.+.t.@.o.o.#.w.5.2.2.] O.O.O.X.X.X.X.X.X.X.X.e.+.@.X.X.X.X.X.X.X.X.X.o.t.+.X.X.X.X.X.X.X.e.+.@.X.X.X.i.e.X.X.X.X.X.e.X.X.X.+.e.X.X.X.e.X.@.+.e.@.+.g.X.X.X.X.X.X.X.X.X.X.X.X.X.#.v.X.X.X.X.S eX{ @ D Y.B ,.E m v * 5 5 5 5 5 5 * V c * w ) 5 5 5 5 5 5 5 5 5 5 5 i a i a u i a i a r 5 5 5 5 ) w 5 5 5 5 5 5 5 5 5 5 5 5 5 5 c 5 5 5 % 0.HX1.% 5 5 5 5 5 j k * 5 5 5 5 5 5 5 5 5 5 5 5 c 5 5 5 5 5 5 5 5 5 5 5 5 5 > `.'.+ 5 5 5 5 5 5 5 5 5 5 5 k 5 5 5 5 5 5 5 5 5 5 5 5 $ ",
"+.k.g.@.g.e.g.j.X.+.k.g.@.g.g.h.k.X.+.k.M.@.p.k.e.X.h.e.l.y.o.y.j.5.2.d.a.j.p.X.p.k.+.X.h.h.X.e.g.e.k.e.X.h.h.X.e.h.g.j.t.r.h.j.X.+.k.p.@.g.e.h.j.X.+.k.d.X.g.g.h.j.X.e.k.g.@.g.k.+.X.h.e.k.g.X.g.j.+.+.h.g.j.g.@.p.j.g.X.X.X.X.g.k.N.j.j.j.j.t.yX8.B C Y.C ,.E m v * 5 5 5 5 5 5 * V c * w ) 5 5 5 5 5 5 5 5 5 5 6 u u u u r u u u u r 5 5 5 5 ) w 5 5 5 5 5 5 5 5 5 5 5 5 5 5 c 5 5 % 0.HX,.% 5 5 5 5 5 5 j k * 5 5 5 5 5 5 5 5 5 5 5 5 c 5 5 5 5 5 5 5 5 5 5 5 5 5 > `.'.+ 5 5 5 5 5 5 5 5 5 5 5 k 5 5 5 5 5 5 5 5 5 5 5 5 $ ",
"+.Z.h.@.j.e.j.Z.X.+.Z.h.@.h.j.k.Z.X.+.Z.M.@.h.Z.e.X.k.+.Z.l.o.n.C.5.2.V.d.C.j.X.g.Z.e.X.k.k.X.p.h.p.Z.e.X.k.z.X.e.k.j.Z.t.o.k.z.X.e.Z.h.@.j.e.j.Z.X.+.Z.V.@.j.j.k.Z.X.+.Z.h.@.h.Z.+.X.k.+.Z.h.@.h.Z.+.X.k.h.Z.h.@.h.Z.h.+.X.X.X.k.h.n.l.p.p.g.t.3X8.V v R.U ,.E m v * 5 5 5 5 5 5 * V c * w ) 5 5 5 5 5 5 5 5 5 5 6 i i i i u u i i i r 5 5 5 5 ) w 5 5 5 5 5 5 5 5 5 5 5 5 5 5 c 5 % 0.HX5.% 5 5 5 5 5 5 5 j k * 5 5 5 5 5 5 5 5 5 5 5 5 c 5 5 5 5 5 5 5 5 5 5 5 5 5 > `.'.+ 5 5 5 5 5 5 5 5 5 5 5 k 5 5 5 5 5 5 5 5 5 5 5 5 $ ",
"+.Z.h.@.h.e.j.z.X.+.Z.h.@.h.j.k.z.X.+.Z.M.@.g.Z.e.X.j.+.z.l.o.v.x.5.2.V.d.C.j.X.g.Z.e.X.k.k.X.e.h.e.Z.e.X.k.k.X.e.k.h.Z.t.o.k.k.X.e.Z.g.@.j.e.j.k.X.+.Z.V.@.h.j.k.k.X.+.Z.h.@.h.Z.+.X.j.+.Z.h.@.h.Z.+.X.k.h.Z.h.@.g.Z.h.o.X.X.X.j.p.n.y.e.h.p.A <X8.N c Y.U ,.E m v * 5 5 5 5 5 5 * V c * w ) 5 5 5 5 5 5 5 5 5 5 6 u i i i r u i u i r 5 5 5 5 ) w 5 5 5 5 5 5 5 5 5 5 5 5 5 5 c % 6.HX5.% 5 5 5 5 5 5 5 5 j k * 5 5 5 5 5 5 5 5 5 5 5 5 c 5 5 5 5 5 5 5 5 5 5 5 5 5 > `.'.+ 5 5 5 5 5 5 5 5 5 5 5 k 5 5 5 5 5 5 5 5 5 5 5 5 $ ",
"+.Z.h.@.h.e.j.Z.X.+.Z.h.@.h.j.k.z.X.+.Z.M.@.g.Z.e.X.j.+.z.l.o.v.C.5.2.V.d.C.j.X.g.Z.e.X.k.k.X.p.h.p.Z.e.X.k.k.X.e.k.h.Z.t.o.k.k.X.e.Z.g.@.j.e.j.z.X.+.Z.V.@.h.j.k.z.X.+.Z.h.@.h.Z.+.X.j.+.Z.h.@.h.Z.+.X.k.h.Z.h.@.g.Z.h.o.X.X.X.j.p.y.N.H.F.H.l.,X XN u Y.Y ,.E m v * 5 5 5 5 5 5 * V c * w ) 5 5 5 5 5 5 5 5 5 5 6 u u u u r u u u i r 5 5 5 5 ) w 5 5 5 5 5 5 5 5 5 5 5 5 5 5 l 5.HX5.% 5 5 5 5 5 5 5 5 * j k * 5 5 5 5 5 5 5 5 5 5 5 5 c 5 5 5 5 5 5 5 5 5 5 5 5 5 > `.'.+ 5 5 5 5 5 5 5 5 5 5 5 k 5 5 5 5 5 5 5 5 5 5 5 5 $ ",
"+.Z.h.@.h.e.j.Z.X.+.Z.h.@.h.j.k.z.X.+.Z.M.@.g.Z.e.X.j.+.z.l.o.v.C.5.2.V.d.C.j.X.g.Z.e.X.k.k.X.p.h.p.Z.e.X.k.k.X.e.k.h.Z.t.o.k.k.X.e.Z.g.@.j.e.j.z.X.+.Z.V.@.h.j.k.z.X.+.Z.h.@.h.Z.+.X.j.+.Z.h.@.h.Z.+.X.k.h.Z.h.@.g.Z.h.+.X.X.X.j.p.e.N.l.+.g.z.<X XV y T.Y ,.E m v * 5 5 5 5 5 5 * V c * w ) 5 5 5 5 5 5 5 5 5 5 5 i i i i u i i i i r 5 5 5 5 ) w 5 5 5 5 5 5 5 5 5 5 5 5 6 % 5.HX6.% 5 5 5 5 5 5 5 5 5 5 j k 5 5 5 5 5 5 5 5 5 5 5 5 5 c 5 5 5 5 5 5 5 5 5 5 5 5 5 > `.'.+ 6 5 5 5 5 5 5 5 5 5 5 c 5 5 5 5 5 5 5 5 5 5 5 5 $ ",
"+.Z.h.@.h.e.j.Z.X.+.Z.h.@.h.j.k.z.X.+.Z.M.@.g.Z.e.X.j.+.z.l.o.n.C.5.2.V.d.C.j.X.g.Z.e.X.k.k.X.p.h.p.Z.e.X.k.k.X.e.k.h.Z.t.o.k.k.X.e.Z.g.@.j.e.j.z.X.+.Z.V.@.h.j.k.z.X.+.Z.h.@.h.Z.+.o.j.+.Z.h.@.h.Z.+.X.k.h.Z.h.@.g.Z.h.e.e.e.e.k.g.e.N.N.e.j.Z.<X XV a U.U.,.E m v * 5 5 5 5 5 5 * V c * w ) 5 5 5 5 5 5 5 5 5 5 6 u u u u r u u u u r 5 5 5 5 ) 6 g c c c c c c c c c c c l 5.HX0.l c c c c c c c c c c k b b k c c c c c c c c c c c c N c c c c c c c c c c c c c t ].].t v c c c c c c c c c c b k c c c c c c c c c c c g ",
"+.Z.h.@.h.e.j.Z.X.+.Z.h.@.h.j.k.z.X.+.Z.M.@.g.Z.+.X.j.+.z.l.@.y.C.5.2.V.d.C.j.@.g.Z.e.@.k.k.@.e.h.p.Z.e.@.k.k.X.e.k.h.Z.t.o.k.k.X.+.Z.g.@.h.e.j.z.X.+.Z.B.A h.j.k.z.X.+.Z.h.@.h.Z.+.X.j.+.Z.h.@.g.Z.+.X.k.h.Z.h.@.g.Z.h.X.X.X.X.j.g.+.N./.v.H.J.,X XV f Y Y.,.E m v * 5 5 5 5 5 5 * V c * w ) 5 5 5 5 5 5 5 5 5 5 5 i a a a u i a i a r 5 5 5 5 ) w 5 5 5 5 5 5 5 5 5 5 5 % 1.HX0.% 5 5 5 5 5 5 5 5 5 5 5 * j k * 5 5 5 5 5 5 5 5 5 5 5 5 c 5 5 5 5 5 5 5 5 5 5 5 5 5 > `.'.+ 5 5 5 5 5 5 5 5 5 5 5 k 5 5 5 5 5 5 5 5 5 5 5 5 $ ",
"h.Z.j.e.k.e.j.Z.e.h.Z.j.e.k.h.k.z.p.h.Z.M.e.k.Z.g.g.k.+.z.l.t.M.x.6.s.V.d.C.j.p.j.Z.g.g.z.k.e.j.g.p.Z.g.g.z.k.e.j.j.h.Z.g.t.k.k.e.h.Z.h.e.k.e.j.z.e.h.Z.V.e.k.h.k.z.e.h.Z.j.e.k.Z.p.g.k.+.Z.j.e.k.Z.g.g.k.h.Z.j.e.k.Z.h.+.X.X.X.j.g.e.n./.n.F.t.-X XV y Y Y.,.E m v * 5 5 5 5 5 5 * V c * w ) 5 5 5 5 5 5 5 5 5 5 6 u u u u r u u u u r 5 5 5 5 ) w 5 5 5 5 5 5 5 5 5 5 % 1.HX0.0 6 5 5 5 5 5 5 5 5 5 5 5 5 j k 5 5 5 5 5 5 5 5 5 5 5 5 5 c 5 5 5 5 5 5 5 5 5 5 5 5 5 > `.'.+ 5 5 5 5 5 5 5 5 5 5 5 c 5 5 5 5 5 5 5 5 5 5 5 5 $ ",
"Z.Z.j.j.Z.e.j.Z.h.Z.Z.j.j.Z.h.k.z.h.Z.Z.M.j.Z.z.h.z.k.+.z.l.l.M.x.6.V.V.d.C.j.j.Z.z.h.k.Z.k.h.Z.g.p.Z.h.k.Z.k.h.Z.j.j.Z.l.z.Z.k.h.Z.Z.j.j.Z.e.j.z.h.Z.Z.V.j.Z.h.k.z.h.Z.Z.j.j.Z.z.h.Z.k.+.Z.j.j.Z.z.h.z.k.h.Z.j.j.Z.z.h.o.X.X.X.j.g.e.y.m.n.e.o.,X,XC y U Y.<.E m v * 5 5 5 5 5 5 * V c * w ) 5 5 5 5 5 5 5 5 5 5 5 i a i a u i a i a r 5 5 5 5 ) w 5 5 5 5 5 5 5 5 5 % 1.HX0.% c 5 5 5 5 5 5 5 5 5 5 5 5 5 j k * 5 5 5 5 5 5 5 5 5 5 5 5 c 5 5 5 5 5 5 5 5 5 5 5 5 5 > `.'.+ 5 5 5 5 5 5 5 5 5 5 5 k 5 5 5 5 5 5 5 5 5 5 5 5 $ ",
"k.Z.j.h.Z.e.j.Z.h.k.Z.j.h.Z.h.k.z.h.k.Z.M.h.Z.Z.h.k.k.+.z.l.l.M.x.6.V.V.d.C.j.h.Z.Z.h.k.Z.k.h.Z.g.p.Z.h.k.Z.k.h.Z.j.j.Z.h.k.Z.k.h.z.Z.j.j.Z.e.j.z.h.k.Z.V.h.Z.h.k.z.h.k.Z.j.j.Z.z.h.k.k.+.Z.j.j.Z.z.h.k.k.h.Z.j.h.Z.z.h.o.X.X.X.j.g.e.y.m.n.p.o.*XfX4.e U Y.<.W m v * 5 5 5 5 5 5 * V c * w ) 5 5 5 5 5 5 5 5 5 5 6 u u u u r u u u u r 5 5 5 5 ) w 5 5 5 5 5 5 5 6 % >.HX0.% 5 c 5 5 5 5 5 5 5 5 5 5 5 5 5 j k * 5 5 5 5 5 5 5 5 5 5 5 5 c 5 5 5 5 5 5 5 5 5 5 5 5 5 > `.'.+ 5 5 5 5 5 5 5 5 5 5 5 k 5 5 5 5 5 5 5 5 5 5 5 5 $ ",
"z.Z.j.j.Z.e.j.Z.h.k.Z.j.j.Z.h.k.z.h.k.Z.M.h.Z.z.h.k.k.+.z.l.l.M.x.6.V.V.d.C.j.h.Z.z.h.k.Z.k.h.Z.g.p.Z.h.k.Z.k.h.Z.j.h.Z.h.k.Z.k.h.z.Z.j.j.Z.e.j.z.h.z.Z.V.h.Z.h.k.k.h.z.Z.j.j.Z.z.h.k.k.+.Z.j.j.Z.z.h.k.k.h.Z.j.h.Z.z.h.o.X.X.X.j.k.j.k.N.N.k.l.;XdX4.t x Y.4.W m v * 5 5 5 5 5 5 * V c * w ) 5 5 5 5 5 5 5 5 5 5 6 i i i i u i i i i r 5 5 5 5 ) w 5 5 5 5 5 5 6 % Q HX.X* 5 5 c 5 5 5 5 5 5 5 5 5 5 5 5 5 j k * 5 5 5 5 5 5 5 5 5 5 5 5 c 5 5 5 5 5 5 5 5 5 5 5 5 5 > `.'.+ 5 5 5 5 5 5 5 5 5 5 5 k 5 5 5 5 5 5 5 5 5 5 5 5 $ ",
"+.+.+.+.+.e.+.+.+.+.+.p.o.+.+.+.g.X.+.+.y.+.+.e.e.X.e.t.o.#.#.$.w.6.w.2.w.w.O.O.+.+.+.+.+.+.+.+.e.+.+.+.+.+.+.+.+.+.+.+.r.t.e.+.+.+.+.+.+.+.e.e.+.+.+.+.a.e.+.o.+.+.o.g.+.+.o.e.e.X.+.+.e.+.o.+.p.o.+.g.+.+.+.+.+.+.+.+.X.X.X.X.+.+.+.+.b.n.+.o.*XdX( 4 x R.4.W m v * 5 5 5 5 5 5 * V c * w ) 5 5 5 5 5 5 5 5 5 5 6 u i u i r u i u i r 5 5 5 5 ) w 5 5 5 5 5 6 % d GX.X* 5 5 5 c 5 5 5 5 5 5 5 5 5 5 5 5 5 j k * 5 5 5 5 5 5 5 5 5 5 5 5 c 5 5 5 5 5 5 5 5 5 5 5 5 5 > `.'.+ 5 5 5 5 5 5 5 5 5 5 5 k 5 5 5 5 5 5 5 5 5 5 5 5 $ ",
"X.X.X.X.X.e.X.X.X.X.X.e.X.X.X.X.e.X.X.X.y.X.X.+.e.@.+.t.o.o.o.#.w.5.2.2.2.O.O.O.X.X.X.X.X.X.X.X.e.+.X.X.X.X.X.X.X.X.X.X.o.t.+.X.X.X.X.X.X.X.e.+.X.X.X.O.i.e.o.X.X.X.X.e.X.X.X.+.e.X.X.X.e.X.X.+.e.X.o.g.X.X.X.X.X.X.X.X.X.X.X.X.X.X.X.X.o.v.X.S &XdX( 4 Z Y.4.W m v * 5 5 5 5 5 5 * V c * w ) 5 5 5 5 5 5 5 5 5 5 6 u u u i r u i u i r 5 5 5 5 ) w 5 5 5 5 6 % d GX.X* 5 5 5 5 c 5 5 5 5 5 5 5 5 5 5 5 5 5 j k * 5 5 5 5 5 5 5 5 5 5 5 5 c 5 5 5 5 5 5 5 5 5 5 5 5 5 > `.'.+ 5 5 5 5 5 5 5 5 5 5 5 k 5 5 5 5 5 5 5 5 5 5 5 5 $ ",
"X.X.X.X.X.e.X.X.X.X.X.e.X.X.X.o.e.X.X.o.y.X.X.e.e.X.+.t.o.o.#.#.w.5.2.2.2.O.O.O.X.X.X.X.X.X.X.X.e.+.X.X.X.X.X.X.X.X.X.X.o.t.+.X.X.X.X.X.X.X.e.+.X.X.X.O.i.e.+.X.X.X.X.e.X.X.X.+.e.X.X.X.e.X.X.+.e.X.+.g.X.X.X.X.X.X.X.X.X.X.X.X.X.X.X.X.o.b.u.A S.dX( 4 k Y.c.W m v * 5 5 5 5 5 5 * V c * w ) 5 5 5 5 5 5 5 5 5 5 6 i i i i u i i i i r 5 5 5 5 ) w 5 5 5 6 % d GX.X* 5 5 5 5 5 c 5 5 5 5 5 5 5 5 5 5 5 5 5 j k * 5 5 5 5 5 5 5 5 5 5 5 5 k 5 * 5 5 & * & 5 5 5 * 5 5 > `.'.+ 5 5 5 5 5 5 5 5 5 5 5 k 5 5 5 5 5 5 5 5 5 5 5 5 $ ",
"X.X.X.X.X.e.+.j.e.h.j.j.j.+.X.o.e.X.X.o.y.X.X.e.e.X.+.t.+.j.t.y.w.6.2.2.2.O.O.O.X.X.X.X.X.X.X.X.e.+.p.j.p.+.X.X.X.X.X.X.o.t.e.h.h.p.X.X.X.X.e.+.X.X.X.O.i.e.+.j.p.p.+.e.X.X.X.+.e.X.X.X.e.X.X.+.e.X.+.g.X.j.+.j.h.p.X.X.X.X.X.X.X.X.X.X.o.b.n.A &XdX} _ N /.C.Q m v * 5 5 5 5 5 5 * V c * w ) 5 5 5 5 5 5 5 5 5 5 6 u u u u r u u u u r 5 5 5 5 ) w 5 5 6 % d GXAX5 5 5 5 5 5 5 c 5 5 5 5 5 5 5 5 5 5 5 5 5 j k * 5 5 5 5 5 5 5 5 5 5 %.-.*.-./ & 0 -./ -.* & n *.%.;.M ;.'.+ 5 5 5 5 5 5 5 5 5 5 5 k 5 5 5 5 5 5 5 5 5 5 5 5 $ ",
"X.X.X.X.X.e.+.C.p.h.g.A.e.h.@.+.e.X.X.o.y.X.X.e.e.X.+.t.o.k.t.k.s.5.2.2.2.O.O.O.X.X.X.X.X.X.X.X.e.+.X.h.j.j.e.X.X.X.X.X.o.t.+.p.j.j.h.X.X.X.e.+.X.X.X.O.i.e.+.C.p.h.j.g.X.X.X.+.e.X.X.X.e.X.X.+.e.X.+.g.X.j.g.p.h.C.h.+.X.X.X.X.X.X.X.X.o.b.v.A S.dX( B 4.Y.J.{ v v * 5 5 5 5 5 5 * V c * w ) 5 5 5 5 5 5 5 5 5 5 5 i a i a u i a i a r 5 5 5 5 ) w 5 6 % d DXAXt * 5 5 5 5 5 5 c 5 5 5 5 5 5 5 5 5 5 5 5 5 j k * 5 5 5 5 5 5 5 5 5 * & -.*.;.:.+ %.;.M ;.& / ;.-.-.;.*.;.'.+ 5 5 5 5 5 5 5 5 5 5 5 k 5 5 5 5 5 5 5 5 5 5 5 5 $ ",
"X.X.X.X.X.e.X.+.C.h.p.A.e.h.@.+.e.X.X.o.y.X.X.e.e.X.+.t.@.h.t.Z.a.5.2.2.2.O.O.O.X.X.X.X.X.X.X.X.e.+.e.p.j.A.X.X.X.X.X.X.o.t.+.+.j.A.h.@.X.X.e.+.X.X.X.O.i.e.+.+.j.A.C.e.X.X.X.+.e.X.X.X.e.X.X.+.e.X.+.g.@.p.h.p.p.A.j.@.X.X.X.X.X.X.X.X.o.b.n.A S.dX{ N ( Y.J.{ v v * 5 5 5 5 5 5 * V c * w ) 5 5 5 5 5 5 5 5 5 5 6 u u u u r u u u u r 5 5 5 5 ) w 5 % d DXAXt * 5 5 5 5 5 5 5 c 5 5 5 5 5 5 5 5 5 5 5 5 5 j k * 5 5 5 5 5 5 5 * n :.M %.t %.%.6 ;.'.M %.* %./ -.-.%.*.;.'.+ 5 5 5 5 5 5 5 5 5 5 5 k 5 5 5 5 5 5 5 5 5 5 5 5 $ ",
"X.X.X.X.X.e.+.h.p.h.j.j.k.e.X.o.e.X.X.o.y.X.X.e.e.X.+.t.o.g.t.l.d.5.2.2.2.O.O.O.X.X.X.X.X.X.X.X.e.+.C.j.p.h.p.X.X.X.X.X.o.t.p.h.h.h.h.+.X.X.e.+.X.X.X.O.i.e.+.p.h.h.h.h.X.X.X.+.e.X.X.X.e.X.X.+.e.X.+.g.@.p.e.j.j.p.j.+.X.X.X.X.X.X.X.X.o.b.n.A S.dXS.] B /.J.Q m v * 5 5 5 5 5 5 * V c * w ) 5 5 5 5 5 5 5 5 5 5 5 i a i a u i a i a r 5 5 5 5 ) w % s DXDXe % 5 5 5 5 5 5 5 5 c 5 5 5 5 5 5 5 5 5 5 5 5 5 j k * 5 5 5 5 5 5 5 5 8 0 ;.-.%.-.%.n 0 -.q %.& / ;.%.%.;./ ;.'.+ 5 5 5 5 5 5 5 5 5 5 5 k 5 5 5 5 5 5 5 5 5 5 5 5 $ ",
"X.X.X.X.X.e.X.+.X.X.X.e.X.X.X.X.e.X.X.X.y.X.X.+.e.@.+.t.o.o.o.D w.5.2.2.] O.O.O.X.X.X.X.X.X.X.X.e.+.X.+.X.X.X.X.X.X.X.X.o.t.+.X.X.X.X.X.X.X.e.+.X.X.X.O.i.e.X.X.X.X.X.e.X.X.X.+.e.X.X.X.e.X.X.+.e.X.o.g.X.X.X.X.X.X.X.X.X.X.X.X.X.X.X.X.X.v.n.A B.dX{ t f U.K.W m v * 5 5 5 5 5 5 * V c * w ) 5 5 5 5 5 5 5 5 5 5 6 u u u u r u u u u r 5 5 5 5 ) 8 e DXDXe % 5 5 5 5 5 5 5 5 5 c 5 5 5 5 5 5 5 5 5 5 5 5 5 j k * 5 5 5 5 5 5 5 5 5 * 5 0 b 8 5 5 * * 5 5 5 5 8 5 5 0 > `.'.+ 5 5 5 5 5 5 5 5 5 5 5 k 5 5 5 5 5 5 5 5 5 5 5 5 $ ",
"+.+.+.+.+.g.+.+.+.+.+.g.+.+.+.+.g.+.+.+.M.+.+.e.t.o.e.g.o.#.#.$.e.6.i.i.w.w.w.+.+.+.+.+.+.+.+.+.g.e.+.+.+.+.+.+.+.+.+.+.r.t.e.+.+.+.+.+.+.+.g.e.+.+.+.e.s.g.e.+.+.+.+.g.+.+.+.e.g.+.+.+.g.+.+.e.g.+.e.h.+.+.+.+.+.+.+.+.+.+.+.+.+.+.+.+.+.t.b.o.S.dX{ t f T./.W C j 5 5 5 5 5 5 5 * V k * w ) 5 5 5 5 5 5 5 5 5 5 6 i i i i u i i i i r 5 5 5 5 V c AXDXe % 6 5 5 5 5 5 5 5 5 5 c 5 5 5 5 5 5 5 5 5 5 5 5 5 j k 5 5 5 5 5 5 5 5 5 5 5 5 5 k 5 5 5 5 5 5 5 5 5 5 5 5 5 t `.'.+ 6 5 5 5 5 5 5 5 5 5 5 c 5 5 5 5 5 5 5 5 5 5 5 5 $ ",
"m m m m m m m m m m m m m m m m m m m m m m m m m m m m m m m m m b m m m m m m m m m m m m m m m m m m m m m m m m m m m m m m m m m m m m m m m m m m m m m m m m m m m m m m m m m m m m m m m m m m m m m m m m m m m m m m m m m m m m S m '  Xi & 3 G Y ( V 5 5 5 5 5 5 5 5 * V c $ 6 ) 5 5 5 5 5 5 5 5 5 5 6 u u u u r u u u i r 5 5 5 5 j _ 1.e = 4 * * * * * * * * * * 5 * * * * * * * * * * * * * 5 5 * * * * * * * * * * * * * 5 * * * * * * * * * * * * * * 0 0 & * * * * * * * * * * * 5 * * * * * * * * * * * * & ",
"b b b b b v b b b b b v b b b b v b b b v b b v v b v v b b b b v v b b b b b b b b b b b b b b v b b b b b b b b b b b b v v b b b b b b b v v b b b b v v b b b b b v b b b v v b b b v b b b v b b v b b b b b b b b b b b b b b b b b b v b v l b N N n b V 5 5 5 5 5 5 5 5 5 5 c ) g V N 5 5 5 5 5 5 5 5 5 5 6 u i u i r u i u i r 5 5 5 5 5 k V N N N N N N N N N N N N N b N N N N N N N N N N N N N N b N N N N N N N N N N N N N b N N N N N N N N N N N N N N b b N N N N N N N N N N N N b N N N N N N N N N N N N N ",
"v v v v v v v v v v v v v v v v v v v v v v v v v v v v v v v v v v v v v v v v v v v v v v v v v v v v v v v v v v v v v v v v v v v v v v v v v v v v v v v v v v v v v v v v v v v v v v v v v v v v v v v v v v v v v v v v v v v v v v v v v b v v v v j 5 5 5 5 5 5 5 5 5 5 5 5 c ) N 5 5 5 5 5 5 5 5 5 5 5 6 i i i i u u i i i r 5 5 5 5 5 5 6 c v v v v v v v v v v v v v v v v v v v v v v v v v v v v v v v v v v v v v v v v v v v v v v v v v v v v v v v v v v v v v v v v v v v v v v v v v v v v v v v v v v v v ",
"* * * * * * * * * * * * * * * * * * * * * * * * * * * * * * * * * * * * * * * * * * * * * * * * * * * * & * * * * * * * * * * * * * * * * * * * * * * * * * * * * * * * * * * * * * * * * * * * * * * * * * * * * * * * * * * * * * * * * * * * * * * * * * 5 5 5 5 5 5 5 5 5 5 5 5 5 5 5 * 5 5 5 5 5 5 5 5 5 5 5 6 u u u u r u u u u r 5 5 5 5 5 5 5 * * * * * * * * * * * * * * * * * * * * * * * * * * * * * * * * * * * * * * * * * * * * * * * * * * * * * * * * * * * * * * * * * * * * * * * * * * * * * * * * * * * * * ",
"5 5 5 5 5 5 5 5 5 5 5 5 5 5 5 5 5 6 6 6 6 6 6 6 6 6 6 6 6 6 6 6 6 6 6 6 6 6 6 6 6 6 6 6 6 6 6 6 6 5 5 5 g 5 5 5 5 5 5 5 5 5 5 5 5 5 5 5 5 5 5 5 5 5 5 5 5 5 5 5 5 5 5 5 5 5 5 5 5 5 5 5 5 5 5 5 5 5 5 5 5 5 5 5 5 5 5 5 5 5 5 5 5 5 5 5 5 5 5 5 5 5 5 5 5 5 5 5 5 5 5 5 5 5 5 5 5 w 5 5 5 g 5 5 w 5 5 5 5 5 5 5 5 6 i a a a u i a a a r 5 5 5 5 5 5 5 5 5 5 5 5 5 5 5 5 5 5 5 5 5 5 5 5 5 5 5 5 5 5 5 5 5 5 5 5 5 5 5 5 5 5 5 5 5 5 5 5 5 5 5 5 5 5 5 5 5 5 5 5 5 5 5 5 5 5 5 5 5 5 5 5 5 5 5 5 5 5 5 5 5 5 5 5 5 5 5 5 5 5 5 5 ",
"5 5 5 5 5 5 5 5 5 5 5 5 5 5 5 5 & X X X X X X X X X X X X X X X X X X X X X X X X X X X X X X X = 5 5 5 v 5 5 5 5 6 6 6 6 6 6 6 6 6 6 6 6 6 6 6 6 6 6 6 6 6 6 6 6 6 6 6 6 6 6 6 6 6 6 6 6 6 6 6 6 6 6 6 6 6 6 6 6 6 6 6 6 6 6 6 6 6 6 6 6 6 6 6 6 6 6 6 6 6 5 5 5 5 5 5 5 5 5 * N d.) $ b d.V _ d.v * 5 5 5 5 5 5 5 r r r r 6 r r r r 6 5 5 5 5 5 5 5 * * * * * * * * * * * * * * * * * * * * * * 5 5 * * * * * * * * * * * * * * * * * * * * * * * * * * * 5 5 5 5 5 5 5 5 5 5 5 5 5 5 5 5 5 5 5 5 5 5 5 5 5 5 5 5 5 5 5 5 5 5 ",
"5 5 5 5 5 5 5 5 5 5 5 5 5 5 5 = { 2X,X2X2X2X2X2X2X2X2X2X2X2X2X2X2X2X2X2X2X2X2X2X2X2X2X2X2X2X,X2X9.= 5 5 c 5 5 5 V ` _ _ _ _ _ _ _ _ _ _ _ _ _ _ _ _ _ _ _ _ _ _ _ _ _ _ _ _ _ _ _ _ _ _ _ _ _ _ _ _ _ _ _ _ _ _ _ _ _ _ _ _ _ _ _ _ _ _ _ _ _ _ _ _ _ _ _ _ ` w 5 5 5 5 5 5 5 5 i.j i.5 2.j a.i.k 2.& 5 5 5 5 5 5 5 5 5 = * 5 = * * = 5 5 5 5 5 5 5 k N N N N N N N N N N N N N N N N N N N N N b 5 w N N N N N N N N N N N N N N N N N N N N N N N N N N N g 5 5 5 5 5 5 5 5 5 5 5 5 5 5 5 5 5 5 5 5 5 5 5 5 5 5 5 5 5 5 5 5 5 ",
"5 5 5 5 5 5 5 5 5 5 5 5 5 5 6 #  XPX9X8X8X8X8X8X8X8X8X8X8X8X8X8X8X8X8X8X8X8X8X8X8X8X8X8X8X8X9XPX2X# 6 5 c 5 5 * V b j k k k k k k k k k k k k k k k k k k k k k k k k k k k k k k k k k k k k k k k k k k k k k k k k k k k k k k k k k k k k k k k k k k k _ g 5 5 5 5 5 5 5 5 2.w i.* 2.6 a.i.w i.& 5 5 5 5 5 5 5 5 * R u * ^ r r ^ 5 5 5 5 5 5 * V _ N V V N V V N V V N V N N V V V N V N V ` 5 j ] N N V V V V V N N V N V V N N N N V N V V V N V b ` k * 5 5 5 5 5 5 5 5 5 5 5 5 5 5 5 5 5 5 5 5 5 5 5 5 5 5 5 5 5 5 5 5 ",
"5 5 5 5 5 5 5 5 5 5 5 5 5 5 6 #  X8X{.}.{.{.{.{.{.{.{.{.{.{.{.{.{.{.}.{.{.{.{.{.{.}.{.{.{.{.{.7X2X# 6 5 c 5 5 5 V v j k k k k k k k k k k k k k k k k k k k k k k k k k j k k k k j k j j j j k k k k k k k k k k k k k k k k k k k k k k k k k k k k k k j _ g 5 5 5 5 5 5 5 & ) a.] V ) a.] ] a.V & 5 5 5 5 5 5 5 = i  X5 i  X{ 9.( * 5 5 5 5 5 * N b j g w j w w j w g j g j j g g w j g j j _ 5 j ) g j w g w g w j j w j g w g j j j g j g g g j j g ) k * 5 5 5 5 5 5 5 5 5 5 5 5 5 5 5 5 5 5 5 5 5 5 5 5 5 5 5 5 5 5 5 5 ",
"5 5 5 5 5 5 5 5 5 5 5 5 5 5 6 #  X0X{.oX$X$X7X$X$X$X$X7XoX$X$XoX7X$XoXOX$XOX7XOXOXoX$X7X7X7X}.9X2X# 6 5 c 5 5 5 V v j k k k k k k k k k k k k k k k k k k k k k k k k k i.j V d.` V.j ] ) _ ] ) j k k k k k k k k k k k k k k k k k k k k k k k k k k k k j _ g 5 5 5 5 5 5 5 5 5 b 6 j 5 v 6 6 b 5 5 5 5 5 5 5 5 5 R  . XR ( (  . X .6 5 5 5 5 5 * V N j ) 2.v ` ` v 2.V j ) b v ) V ] v V c k _ 5 j ) j c ` _ ` ) w.v N 2.v ) ] V k N c ) v _ _ V v N j ) k * 5 5 5 5 5 5 5 5 5 5 5 5 5 5 5 5 5 5 5 5 5 5 5 5 5 5 5 5 5 5 5 5 ",
"5 5 5 5 5 5 5 5 5 5 5 5 5 5 6 #  X0X{.7X7XoX8X$X8X$X7X7X7X8X$X7X$X7XoX9X$X$X7X7X7XoX$X$X7X$X{.9X2X# 6 5 c 5 5 5 V v j k k k k k k k k k k k k k k k k k k k k k k k k k d.c b i.) A._ 2._ A.2.j k k k k k k k k k k k k k k k k k k k k k k k k k k k k k j _ g 5 5 5 5 5 5 5 5 5 & 5 * 5 * 5 5 & 5 5 5 5 5 5 5 5 5 u R  X{ a  X{  .9.6 5 5 5 5 5 * V N g i.i.i.i.w.w.d.N 5 d.i._ V.] w.a.2.j c _ 5 j _ g ` a.v s.i.] w.i.i.) a.v i.` a.v C.V w.i.A._ ` g ) k * 5 5 5 5 5 5 5 5 5 5 5 5 5 5 5 5 5 5 5 5 5 5 5 5 5 5 5 5 5 5 5 5 ",
"5 5 5 5 5 5 5 5 5 5 5 5 5 5 6 #  X0X{.oX7XOX$XoX9XOX7X8XOX9X$X9X}.$X$XOX7X7X8X$X7XoX$XOX$XOX{.9X2X# 6 5 c 5 5 5 V v j k k k k k k k k k k k k k k k k k k k k k k k k k s.g v 2._ ] V.i.V G.2.g j j j j k k k k k k k k k k k k k k k k k k k k k k k k k j _ g 5 5 5 5 5 5 5 5 5 5 5 g 6 * 5 * 5 5 5 5 5 5 5 5 5 5 * * r 5 5 r 5 6 r * 5 5 5 5 5 * V N w i.d.V d.s.) s.N b 2.a.i.2.` v d.` w c _ 5 j ) j c i.` ] 2.j ] i.] ] _ & 2.a.a._ C.i._ ` a.C.) g ) k * 5 5 5 5 5 5 5 5 5 5 5 5 5 5 5 5 5 5 5 5 5 5 5 5 5 5 5 5 5 5 5 5 ",
"5 5 5 5 5 5 5 5 5 5 5 5 5 5 6 #  X0X{.oX7X$X7XOX9XOX7X7X$X9XOX7X7X7XoXOX7X9X$X}.9X$X7X$X$XOX{.9X2X# 6 5 c 5 5 5 V v j k k k k k k k k k k k k k k k k k k k k k k k k j V.] ` d.] ) ] A.) ] i.2._ ` ` V j k k k k k k k k k k k k k k k k k k k k k k k k j _ g 5 5 5 5 5 5 5 5 5 5 $ _ V 2.i.v * 5 5 5 5 5 5 5 5 5 5 5 * 5 5 = 5 * * 5 5 5 5 5 5 * V N g i.N j a.2.2.a.N ) ] d.a.] w.s.] i.c k _ 5 j ) j v ] s.a.a.i.2.2.2.V s.N i.v ` d.i.a.d.i.V C.2.w ) k * 5 5 5 5 5 5 5 5 5 5 5 5 5 5 5 5 5 5 5 5 5 5 5 5 5 5 5 5 5 5 5 5 ",
"5 5 5 5 5 5 5 5 5 5 5 5 5 5 6 #  X0X{.OX$XoXoXoX$X$XoXoXOX$X$XoX$XOXoX$X$XoXoXoXOX$X$XOXoXoX}.9X2X# 6 5 c 5 5 5 V v j k k k k k k k k k k k k k k k k k k k k k k k k j V ] V V v v k N v v c V b b N v j k k k k k k k k k k k k k k k k k k k k k k k k j _ g 5 5 5 5 5 5 5 5 5 g 2.V.) 2.V w.& 5 5 5 5 5 5 5 5 5 * 6  .u * 8.r  .{ = 5 5 5 5 5 * V N j b c k v c b _ V g v v v v N ) k b c k _ 5 j _ j b _ v V N ` c v ` v N ) b c v N g v ) N c v b j ) k * 5 5 5 5 5 5 5 5 5 5 5 5 5 5 5 5 5 5 5 5 5 5 5 5 5 5 5 5 5 5 5 5 ",
"5 5 5 5 5 5 5 5 5 5 5 5 5 5 6 #  X8X{.{.{.{.{.{.{.{.{.{.{.{.{.{.{.{.}.{.{.{.{.}.{.{.{.{.{.}.{.7X2X# 6 5 c 5 5 5 V v j j j j j j j j j j j j j j j j j j j j j j j j j j j w j g j j j j j j j j j j j j j j j j j j j j j j j j j j j j j j j j j j j j j j _ g 5 5 5 5 5 5 5 5 & ) V V ) a.i._ * 5 5 5 5 5 5 5 5 5 6 { 8.u =  .u { { = 5 5 5 5 5 * N b g j j j j j g w g j j j j j g w j j j j _ 5 j ) g j w j g g w j j w j g w j j j g j j w g j j j g ) k * 5 5 5 5 5 5 5 5 5 5 5 5 5 5 5 5 5 5 5 5 5 5 5 5 5 5 5 5 5 5 5 5 ",
"5 5 5 5 5 5 5 5 5 5 5 5 5 5 6 #  XPX8X0X0X0X0X0X0X0X0X0X0X0X0X0X0X0X0X0X0X0X0X0X0X0X0X0X0X0X8XPX2X# 6 5 c 5 5 * ) N c v v v v v v v v v v v v v v v v v v v v v v v v v v v v v v v v v v v v v v v v v v v v v v v v v v v v v v v v v v v v v v v v v v v ` g 5 5 5 5 5 5 5 5 & b ] i.` i.N a.* 5 5 5 5 5 5 5 5 5 ( {  X .=  .u R { = 5 5 5 5 5 * V ` V ) V V ) V ) ) ) V ) ) ) V ) ) V ) V ) ` 5 j ] V ) ) ) ) ) ) V ) ) V ) ) ) V ) ) V ) ) ) V ) ) V ] k * 5 5 5 5 5 5 5 5 5 5 5 5 5 5 5 5 5 5 5 5 5 5 5 5 5 5 5 5 5 5 5 5 ",
"5 5 5 5 5 5 5 5 5 5 5 5 5 5 5 * ^ 8.8.8.8.8.8.8.8.8.8.8.8.8.8.8.8.8.8.8.8.8.8.8.8.8.8.8.8.8.8.8.{ * 5 5 c 5 5 5 N _ ) ) ) ) ) ) ) ) ) ) ) ) ) ) ) ) ) ) ) ) ) ) ) ) ) ) ) ) ) ) ) ) ) ) ) ) ) ) ) ) ) ) ) ) ) ) ) ) ) ) ) ) ) ) ) ) ) ) ) ) ) ) ) ) ) ) ) ) ) 6 5 5 5 5 5 5 5 5 5 5 V ) g ) ] j 5 5 5 5 5 5 5 5 5 5 % 5 { i r i 6 r u * 5 5 5 5 5 5 j v v v v v v v v v v v v v v v v v v v v v c 5 6 c v v v v v v v v v v v v v v v v v v v v v v v v v v 6 5 5 5 5 5 5 5 5 5 5 5 5 5 5 5 5 5 5 5 5 5 5 5 5 5 5 5 5 5 5 5 5 5 ",
"5 5 5 5 5 5 5 5 5 5 5 5 5 5 5 5 * # # # # # # # # # # # # # # # # # # # # # # # # # # # # # # # = 5 5 5 c 5 5 5 5 5 5 5 5 5 5 5 5 5 5 5 5 5 5 5 5 5 5 5 5 5 5 5 5 5 5 5 5 5 5 5 5 5 5 5 5 5 5 5 5 5 5 5 5 5 5 5 5 5 5 5 5 5 5 5 5 5 5 5 5 5 5 5 5 5 5 5 5 5 5 5 5 5 5 5 5 5 5 5 5 5 & & 5 & $ 5 5 5 5 5 5 5 5 5 5 5 5 5 = * 5 * 5 5 * 5 5 5 5 5 5 5 5 * * * * * * * * * * * * * * * * * * * * * 5 5 5 * * * * * * * * * * * * * * * * * * * * * * * * * * * 5 5 5 5 5 5 5 5 5 5 5 5 5 5 5 5 5 5 5 5 5 5 5 5 5 5 5 5 5 5 5 5 5 5 ",
"5 5 5 5 5 5 5 5 5 5 5 5 5 5 5 5 5 6 5 5 5 5 5 5 5 5 5 5 5 5 5 5 5 5 5 5 5 5 5 5 5 5 5 5 5 5 5 6 5 5 5 5 5 5 5 5 5 5 5 5 5 5 5 5 5 5 5 5 5 5 5 5 5 5 5 5 5 5 5 5 5 5 5 5 5 5 5 5 5 5 5 5 5 5 5 5 5 5 5 5 5 5 5 5 5 5 5 5 5 5 5 5 5 5 5 5 5 5 5 5 5 5 5 5 5 5 5 5 5 5 5 5 5 5 5 5 5 5 5 5 5 5 5 5 5 5 5 5 5 5 5 5 5 5 5 5 5 5 5 5 5 5 5 5 5 5 5 5 5 5 5 5 5 5 5 5 5 5 5 5 5 5 5 5 5 5 5 5 5 5 5 5 5 5 5 5 5 5 5 5 5 5 5 5 5 5 5 5 5 5 5 5 5 5 5 5 5 5 5 5 5 5 5 5 5 5 5 5 5 5 5 5 5 5 5 5 5 5 5 5 5 5 5 5 5 5 5 5 5 5 5 5 5 5 5 5 ",
"6 6 6 6 6 6 6 6 6 6 6 6 6 6 6 6 6 6 6 6 6 6 6 6 6 6 6 6 6 6 6 6 6 6 6 6 6 6 6 6 6 6 6 6 6 6 6 6 6 6 6 6 6 6 6 6 6 6 6 6 6 6 6 6 6 6 6 6 6 6 6 6 6 6 6 6 6 6 6 6 6 6 6 6 6 6 6 6 6 6 6 6 6 6 6 6 6 6 6 6 6 6 6 6 6 6 6 6 6 6 6 6 6 6 6 6 6 6 6 6 6 6 6 6 6 6 6 6 6 6 6 6 6 6 6 6 6 6 6 6 6 6 6 6 6 5 5 5 5 5 5 5 5 5 5 5 5 5 5 5 5 5 5 5 5 5 5 5 5 5 5 5 5 5 5 5 5 6 6 6 6 6 6 6 6 6 6 6 6 6 6 6 6 6 6 6 6 6 6 6 6 6 6 6 6 6 6 6 6 6 6 6 6 6 6 6 6 6 6 6 6 6 6 6 6 6 6 6 6 6 6 6 6 6 6 6 6 6 6 6 6 6 6 6 6 6 6 6 6 6 6 6 6 6 6 6 ",
") ) ) ) ) ) ) ) ) ) ) ) ) ) ) ) ) ) ) ) ) ) ) ) ) ) ) ) ) ) ) ) ) ) ) ) ) ) ) ) ) ) ) ) ) ) ) ) ) ) ) ) ) ) ) ) ) ) ) ) ) ) ) ) ) ) ) ) ) ) ) ) ) ) ) ) ) ) ) ) ) ) ) ) ) ) ) ) ) ) ) ) ) ) ) ) ) ) ) ) ) ) ) ) ) ) ) ) ) ) ) ) ) ) ) ) ) ) ) ) ) ) ) ) ) ) ) ) ) ) ) ) ) ) ) ) ) ) ) ) ) ) ) ) ) ) ) c 5 5 * b ] ` ` ] ` ` ` ` ` ` ` ` ` ` ` ` ` ` ` ` ` ` ` ` ` ` ) ) ) ) ) ) ) ) ) ) ) ) ) ) ) ) ) ) ) ) ) ) ) ) ) ) ) ) ) ) ) ) ) ) ) ) ) ) ) ) ) ) ) ) ) ) ) ) ) ) ) ) ) ) ) ) ) ) ) ) ) ) ) ) ) ) ) ) ) ) ) ) ) ) ) ) ) ) ",
"5 5 5 5 5 5 5 5 5 5 5 5 5 5 5 5 5 5 5 5 5 5 5 5 5 5 5 5 5 5 5 5 5 5 5 5 5 5 5 5 5 5 5 5 5 5 5 5 5 5 5 5 5 5 5 5 5 5 5 5 5 5 5 5 5 5 5 5 5 5 5 5 5 5 5 5 5 5 5 5 5 5 5 5 5 5 5 5 5 5 5 5 5 5 5 5 5 5 5 5 5 5 5 5 5 5 5 5 5 5 5 5 5 5 5 5 5 5 5 5 5 5 5 5 5 5 5 5 5 5 5 5 5 5 5 5 5 5 5 5 5 5 5 5 5 5 j ) v 5 * b 2.] ` _ ` ] ] ] ] ] ] ] ] ] ] ] ] ] ] ] ] ] ] ] 2.N * 5 5 5 5 5 5 5 5 5 5 5 5 5 5 5 5 5 5 5 5 5 5 5 5 5 5 5 5 5 5 5 5 5 5 5 5 5 5 5 5 5 5 5 5 5 5 5 5 5 5 5 5 5 5 5 5 5 5 5 5 5 5 5 5 5 5 5 5 5 5 5 5 5 5 5 5 5 ",
"5 5 5 5 5 5 5 5 5 5 5 5 5 5 5 5 5 5 5 5 5 5 5 5 5 5 5 5 5 5 5 5 5 5 5 5 5 5 5 5 5 5 5 5 5 5 5 5 5 5 5 5 5 5 5 5 5 5 5 5 5 5 5 5 5 5 5 5 5 5 5 5 5 5 5 5 5 5 5 5 5 5 5 5 5 5 5 5 5 5 5 5 5 5 5 5 5 5 5 5 5 5 5 5 5 5 5 5 5 5 5 5 5 5 5 5 5 5 5 5 5 5 5 5 5 5 5 5 5 5 5 5 5 5 5 5 5 5 5 5 5 5 5 5 5 5 * 5 ) j & b 2.` d.C.i.` _ ` ` _ ` _ _ ` _ ` _ ` ` _ ] ] ] ] ] N * 5 5 5 5 5 5 5 5 5 5 5 5 5 5 5 5 5 5 5 5 5 5 5 5 5 5 5 5 5 5 5 5 5 5 5 5 5 5 5 5 5 5 5 5 5 5 5 5 5 5 5 5 5 5 5 5 5 5 5 5 5 5 5 5 5 5 5 5 5 5 5 5 5 5 5 5 5 ",
"5 5 5 5 5 5 5 5 5 5 5 5 5 5 5 5 5 5 5 5 5 5 5 5 5 5 5 5 5 5 5 5 5 5 5 5 5 5 5 5 5 5 5 5 5 5 5 5 5 5 5 5 5 5 5 5 5 5 5 5 5 5 5 5 5 5 5 5 5 5 5 5 5 5 5 5 5 5 5 5 5 5 5 5 5 5 5 5 5 5 5 5 5 5 5 5 5 5 5 5 5 5 5 5 5 5 5 5 5 5 5 5 5 5 5 5 5 5 5 5 5 5 5 5 5 5 5 5 5 5 5 5 5 5 5 5 5 5 5 5 5 5 5 5 5 5 5 * v b $ b ] ] H.V.H.2.C.a.2.C.2.d.V.s.C.2.C.i.s.C.] ] ] ] ] N * 5 5 5 5 5 5 5 5 5 5 5 5 5 5 5 5 5 5 5 5 5 5 5 5 5 5 5 5 5 5 5 5 5 5 5 5 5 5 5 5 5 5 5 5 5 5 5 5 5 5 5 5 5 5 5 5 5 5 5 5 5 5 5 5 5 5 5 5 5 5 5 5 5 5 5 5 5 ",
"5 5 5 5 5 5 5 5 5 5 5 5 5 5 5 5 5 5 5 5 5 5 5 5 5 5 5 5 5 5 5 5 5 5 5 5 5 5 5 5 5 5 5 5 5 5 5 5 5 5 5 5 5 5 5 5 5 5 5 5 5 5 5 5 5 5 5 5 5 5 5 5 5 5 5 5 5 5 5 5 5 5 5 5 5 5 5 5 5 5 5 5 5 5 5 5 5 5 5 5 5 5 5 5 5 5 5 5 5 5 5 5 5 5 5 5 5 5 5 5 5 5 5 5 5 5 5 5 5 5 5 5 5 5 5 5 5 5 5 5 5 5 5 5 5 5 5 * k V $ b ] ] G.V C.H.G.H.H.G.H.H.s.H.C.C.H.G.H.V.` ] ] ] ] N * 5 5 5 5 5 5 5 5 5 5 5 5 5 5 5 5 5 5 5 5 5 5 5 5 5 5 5 5 5 5 5 5 5 5 5 5 5 5 5 5 5 5 5 5 5 5 5 5 5 5 5 5 5 5 5 5 5 5 5 5 5 5 5 5 5 5 5 5 5 5 5 5 5 5 5 5 5 ",
"5 5 5 5 5 5 5 5 5 5 5 5 5 5 5 5 5 5 5 5 5 5 5 5 5 5 5 5 5 5 5 5 5 5 5 5 5 5 5 5 5 5 5 5 5 5 5 5 5 5 5 5 5 5 5 5 5 5 5 5 5 5 5 5 5 5 5 5 5 5 5 5 5 5 5 5 5 5 5 5 5 5 5 5 5 5 5 5 5 5 5 5 5 5 5 5 5 5 5 5 5 5 5 5 5 5 5 5 5 5 5 5 5 5 5 5 5 5 5 5 5 5 5 5 5 5 5 5 5 5 5 5 5 5 5 5 5 5 5 5 5 5 5 5 5 5 5 * k V $ b ] ] G.] G.H.G.V.H.A.d.s.G.a.A.H.G.d.G.] ` ] ] ] ] v * 5 5 5 5 5 5 5 5 5 5 5 5 5 5 5 5 5 5 5 5 5 5 5 5 5 5 5 5 5 5 5 5 5 5 5 5 5 5 5 5 5 5 5 5 5 5 5 5 5 5 5 5 5 5 5 5 5 5 5 5 5 5 5 5 5 5 5 5 5 5 5 5 5 5 5 5 5 ",
"5 5 5 5 5 5 5 5 5 5 5 5 5 5 5 5 5 5 5 5 5 5 5 5 5 5 5 5 5 5 5 5 5 5 5 5 5 5 5 5 5 5 5 5 5 5 5 5 5 5 5 5 5 5 5 5 5 5 5 5 5 5 5 5 5 5 5 5 5 5 5 5 5 5 5 5 5 5 5 5 5 5 5 5 5 5 5 5 5 5 5 5 5 5 5 5 5 5 5 5 5 5 5 5 5 5 5 5 5 5 5 5 5 5 5 5 5 5 5 5 5 5 5 5 5 5 5 5 5 5 5 5 5 5 5 5 5 5 5 5 5 5 5 5 5 5 5 * k V $ b ] ] G.G.V.2.A.d.d.A.d.C.A.C.A.d.A.d.C.2.` ] ] ] ] g 5 5 5 5 5 5 5 5 5 5 5 5 5 5 5 5 5 5 5 5 5 5 5 5 5 5 5 5 5 5 5 5 5 5 5 5 5 5 5 5 5 5 5 5 5 5 5 5 5 5 5 5 5 5 5 5 5 5 5 5 5 5 5 5 5 5 5 5 5 5 5 5 5 5 5 5 5 5 ",
"5 5 5 5 5 5 5 5 5 5 5 5 5 5 5 5 5 5 5 5 5 5 5 5 5 5 5 5 5 5 5 5 5 5 5 5 5 5 5 5 5 5 5 5 5 5 5 5 5 5 5 5 5 5 5 5 5 5 5 5 5 5 5 5 5 5 5 5 5 5 5 5 5 5 5 5 5 5 5 5 5 5 5 5 5 5 5 5 5 5 5 5 5 5 5 5 5 5 5 5 5 5 5 5 5 5 5 5 5 5 5 5 5 5 5 5 5 5 5 5 5 5 5 5 5 5 5 5 5 5 5 5 5 5 5 5 5 5 5 5 5 5 5 5 5 5 5 * k V $ b 2.] ` ] ` ] ] ] ` ] ] ] ` ] ] ` ] ] ` ] ] ] ] ] v 5 5 5 5 5 5 5 5 5 5 5 5 5 5 5 5 5 5 5 5 5 5 5 5 5 5 5 5 5 5 5 5 5 5 5 5 5 5 5 5 5 5 5 5 5 5 5 5 5 5 5 5 5 5 5 5 5 5 5 5 5 5 5 5 5 5 5 5 5 5 5 5 5 5 5 5 5 5 5 ",
"5 5 5 5 5 5 5 5 5 5 5 5 5 5 5 5 5 5 5 5 5 5 5 5 5 5 5 5 5 5 5 5 5 5 5 5 5 5 5 5 5 5 5 5 5 5 5 5 5 5 5 5 5 5 5 5 5 5 5 5 5 5 5 5 5 5 5 5 5 5 5 5 5 5 5 5 5 5 5 5 5 5 5 5 5 5 5 5 5 5 5 5 5 5 5 5 5 5 5 5 5 5 5 5 5 5 5 5 5 5 5 5 5 5 5 5 5 5 5 5 5 5 5 5 5 5 5 5 5 5 5 5 5 5 5 5 5 5 5 5 5 5 5 5 5 5 5 * k V $ b ] ` ` ` ` ` ` ` ` ` ` ` ` ` ` ` ` ` ` ` ` _ ) k 5 5 5 5 5 5 5 5 5 5 5 5 5 5 5 5 5 5 5 5 5 5 5 5 5 5 5 5 5 5 5 5 5 5 5 5 5 5 5 5 5 5 5 5 5 5 5 5 5 5 5 5 5 5 5 5 5 5 5 5 5 5 5 5 5 5 5 5 5 5 5 5 5 5 5 5 5 5 5 5 ",
"3 3 3 3 3 3 3 3 3 3 3 3 4 5 5 5 c 5 5 5 5 5 5 5 5 5 5 5 5 5 5 5 5 5 5 5 5 5 5 5 5 5 5 5 5 5 5 5 5 5 5 5 5 5 5 5 5 5 5 5 5 5 5 5 5 5 5 5 5 5 5 5 5 5 5 5 5 5 5 5 5 5 5 5 5 5 5 5 5 5 5 5 c 5 5 5 5 5 5 5 5 5 5 5 5 5 5 5 5 5 5 5 5 5 5 5 5 5 5 5 5 5 5 5 5 5 5 5 5 5 5 5 5 5 5 5 5 5 5 5 5 5 5 5 5 5 5 * k V $ N v 5 6 5 5 5 5 5 5 5 5 5 5 5 5 5 5 5 5 5 5 5 5 5 5 5 5 5 5 5 5 5 5 5 5 5 5 5 5 5 5 5 5 5 5 5 5 5 5 5 5 5 5 5 5 5 5 5 5 5 5 5 5 5 5 5 5 5 5 5 5 5 5 5 5 5 5 5 5 5 5 5 5 5 5 5 5 5 5 5 5 5 5 5 5 5 5 5 5 5 5 5 5 5 ",
"1 1 1 1 1 1 1 1 1 1 1 1 < 5 5 5 c 5 5 5 6 w w w w w w w w w w w w w w w w w w w w w w w w w w w w w w w w w w w w w w w w w w w w w w w w w w w w w w w w w w w w w w w w w w w 6 5 5 5 c 5 5 5 5 5 5 5 5 5 5 5 5 5 5 5 5 5 5 5 5 5 5 5 5 5 5 5 5 5 5 5 5 5 5 5 5 5 5 5 5 5 5 5 5 5 5 5 5 5 5 5 5 5 5 * k V $ N v * 5 5 5 5 5 5 5 5 5 5 5 5 5 5 5 5 5 5 5 5 5 5 5 5 5 5 5 5 5 5 5 5 5 5 5 5 5 5 5 5 5 5 5 5 5 5 5 5 5 5 5 5 5 5 5 5 5 5 5 5 5 5 5 5 5 5 5 5 5 5 5 5 5 5 5 5 5 5 5 5 5 5 5 5 5 5 5 5 5 5 5 5 5 5 5 5 5 5 5 5 5 5 ",
").).).).).).).).).).).).T 3 5 5 c 5 5 5 v b v v v v v v v v v v v v v v v v v v v v v v v v v v v v v v v v v v v v v v v v v v v v v v v v v v v v v v v v v v v v v v v v v b v 5 5 5 c 5 5 5 5 5 5 5 5 5 5 5 5 5 5 5 6 j j j j j j j j j j j j j j j j j j j j j j j j j j j j g g j j j j 6 5 5 5 * k V $ N v * 5 5 5 5 5 5 5 5 5 5 5 5 5 5 5 5 5 5 5 5 5 5 5 5 5 5 5 5 5 5 5 5 5 5 5 5 5 5 5 5 5 5 5 5 5 5 5 5 5 5 5 5 5 5 5 5 5 5 5 5 5 5 5 5 5 5 5 5 5 5 5 5 5 5 5 5 5 5 5 5 5 5 5 5 5 5 5 5 5 5 5 5 5 5 5 5 5 5 5 5 5 5 ",
"K K K K K K K K K K K I T 3 5 5 c 5 5 5 v w 5 6 5 5 5 5 5 5 5 5 5 5 5 5 5 5 5 5 5 5 5 5 5 5 5 5 6 5 5 5 5 5 5 5 5 5 5 5 5 6 5 5 5 5 5 5 5 5 5 5 5 5 5 5 5 5 5 5 5 5 5 5 5 6 5 g v 5 5 5 c 5 5 5 * 5 5 & $ 5 & $ 5 5 5 5 k k k k j k k k c j j j j k k k k k k k k k k k k k k k k j j c j k k j 5 5 5 * k V $ N v * 5 5 5 5 5 * $ * 5 5 5 5 5 w 5 5 5 5 5 5 5 5 5 5 5 5 5 5 5 * 5 & 5 5 5 5 5 5 5 5 5 5 5 5 5 5 5 5 5 5 5 5 5 * $ $ 5 5 5 5 5 5 5 5 5 5 5 5 5 5 5 5 5 5 5 5 5 5 5 5 5 * * 5 5 5 5 5 5 5 5 5 5 5 5 5 5 5 5 5 5 5 ",
"J J J J J J J J J J K I T 3 5 5 c 5 5 5 v g 6 6 6 6 6 6 6 6 6 6 6 6 6 6 6 6 6 6 6 6 6 6 6 6 6 6 6 b v k b j c g c j g N g 6 6 6 6 6 6 6 6 6 6 6 6 6 6 6 6 6 6 6 6 6 6 6 6 6 6 j v 5 5 5 c 5 5 5 b g 5 ` ] w V 2.c 5 5 6 k k c k N c j k g V v b N j k c j j k j j j j k k k k k k j j j ) A.j k 6 5 5 * k V $ N v * 5 5 5 5 * v i.N 5 * & g 5 k 5 & * 5 5 5 5 5 5 5 5 5 5 5 * b w N 5 $ * 5 & * 5 & 5 5 5 5 5 5 5 5 5 5 5 5 * b i.` 2.g $ 5 & 5 * * 5 $ v ) # 5 5 5 5 5 5 5 5 5 5 5 * c b * w 5 w * * * 5 # _ v $ 5 5 5 5 5 5 5 ",
"J J J J J J J J J J K I T 3 5 5 c 5 5 5 v g 6 6 6 6 6 6 6 6 6 6 6 6 6 6 6 6 6 6 6 6 6 6 6 6 6 6 6 N ) ) b v ) v ] w 6 b v 5 6 6 6 6 6 6 6 6 6 6 6 6 6 6 6 6 6 6 6 6 6 6 6 6 6 j v 5 5 5 c 5 5 & i.j 5 a._ 2.i.v 5 5 5 6 j d.i.v s.a.k j v s.] d.a.` V ] v N j v V i.V j k k k k k j g c H.IXd.j 6 5 5 * k V $ N v * 5 5 5 5 $ 2.) a.c ` b d.] v j i.N * 5 5 5 5 5 5 5 5 5 5 & 2.2._ v i.) 5 ] b j 2.k 5 5 5 5 5 5 5 5 5 5 5 5 5 s.N ] s.N k 2.j ) V v ` ) d.` w 5 5 5 5 5 5 5 5 5 5 & ] a.k C.2.V.j ] v v ] 2.N N 5 5 5 5 5 5 g ",
"J J J J J J J J J J K I T 3 5 5 c 5 5 5 v g 6 6 6 6 6 6 6 6 6 6 6 6 6 6 6 6 6 6 6 6 6 6 6 6 6 6 5 ) N b N ) ` N ] w w N w 6 6 6 6 6 6 6 6 6 6 6 6 6 6 6 6 6 6 6 6 6 6 6 6 6 6 j v 5 5 5 c 5 5 & 2.j 5 d.i.c a.i.j 5 5 6 j _ i.g k d.j ) s.V.] s.i.` ] ] a.s.) s.] A.` j k k k k k j g v _ V ) k 5 5 5 * k V $ N v * 5 5 5 5 $ ` C.] 5 ` a.i.v i.2.b i.j 5 5 5 5 5 5 5 5 5 5 $ 2.G.& ] _ ] 2.s.s.d.a.a.* 5 5 5 5 5 5 5 5 5 5 5 $ ` j ] ) ] 2.` v d.a.d.` N 2.` V & 5 5 5 5 5 5 5 5 5 6 s.s.N ] b ] 5 ] s.i.w ` A.k * 5 5 5 5 5 6 ",
"J J J J J J J J J J K I T 3 5 5 c 5 5 5 v g 6 6 6 6 6 6 6 6 6 6 6 6 6 6 6 6 6 6 6 6 6 6 6 6 6 6 6 v 6 n ) v j b v k k _ j 6 6 6 6 6 6 6 6 6 6 6 6 6 6 6 6 6 6 6 6 6 6 6 6 6 6 j v 5 5 5 c 5 5 & i.v g a.5 * a.j 5 5 5 w j V i.5 i.V 5 i.N ] 2.s.2.i.2.2._ N V.2.& s.j j k k k k k j g b C.A.i.j 6 5 5 * k V $ N v * 5 5 5 5 $ ] ` ] ] s.a.i.v 2.2.v i.j 5 5 5 5 5 5 5 5 5 5 & 2.] ] ] c ` i.s.b d.2.v 5 5 5 5 5 5 5 5 5 5 5 5 & 2.c 2.j ] w.v v V.V j ] d.V N _ $ 5 5 5 5 5 5 5 5 & V i.] i.] b ] _ s.d.a.5 ] C.b * 5 5 5 5 5 g ",
"J J J J J J J J J J K I T 3 5 5 c 5 5 5 v g 6 6 6 6 6 6 6 6 6 6 6 6 6 6 6 6 6 6 6 6 6 6 6 6 6 6 6 5 6 6 6 6 6 5 5 6 6 5 6 6 6 6 6 6 6 6 6 6 6 6 6 6 6 6 6 6 6 6 6 6 6 6 6 6 6 j v 5 5 5 c 5 5 & ) s.V V 5 5 V 5 5 5 5 w j V 2._ A.` j V s.V.` d.2.V.` v d.s.V d.] s.] j k k k k k j j j C.>X` j 6 5 5 * k V $ N v * 5 5 5 5 * N j b ) ] V N ` N j i.N * 5 5 5 5 5 5 5 5 5 5 * V g V _ g N j ` V j ] v 5 5 5 5 5 5 5 5 5 5 5 5 * N j N j b N c * _ ) b ] V v c v * 5 5 5 5 5 5 5 5 * V g * V ` b ` ) ] N b 2.V k ) 5 5 5 5 5 5 6 ",
"K K K K K K K K K K K I T 3 5 5 c 5 5 5 v w 5 6 6 6 6 6 6 6 6 6 6 6 6 6 6 6 6 6 6 6 6 6 6 6 6 6 6 6 6 6 6 6 6 6 6 6 6 6 6 6 6 6 6 6 6 6 6 6 6 6 6 6 6 6 6 6 6 6 6 6 6 6 6 6 5 g v 5 5 5 c 5 5 5 * & 5 * 5 5 * 5 5 5 5 6 k k c v N V k j b v k N V k c j v b j v N c b j k k k k k j j j v ] g k 5 5 5 * k V $ N v * 5 5 5 5 5 * 5 * & * * * * * 5 & * 5 5 5 5 5 5 5 5 5 5 5 5 * 5 * * 5 * 5 * 5 5 * 5 5 5 5 5 5 5 5 5 5 5 5 5 5 * 5 * 5 * * 5 5 * 5 5 * * 5 5 5 5 5 5 5 5 5 5 5 5 5 * 5 5 * & * & * * * * & * 5 * 5 5 5 5 5 5 5 ",
"I I I I I I I I I I J ).T 3 5 5 c 5 5 5 v j g j j j j j j j j j j j j j j j j j j j j j j j j j j j j j j j j j j j j j j j j j j j j j j j j j j j j j j j j j j j j j j j g j v 5 5 5 c 5 5 5 5 5 5 5 5 5 5 5 5 5 5 5 j k k j j j k k j j k j j k k k j j c j j k j k k k k k k j j c k j k j 5 5 5 * k V $ N v * 5 5 5 5 5 5 5 5 5 5 5 5 5 5 5 5 5 5 5 5 5 5 5 5 5 5 5 5 5 5 5 5 5 5 5 5 5 5 5 5 5 5 5 5 5 5 5 5 5 5 5 5 5 5 5 5 5 5 5 5 5 5 5 5 5 5 5 5 5 5 5 5 5 5 5 5 5 5 5 5 5 5 5 5 5 5 5 5 5 5 5 5 5 5 5 5 5 5 5 5 5 5 ",
"I I I I I I I I I I I ).L 3 5 5 c 5 5 5 c v v v v v v v v v v v v v v v v v v v v v v v v v v v v v v v v v v v v v v v v v v v v v v v v v v v v v v v v v v v v v v v v v v v k 5 5 5 c 5 5 5 5 5 5 5 5 5 5 5 5 5 5 5 5 6 w 6 w w 6 6 w w 6 w w w 6 6 w w 6 w w w w 6 6 6 6 6 6 6 5 w w w 6 5 5 5 5 * k V $ N v * 5 5 5 5 5 5 5 5 5 5 5 5 5 5 5 5 5 5 5 5 5 5 5 5 5 5 5 5 5 5 5 5 5 5 5 5 5 5 5 5 5 5 5 5 5 5 5 5 5 5 5 5 5 5 5 5 5 5 5 5 5 5 5 5 5 5 5 5 5 5 5 5 5 5 5 5 5 5 5 5 5 5 5 5 5 5 5 5 5 5 5 5 5 5 5 5 5 5 5 5 5 5 ",
"3 3 3 3 3 3 3 3 3 3 3 3 4 5 5 5 c 5 5 5 5 5 5 5 5 5 5 5 5 5 5 5 5 5 5 5 5 5 5 5 5 5 5 5 5 5 5 5 5 5 5 5 5 5 5 5 5 5 5 5 5 5 5 5 5 5 5 5 5 5 5 5 5 5 5 5 5 5 5 5 5 5 5 5 5 5 5 5 5 5 5 5 c 5 5 5 5 5 5 5 5 5 5 5 5 5 5 5 5 5 5 5 5 5 5 5 5 5 5 5 5 5 5 5 5 5 5 5 5 5 5 5 5 5 5 5 5 5 5 5 5 5 5 5 5 5 5 * k V $ N v * 5 5 5 5 5 5 5 5 5 5 5 5 5 5 5 5 5 5 5 5 5 5 5 5 5 5 5 5 5 5 5 5 5 5 5 5 5 5 5 5 5 5 5 5 5 5 5 5 5 5 5 5 5 5 5 5 5 5 5 5 5 5 5 5 5 5 5 5 5 5 5 5 5 5 5 5 5 5 5 5 5 5 5 5 5 5 5 5 5 5 5 5 5 5 5 5 5 5 5 5 5 5 ",
"5 5 5 5 5 5 5 5 5 5 5 5 5 5 5 5 c 5 5 5 5 5 5 5 5 * 5 5 5 5 5 5 5 5 5 5 5 5 5 5 5 5 5 5 5 5 5 5 5 5 5 5 5 5 * 5 5 5 5 5 5 5 5 5 5 5 5 5 5 5 5 5 5 5 5 * 5 5 5 5 5 5 5 5 5 5 5 5 5 5 5 5 c 5 5 5 5 5 5 5 5 5 5 & 5 5 5 5 5 5 5 5 5 5 5 5 5 5 5 5 5 5 5 5 5 5 5 5 5 5 5 5 5 5 & 5 5 5 5 5 5 5 5 5 5 5 5 * k V $ N v * 5 5 5 5 5 5 5 5 5 5 5 5 5 5 5 5 5 5 5 5 5 5 5 5 5 5 5 5 5 5 5 5 5 5 5 5 5 5 5 5 5 5 5 5 5 5 5 5 5 5 5 5 5 5 5 5 * $ 5 5 8 8 5 * $ * 5 5 5 5 5 5 5 5 5 5 5 5 5 5 5 5 5 5 5 5 5 5 5 5 5 5 5 5 5 5 5 5 5 5 5 5 ",
"g * & w j & & 5 5 5 5 5 5 5 5 5 c 5 5 5 5 5 5 5 5 k j 5 * 5 * 5 5 * 5 5 5 5 5 5 5 5 5 5 5 5 5 5 5 5 5 5 5 5 k 6 5 5 5 5 5 5 5 5 5 5 5 5 5 5 5 5 5 5 5 k g 5 * 5 j 5 * 5 5 5 5 5 5 5 5 5 c 5 5 5 5 5 5 5 5 5 j b g & 5 5 & 5 * * 5 5 5 5 5 5 5 5 5 5 5 5 5 5 5 5 5 5 5 5 5 5 v 5 5 5 5 5 5 5 5 5 5 5 5 * k V $ N v * 5 5 5 5 5 5 5 5 5 5 5 5 5 5 5 5 5 5 5 5 5 5 5 5 5 5 5 5 5 5 5 5 5 5 5 5 5 5 5 5 5 5 5 5 5 5 5 5 5 5 5 5 5 5 5 & n %.-.VXlXlXVX;.%.n & 5 5 5 5 5 5 5 5 5 5 5 5 5 5 5 5 5 5 5 5 5 5 5 5 5 5 5 5 5 5 5 5 5 5 5 ",
"j j v w j j b w 5 5 5 5 5 5 5 5 c 5 5 5 5 5 5 * b ` j g j 5 k 5 5 c g 5 5 5 5 5 5 5 5 5 5 5 5 5 5 5 5 5 5 ) V _ g 5 5 5 5 5 5 5 5 5 5 5 5 5 5 5 5 6 _ N j 6 c 5 g 6 c g 5 5 5 5 5 5 5 5 c 5 5 5 5 5 5 5 5 * s._ j k j g b * c v 6 5 5 5 5 5 5 5 5 5 5 5 5 5 5 5 5 5 5 5 5 i.] i.5 5 5 5 5 5 5 5 5 5 5 * k V $ N v * 5 5 5 5 5 5 5 5 * * % * % * * 5 5 5 5 5 5 5 5 5 5 5 5 5 5 5 5 * * % % % % * * 5 5 5 5 5 5 5 5 5 5 5 5 5 5 & 0 :.VXZXxXZXxXzXZXVXZXVX%.5 & 5 5 5 5 5 5 5 5 5 5 5 5 5 5 5 & 4 & & & & & 5 5 5 5 5 5 5 5 5 5 5 ",
"k c a.] _ i.i.] & 5 5 5 5 5 5 5 c 5 5 5 5 5 5 & b _ 6 ] b v ` ) ) ) ` * 5 5 5 5 5 5 5 5 5 5 5 5 5 5 5 5 j _ # b N & 5 5 5 5 5 5 5 5 5 5 5 5 5 5 * b b 6 k w ) ) N ) _ ) 5 5 5 5 5 5 5 5 c 5 5 5 5 5 5 5 5 * s.V v C.c i.a.2.] d.V $ 5 5 5 5 5 5 5 5 5 5 5 5 5 5 5 5 5 & N ]   2.N & 5 5 5 5 5 5 5 5 5 * k V $ N v * 5 5 5 5 5 5 * 6 s Q 5.1.5.Q s 5 * 5 5 5 5 5 5 5 5 5 5 5 5 5 * s d q.6.q.6.d r % 5 5 5 5 5 5 5 5 5 5 5 5 $ M xXzXzXVXlX;.:./ -.lXVXxXlXzX/ & 5 5 5 5 5 5 5 5 5 5 5 5 4 5 l M !.=.!.$.z 8 & 5 5 5 5 5 5 5 5 5 ",
"s.) s.a._ ] w i.* 5 5 5 5 5 5 5 c 5 5 5 5 5 5 & b _ g _ 5 ) _ ) _ 5 _ * 5 5 5 5 5 5 5 5 5 5 5 5 5 5 5 5 j _ $ b b & 5 5 5 5 5 5 5 5 5 5 5 5 5 5 * v N 6 ] b _ ` N ) w ) w 5 5 5 5 5 5 5 c 5 5 5 5 5 5 5 5 * s.V N ] 5 C._ d.v N ) $ 5 5 5 5 5 5 5 5 5 5 5 5 5 5 5 5 5 & N w.o 2.N & 5 5 5 5 5 5 5 5 5 * k V $ N v * 5 5 5 5 5 5 s 5..X0..X5.SX0..X<.r 5 5 5 5 5 5 5 5 5 5 5 5 r 1.FXXXJXSXFXFXSXSXd 6 5 5 5 5 5 5 5 5 5 5 & M ;.ZXVX%.0   . . . . . 0 %.zXxX;.q & 5 5 5 5 5 5 5 5 5 5 5 l =.^.~.BX!.^.^.^.!.l 5 5 5 5 5 5 5 5 5 ",
"2.i.i.2._ ` j 2.* 5 5 5 5 5 5 5 c 5 5 5 5 5 5 * v v $ ) 5 k _ j N ` ` * 5 5 5 5 5 5 5 5 5 5 5 5 5 5 5 5 5 V _ ` 6 5 5 5 5 5 5 5 5 5 5 5 5 5 5 5 5 5 ) ) ) ) _ ) N N j V 6 5 5 5 5 5 5 5 c 5 5 5 5 5 5 5 5 5 2.& k ] $ ] ] v i.d.V & 5 5 5 5 5 5 5 5 5 5 5 5 5 5 5 5 5 5 5 2.a.a.5 5 5 5 5 5 5 5 5 5 5 * k V $ N v * 5 5 5 5 = <.FX5..Xq.5.Q 5.q..X5..XQ % 5 5 5 5 5 5 5 5 * 6 SXXXXXFXXX<.6.XXJXXXSXXX* 5 5 5 5 5 5 5 5 * n xXVXVX%.  . @ * 6 6 5 # .   M lXzXzXq * 5 5 5 5 5 5 5 5 & z ^.!.^.^.!.#.=.^.^.=.^.=.$ 5 5 5 5 5 5 5 ",
"5 w j 5 5 5 5 5 5 5 5 5 5 5 5 5 c 5 5 5 5 5 5 5 5 5 5 5 5 5 g g 5 j _ * 5 5 5 5 5 5 5 5 5 5 5 5 5 5 5 5 5 5 k _ 5 5 5 5 5 5 5 5 5 5 5 5 5 5 5 5 5 5 5 j 5 5 g 5 5 5 5 5 5 5 5 5 5 5 5 5 c 5 5 5 5 5 5 5 5 5 5 5 5 5 5 5 c 5 5 ] V $ 5 5 5 5 5 5 5 5 5 5 5 5 5 5 5 5 5 5 5 * V 2.5 5 5 5 5 5 5 5 5 5 5 * k V $ N v * 5 5 5 * 5.q.JXXXr $       & s 6..X6.Q * 5 5 5 5 5 5 * d q.SXJX1.t -     o e <.JXSXq.r 5 5 5 5 5 5 5 $ %.VXZX%.. o 5 v V V ) ) b # . . q zXzX%.& 5 5 5 5 5 5 5 & S =.^.^.M 5       $ l =.BX~.=.5 5 5 5 5 5 5 ",
"5 5 5 5 5 5 5 5 5 5 5 5 5 5 5 5 c 5 5 5 5 5 5 5 5 5 5 5 5 5 5 5 5 5 j 5 5 5 5 5 5 5 5 5 5 5 5 5 5 5 5 5 5 5 5 5 5 5 5 5 5 5 5 5 5 5 5 5 5 5 5 5 5 5 5 5 5 5 5 5 5 5 5 5 5 5 5 5 5 5 5 5 c 5 5 5 5 5 5 5 5 5 5 5 5 5 6 5 4 5 * j j 5 5 5 5 5 5 5 5 5 5 5 5 5 5 5 5 5 5 5 5 5 & 6 5 5 5 5 5 5 5 5 5 5 5 * k V $ N v * 5 5 * r SXJXXX5 .   # $ #     t 6.SX0.5 5 5 5 5 5 5 % 5.JXFXQ   . @ $ $ o . # <.JXJX1.% 5 5 5 5 5 & / xX'.%.    g N V V V ) _ j 5 v # . :.;.'.:.& 5 5 5 5 5 5 4 !.BX^.l     # $ $   . $ =.BX^.z & 5 5 5 5 5 ",
"5 3 4 3 4 5 5 5 5 5 5 5 5 5 5 5 c 5 5 5 5 5 5 5 5 5 5 5 * * * * 5 5 5 5 5 5 5 5 5 5 5 5 5 5 5 5 5 5 5 5 5 * 5 & 5 5 5 5 5 5 5 5 5 5 5 5 5 5 5 5 5 5 5 5 5 * * * * 5 5 5 5 5 5 5 5 5 5 5 c 5 5 5 5 5 5 5 5 5 5 5 5 * = % = % 5 5 5 5 5 5 5 5 5 5 5 5 5 5 5 5 5 5 5 5 5 5 * % % % * 5 5 5 5 5 5 5 5 5 5 * k V $ N v * 5 5 5 XXXXq.t .   * N V V c $ . e <.5.<.* 5 5 5 5 % 1.XXq.<..   6 v V V b w   - 6.q.XXd * 5 5 5 5 + ;.ZXxX$   5 b V V V V ) b * b ` k   @ '.xX;.& 5 5 5 5 5 & =.~.=.M . # g b V V v 5 . & =.=.~.8 5 5 5 5 % ",
"< 1 1 1 < 5 4 5 5 5 5 5 5 5 5 5 c 5 5 5 5 5 5 5 5 5 * 5 c v v b 6 * 5 5 5 5 5 5 5 5 5 5 5 5 5 5 5 5 * 5 j b c b j 5 * 5 5 5 5 5 5 5 5 5 5 5 5 5 5 5 5 * 6 b v b v 5 * 5 5 5 5 5 5 5 5 5 c 5 5 5 5 5 5 5 5 5 5 % % y ! ! ,.Q 5 % 5 5 5 5 5 5 5 5 5 5 5 5 5 5 5 5 5 5 % 5 p ! R ! y * * 5 5 5 5 5 5 5 5 * k V $ N v * 5 5 r SXJXQ . $ j 5 v ) ) _ N #   Q .X0.5 5 5 5 5 % 5.JXXXX   w N V V ) _ _ g   $ SXJX1.% 5 5 5 5 5 ;.VX'.. # v N N V V V V 5 j _ _ ) 5 . %.zX-.8 5 5 5 5 5 * !.BX=.. o j V V ) ) _ V * . l ^.^.z & 5 5 5 5 ",
"K ).K ).J J L 4 4 5 5 5 5 5 5 5 c 5 5 5 5 5 5 5 * 5 2.] d.V.a.C.] i.j & 5 5 5 5 5 5 5 5 5 5 5 5 5 * V i.] A.2.A.2.a.N * 5 5 5 5 5 5 5 5 5 5 5 5 5 * j a.` C.i.V.d.2.] 5 5 5 5 5 5 5 5 5 c 5 5 5 5 5 5 5 5 * = ! #X}.KX@XKX#X#X7.% * 5 5 5 5 5 5 5 5 5 5 5 5 5 5 * 5 7.|.|.#X|.#X7.}.R % 5 5 5 5 5 5 5 * k V $ N v * 5 % <.SXFXt . w V j 5 N ) ) _ j   e .X0.s * 5 5 * r q.FX6.. $ v N V V ) ) ) c     q..X1.5 5 5 5 & M VXZX:.. 5 b b N N V V v 5 V ) ) _ j . q zXzX/ & 5 5 5 & M ~.^.S . 5 b N V V ) _ ` b o $ ^.^.#.& 5 5 5 s ",
"I I L I I ).K J 1 3 5 5 5 5 5 5 c 5 5 5 5 5 5 * ) i.a.A.C.i.] V.A.V.] ] 5 5 5 5 5 5 5 5 5 5 5 * c i.] A.C.d._ d.C.A.] i.k * 5 5 5 5 5 5 5 5 5 5 5 2.] V.A.V.] i.C.A.a.2.b * 5 5 5 5 5 5 c 5 5 5 5 5 5 5 % y #X}.KXKXKX|.#XKXKX|.|.! % 5 5 5 5 5 5 5 5 5 5 5 5 % ! |.|.#X@X}.7.@X#X#X7.|.e * 5 5 5 5 5 * k V $ N v * 6 = 6.JXXXo o k b b j N ) ) ) b o $ 6..XQ % 5 5 * s FXFXd . 5 b b N V N w 5 5 @ . Q .X6.5 5 5 5 & M VXmXq . 6 b b b N V V V N ) ) ) ) v   5 lXzX:.& 5 5 5 & S ^.^.8 . g b N V V N c c k o   =.BX=.& 5 5 % d ",
"1 * $ = 2 L K ).K < 5 5 5 5 5 5 c 5 5 5 5 5 5 v i.A._ V g $ $ 5 N ) C.V.V 5 5 5 5 5 5 5 5 5 5 j _ A.i.V c * $ * v V i.A.] j 5 5 5 5 5 5 5 5 5 w b V.C.V b 5 $ $ g V ` V._ j 5 5 5 5 5 5 c 5 5 5 5 5 5 * y 7.KX6X7.! 6 $ 4 Q 7.7.6X|.R * 5 5 5 5 5 5 5 5 5 5 5 p 7.6X7.! p & $ 4 ! ! }.#X7.r 5 5 5 5 5 * k V $ N v * 5 % 1.XX5.  o c b b V V V V ) b o # <.6.d * 5 5 * r q.q.e . 5 b b N V N j v V 5 . d 6.<.5 5 5 5 & M lX'.8 . g b b b N N V V V V V V ) v   5 ;.;.q & 5 5 5 & M !.=.$   j b b N V v 5 6 5     S =.S 4 5 5 5 s ",
"O       . O 1 I I I 5 5 5 5 5 5 c 5 5 5 5 * c A.V.i.5   .     . . $ ` V.A.) & 5 5 5 5 5 5 5 5 d.C.d.v o . .   . . o b d.A.s.5 5 5 5 5 5 5 5 & _ A.V.` $ . .     .   6 ) ] 2.j 5 5 5 5 5 c 5 5 5 5 5 5 = @XKX6X7.X .       . . y }.@X@Xe * 5 5 5 5 5 5 5 5 * r @X@X}.p   .       . X ! @X#X|.% 5 5 5 5 * k V $ N v * 6 = 6.JXXX#   j b b b N V V V k   & q..XQ % 5 5 * s FXJXQ . * v b b N V V V N & . <..X0.5 5 5 5 & / ZXZXM . 5 v v b b N N V V V V V V k   8 zXxX:.& 5 5 5 & S BX^.8 . 6 v b b N V V V v # o =.~.=.& 5 5 % d ",
"* k v v g # O < I K L 4 5 5 5 5 c 5 5 5 5 w ` i.i.& . o * w g 5 # . o ] i.] j 5 5 5 5 5 5 5 V ] s.v .   $ 5 g w &   . v s.] N * 5 5 5 5 5 5 k ] i.` o . # 5 g g 5 . . 5 _ V b 5 5 5 5 5 c 5 5 5 5 5 % ! }.#X7..   4 j v c @ o . e }.7.,.5 5 5 5 5 5 5 5 5 5 ,.7.}.y . o 6 c v c 5     ! }.7.Q * 5 5 5 * k V $ N v * 5 * s XXFXs . 5 v b b b N V b 5 . d .X5.e 5 5 5 5 5 5.FXq.  o j b b b b N V k   # 0.0.Q 5 5 5 5 * q zXVX-.. & v v b b b N N V V V V V 5 . M zX'.q * 5 5 5 5 8 =.^.#.. $ c b b b N N V g . 8 !.=.z 4 5 5 5 t ",
"b V ) _ _ v # O 1 I I < 5 5 5 5 c 5 5 5 * v A.s.6 . o w j c c v k & . $ ] A.` & 5 5 5 5 5 5 d.C.b     5 j k c v c 5   o b C.d.5 5 5 5 5 5 & _ A.] $ . $ g k c v 6 $ o   6 _ i.j 5 5 5 5 c 5 5 5 5 5 = @XKX|.X   6 b V _ j w b #   s }.#Xy * 5 5 5 5 5 5 * e @X@Xp   @ k V V ) _ ) j   # ! #X|.% 5 5 5 * k V $ N v * 5 5 w FXFXQ     5 v b b b b w   - Q .X0.5 5 5 5 5 = 6.JXq.& . $ k v b b b c #   w 6..XQ % 5 5 5 5 & ;.ZXzX    j v v b b b b N N N V v #   ;.zX;.5 5 5 5 5 5 & !.BX=.@   * c v b b b j o   l !.~.0 4 5 5 5 % ",
"V V V ) _ ` k   < I I < 4 5 5 5 c 5 5 5 5 N d.s.# . 5 j j k k c v j o   ` C.) 5 5 5 5 5 5 k 2.C.j . $ j j j k c v v * . j C.i.j 5 5 5 5 5 6 _ V.`   o w j j k g $ j g   # ` ` k 5 5 5 5 c 5 5 5 5 * y }.KX7.. $ v V V N * v ` c   & @X}.R * 5 5 5 5 5 5 * Q |.@X4 . w N V V V ) _ ) 5 . ! #X7.r 5 5 5 * k V $ N v * 5 5 % <.XXSXQ .   $ w j w $     Q 0.5.d * 5 5 5 5 * s q.SXXXX . # 5 j g 5 o . 4 0.6.<.6 5 5 5 5 5 + ;.ZXzX8 . $ c v v v b b b b N b 5 . & [.xX;.& 5 5 5 5 5 & M !.^.=.. . # 5 j g *   . q !.=.S 5 5 5 5 5 5 ",
"N V V N v c 5 . @ K I L.3 5 5 5 c 5 5 5 5 s.A._ . o g j j j k c v v & . c A.V.g 5 5 5 5 & ) A.s.$ . 5 j j j k j w 6 $ . $ 2.s.v * 5 5 5 * j C.C.k . $ j j j k 5 5 v k #   b i.) 5 5 5 5 c 5 5 5 5 = ! KXKXy . w b N V b g V _ V # - 7.6X7.% 5 5 5 5 5 5 % 7.6X|.- o c N N V V ) ) _ c   6 @X#XQ % 5 5 * k V $ N v * 5 5 5 5 SXJXSX1.#   .       # Q 0..X6.* 5 5 5 5 5 5 = 5.JXFXq.5   .         r 6..X.Xs * 5 5 5 5 5 * 0 '.lXlX# . $ j v v b b b b v 5 . o ;.;.;.q * 5 5 5 5 5 5 & !.^.^.=.$   .       o z !.!.!.8 5 5 5 5 5 5 ",
"b N V c 5 w g   o 1 L 1 4 5 5 5 c 5 5 5 5 ) 2.v . # g j j j j 6 g c 5 . w ] ] g 5 5 5 5 * v 2.) o   5 j j j k 5 $ 5 5 . # b V j 5 5 5 5 5 g ] ] 5 . & g j j j j k c k #   k V b 5 5 5 5 c 5 5 5 5 % R @X}.4   j b b N V V V ) V $   ! |.! * 5 5 5 5 5 5 * ! |.!   # v b N V V V V ) v   & 7.7.p * 5 5 * k V $ N v * 5 5 5 * s q.JXq.% 5 & $ & 5 * 6..X1.r 5 5 5 5 5 5 5 5 5 <.FXJXs 5 * $ $ 5 * d SX6.s 5 5 5 5 5 5 5 5 $ :.ZXZX`.+ . o 5 j c c k 6 # . o -.xXxX%.$ 5 5 5 5 5 5 5 5 8 =.^.^.5 5 & $ & 5 4 D ~.=.0 5 5 5 5 5 5 5 ",
"b N N N V V N # o L J 1 4 5 5 5 c 5 5 5 5 a.A.V . @ w g j j j 5 $ * @ . k C.V.g 5 5 5 5 & ) A.i.#   5 g g j j j j c g   # _ i.v * 5 5 5 5 j C.V.j . $ g g j j j j k j #   b i.) 5 5 5 5 c 5 5 5 5 = ! KX6X6 . w b b b N V V V N #   7.#X7.% 5 5 5 5 5 5 % 7.#X7.- @ c b v j b V V V k   4 }.#XQ % 5 5 * k V $ N v * 5 5 5 5 % d XXs * 5 5 5 5 5 * s 6.e * 5 5 5 5 5 5 5 5 5 * q.6.= 5 5 5 5 5 5 * 5.1.% 5 5 5 5 5 5 5 5 5 * lXxXVXlX5   .   o o   .   * ;.zX'.;.5 5 5 5 5 5 5 5 5 5 4 8 !.S $ 5 5 5 5 5 5 8 =.M & 5 5 5 5 5 5 5 ",
"b b b N V V j   = K K 2 4 5 5 5 c 5 5 5 5 ) V.i.o   5 g g j j j j 5 . . ) V.] w 5 5 5 5 * v a.V.5 . $ g g g j j j j & . 5 ] ) j 5 5 5 5 5 w ] C.V . o 6 g g j j j j w   @ _ ` v 5 5 5 5 c 5 5 5 5 * p @XKX! . & v b b b N N V k   $ }.}.! * 5 5 5 5 5 5 * ! }.}.$   g b j 5 v N V N 5 . Q @X|.p * 5 5 * k V $ N v * 5 5 5 5 5 * * 5 5 5 5 5 5 5 5 5 * 5 5 5 5 5 5 5 5 5 5 5 5 % 5 5 5 5 5 5 5 5 5 5 * 5 5 5 5 5 5 5 5 5 5 5 + ;.ZXVXM 5 5 $ # # # * 5 0 zXxX-.& 5 5 5 5 5 5 5 5 5 5 5 4 & 5 5 5 5 5 5 5 5 5 5 4 5 5 5 5 5 5 5 5 ",
"v b b b N c #   < J K < 5 5 5 5 c 5 5 5 * v A.d.* . # 5 g g j j j * . # V a.N * 5 5 5 5 5 5 s.A.v .   5 g g j j j 5     k i.` 5 5 5 5 5 5 * _ A.] o . $ w g g j j g # . 5 ] i.j 5 5 5 5 c 5 5 5 5 5 % @XKX|.  o 6 v b b b N v $ . e @X@Xy * 5 5 5 5 5 5 * y @X#Xy . # j 5 k N b b j o - ! 6X|.* 5 5 5 * k V $ N v * 5 5 5 5 5 5 5 5 5 5 5 5 5 5 5 5 5 5 5 5 5 5 5 5 5 5 5 5 5 5 5 5 5 5 5 5 5 5 5 5 5 5 5 5 5 5 5 5 5 5 5 5 5 5 ;.;.$ 5 5 5 5 5 5 5 5 & %.;.5 5 5 5 5 5 5 5 5 5 5 5 5 5 5 5 5 5 5 5 5 5 5 5 5 5 5 5 5 5 5 5 5 5 ",
"5 j v c g # . * L L L 5 5 5 5 5 c 5 5 5 5 g i.] ` # . o * 5 6 5 $ .   v N ) j 5 5 5 5 5 5 5 ` 2.] w .   $ 5 w 5 *   . w N V b 5 5 5 5 5 5 * v i.] N   . # 5 6 6 5 # . $ N N ) 6 5 5 5 5 c 5 5 5 5 5 = 7.#X}.! .   5 j c c j $ . 4 7.7.|.6 5 5 5 5 5 5 5 5 5 7.7.7.4 .   & k v k 5 o . R 7.|.! % 5 5 5 * k V $ N v * 5 5 5 5 5 5 5 5 5 5 5 5 5 5 5 5 5 5 5 5 5 5 5 5 5 5 5 5 5 5 5 5 5 5 5 5 5 5 5 5 5 5 5 5 5 5 5 5 5 5 5 5 5 5 & 5 5 5 5 5 5 5 5 5 5 5 * & 5 5 5 5 5 5 5 5 5 5 5 5 5 5 5 5 5 5 5 5 5 5 5 5 5 5 5 5 5 5 5 5 5 5 ",
".   o o     * L J K w 5 5 5 5 5 c 5 5 5 5 * v A.A._ $   .       . # c ] i.b * 5 5 5 5 5 5 5 5 d.A.i.6   .       .   6 _ i._ 5 5 5 5 5 5 5 5 * ` A.V.v @ . .     .   $ N 2.2.j 5 5 5 5 5 c 5 5 5 5 5 5 % @XKX6XQ       o o     4 7.#X@Xy * 5 5 5 5 5 5 5 5 * y @X#X7.4 . . o o   . o p }.6X|.% 5 5 5 5 * k V $ N v * 5 5 5 5 5 5 5 5 5 5 5 5 5 5 5 5 5 5 5 5 5 5 5 5 5 5 5 5 5 5 5 5 5 5 5 5 5 5 5 5 5 5 5 5 5 5 5 5 5 5 5 5 5 5 5 5 5 5 5 5 5 5 5 5 5 5 5 5 5 5 5 5 5 5 5 5 5 5 5 5 5 5 5 5 5 5 5 5 5 5 5 5 5 5 5 5 5 5 5 5 5 5 ",
"& # o # $ 4 L J L 1 5 5 5 5 5 5 c 5 5 5 5 5 5 ` s.A.N * $ o o # * g 2.` b g 5 5 5 5 5 5 5 5 * N i.A.i.5 & # o # & 5 ) 2.N k 5 5 5 5 5 5 5 5 5 j ] V.C.j * # o @ $ * v i.) v 5 5 5 5 5 5 c 5 5 5 5 5 5 % ! @XKXKXr & # o # $ % 7.6X7.! 5 5 5 5 5 5 5 5 5 5 5 * ! |.#X7.% $ o o # & 6 }.@X7.R * 5 5 5 5 * k V $ N v * 5 5 5 5 5 5 5 5 5 5 5 5 5 5 5 5 5 5 5 5 5 5 5 5 5 5 5 5 5 5 5 5 & 5 5 5 & 5 * * 5 5 5 5 5 5 5 5 5 5 5 5 5 5 5 5 5 & 5 * & 5 5 5 5 5 5 5 5 5 5 5 5 5 5 5 5 5 5 5 5 5 5 5 * 5 5 & 5 5 5 & 5 5 5 5 5 5 5 5 5 5 ",
"5 5 5 5 5 4 < J 1 3 5 5 5 5 5 5 c 5 5 5 5 5 5 * ] d.5 5 5 5 5 5 5 5 ) ` 5 5 5 5 5 5 5 5 5 5 5 & b C.v * 5 5 5 5 5 * c 2.j * 5 5 5 5 5 5 5 5 5 * w d.] * 5 5 5 5 5 5 5 ] N * 5 5 5 5 5 5 c 5 5 5 5 5 5 5 % p KX|.= 6 5 5 5 5 * y @X,.= 5 5 5 5 5 5 5 5 5 5 5 5 % ! @Xp * 5 5 5 5 6 % 7.@Xy % 5 5 5 5 5 * k V $ N v * 5 5 5 5 5 5 5 5 5 5 5 5 5 5 5 5 5 5 5 5 5 5 5 5 5 5 5 5 5 5 5 5 b g * w b * k c * 5 5 5 5 5 5 5 5 5 5 5 5 5 5 5 g b 5 c v 5 5 5 g 5 w j 5 5 5 5 5 5 5 5 5 5 5 5 5 5 5 5 j 5 w v 5 5 w b 5 5 5 5 5 5 5 5 5 5 ",
"5 5 5 5 5 5 5 < 5 5 5 5 5 5 5 5 c 5 5 5 5 5 5 5 5 j 5 5 5 5 5 5 5 5 6 6 5 5 5 5 5 5 5 5 5 5 5 5 * j 5 5 5 5 5 5 5 5 5 w 5 5 5 5 5 5 5 5 5 5 5 5 5 6 w 5 5 5 5 5 5 5 5 w 5 5 5 5 5 5 5 5 c 5 5 5 5 5 5 5 5 % y r * 5 5 5 5 5 5 * y 5 5 5 5 5 5 5 5 5 5 5 5 5 5 5 * y 5 5 5 5 5 5 5 5 6 y * 5 5 5 5 5 5 * k V $ N v * 5 5 5 5 5 5 5 5 5 5 5 5 5 5 5 5 5 5 5 5 5 5 5 5 5 5 5 5 5 5 & ` ] w * 2.i._ i.i.k * 5 5 5 5 5 5 5 5 5 5 5 5 5 * b 2.] b i.V & 5 C.v i.2.$ 5 5 5 5 5 5 5 5 5 5 5 5 5 5 j A.j ] a.V $ ] a.V & 5 5 5 5 5 5 5 5 ",
"5 5 5 5 5 5 5 5 5 5 5 5 5 5 5 5 c 5 5 5 5 5 5 5 5 5 5 5 5 5 5 5 5 5 5 5 5 5 5 5 5 5 5 5 5 5 5 5 5 5 5 5 5 5 5 5 5 5 5 5 5 5 5 5 5 5 5 5 5 5 5 5 5 5 5 5 5 5 5 5 5 5 5 5 5 5 5 5 5 5 5 5 c 5 5 5 5 5 5 5 5 5 * 5 5 5 5 5 5 5 5 5 * 5 5 5 5 5 5 5 5 5 5 5 5 5 5 5 5 * 5 5 5 5 5 5 5 5 5 * 5 5 5 5 5 5 5 * k V $ N v * 5 5 5 5 5 5 5 5 5 5 5 5 5 5 5 5 5 5 5 5 5 5 5 5 5 5 5 5 5 w j d.w.c 6 2.5 A.b b ) $ 5 5 5 5 5 5 5 5 5 5 5 5 w g $ c 2.6 s.v $ N i.k v ] $ 5 5 5 5 5 5 5 5 5 5 5 5 5 5 5 ] b ` j 2.5 2.w i.* 5 5 5 5 5 5 5 5 ",
"5 5 5 5 5 5 5 5 5 5 5 5 5 5 5 5 c 5 5 5 5 5 5 5 5 5 5 5 5 5 5 5 5 5 5 5 5 5 5 5 5 5 5 5 5 5 5 5 5 5 5 5 5 5 5 5 5 5 5 5 5 5 5 5 5 5 5 5 5 5 5 5 5 5 5 5 5 5 5 5 5 5 5 5 5 5 5 5 5 5 5 5 c 5 5 5 5 5 5 5 5 5 5 5 5 5 5 5 5 5 5 5 5 5 5 5 5 5 5 5 5 5 5 5 5 5 5 5 5 5 5 5 5 5 5 5 5 5 5 5 5 5 5 5 5 5 5 * k V $ N v * 5 5 5 5 5 5 5 * * 5 5 & & 5 $ * 5 5 5 5 5 5 5 5 5 5 5 5 5 ) ) i.c i.5 w.j C.V V ) $ 5 5 5 5 5 5 5 5 5 5 5 * N ) 6 i.5 5 ] _ g d.V.` k ] $ 5 5 5 5 5 5 5 5 5 5 5 5 5 5 $ 2.b ] c 2.5 2.k i.& 5 5 5 5 5 5 5 5 ",
"* * 5 & * 5 5 5 * 5 & * 5 5 5 5 c 5 5 5 5 5 * 5 5 * 5 * 5 5 * 5 5 5 5 5 5 5 5 5 5 5 5 5 5 5 5 5 5 5 5 5 5 5 5 * 5 5 * 5 5 5 5 5 5 5 5 5 5 5 5 * * 5 5 * 5 5 * 5 5 5 5 5 5 * 5 5 5 5 5 5 c 5 5 5 5 5 5 5 5 * & & 5 $ 5 * & 5 5 5 5 5 5 5 5 5 5 5 5 5 5 5 5 5 5 5 5 * * 5 5 * * 5 & 5 5 & 5 5 5 5 5 5 5 * k V $ N v * 5 5 5 5 5 5 5 N _ 5 5 ` _ 6 i.b * 5 5 5 5 5 5 5 5 5 5 5 5 * & ` i._ V ) d.b 2.a.g 5 5 5 5 5 5 5 5 5 5 5 5 5 5 $ i.d.) _ 2.` ) w 2.N k ` & 5 5 5 5 5 5 5 5 5 5 5 5 5 5 & ] j ) s.) V V d.b * 5 5 5 5 5 5 5 5 ",
"v c & v c 5 5 $ V j N v 5 5 5 5 c 5 5 5 5 5 k j w c * j j 5 c w 5 w w 5 g * * 5 5 5 5 5 5 5 5 5 5 5 5 w w 5 5 c 5 g k 5 5 5 5 5 5 5 5 5 5 5 5 j j 5 5 c w 5 c 5 5 5 & v w v j 5 5 5 5 5 c 5 5 5 5 5 5 5 j k V b j V j c b 5 5 j 5 j 6 $ * 5 5 5 5 5 5 5 5 5 5 5 5 v k 5 5 v c * b w 6 b 5 5 5 5 5 5 5 * k V $ N v * 5 5 5 5 5 * k d.b & b ] _ d.V w.6 5 5 5 5 5 5 5 5 5 5 5 5 5 5 5 w 5 5 5 g * 5 6 5 5 5 5 5 5 5 5 5 5 5 5 5 5 5 5 5 g g g g 5 5 * * 5 5 5 5 5 5 5 5 5 5 5 5 5 5 5 5 5 5 5 5 5 5 w 5 5 5 w 5 5 5 5 5 5 5 5 5 5 ",
"i.] ) i.j 5 6 N a.) i.2.V & 5 5 c 5 5 5 * v ) g ) ) N ) ) N _ ) & b v 5 ) k b 6 5 5 5 5 5 5 5 5 5 5 * 2.b $ V _ N ) _ k * 5 5 5 5 5 5 5 5 * j _ j * v ` V V _ b * 6 v _ b ) ) k * 5 5 5 c 5 5 5 5 5 5 j A.b V d.s.2.j b i.V $ a.$ ) _ V b 5 5 5 5 5 5 5 5 5 5 * v a.i.6 j a.2.` i.] ] a.V & 5 5 5 5 5 * k V $ N v * 5 5 5 5 5 & ) i.2.g N b v A.5 ] j * 5 5 5 5 5 5 5 5 5 5 5 5 5 5 5 5 * 5 * 5 5 5 5 5 5 5 5 5 5 5 5 5 5 5 5 5 5 5 5 5 5 5 * 5 5 5 5 5 5 5 5 5 5 5 5 5 5 5 5 5 5 5 5 5 5 5 5 5 5 5 5 5 5 5 5 5 5 5 5 5 5 5 5 5 ",
"V.2.i.a.) $ ` ] a.V a.i.v * 5 5 c 5 5 5 * _ ) V N 6 i.j v i.5 ) 5 v ` V ) j 2.6 5 5 5 5 5 5 5 5 5 5 c ) c * ) 5 2.b j V & 5 5 5 5 5 5 5 5 * V ` b * V g V ] 5 ) * V V _ b _ _ j 5 5 5 5 c 5 5 5 5 5 5 ) i.5 w ` N a.b g s.v $ d.` d.b 2.i.$ 5 5 5 5 5 5 5 5 5 & _ v ) v V b b A.5 i.a.6 i.* 5 5 5 5 5 * k V $ N v * 5 5 5 5 5 & N ` _ _ N ] ` s.) i.6 5 5 5 5 5 5 5 5 5 5 5 5 5 5 5 5 6 c 5 j 5 5 5 5 5 5 5 5 5 5 5 5 5 5 5 5 5 5 5 5 5 5 & c g w j * 5 5 5 5 5 5 5 5 5 5 5 5 5 5 5 5 5 5 5 5 5 5 5 5 5 * 5 5 5 5 5 5 5 5 5 5 5 ",
"` ] V.j i.5 i.j ] _ ] _ _ & 5 5 c 5 5 5 5 _ j ] ) j 2.c b 2.g ) 5 v ) c ) v c * 5 5 5 5 5 5 5 5 5 5 ` ] _ 5 ) g ] N c N & 5 5 5 5 5 5 5 5 * ) k ) g N k V ] g ) * _ 6 ) N N V v * 5 5 5 c 5 5 5 5 * v d.C.b ` V $ w s.5 ] _ $ s.v i.V ` 5 5 5 5 5 5 5 5 5 5 5 & ) N ` v N V V C.j i.i.k i.& 5 5 5 5 5 * k V $ N v * 5 5 5 5 5 5 5 ` ) b k ) _ 6 2.b * 5 5 5 5 5 5 5 5 5 5 5 5 5 5 5 5 V ] ] i.] 5 5 5 5 5 5 5 5 5 5 5 5 5 5 5 5 5 5 5 5 5 5 i.V a.i.V * 5 5 5 5 5 5 5 5 5 5 5 5 5 5 5 5 5 5 5 j j j g * j j 5 5 5 5 5 5 5 5 5 5 ",
"i.] V a._ $ b a.i.N s.i.b * 5 5 c 5 5 5 * c ` v N ` k ) ) k ` b & v c 5 V ] ) 6 5 5 5 5 5 5 5 5 5 5 6 b V v v ] c N ` g 5 5 5 5 5 5 5 5 5 5 j ` N b k ` b v ] v & v ` ) v ` ) j 5 5 5 5 c 5 5 5 5 5 6 j i.v ] 5 V a.) ) i.v & 2.* b i.d.V 5 5 5 5 5 5 5 5 5 5 5 g a.] ) b i.2.v d.) V d.v * 5 5 5 5 5 * k V $ N v * 5 5 5 5 5 5 5 & & * 5 & & 5 $ * 5 5 5 5 5 5 5 5 5 5 5 5 5 5 5 5 2.d.] 2.) i.5 5 5 5 5 5 5 5 5 5 5 5 5 5 5 5 5 5 5 * v i.d.) w.` _ & 5 5 5 5 5 5 5 5 5 5 5 5 5 5 5 5 5 * c d.a.a.2.b d.v 5 5 5 5 5 5 5 5 5 5 ",
"6 5 * 6 5 5 5 6 5 5 w 6 * 5 5 5 c 5 5 5 5 5 5 5 5 5 * 5 5 5 5 5 5 5 5 5 5 5 w 5 5 5 5 5 5 5 5 5 5 5 5 5 5 5 5 5 5 5 5 5 5 5 5 5 5 5 5 5 5 5 5 5 5 5 5 5 5 5 5 5 5 5 5 5 5 6 5 5 5 5 5 5 c 5 5 5 5 5 5 * * 5 5 5 5 w * g 6 * 5 5 5 5 5 w w 5 5 5 5 5 5 5 5 5 5 5 5 5 5 5 5 5 5 * 6 5 5 6 5 5 5 5 5 5 5 * k V $ N v * 5 5 5 5 5 5 5 5 5 5 5 5 5 5 5 5 5 5 5 5 5 5 5 5 5 5 5 5 5 5 * c ] j ] 2.] i.6 5 5 5 5 5 5 5 5 5 5 5 5 5 5 5 5 5 5 $ ] k ) _ i.] _ & 5 5 5 5 5 5 5 5 5 5 5 5 5 5 5 5 5 & v _ V N ` v ` N 5 5 5 5 5 5 5 5 5 5 ",
"5 5 5 5 5 5 5 5 5 5 5 5 5 5 5 5 c 5 5 5 5 5 5 5 5 5 5 5 5 5 5 5 5 5 5 5 5 5 5 5 5 5 5 5 5 5 5 5 5 5 5 5 5 5 5 5 5 5 5 5 5 5 5 5 5 5 5 5 5 5 5 5 5 5 5 5 5 5 5 5 5 5 5 5 5 5 5 5 5 5 5 5 c 5 5 5 5 5 5 5 5 5 5 5 5 5 5 5 5 5 5 5 5 5 5 5 5 5 5 5 5 5 5 5 5 5 5 5 5 5 5 5 5 5 5 5 5 5 5 5 5 5 5 5 5 5 5 * k V $ N v * 5 5 5 5 5 5 5 5 5 5 5 5 5 5 5 5 5 5 5 5 5 5 5 5 5 5 5 5 5 5 5 5 i.a.] 2.` a.w 5 5 5 5 5 5 5 5 5 5 5 5 5 5 5 5 5 5 * b i.d.V i.` ] & 5 5 5 5 5 5 5 5 5 5 5 5 5 5 5 5 5 & v _ V N ` v ] i.* 5 5 5 5 5 5 5 5 5 ",
"5 5 5 5 5 5 5 5 5 5 5 5 5 5 5 5 c 5 5 5 5 5 5 5 5 5 5 5 5 5 5 5 5 5 5 5 5 5 5 5 5 5 5 5 5 5 5 5 5 5 5 5 5 5 5 5 5 5 5 5 5 5 5 5 5 5 5 5 5 5 5 5 5 5 5 5 5 5 5 5 5 5 5 5 5 5 5 5 5 5 5 5 c 5 5 5 5 5 5 5 5 5 5 5 5 5 5 5 5 5 5 5 5 5 5 5 5 5 5 5 5 5 5 5 5 5 5 5 5 5 5 5 5 5 5 5 5 5 5 5 5 5 5 5 5 5 5 * c V $ b v * 5 5 5 5 5 5 5 5 5 5 5 5 5 5 5 5 5 5 5 5 5 5 5 5 5 5 5 5 5 5 5 5 j v 6 j V g 5 5 5 5 5 5 5 5 5 5 5 5 5 5 5 5 5 5 5 5 5 c k 5 v b 5 5 5 5 5 5 5 5 5 5 5 5 5 5 5 5 5 5 5 5 5 w w 6 w g b 6 5 5 5 5 5 5 5 5 5 5 ",
"5 5 5 5 5 5 5 5 5 5 5 5 5 5 5 5 v 5 5 5 5 5 5 5 5 5 5 5 5 5 5 5 5 5 5 5 5 5 5 5 5 5 5 5 5 5 5 5 5 5 5 5 5 5 5 5 5 5 5 5 5 5 5 5 5 5 5 5 5 5 5 5 5 5 5 5 5 5 5 5 5 5 5 5 5 5 5 5 5 5 5 5 v 5 5 5 5 5 5 5 5 5 5 5 5 5 5 5 5 5 5 5 5 5 5 5 5 5 5 5 5 5 5 5 5 5 5 5 5 5 5 5 5 5 5 5 5 5 5 5 5 5 5 5 5 5 5 * V v & c V * 5 5 5 5 5 5 5 5 5 5 5 5 5 5 5 5 5 5 5 5 5 5 5 5 5 5 5 5 5 5 5 5 5 * 5 5 & 5 5 5 5 5 5 5 5 5 5 5 5 5 5 5 5 5 5 5 5 5 5 * * 5 * & 5 5 5 5 5 5 5 5 5 5 5 5 5 5 5 5 5 5 5 5 5 5 5 5 5 5 & 5 5 5 5 5 5 5 5 5 5 5 ",
"* * * * * * * * * * * * * * * 5 6 * * * * * * * * * * * * * * * * * * * * * * * * * * * * * * * * * * * * * * * * * * * * * * * * * * * * * * * * * * * * * * * * * * * * * * * * * * * 6 5 * * * * * * * * * * * * * * * * * * * * * * * * * * * * * * * * * * * * * * * * * * * * * * * * * * * * * k _ 5 5 5 ) c * * * * * * * * * * * * * * * * * * * * * * * * * * * * * * * * 5 5 * 5 5 5 * * * * * * * * * * * * * * * * * * * * * 5 5 * 5 5 * * * * * * * * * * * * * * * * * * * * * * * * * * 5 5 * * * * * * * * * * ",
"k k k k k k k k k k k k k k k k j k k k k k k k k k k k k k k k k k k k k k k k k k k k k k k k k k k k k k k k k k k k k k k k k k k k k k k k k k k k k k k k k k k k k k k k k k k k j k k k k k k k k k k k k k k k k k k k k k k k k k k k k k k k k k k k k k k k k k k k k k k k k k k k k c V _ j 5 5 5 6 ) V c k k k k k k k k k k k k k k k k k k k k k k k k k k k k k k k k k k k k k k k k k k k k k k k k k k k k k k k k k k k k k k k k k k k k k k k k k k k k k k k k k k k k k k k k k k k k k k k k k k k k ",
"V V V V V V V V V V V V V V V V V V V V V V V V V V V V V V V V V V V V V V V V V V V V V V V V V V V V V V V V V V V V V V V V V V V V V V V V V V V V V V V V V V V V V V V V V V V V V V V V V V V V V V V V V V V V V V V V V V V V V V V V V V V V V V V V V V V V V V V V V V V V V V V V V V v 6 5 5 5 5 5 5 v V V V V V V V V V V V V V V V V V V V V V V V V V V V V V V V V V V V V V V V V V V V V V V V V V V V V V V V V V V V V V V V V V V V V V V V V V V V V V V V V V V V V V V V V V V V V V V V V V V V V V ",
"$ $ $ $ $ $ $ $ $ $ $ $ $ $ $ $ $ $ $ $ $ $ $ $ $ $ $ $ $ $ $ $ $ $ $ $ $ $ $ $ $ $ $ $ $ $ $ $ $ $ $ $ $ $ $ $ $ $ $ $ $ $ $ $ $ $ $ $ $ $ $ $ $ $ $ $ $ $ $ $ $ $ $ $ $ $ $ $ $ $ $ $ $ $ $ $ $ $ $ $ $ $ $ $ $ $ $ $ $ $ $ $ $ $ $ $ $ $ $ $ $ $ $ $ $ $ $ $ $ $ $ $ $ $ $ $ $ $ $ $ $ $ $ $ $ $ $ & * * * * * * $ $ $ $ $ $ $ $ $ $ $ $ $ $ $ $ $ $ $ $ $ $ $ $ $ $ $ $ $ $ $ $ $ $ $ $ $ $ $ $ $ $ $ $ $ $ $ $ $ $ $ $ $ $ $ $ $ $ $ $ $ $ $ $ $ $ $ $ $ $ $ $ $ $ $ $ $ $ $ $ $ $ $ $ $ $ $ $ $ $ $ $ $ $ $ $ $ $ $ $ $ $ ",
"N N N N N N N N N N N N N N N N N N N N N N N N N N N N N N N N N N N N N N N N N N N N N N N N N N N N N N N N N N N N N N N N N N N N N N N N N N N N N N N N N N N N N N N N N N N N N N N N N N N N N N N N N N N N N N N N N N N N N N N N N N N N N N N N N N N N N N N N N N N N N N N N N N N N N N N N N N N N N N N N N N N N N N N N N N N N N N N N N N N N N N N N N N N N N N N N N N N N N N N N N N N N N N N N N N N N N N N N N N N N N N N N N N N N N N N N N N N N N N N N N N N N N N N N N N N N N N N N ",
"v v v v v v v v v v v v v v v v v v v v v v v v v v v v v v v v v v v v v v v v v v v v v v v v v v v v v v v v v v v v v v v v v v v v v v v v v v v v v v v v v v v v v v v v v v v v v v v v v v v v v v v v v v v v v v v v v v v v v v v v v v v v v v v v v v v v v v v v v v v v v v v v v v v v v v v v v v v v v v v v v v v v v v v v v v v v v v v v v v v v v v v v v v v v v v v v v v v v v v v v v v v v v v v v v v v v v v v v v v v v v v v v v v v v v v v v v v v v v v v v v v v v v v v v v v v v v v v v ",
"* * * * * * * * * * * * * * * * * * * * * * * * * * * * * * * * * * * * * * * * * * * * * * * * * * * * * * * * * * * * * * * * * * * * * * * * * * * * * * * * * * * * * * * * * * * * * * * * * * * * * * * * * * * * * * * * * * * * * * * * * * * * * * * * * * * * * * * * * * * * * * * * * * * * * * * * * * * * * * * * * * * * * * * * * * * * * * * * * * * * * * * * * * * * * * * * * * * * * * * * * * * * * * * * * * * * * * * * * * * * * * * * * * * * * * * * * * * * * * * * * * * * * * * * * * * * * * * * ",
"5 5 5 5 5 5 5 5 5 5 5 5 5 5 5 5 5 5 5 5 5 5 5 5 5 5 5 5 5 5 5 5 5 5 5 5 5 5 5 5 5 5 5 5 5 5 5 5 5 5 5 5 5 5 5 5 5 5 5 5 5 5 5 5 5 5 5 5 5 5 5 5 5 5 5 5 5 5 5 5 5 5 5 5 5 5 5 5 5 5 5 5 5 5 5 5 5 5 5 5 5 5 5 5 5 5 5 5 5 5 5 5 5 5 5 5 5 5 5 5 5 5 5 5 5 5 5 5 5 5 5 5 5 5 5 5 5 5 5 5 5 5 5 5 5 5 5 5 5 5 5 5 5 5 5 5 5 5 5 5 5 5 5 5 5 5 5 5 5 5 5 5 5 5 5 5 5 5 5 5 5 5 5 5 5 5 5 5 5 5 5 5 5 5 5 5 5 5 5 5 5 5 5 5 5 5 5 5 5 5 5 5 5 5 5 5 5 5 5 5 5 5 5 5 5 5 5 5 5 5 5 5 5 5 5 5 5 5 5 5 5 5 5 5 5 5 5 5 5 5 5 5 5 5 5 5 ",
"5 5 5 5 5 5 5 5 5 5 5 5 5 5 5 5 5 5 5 5 5 5 5 5 5 5 5 5 5 5 5 5 5 5 5 5 5 5 5 5 5 5 5 5 5 5 5 5 5 5 5 5 5 5 5 5 5 5 5 5 5 5 5 5 5 5 5 5 5 5 5 5 5 5 5 5 5 5 5 5 5 5 5 5 5 5 5 5 5 5 5 5 5 5 5 5 5 5 5 5 5 5 5 5 5 5 5 5 5 5 5 5 5 5 5 5 5 5 5 5 5 5 5 5 5 5 5 5 5 5 5 5 5 5 5 5 5 5 5 5 5 5 5 5 5 5 5 5 5 5 5 5 5 5 5 5 5 5 5 5 5 5 5 5 5 5 5 5 5 5 5 5 5 5 5 5 5 5 5 5 5 5 5 5 5 5 5 5 5 5 5 5 5 5 5 5 5 5 5 5 5 5 5 5 5 5 5 5 5 5 5 5 5 5 5 5 5 5 5 5 5 5 5 5 5 5 5 5 5 5 5 5 5 5 5 5 5 5 5 5 5 5 5 5 5 5 5 5 5 5 5 5 5 5 5 5 ",
"5 5 5 5 5 5 5 5 5 5 5 5 5 5 5 5 5 5 5 5 5 5 5 5 5 5 5 5 5 5 5 5 5 5 5 5 5 5 5 5 5 5 5 5 5 5 5 5 5 5 5 5 5 5 5 5 5 5 5 5 5 5 5 5 5 5 5 5 5 5 5 5 5 5 5 5 5 5 5 5 5 5 5 5 5 5 5 5 5 5 5 5 5 5 5 5 5 5 5 5 5 5 5 5 5 5 5 5 5 5 5 5 5 5 5 5 5 5 5 5 5 5 5 5 5 5 5 5 5 5 5 5 5 5 5 5 5 5 5 5 5 5 5 5 5 5 5 5 5 5 5 5 5 5 5 5 5 5 5 5 5 5 5 5 5 5 5 5 5 5 5 5 5 5 5 5 5 5 5 5 5 5 5 5 5 5 5 5 5 5 5 5 5 5 5 5 5 5 5 5 5 5 5 5 5 5 5 5 5 5 5 5 5 5 5 5 5 5 5 5 5 5 5 5 5 5 5 5 5 5 5 5 5 5 5 5 5 5 5 5 5 5 5 5 5 5 5 5 5 5 5 5 5 5 5 5 ",
"5 5 5 5 5 5 5 5 5 5 5 5 5 5 5 5 5 5 5 5 5 5 5 5 5 5 5 5 5 5 5 5 5 5 5 5 5 5 5 5 5 5 5 5 5 5 5 5 5 5 5 5 5 5 5 5 5 5 5 5 5 5 5 5 5 5 5 5 5 5 5 5 5 5 5 5 5 5 5 5 5 5 5 5 5 5 5 5 5 5 5 5 5 5 5 5 5 5 5 5 5 5 5 5 5 5 5 5 5 5 5 5 5 5 5 5 5 5 5 5 5 5 5 5 5 5 5 5 5 5 5 5 5 5 5 5 5 5 5 5 5 5 5 5 5 5 5 5 5 5 5 5 5 5 5 5 5 5 5 5 5 5 5 5 5 5 5 5 5 5 5 5 5 5 5 5 5 5 5 5 5 5 5 5 5 5 5 5 5 5 5 5 5 5 5 5 5 5 5 5 5 5 5 5 5 5 5 5 5 5 5 5 5 5 5 5 5 5 5 5 5 5 5 5 5 5 5 5 5 5 5 5 5 5 5 5 5 5 5 5 5 5 5 5 5 5 5 5 5 5 5 5 5 5 5 5 ",
"5 5 5 5 5 5 5 5 5 5 5 5 5 5 5 5 5 5 5 5 5 5 5 5 5 5 5 5 5 5 5 5 5 5 5 5 5 5 5 5 5 5 5 5 5 5 5 5 5 5 5 5 5 5 5 5 5 5 5 5 5 5 5 5 5 5 5 5 5 5 5 5 5 5 5 5 5 5 5 5 5 5 5 5 5 5 5 5 5 5 5 5 5 5 5 5 5 5 5 5 5 5 5 5 5 5 5 5 5 5 5 5 5 5 5 5 5 5 5 5 5 5 5 5 5 5 5 5 5 5 5 5 5 5 5 5 5 5 5 5 5 5 5 5 5 5 5 5 5 5 5 5 5 5 5 5 5 5 5 5 5 5 5 5 5 5 5 5 5 5 5 5 5 5 5 5 5 5 5 5 5 5 5 5 5 5 5 5 5 5 5 5 5 5 5 5 5 5 5 5 5 5 5 5 5 5 5 5 5 5 5 5 5 5 5 5 5 5 5 5 5 5 5 5 5 5 5 5 5 5 5 5 5 5 5 5 5 5 5 5 5 5 5 5 5 5 5 5 5 5 5 5 5 5 5 5 ",
"5 5 5 5 5 5 5 5 5 5 5 5 5 5 5 5 5 5 5 5 5 5 5 5 5 5 5 5 5 5 5 5 5 5 5 5 5 5 5 5 5 5 5 5 5 5 5 5 5 5 5 5 5 5 5 5 5 5 5 5 5 5 5 5 5 5 5 5 5 5 5 5 5 5 5 5 5 5 5 5 5 5 5 5 5 5 5 5 5 5 5 5 5 5 5 5 5 5 5 5 5 5 5 5 5 5 5 5 5 5 5 5 5 5 5 5 5 5 5 5 5 5 5 5 5 5 5 5 5 5 5 5 5 5 5 5 5 5 5 5 5 5 5 5 5 5 5 5 5 5 5 5 5 5 5 5 5 5 5 5 5 5 5 5 5 5 5 5 5 5 5 5 5 5 5 5 5 5 5 5 5 5 5 5 5 5 5 5 5 5 5 5 5 5 5 5 5 5 5 5 5 5 5 5 5 5 5 5 5 5 5 5 5 5 5 5 5 5 5 5 5 5 5 5 5 5 5 5 5 5 5 5 5 5 5 5 5 5 5 5 5 5 5 5 5 5 5 5 5 5 5 5 5 5 5 5 ",
"5 5 5 5 5 5 5 5 5 5 5 5 5 5 5 5 5 5 5 5 5 5 5 5 5 5 5 5 5 5 5 5 5 5 5 5 5 5 5 5 5 5 5 5 5 5 5 5 5 5 5 5 5 5 5 5 5 5 5 5 5 5 5 5 5 5 5 5 5 5 5 5 5 5 5 5 5 5 5 5 5 5 5 5 5 5 5 5 5 5 5 5 5 5 5 5 5 5 5 5 5 5 5 5 5 5 5 5 5 5 5 5 5 5 5 5 5 5 5 5 5 5 5 5 5 5 5 5 5 5 5 5 5 5 5 5 5 5 5 5 5 5 5 5 5 5 5 5 5 5 5 5 5 5 5 5 5 5 5 5 5 5 5 5 5 5 5 5 5 5 5 5 5 5 5 5 5 5 5 5 5 5 5 5 5 5 5 5 5 5 5 5 5 5 5 5 5 5 5 5 5 5 5 5 5 5 5 5 5 5 5 5 5 5 5 5 5 5 5 5 5 5 5 5 5 5 5 5 5 5 5 5 5 5 5 5 5 5 5 5 5 5 5 5 5 5 5 5 5 5 5 5 5 5 5 5 ",
"5 5 5 5 5 5 5 5 5 5 5 5 5 5 5 5 5 5 5 5 5 5 5 5 5 5 5 5 5 5 5 5 5 5 5 5 5 5 5 5 5 5 5 5 5 5 5 5 5 5 5 5 5 5 5 5 5 5 5 5 5 5 5 5 5 5 5 5 5 5 5 5 5 5 5 5 5 5 5 5 5 5 5 5 5 5 5 5 5 5 5 5 5 5 5 5 5 5 5 5 5 5 5 5 5 5 5 5 5 5 5 5 5 5 5 5 5 5 5 5 5 5 5 5 5 5 5 5 5 5 5 5 5 5 5 5 5 5 5 5 5 5 5 5 5 5 5 5 5 5 5 5 5 5 5 5 5 5 5 5 5 5 5 5 5 5 5 5 5 5 5 5 5 5 5 5 5 5 5 5 5 5 5 5 5 5 5 5 5 5 5 5 5 5 5 5 5 5 5 5 5 5 5 5 5 5 5 5 5 5 5 5 5 5 5 5 5 5 5 5 5 5 5 5 5 5 5 5 5 5 5 5 5 5 5 5 5 5 5 5 5 5 5 5 5 5 5 5 5 5 5 5 5 5 5 5 ",
"5 5 5 5 5 5 5 5 5 5 5 5 5 5 5 5 5 5 5 5 5 5 5 5 5 5 5 5 5 5 5 5 5 5 5 5 5 5 5 5 5 5 5 5 5 5 5 5 5 5 5 5 5 5 5 5 5 5 5 5 5 5 5 5 5 5 5 5 5 5 5 5 5 5 5 5 5 5 5 5 5 5 5 5 5 5 5 5 5 5 5 5 5 5 5 5 5 5 5 5 5 5 5 5 5 5 5 5 5 5 5 5 5 5 5 5 5 5 5 5 5 5 5 5 5 5 5 5 5 5 5 5 5 5 5 5 5 5 5 5 5 5 5 5 5 5 5 5 5 5 5 5 5 5 5 5 5 5 5 5 5 5 5 5 5 5 5 5 5 5 5 5 5 5 5 5 5 5 5 5 5 5 5 5 5 5 5 5 5 5 5 5 5 5 5 5 5 5 5 5 5 5 5 5 5 5 5 5 5 5 5 5 5 5 5 5 5 5 5 5 5 5 5 5 5 5 5 5 5 5 5 5 5 5 5 5 5 5 5 5 5 5 5 5 5 5 5 5 5 5 5 5 5 5 5 5 ",
"5 5 5 5 5 5 5 5 5 5 5 5 5 5 5 5 5 5 5 5 5 5 5 5 5 5 5 5 5 5 5 5 5 5 5 5 5 5 5 5 5 5 5 5 5 5 5 5 5 5 5 5 5 5 5 5 5 5 5 5 5 5 5 5 5 5 5 5 5 5 5 5 5 5 5 5 5 5 5 5 5 5 5 5 5 5 5 5 5 5 5 5 5 5 5 5 5 5 5 5 5 5 5 5 5 5 5 5 5 5 5 5 5 5 5 5 5 5 5 5 5 5 5 5 5 5 5 5 5 5 5 5 5 5 5 5 5 5 5 5 5 5 5 5 5 5 5 5 5 5 5 5 5 5 5 5 5 5 5 5 5 5 5 5 5 5 5 5 5 5 5 5 5 5 5 5 5 5 5 5 5 5 5 5 5 5 5 5 5 5 5 5 5 5 5 5 5 5 5 5 5 5 5 5 5 5 5 5 5 5 5 5 5 5 5 5 5 5 5 5 5 5 5 5 5 5 5 5 5 5 5 5 5 5 5 5 5 5 5 5 5 5 5 5 5 5 5 5 5 5 5 5 5 5 5 5 ",
"5 5 5 5 5 5 5 5 5 5 5 5 5 5 5 5 5 5 5 5 5 5 5 5 5 5 5 5 5 5 5 5 5 5 5 5 5 5 5 5 5 5 5 5 5 5 5 5 5 5 5 5 5 5 5 5 5 5 5 5 5 5 5 5 5 5 5 5 5 5 5 5 5 5 5 5 5 5 5 5 5 5 5 5 5 5 5 5 5 5 5 5 5 5 5 5 5 5 5 5 5 5 5 5 5 5 5 5 5 5 5 5 5 5 5 5 5 5 5 5 5 5 5 5 5 5 5 5 5 5 5 5 5 5 5 5 5 5 5 5 5 5 5 5 5 5 5 5 5 5 5 5 5 5 5 5 5 5 5 5 5 5 5 5 5 5 5 5 5 5 5 5 5 5 5 5 5 5 5 5 5 5 5 5 5 5 5 5 5 5 5 5 5 5 5 5 5 5 5 5 5 5 5 5 5 5 5 5 5 5 5 5 5 5 5 5 5 5 5 5 5 5 5 5 5 5 5 5 5 5 5 5 5 5 5 5 5 5 5 5 5 5 5 5 5 5 5 5 5 5 5 5 5 5 5 5 "
};
