/* XPM */
static char *deesser_mono[] = {
/* columns rows colors chars-per-pixel */
"256 256 256 2 ",
"   c #262C37",
".  c #024A31",
"X  c #53502E",
"o  c #524F2E",
"O  c #5E5428",
"+  c #11515F",
"@  c #095251",
"#  c #01654C",
"$  c #00684C",
"%  c #007354",
"&  c #00795B",
"*  c #076A51",
"=  c #115566",
"-  c #255E6B",
";  c #336B70",
":  c #176860",
">  c #726E53",
",  c #7C7962",
"<  c #706F71",
"1  c #4D6164",
"2  c #5D1A6A",
"3  c #A77A1D",
"4  c #D6701B",
"5  c #D3762D",
"6  c #E57824",
"7  c #827D66",
"8  c #95796E",
"9  c #BA7470",
"0  c #A07456",
"q  c #CC695A",
"w  c #D26F53",
"e  c #CD7466",
"r  c #D37869",
"t  c #CE7467",
"y  c #C8565B",
"u  c #BF3771",
"i  c #00885B",
"p  c #008A63",
"a  c #10966F",
"s  c #279C7A",
"d  c #568A77",
"f  c #D98237",
"g  c #88846B",
"h  c #8C8874",
"j  c #928E78",
"k  c #95917D",
"l  c #99947A",
"z  c #908A6E",
"x  c #A98B60",
"c  c #D48C52",
"v  c #D48679",
"b  c #CE8F73",
"n  c #DD9966",
"m  c #A58217",
"M  c #004685",
"N  c #0A588F",
"B  c #1F6C97",
"V  c #4E7B8C",
"C  c #2C7BF3",
"Z  c #771783",
"A  c #A76CA4",
"S  c #C76595",
"D  c #C137D3",
"F  c #B169CD",
"G  c #C54DD2",
"H  c #CA64D6",
"J  c #C664D5",
"K  c #CB7AD5",
"L  c #D179DA",
"P  c #D179D8",
"I  c #CE75C8",
"U  c #A430B3",
"Y  c #0CAA82",
"T  c #10AB83",
"R  c #37BB98",
"E  c #38BA95",
"W  c #3AA388",
"Q  c #019CAB",
"!  c #1893A8",
"~  c #2891A8",
"^  c #3496AB",
"/  c #01A0AE",
"(  c #05A5B4",
")  c #17AAB7",
"_  c #17A7B1",
"`  c #2EAEB9",
"'  c #249491",
"]  c #4C918E",
"[  c #6E8F94",
"{  c #658B93",
"}  c #719491",
"|  c #6DB099",
" . c #4D8FA9",
".. c #4BAEB8",
"X. c #48A8B3",
"o. c #5AB5BE",
"O. c #51ABB2",
"+. c #7AB3BB",
"@. c #73B4AB",
"#. c #5BA49D",
"$. c #78C6AE",
"%. c #0487EC",
"&. c #279DE0",
"*. c #53B6C2",
"=. c #4DB2C9",
"-. c #70B4D1",
";. c #5B9EEA",
":. c #70C6CB",
">. c #5BC2CD",
",. c #9D9984",
"<. c #999686",
"1. c #9E9C94",
"2. c #979895",
"3. c #8C938C",
"4. c #A19E8B",
"5. c #A19C86",
"6. c #A09E97",
"7. c #A19F98",
"8. c #B9918A",
"9. c #94A497",
"0. c #A5A18D",
"q. c #A4A39B",
"w. c #ADAA9A",
"e. c #A9A694",
"r. c #B2AD9C",
"t. c #B1B19B",
"y. c #9CAEAE",
"u. c #95A8A6",
"i. c #83B7B7",
"p. c #86B8B9",
"a. c #93B1B0",
"s. c #ACABA3",
"d. c #A7A6A0",
"f. c #B3AFA3",
"g. c #B5B2A4",
"h. c #B5B3AC",
"j. c #BDBAAC",
"k. c #B9B6A8",
"l. c #BDBCB3",
"z. c #B5BAB4",
"x. c #A7B7B4",
"c. c #AA90AD",
"v. c #D7968A",
"b. c #D1948B",
"n. c #DBA599",
"m. c #CFB090",
"M. c #C1BEB2",
"N. c #C9BCB4",
"B. c #D0B5AB",
"V. c #E2B7AD",
"C. c #E3A490",
"Z. c #8DC9B4",
"A. c #AEC7BB",
"S. c #C4C2B6",
"D. c #C6C4B9",
"F. c #C8C6BB",
"G. c #CBC9BE",
"H. c #CBC8B5",
"J. c #D5C8BA",
"K. c #D5CBB2",
"L. c #E7C8B9",
"P. c #E2C09C",
"I. c #8BB9CB",
"U. c #A3BCC2",
"Y. c #B6B6D7",
"T. c #A5B8E1",
"R. c #A8A0DD",
"E. c #D384DB",
"W. c #CF91D7",
"Q. c #D2ADD5",
"!. c #DCA5E0",
"~. c #DBABE1",
"^. c #CFB6E3",
"/. c #E2B8E3",
"(. c #E2A9E5",
"). c #DCA5D3",
"_. c #93CCD1",
"`. c #AAC4C5",
"'. c #B8C9C6",
"]. c #B5D5CB",
"[. c #AAD8DA",
"{. c #B9D7D8",
"}. c #ADCED0",
"|. c #BADAE1",
" X c #AED3E5",
".X c #BBE3E6",
"XX c #9FD1DF",
"oX c #CECCC3",
"OX c #C6CBC8",
"+X c #D1CEC4",
"@X c #D7CCC6",
"#X c #CDD6CD",
"$X c #C7D4CA",
"%X c #D2D0C6",
"&X c #D5D4CC",
"*X c #D9D6CF",
"=X c #D9D7CC",
"-X c #C6CCD6",
";X c #CACED5",
":X c #C1C7DA",
">X c #CDD1D4",
",X c #C3DED5",
"<X c #C7D8D8",
"1X c #D6D6D1",
"2X c #D9D7D0",
"3X c #DBD9D2",
"4X c #D8DCD7",
"5X c #D9C7D5",
"6X c #E8D7CB",
"7X c #E3DCD5",
"8X c #E1DFD9",
"9X c #E9DDD8",
"0X c #E9DAD5",
"qX c #F5DDD7",
"wX c #F7DFD9",
"eX c #E7CDC6",
"rX c #CBE0DE",
"tX c #C5E1DA",
"yX c #DAE4DD",
"uX c #D7E3D8",
"iX c #D7E0CF",
"pX c #E4E3DD",
"aX c #EAE2DB",
"sX c #E6E7D9",
"dX c #F3E7DF",
"fX c #F4E7DB",
"gX c #EAEBD6",
"hX c #C2DEE4",
"jX c #C6D6E3",
"kX c #D2D3E7",
"lX c #E8D0E7",
"zX c #CAE2E5",
"xX c #D4E4E2",
"cX c #DAE6E3",
"vX c #D8E6EB",
"bX c #D9E8E9",
"nX c #D6EEF2",
"mX c #E7E6E0",
"MX c #EBE7E2",
"NX c #E4E9E5",
"BX c #EBEAE5",
"VX c #E6ECEA",
"CX c #EFEEE9",
"ZX c #EDE3E9",
"AX c #F0EFEA",
"SX c #F3EAE4",
"DX c #EBF3E9",
"FX c #F2F1EC",
"GX c #FCF4EE",
"HX c #F4FDEC",
"JX c #F6F3E6",
"KX c #F5F5F1",
"LX c #FAF6F1",
"PX c #FBF9F5",
"IX c #FAFCF8",
"UX c #EBF2F2",
/* pixels */
"3X3X3X3X3X3X3X3X3X3X3X3X3X3X3X3X3X3X3X3X3X3X3X3X3X3X3X3X3X3X3X3X3X3X3X3X3X3X3X3X3X3X3X3X3X3X3X3X3X3X3X3X3X3X3X3X3X3X3X3X3X3X3X3X3X3X3X3X3X3X3X3X3X3X3X3X3X3X3X3X3X3X3X3X3X3X3X3X3X3X3X3X3X3X3X3X3X3X3X3X3X3X3X3X3X3X3X3X3X3X3X3X3X3X3X3X3X3X3X3X3X3X3X3X3X3X3X3X3X3X3X3X3X3X3X3X3X3X3X3X3X3X3X3X3X3X3X3X3X3X3X3X3X3X3X3X3X3X3X3X3X3X3X3X3X3X3X3X3X3X3X3X3X3X3X3X3X3X3X3X3X3X3X3X3X3X3X3X3X3X3X3X3X3X3X3X3X3X3X3X3X3X3X3X3X3X3X3X3X3X3X3X3X3X3X3X3X3X3X3X3X3X3X3X3X3X3X3X3X3X3X3X3X3X3X3X3X3X3X3X3X3X3X3X3X3X3X3X3X3X3X3X3X3X3X3X",
"3X3X3X3X3X3X3X3X3X3X3X3X3X3X3X3X3X3X3X3X3X3X3X3X3X3X3X3X3X3X3X3X3X3X3X3X3X3X3X3X3X3X3X3X3X3X3X3X3X3X3X3X3X3X3X3X3X3X3X3X3X3X3X3X3X3X3X3X3X3X3X3X3X3X3X3X3X3X3X3X3X3X3X3X3X3X3X3X3X3X3X3X3X3X3X3X3X3X3X3X3X3X3X3X3X3X3X3X3X3X3X3X3X3X3X3X3X3X3X3X3X3X3X3X3X3X3X3X3X3X3X3X3X3X3X3X3X3X3X3X3X3X3X3X3X3X3X3X3X3X3X3X3X3X3X3X3X3X3X3X3X3X3X3X3X3X3X3X3X3X3X3X3X3X3X3X3X3X3X3X3X3X3X3X3X3X3X3X3X3X3X3X3X3X3X3X3X3X3X3X3X3X3X3X3X3X3X3X3X3X3X3X3X3X3X3X3X3X3X3X3X3X3X3X3X3X3X3X3X3X3X3X3X3X3X3X3X3X3X3X3X3X3X3X3X3X3X3X3X3X3X3X3X3X3X3X",
"3X3X3X3X3X3X3X3X3X3X3X3X3X3X3X3X3X3X3X3X3X3X3X3X3X3X3X3X3X3X3X3X3X3X3X3X3X3X3X3X3X3X3X3X3X3X3X3X3X3X3X3X3X3X3X3X3X3X3X3X3X3X3X3X3X3X3X3X3X3X3X3X3X3X3X3X3X3X3X3X3X3X3X3X3X3X3X3X3X3X3X3X3X3X3X3X3X3X3X3X3X3X3X3X3X3X3X3X3X3X3X3X3X3X3X3X3X3X3X3X3X3X3X3X3X3X3X3X3X3X3X3X3X3X3X3X3X3X3X3X3X3X3X3X3X3X3X3X3X3X3X3X3X3X3X3X3X3X3X3X3X3X3X3X3X3X3X3X3X3X3X3X3X3X3X3X3X3X3X3X3X3X3X3X3X3X3X3X3X3X3X3X3X3X3X3X3X3X3X3X3X3X3X3X3X3X3X3X3X3X3X3X3X3X3X3X3X3X3X3X3X3X3X3X3X3X3X3X3X3X3X3X3X3X3X3X3X3X3X3X3X3X3X3X3X3X3X3X3X3X3X3X3X3X3X3X",
"3X3X3X3X3X3X3X3X3X3X3X3X3X3X3X3X3X3X3X3X3X3X3X3X3X3X3X3X3X3X3X3X3X3X3X3X3X3X3X3X3X3X3X3X3X3X3X3X3X3X3X3X3X3X3X3X3X3X3X3X3X3X3X3X3X3X3X3X3X3X3X3X3X3X3X3X3X3X3X3X3X3X3X3X3X3X3X3X3X3X3X3X3X3X3X3X3X3X3X3X3X3X3X3X3X3X3X3X3X3X3X3X3X3X3X3X3X3X3X3X3X3X3X3X3X3X3X3X3X3X3X3X3X3X3X3X3X3X3X3X3X3X3X3X3X3X3X3X3X3X3X3X3X3X3X3X3X3X3X3X3X3X3X3X3X3X3X3X3X3X3X3X3X3X3X3X3X3X3X3X3X3X3X3X3X3X3X3X3X3X3X3X3X3X3X3X3X3X3X3X3X3X3X3X3X3X3X3X3X3X3X3X3X3X3X3X3X3X3X3X3X3X3X3X3X3X3X3X3X3X3X3X3X3X3X3X3X3X3X3X3X3X3X3X3X3X3X3X3X3X3X3X3X3X3X3X",
"3X3X3X3X3X3X3X3X3X3X3X3X3X3X3X3X3X3X3X3X3X3X3X3X3X3X3X3X3X3X3X3X3X3X3X3X3X3X3X3X3X3X3X3X3X3X3X3X3X3X3X3X3X3X3X3X3X3X3X3X3X3X3X3X3X3X3X3X3X3X3X3X3X3X3X3X3X3X3X3X3X3X3X3X3X3X3X3X3X3X3X3X3X3X3X3X3X3X3X3X3X3X3X3X3X3X3X3X3X3X3X3X3X3X3X3X3X3X3X3X3X3X3X3X3X3X3X3X3X3X3X3X3X3X3X3X3X3X3X3X3X3X3X3X3X3X3X3X3X3X3X3X3X3X3X3X3X3X3X3X3X3X3X3X3X3X3X3X3X3X3X3X3X3X3X3X3X3X3X3X3X3X3X3X3X3X3X3X3X3X3X3X3X3X3X3X3X3X3X3X3X3X3X3X3X3X3X3X3X3X3X3X3X3X3X3X3X3X3X3X3X3X3X3X3X3X3X3X3X3X3X3X3X3X3X3X3X3X3X3X3X3X3X3X3X3X3X3X3X3X3X3X3X3X3X3X",
"3X3X3X3X3X3X3X3X3X3X3X3X3X3X3X3X3X3X3X3X3X3X3X3X3X3X3X3X3X3X3X3X3X3X3X3X3X3X3X3X3X3X3X3X3X3X3X3X3X3X3X3X3X3X3X3X3X3X3X3X3X3X3X3X3X3X3X3X3X3X3X3X3X3X3X3X3X3X3X3X3X3X3X3X3X3X3X3X3X3X3X3X3X3X3X3X3X3X3X3X3X3X3X3X3X3X3X3X3X3X3X3X3X3X3X3X3X3X3X3X3X3X3X3X3X3X3X3X3X3X3X3X3X3X3X3X3X3X3X3X3X3X3X3X3X3X3X3X3X3X3X3X3X3X3X3X3X3X3X3X3X3X3X3X3X3X3X3X3X3X3X3X3X3X3X3X3X3X3X3X3X3X3X3X3X3X3X3X3X3X3X3X3X3X3X3X3X3X3X3X3X3X3X3X3X3X3X3X3X3X3X3X3X3X3X3X3X3X3X3X3X3X3X3X3X3X3X3X3X3X3X3X3X3X3X3X3X3X3X3X3X3X3X3X3X3X3X3X3X3X3X3X3X3X3X3X",
"3X3X3X3X3X3X3X3X3X3X3X3X3X3X3X3X3X3X3X3X3X3X3X3X3X3X3X3X3X3X3X3X3X3X3X3X3X3X3X3X3X3X3X3X3X3X3X3X3X3X3X3X3X3X3X3X3X3X3X3X3X3X3X3X3X3X3X3X3X3X3X3X3X3X3X3X3X3X3X3X3X3X3X3X3X3X3X3X3X3X3X3X3X3X3X3X3X3X3X3X3X3X3X3X3X3X3X3X3X3X3X3X3X3X3X3X3X3X3X3X3X3X3X3X3X3X3X3X3X3X3X3X3X3X3X3X3X3X3X3X3X3X3X3X3X3X3X3X3X3X3X3X3X3X3X3X3X3X3X3X3X3X3X3X3X3X3X3X3X3X3X3X3X3X3X3X3X3X3X3X3X3X3X3X3X3X3X3X3X3X3X3X3X3X3X3X3X3X3X3X3X3X3X3X3X3X3X3X3X3X3X3X3X3X3X3X3X3X3X3X3X3X3X3X3X3X3X3X3X3X3X3X3X3X3X3X3X3X3X3X3X3X3X3X3X3X3X3X3X3X3X3X3X3X3X3X",
"3X3X3X3X3X3X3X3X3X3X3X3X3X3X3X3X3X3X3X3X3X3X3X3X3X3X3X3X3X3X3X3X3X3X3X3X3X3X3X3X3X3X3X3X3X3X3X3X3X3X3X3X3X3X3X3X3X3X3X3X3X3X3X3X3X3X3X3X3X3X3X3X3X3X3X3X3X3X3X3X3X3X3X3X3X3X3X3X3X3X3X3X3X3X3X3X3X3X3X3X3X3X3X3X3X3X3X3X3X3X3X3X3X3X3X3X3X3X3X3X3X3X3X3X3X3X3X3X3X3X3X3X3X3X3X3X3X3X3X3X3X3X3X3X3X3X3X3X3X3X3X3X3X3X3X3X3X3X3X3X3X3X3X3X3X3X3X3X3X3X3X3X3X3X3X3X3X3X3X3X3X3X3X3X3X3X3X3X3X3X3X3X3X3X3X3X3X3X3X3X3X3X3X3X3X3X3X3X3X3X3X3X3X3X3X3X3X3X3X3X3X3X3X3X3X3X3X3X3X3X3X3X3X3X3X3X3X3X3X3X3X3X3X3X3X3X3X3X3X3X3X3X3X3X3X3X",
"3X3X3X3X3X3X3X3X3X3X3X3X3X3X3X3X3X3X3X3X3X3X3X3X3X3X3X3X3X3X3X3X3X3X3X3X3X3X3X3X3X3X3X3X3X3X3X3X3X3X3X3X3X3X3X3X3X3X3X3X3X3X3X3X3X3X3X3X3X3X3X3X3X3X3X3X3X3X3X3X3X3X3X3X3X3X3X3X3X3X3X3X3X3X3X3X3X3X3X3X3X3X3X3X3X3X3X3X3X3X3X3X3X3X3X3X3X3X3X3X3X3X3X3X3X3X3X3X3X3X3X3X3X3X3X3X3X3X3X3X3X3X3X3X3X2X2X2X2X2X2X2X2X2X2X2X2X2X2X2X2X2X2X2X2X2X2X2X2X2X2X2X2X2X2X2X2X2X2X2X2X2X2X2X2X2X2X2X2X2X2X2X2X2X2X2X2X2X2X2X2X2X2X2X2X2X2X2X2X2X2X2X2X2X2X2X2X2X2X2X2X2X2X2X2X2X2X2X2X2X2X2X2X2X2X2X2X2X2X2X2X2X2X2X2X2X2X2X2X2X2X2X2X2X2X2X",
"3X3X3X3X3X3X3X3X3X3X3X3X3X3X3X3X3X3X3X3X3X3X3X3X3X3X3X3X3X3X3X3X3X3X3X3X3X3X3X3X3X3X3X3X3X3X3X3X3X3X3X3X3X3X3X3X3X3X3X3X3X3X3X3X3X3X3X3X3X3X3X3X3X3X3X3X3X3X3X3X3X3X3X3X3X3X3X3X3X3X3X3X3X3X3X3X3X3X3X3X3X3X3X3X3X3X3X3X3X3X3X3X3X3X3X3X3X3X3X3X3X3X3X3X3X3X3X3X3X3X3X3X3X3X3X3X3X3X3X3X3X3X3X2X3X3X3X3X3X3X3X3X3X3X3X3X3X3X3X3X3X3X3X3X3X3X3X3X3X3X3X3X3X3X3X3X3X3X3X3X3X3X3X3X3X3X3X3X3X3X3X3X3X3X3X3X3X3X3X3X3X3X3X3X3X3X3X3X3X3X3X3X3X3X3X3X3X3X3X3X3X3X3X3X3X3X3X3X3X3X3X3X3X3X3X3X3X3X3X3X3X3X3X3X3X3X3X3X3X3X3X3X3X3X3X3X",
"3X3X3X3X3X3X3X3X3X3X3X3X3X3X3X3X3X3X3X3X3X3X3X3X3X3X3X3X3X3X3X3X3X3X3X3X3X3X3X3X3X3X3X3X3X3X3X3X3X3X3X3X3X3X3X3X3X3X3X3X3X3X3X3X3X3X3X3X3X3X3X3X3X3X3X3X3X3X3X3X3X3X3X3X3X3X3X3X3X3X3X3X3X3X3X3X3X3X3X3X3X3X3X3X3X3X3X3X3X3X3X3X3X3X3X3X3X3X3X3X3X3X3X3X3X3X3X3X3X3X3X3X3X3X3X3X3X3X3X3X3X3X3X2X8XpXpXpXpXpXpXpXpXpXpXpXpXpXpXpXpXpXpXpXpXpXpXpXpXpXpXpXpXpXpXpXpXpXpXpXpXpXpXpXpXpXpXpXpXpXpXpXpXpXpXpXpXpXpXpXpXpXpXpXpXpXpXpXpXpXpXpXpXpXpXpXpXpXpXpXpXpXpXpXpXpXpXpXpXpXpXpXpXpXpXpXpXpXpXpXpXpXpXpXpXpXpXpXpXpXpXpXpXpXpXpX",
"3X3X3X3X3X3X3X3X3X3X3X3X3X3X3X3X3X3X3X3X3X3X3X3X3X3X3X3X3X3X3X3X3X3X3X3X3X3X3X3X3X3X3X3X3X3X3X3X3X3X3X3X3X3X3X3X3X3X3X3X3X3X3X3X3X3X3X3X3X3X3X3X3X3X3X3X3X3X3X3X3X3X3X3X3X3X3X3X3X3X3X3X3X3X3X3X3X3X3X3X3X3X3X3X3X3X3X3X3X3X3X3X3X3X3X3X3X3X3X3X3X3X3X3X3X3X3X3X3X3X3X3X3X3X3X3X3X3X3X3X3X3X2X8XpXpXpXpXpXpXpXpXpXpXpXpXpXpXpXpXpXpXpXpXpXpXpXpXpXpXpXpXpXpXpXpXpXpXpXpXpXpXpXpXpXpXpXpXpXpXpXpXpXpXpXpXpXpXpXpXpXpXpXpXpXpXpXpXpXpXpXpXpXpXpXpXpXpXpXpXpXpXpXpXpXpXpXpXpXpXpXpXpXpXpXpXpXpXpXpXpXpXpXpXpXpXpXpXpXpXpXpXpXpXpXpX",
"3X3X3X3X3X3X3X3X3X3X3X3X3X3X3X3X3X3X3X3X3X3X3X3X3X3X3X3X3X3X3X3X3X3X3X3X3X3X3X3X3X3X3X3X3X3X3X3X3X3X3X3X3X3X3X3X3X3X3X3X3X3X3X3X3X3X3X3X3X3X3X3X3X3X3X3X3X3X3X3X3X3X3X3X3X3X3X3X3X3X3X3X3X3X3X3X3X3X3X3X3X3X3X3X3X3X3X3X3X3X3X3X3X3X3X3X3X3X3X3X3X3X3X3X3X3X3X3X3X3X3X3X3X3X3X3X3X3X3X3X3X2X8XpXpXpXpXpXpXpXpXpXpXpXpXpXpXpXpXpXpXpXpXpXpXpXpXpXpXpXpXpXpXpXpXpXpXpXpXpXpXpXpXpXpXpXpXpXpXmXCXMXpXpXpXpXmXpXpXpXpXpXpXpXpXpXpXpXpXpXpXpXpXpXpXpXpXpXpXpXpXpXpXpXpXpXpXpXpXpXpXpXpXpXpXpXpXpXpXpXpXpXpXpXpXpXpXpXpXpXpXpXpXpXpXpX",
"3X3X3X3X3X3X3X3X3X3X3X3X3X3X3X3X3X3X3X3X3X3X3X3X3X3X3X3X3X3X3X3X3X3X3X3X3X3X3X3X3X3X3X3X3X3X3X3X3X3X3X3X3X3X3X3X3X3X3X3X3X3X3X3X3X3X3X3X3X3X3X3X3X3X3X3X3X3X3X3X3X3X3X3X3X3X3X3X3X3X3X3X3X3X3X3X3X3X3X3X3X3X3X3X3X3X3X3X3X3X3X3X3X3X3X3X3X3X3X3X3X3X3X3X3X3X3X3X3X3X3X3X3X3X3X3X3X3X3X3X2X8XpXpXpXpXpXpXpXpXaXpXpXpXpXpXpXpXpXpXpXpXpXpXpXpXpXpXpXpXpXpXpXpXpXpXpXpXpXpXpXpXpXpXpXpXpXpXmX+Xw.G.pXBXCX%Xe.MXCXBXpXBXCXpX3XBXpXmXBXCXpXmXBXBXmXCXpXmXCXMXpXCXBXpX3XBXpXpXpXpXpXpXpXpXpXpXpXpXpXpXpXpXpXpXpXpXpXpXpXpXpXpXpXpXpXpX",
"3X3X3X3X3X3X3X3X3X3X3X3X3X3X3X3X3X3X3X3X3X3X3X3X3X3X3X3X3X3X3X3X3X3X3X3X3X3X3X3X3X3X3X3X3X3X3X3X3X3X3X3X3X3X3X3X3X3X3X3X3X3X3X3X3X3X3X3X3X3X3X3X3X3X3X3X3X3X3X3X3X3X3X3X3X3X3X3X3X3X3X3X3X3X3X3X3X3X3X3X3X3X3X3X3X3X3X3X3X3X3X3X3X3X3X3X3X3X3X3X3X3X3X3X3X3X3X3X3X3X3X3X3X3X3X3X3X3X3X2X8XpXpXpXpXpXpXpXaX4X_.4XpXpXpXpXpXpXpXpXpXpXpXpXpXpXpXpXpXpXpXpXpXpXpXpXpXpXpXpXpXpXpXpXpXpXpXmX2Xh j.M.mXk.F.%Xl MXg.F.CXD.k.w.g +XMX&XS.g.8X*XS.F.&Xr.4X3Xr.G.pXg.%Xj.7 oXmXpXpXpXpXpXpXpXpXpXpXpXpXpXpXpXpXpXpXpXpXpXpXpXpXpXpXpXpXpX",
"3X3X3X3X3X3X3X3X3X3X3X3X3X3X3X3X3X3X3X3X3X3X3X3X3X3X3X3X3X3X3X3X3X3X3X3X3X3X3X3X3X3X3X3X3X3X3X3X3X3X3X3X3X3X3X3X3X3X3X3X3X3X3X3X3X3X3X3X3X3X3X3X3X3X3X3X3X3X3X3X3X3X3X3X3X3X3X3X3X3X3X3X3X3X3X3X3X3X3X3X3X3X3X3X3X3X3X3X3X3X3X3X3X3X3X3X3X3X3X3X3X3X3X3X3X3X3X3X3X3X3X3X3X3X3X3X3X3X2X8XpXpXpXpXpXpXpXpX4X-.<XaXpXpXpXpXpXpXpXpXpXpXpXpXpXpXpXpXpXpXpXpXpXpXpXpXpXpXpXpXpXpXpXpXpXpXpXpX4Xz M.KXr.,.k e.e.e.4.j g.k S.w.h &XCXr.z e.0.w.g G.k 0.l k e.&X0.4.k 0.h &XpXpXpXpXpXpXpXpXpXpXpXpXpXpXpXpXpXpXpXpXpXpXpXpXpXpXpXpXpXpX",
"3X3X3X3X3X3X3X3X3X3X3X3X3X3X3X3X3X3X3X3X3X3X3X3X3X3X3X3X3X3X3X3X3X3X3X3X3X3X3X3X3X3X3X3X3X3X3X3X3X3X3X3X3X3X3X3X3X3X3X3X3X3X3X3X3X3X3X3X3X3X3X3X3X3X3X3X3X3X3X3X3X3X3X3X3X3X3X3X3X3X3X3X3X3X3X3X3X3X3X3X3X3X3X3X3X3X3X3X3X3X3X3X3X3X3X3X3X3X3X3X3X3X3X3X3X3X3X3X3X3X3X3X3X3X3X3X3X2X8XpXpXpXpXpXpXpXpXaX<X-.yXaXpXpXpXpXpXpXpXpXpXpXpXpXpXpXpXpXpXpXpXpXpXpXpXpXpXpXpXpXpXpXpXpXpXpXpXpXMX8X,.0.k ,.0.w.0.z 4.0.k k.IXD.w.FXBXg.g.KXl e.M.&X, w.0.S.5.oXg 0.4.r.w.FXpXpXpXpXpXpXpXpXpXpXpXpXpXpXpXpXpXpXpXpXpXpXpXpXpXpXpXpXpXpX",
"3X3X3X3X3X3X3X3X3X3X3X3X3X3X3X3X3X3X3X3X3X3X3X3X3X3X3X3X3X3X3X3X3X3X3X3X3X3X3X3X3X3X3X3X3X3X3X3X3X3X3X3X3X3X3X3X3X3X3X3X3X3X3X3X3X3X3X3X3X3X3X3X3X3X3X3X3X3X3X3X3X3X3X3X3X3X3X3X3X3X3X3X3X3X3X3X3X3X3X3X3X3X3X3X3X3X3X3X3X3X3X3X3X3X3X3X3X3X3X3X3X3X3X3X3X3X3X3X3X3X3X3X3X3X3X3X2X8XpXpXpXpXpXpXpXpXpXpXaX<X-.4XpXpXpXpXpXpXpXpXpXpXpXpXpXpXpXpXpXpXpXpXpXpXpXpXpXpXpXpXpXpXpXpXpXpXpXpX3X+XoXk 4.e.3XD.,.5.t.4Xj.k 2Xj.k 4XCXg.k M.,.w.g.4Xz oX&X*Xg.k ,.g.3XD.j 4XpXpXpXpXpXpXpXpXpXpXpXpXpXpXpXpXpXpXpXpXpXpXpXpXpXpXpXpXpXpX",
"3X3X3X3X3X3X3X3X3X3X3X3X3X3X3X3X3X3X3X3X3X3X3X3X3X3X3X3X3X3X3X3X3X3X3X3X3X3X3X3X3X3X3X3X3X3X3X3X3X3X3X3X3X3X3X3X3X3X3X3X3X3X3X3X3X3X3X3X3X3X3X3X3X3X3X3X3X3X3X3X3X3X3X3X3X3X3X3X3X3X3X3X3X3X3X3X3X3X3X3X3X3X3X3X3X3X3X3X3X3X3X3X3X3X3X3X3X3X3X3X3X3X3X3X3X3X3X3X3X3X3X3X3X3X3X2X8XpXpXpXpXpXpXpXpXpXpXpXpXaX4XyXpXpXpXpXpXpXpXpXpXpXpXpXpXpXpXpXpXpXpXpXpXpXpXpXpXpXpXpXpXpXpXpXpXpXpXpX4Xe.,.+XpX0.0.G.M.3X4.e.4Xg.5.*Xe.M.FXk.j 0.&XF.F.CXS.<.j.j.,.oX3X5.e.3Xe.M.MXpXpXpXpXpXpXpXpXpXpXpXpXpXpXpXpXpXpXpXpXpXpXpXpXpXpXpXpXpX",
"3X3X3X3X3X3X3X3X3X3X3X3X3X3X3X3X3X3X3X3X3X3X3X3X3X3X3X3X3X3X3X3X3X3X3X3X3X3X3X3X3X3X3X3X3X3X3X3X3X3X3X3X3X3X3X3X3X3X3X3X3X3X3X3X3X3X3X3X3X3X3X3X3X3X3X3X3X3X3X3X3X3X3X3X3X3X3X3X3X3X3X3X3X3X3X3X3X3X3X3X3X3X3X3X3X3X3X3X3X3X3X3X3X3X3X3X3X3X3X3X3X3X3X3X3X3X3X3X3X3X3X3X3X3X2X8XpXpXpXpXpXpXpXpXpXpXpXpXpXpXpXpXpXpXpXpXpXpXpXpXpXpXpXpXpXpXpXpXpXpXpXpXpXpXpXpXpXpXpXpXpXpXpXpXpXpXpXpXpXBXCXmXpXCXBXmXMXpXCXBXpXBXCXmXBXmXCXr.r.PXpXmXmXpXBXCXMXBXCXmXpXCXBXpXBXMXpXpXpXpXpXpXpXpXpXpXpXpXpXpXpXpXpXpXpXpXpXpXpXpXpXpXpXpXpXpX",
"2X2X2X2X2X2X2X2X2X2X2X2X2X2X2X2X2X2X2X2X2X2X2X2X2X2X2X2X2X2X2X2X2X2X2X2X2X2X2X2X2X2X2X2X2X2X2X2X2X2X2X2X2X2X2X2X2X2X2X2X2X2X2X2X2X2X2X2X2X2X2X2X2X2X2X2X2X2X2X2X2X2X2X2X2X2X2X2X2X2X2X2X2X2X2X2X2X2X2X2X2X2X2X2X2X2X2X2X2X2X2X2X2X2X2X2X2X2X2X2X2X2X2X2X2X2X2X2X2X2X2X2X2X2X8XpXpXpXpXpXpXpXpXpXpXpXpXpXpXpXpXpXpXpXpXpXpXpXpXpXpXpXpXpXpXpXpXpXpXpXpXpXpXpXpXpXpXpXpXpXpXpXpXpXpXpXpXpXpXpXpXpXpXpXpXpXpXpXpXpXpXpXpXpXpXpXMXG.F.mXpXpXpXpXpXpXpXpXpXpXpXpXpXpXpXpXpXpXpXpXpXpXpXpXpXpXpXpXpXpXpXpXpXpXpXpXpXpXpXpXpXpXpXpXpXpX",
"4X4X4X4X4X4X4X4X4X4X4X4X4X4X4X4X4X4X4X4X4X4X4X4X4X4X4X4X4X4X4X4X4X4X4X4X4X4X4X4X4X4X4X4X4X4X4X4X4X4X4X4X4X4X4X4X4X4X4X4X4X4X4X4X4X4X4X4X4X4X4X4X4X4X4X4X4X4X4X4X4X4X4X4X4X4X4X4X4X4X4X4X4X4X4X4X4X4X4X4X4X4X4X4X4X4X4X4X4X4X4X4X4X4X4X4X4X4X4X4X4X4X4X4X4X4X4X4X4X4X4X4X4X8XpXpXpXpXpXpXpXpXpXpXpXpXpXpXpXpXpXpXpXpXpXpXpXpXpXpXpXpXpXpXpXpXpXpXpXpXpXpXpXpXpXpXpXpXpXpXpXpXpXpXpXpXpXpXpXpXpXpXpXpXpXpXpXpXpXpXpXpXpXpXpXpXpXmXmXpXpXpXpXpXpXpXpXpXpXpXpXpXpXpXpXpXpXpXpXpXpXpXpXpXpXpXpXpXpXpXpXpXpXpXpXpXpXpXpXpXpXpXpXpXpXpX",
"mXmXmXmXmXmXmXmXmXmXmXmXmXmXmXmXmXmXmXmXmXmXmXmXmXmXmXmXmXmXmXmXmXmXmXmXmXmXmXmXmXmXmXmXmXmXmXmXmXmXmXmXmXmXmXmXmXmXmXmXmXmXmXmXmXmXmXmXmXmXmXmXmXmXmXmXmXmXmXmXmXmXmXmXmXmXmXmXmXmXmXmXmXmXmXmXmXmXmXmXmXmXmXmXmXmXmXmXmXmXmXmXmXmXmXmXmXmXmXmXmXmXmXmXmXmXmXmXmXmXmXmXmXpXpXpXpXpXpXpXpXpXpXpXpXpXpXpXpXpXpXpXpXpXpXpXpXpXpXpXpXpXpXpXpXpXpXpXpXpXpXpXpXpXmXmXmXmXmXmXmXmXmXmXmXmXmXmXmXmXmXmXmXmXmXmXmXmXmXmXmXmXmXmXmXmXmXpXpXmXmXmXmXmXmXmXmXmXmXmXmXmXmXmXmXmXmXmXmXmXmXmXmXmXmXmXmXmXmXmXmXmXmXmXmXmXmXmXmXmXmXmXmXmXmXmX",
"&X&X&X&X&X&X&X&X&X&X&X&X&X&X&X&X&X&X&X&X&X&X&X&X&X&X&X&X&X&X&X&X&X&X&X&X&X&X&X&X&X&X&X&X&X&X&X&X&X&X&X&X&X&X&X&X&X&X&X&X&X&X&X&X&X&X&X&X&X&X&X&X&X&X&X&X&X&X&X&X&X&X&X&X&X&X&X&X&X&X&X&X&X&X&X&X&X&X&X&X&X&X&X&X&X&X&X&X&X&X&X&X&X&X&X&X&X&X&X&X&X&X&X&X&X&X&X&X&X&X&X&X&XpXpX4X4X4X4X4X4X4X4X4X4X4X4X4X4X4X4X4X4X4XpXpX8X4X4X4X4X4X4X4X4X4X4X4X4X4X4X4XpXpX&X&X&X&X&X&X&X&X&X&X&X&X&X&X&X&X&X&X&X&X&X&X&X&X&X&X&X&X&X&X&X&X&X&X&X&X&X&X&X&X&X&X&X&X&X&X&X&X&X&X&X&X&X&X&X&X&X&X&X&X&X&X&X&X&X&X&X&X&X&X&X&X&X&X&X&X&X&X&X&X&X&X",
"D.D.D.D.D.D.D.D.D.D.D.D.D.D.D.D.D.D.D.D.D.D.D.D.D.D.D.D.D.D.D.D.D.D.D.D.D.D.D.D.D.D.D.D.D.D.D.D.D.D.D.D.D.D.D.D.D.D.D.D.D.D.D.D.D.D.D.D.D.D.D.D.D.D.D.D.D.D.D.D.D.D.D.D.D.D.D.D.D.D.D.D.D.D.D.D.D.D.D.D.D.D.D.D.D.D.D.D.D.D.D.D.D.D.D.D.D.D.D.D.D.D.D.D.D.D.D.D.D.D.D.S.G.pXpX2X2X2X2X2X2X3X3X3X3X3X3X3X2X2X2X2X2X*X8XpX3X*X2X2X*X*X2X2X2X*X2X2X2X2X2X2XpXpXD.D.D.S.S.D.S.S.D.S.S.S.D.S.D.D.D.D.S.S.S.S.S.S.D.D.S.S.D.D.S.D.S.D.D.D.D.D.D.D.D.D.D.D.D.D.D.D.D.D.D.D.D.D.D.D.D.D.D.D.D.D.D.D.D.D.D.D.D.D.D.D.D.D.D.D.D.D.D.D.D.D.",
"F.F.F.F.F.F.F.F.F.F.F.F.F.F.F.F.F.F.F.F.F.F.F.F.F.F.F.F.F.F.F.F.F.F.F.F.F.F.F.F.F.F.F.F.F.F.F.F.F.F.F.F.F.F.F.F.F.F.F.F.F.F.F.F.F.F.F.F.F.F.F.F.F.F.F.F.F.F.F.F.F.F.F.F.F.F.F.F.F.F.F.F.F.F.F.F.F.F.F.F.F.F.F.F.F.F.F.F.F.F.F.F.F.F.F.F.F.F.F.F.F.F.F.F.F.F.F.F.F.F.F.F.oXpXpX2X3X3X3X2X3X+XM.F.S.D.M.G.3X2X3X3X3X2X8XpX4X2X2X3XpX4X2X2X2X3X3X2X2X2X3X3XpXpXF.F.G.oXoXG.oXoXG.oXoXoXF.oXF.oXG.G.oXoXoXoXoXoXG.G.oXoXG.G.oXF.oXG.F.F.F.F.F.F.F.F.F.F.F.F.F.F.F.F.F.F.F.F.F.F.F.F.F.F.F.F.F.F.F.F.F.F.F.F.F.F.F.F.F.F.F.F.F.F.F.F.",
"F.F.F.F.F.F.F.F.F.F.F.F.F.F.F.F.F.F.F.F.F.F.F.F.F.F.F.F.F.F.F.F.F.F.F.F.F.F.F.F.F.F.F.F.F.F.F.F.F.F.F.F.F.F.F.F.F.F.F.F.F.F.F.F.F.F.F.F.F.F.F.F.F.F.F.F.F.F.F.F.F.F.F.F.F.F.F.F.F.F.F.F.F.F.F.F.F.F.F.F.F.F.F.F.F.F.F.F.F.F.F.F.F.F.F.F.F.F.F.F.F.F.F.F.F.F.F.F.F.F.F.D.G.pXpX2X3X3X3X2X4XD.S.r.5.r.+Xj.4X2X3X3X3X2X8XpX4X*X4X&Xg.S.3X8X8XS.oX8X8X3X2X3XpXpXF.G.j.j l M.4.z r.5.j 0.D.0.oXr.k.k.j 0.,.z 5.l w.S.l l M.k.,.oXw.M.G.F.F.F.F.F.F.F.F.F.F.F.F.F.F.F.F.F.F.F.F.F.F.F.F.F.F.F.F.F.F.F.F.F.F.F.F.F.F.F.F.F.F.F.F.F.F.F.",
"F.F.F.F.F.F.F.F.F.F.F.F.F.F.F.F.F.F.F.F.F.F.F.F.F.F.F.F.F.F.F.F.F.F.F.F.F.F.F.F.F.F.F.F.F.F.F.F.F.F.F.F.F.F.F.F.F.F.F.F.F.F.F.F.F.F.F.F.F.F.F.F.F.F.F.F.F.F.F.F.F.F.F.F.F.F.F.F.F.F.F.F.F.F.F.F.F.F.F.F.F.F.F.F.F.F.F.F.F.F.F.F.F.F.F.F.F.F.F.F.F.F.F.F.F.F.F.F.F.F.F.D.G.pXpX2X3X3X3X2X3XG.e.g.2Xr.g.D.3X2X3X3X3X2X8XpX3X3X+Xg ,.g.*Xg.oX+X+XG.k.&X3X3XpXpXF.oXr.,.w.,.l j.F.z M.l 0.j +X5.4.j j.M.M.z S.l r.l r.g.l r.> j.,.k.G.F.F.F.F.F.F.F.F.F.F.F.F.F.F.F.F.F.F.F.F.F.F.F.F.F.F.F.F.F.F.F.F.F.F.F.F.F.F.F.F.F.F.F.F.F.F.F.",
"F.F.F.F.F.F.F.F.F.F.F.F.F.F.F.F.F.F.F.F.F.F.F.F.F.F.F.F.F.F.F.F.F.F.F.F.F.F.F.F.F.F.F.F.F.F.F.F.F.F.F.F.F.F.F.F.F.F.F.F.F.F.F.F.F.F.F.F.F.F.F.F.F.F.F.F.F.F.F.F.F.F.F.F.F.F.F.F.F.F.F.F.F.F.F.F.F.F.F.F.F.F.F.F.F.F.F.F.F.F.F.F.F.F.F.F.F.F.F.F.F.F.F.F.F.F.F.F.F.F.F.D.G.pXpX2X3X3X3X2X4XG.,.&XmXoXw.F.3X2X3X3X3X2X8XpX3XpX4.0.2XS.%X4.k <.w., j <.pX*XpXpXF.oXk.g g j.z z g.l oXg.l l +Xe.j 5.%XF.D.l G.0.w.l G.oXl e.,.l 5.j.G.F.F.F.F.F.F.F.F.F.F.F.F.F.F.F.F.F.F.F.F.F.F.F.F.F.F.F.F.F.F.F.F.F.F.F.F.F.F.F.F.F.F.F.F.F.F.F.",
"F.F.F.F.F.F.F.F.F.F.F.F.F.F.F.F.F.F.F.F.F.F.F.F.F.F.F.F.F.F.F.F.F.F.F.F.F.F.F.F.F.F.F.F.F.F.F.F.F.F.F.F.F.F.F.F.F.F.F.F.F.F.F.F.F.F.F.F.F.F.F.F.F.F.F.F.F.F.F.F.F.F.F.F.F.F.F.F.F.F.F.F.F.F.F.F.F.F.F.F.F.F.F.F.F.F.F.F.F.F.F.F.F.F.F.F.F.F.F.F.F.F.F.F.F.F.F.F.F.F.F.D.G.pXpX2X3X3X3X2X3XG.t.w.F.5.5.S.3X2X3X3X3X2X8XpX3XpX,.w.&X, f.,.7 j w.<.2Xg 8X2XpXpXF.oXt.,.,.t.l j.F.z G.,.0.j G.,.0.j D.F.S.j F.5.f.j k.j.l e.w.0.> M.G.F.F.F.F.F.F.F.F.F.F.F.F.F.F.F.F.F.F.F.F.F.F.F.F.F.F.F.F.F.F.F.F.F.F.F.F.F.F.F.F.F.F.F.F.F.F.F.",
"F.F.F.F.F.F.F.F.F.F.F.F.F.F.F.F.F.F.F.F.F.F.F.F.F.F.F.F.F.F.F.F.F.F.F.F.F.F.F.F.F.F.F.F.F.F.F.F.F.F.F.F.F.F.F.F.F.F.F.F.F.F.F.F.F.F.F.F.F.F.F.F.F.F.F.F.F.F.F.F.F.F.F.F.F.F.F.F.F.F.F.F.F.F.F.F.F.F.F.F.F.F.F.F.F.F.F.F.F.F.F.F.F.F.F.F.F.F.F.F.F.F.F.F.F.F.F.F.F.F.F.D.G.pXpX2X3X3X3X2X4XD.F.j.w.e., w.8X*X3X3X3X2X8XpX3X4XD.7 g.h g h h h e.k +Xg 8X2XpXpXF.oXk.e.j.5.,.z r.l z ,.G.w.j ,.G.e.z e.D.5.D.j e.j.j j j.g.w.G.g M.G.F.F.F.F.F.F.F.F.F.F.F.F.F.F.F.F.F.F.F.F.F.F.F.F.F.F.F.F.F.F.F.F.F.F.F.F.F.F.F.F.F.F.F.F.F.F.F.",
"F.F.F.F.F.F.F.F.F.F.F.F.F.F.F.F.F.F.F.F.F.F.F.F.F.F.F.F.F.F.F.F.F.F.F.F.F.F.F.F.F.F.F.F.F.F.F.F.F.F.F.F.F.D.F.F.F.F.F.F.F.F.F.F.F.F.F.F.F.F.F.F.F.F.F.F.F.F.F.F.F.F.F.F.F.F.F.F.F.F.F.F.F.F.F.F.F.F.F.F.F.F.F.F.F.F.F.F.F.F.F.F.F.F.F.F.F.F.F.F.F.F.F.F.F.F.F.F.F.F.F.D.G.pXpX2X3X3X3X2X3X+Xj.F.F.F.g.S.3X2X3X3X3X2X8XpX4X*X4XF.0.j.+Xw.D.F.oXF.*XS.3X3XpXpXF.F.G.G.G.G.G.F.F.G.F.oXF.G.F.G.F.oXF.F.F.G.F.G.F.G.G.F.G.F.G.F.oXF.F.F.F.F.F.F.F.F.F.F.F.F.F.F.F.F.F.F.F.F.F.F.F.F.F.F.F.F.F.F.F.F.F.F.F.F.F.F.F.F.F.F.F.F.F.F.F.F.",
"D.D.D.D.D.D.F.D.D.D.D.D.D.D.D.D.F.D.D.D.D.D.D.G.D.D.D.D.D.D.D.D.D.D.D.D.D.D.D.D.D.D.D.D.D.D.D.F.D.D.D.D.F.J.D.F.D.D.D.D.D.F.D.D.D.D.D.D.D.D.D.D.D.D.D.D.D.D.F.D.D.D.D.D.D.D.D.D.D.D.F.D.D.D.F.D.D.D.F.D.D.F.F.D.D.D.D.D.D.D.D.D.D.D.D.D.D.D.D.D.D.D.D.D.D.F.D.D.D.F.D.G.+XpXpX2X3X3X3X3X2X3X3X2X2X2X4X3X2X3X3X3X3X2X8XpX3X2X2X4XpX8X3XpX4X4X3X4X3X4X2X3XpXpXF.D.D.D.D.D.D.D.D.D.D.D.D.D.D.D.D.D.D.D.D.D.D.D.D.D.D.D.D.D.D.F.F.D.D.D.D.D.D.D.D.D.D.D.D.D.D.F.D.D.D.D.D.D.D.D.D.D.D.D.D.D.F.G.D.D.D.D.D.D.D.D.D.D.D.D.D.D.F.F.D.D.",
"pXmXpXpXpXmXpXpXmXpXmXpXpXmXmXpXpXmXmXpXpXmXMX%XpXmXpXpXpXpXpXpXpXpXpXpXpXpXpXpXpXpXpXpXpXmXpXpXpXpXpXaX1X].yXyXyXpXpXpXpXpXmXpXpXpXpXpXpXmXpXpXmXpXpXpXmXpXpXmXpXpXpXmXpXpXmXpXmXpX4XpXmXmXpXpXmXpXpXpXMX1X4XMXpXpXpXpXpXpXpXpXpXpXpXpXpXpXpXpXpXpXpXmXpXpXpXpXyXyXpX{.'.pXpX2X3X3X3X3X3X2X3X7X7X7X3X2X3X3X3X3X3X2X8XpX3X2X3X2X*X*X2X*X2X2X2X2X2X2X2X3XpX4X3XMXpXpXpXpXpXpXpXpXpXpXpXpXmXpXpXmXpXpXpXpXpXpXpXpXpXpXpXpXBX2X3XMXpXpXpXpXpXpXpXpXpXpXpXpXmXpXpXmXpXpXpXpXpXpXpXpXpXpXpXMX8X&XMXpXpXpXpXpXpXpXpXpXpXpXpXMX7X5XMXpX",
"pXKXFXFXFXFX4XFXFXFXKXpXmXFXFXCX4XFXFXBX8XFXPXq.mXKXFXFXFXFXFXFXFXFXFXFXFXFXFXFXFXFXFXFXFXFXpX7XSXaX9XwX`.X.xXzXxXcXNXVXBX8XFXFXFXFXFXFXFXFXmXpXKXFXFXFXFXAX4XFXFXFXFXFX8XBXFXFXFX8X].CXFXFX4XFXFXFX4XFXPXU.<XLXFXFXFXFXFXFXFXFXFXFXFXFXFXFXFXFXFXFXFXFXBX4XVXcXxXzXcXo.+.SXpX2X3X3X3X3X2X7Xx.; ; ; 9.pX*X3X3X3X3X2X8XpX3X2X3X*X*X*X*X*X*X*X*X*X*X2X2X3XpX4X8XKXFXFXFXFXFXFXFXFXFXFXFXFXFXCX4XFXFXFXFXFXFXFXFXFXFXFXFXAXIXl.D.IXAXFXFXFXFXFXFXFXFXFXFXFXFX4XAXFXFXFXFXFXFXFXFXFXFXFXFXLX3Xd.IXAXFXFXFXFXFXFXFXFXFXFXAXHX!.L HXAX",
"8XFXCXAXCXAX3XCXAXCXFXpXpXFXAXBX4XFXAXBX8XAXKXq.pXFXCXAXAXAXAXAXAXAXAXAXAXAXAXAXAXAXAXAXCXFXpX7XMXaX9XqX`...xXrXxXcXcXVXmX4XFXCXAXAXAXAXCXFXpXpXFXCXAXAXAXCX3XFXCXAXCXFX4XBXFXCXFX7X].BXAXAX3XCXAXCX3XCXLXU.<XGXCXAXAXAXAXAXAXAXAXAXAXAXAXAXAXAXAXAXCXAXBX4XNXcXxXrXcXo.i.dXpX2X3X3X3X3X*XaXy.@ - @ { aX*X3X3X3X3X2X8XpX4X2X3X4X4X4X4X4X4X4X4X4X4X3X2X3XpX4X4XFXCXAXAXAXAXAXAXAXAXAXAXCXAXBX4XFXCXAXAXAXAXAXAXAXAXAXAXCXPXl.F.PXCXAXAXAXAXAXAXAXAXAXAXCXFX3XCXAXAXAXAXAXAXCXCXCXAXFXCXFX3Xs.PXBXFXAXFXFXCXAXFXCXFXAXCXHX!.L HXCX",
"8XFXCXAXAXFX3XCXAXCXFXpXpXFXFXBX4XFXFXBX8XFXKXq.pXFXAXAXAXAXAXAXAXAXAXAXAXAXAXAXAXAXAXAXAXFXpX7XMXaX9XqX`...xXrXxXcXNXVXNX4XFXCXAXAXAXAXAXFXpXpXFXCXAXAXFXCX3XFXAXAXCXFX4XBXFXCXFX8X].CXAXAX3XAXAXCX3XCXLXU.<XGXCXAXAXAXAXAXAXAXAXAXAXAXAXAXAXAXAXAXAXFXBX4XNXcXxXzXcXo.i.dXpX2X3X3X3X3X*XaXy.+ - + [ aX*X3X3X3X3X2X8XpX3X3X&XH.H.H.H.H.H.H.H.H.H.J.3X3XpX4X4XFXCXAXAXAXAXAXAXAXAXAXAXAXFXBX4XFXAXAXAXAXAXAXAXAXAXAXAXCXPXl.D.PXCXAXAXAXAXAXAXAXAXAXAXAXFX3XCXAXAXAXAXAXFXZXW.!./.ZXFXKX1Xs.PXDXCXCX/.ZXFXAXAXZX/.HX/.ZX~.L HXCX",
"8XFXCXAXAXFX3XCXAXCXFXpXpXFXFXBX4XFXFXBX8XFXKXq.pXFXAXAXAXAXAXAXAXAXAXAXAXAXAXAXAXAXAXAXAXFXpX7XMXaX9XqX`...xXrXxXcXNXVXNX4XFXCXAXAXAXAXAXFXpXpXFXCXAXAXFXCX3XFXAXAXCXFX4XBXFXCXFX8X].CXAXAX3XAXAXCX3XCXLXU.<XGXCXAXAXAXAXAXAXAXAXAXAXAXAXAXAXAXAXAXAXFXBX4XNXcXxXzXcXo.i.dXpX2X3X3X3X3X*XaXy.+ - + [ aX*X3X3X3X3X2X8XpX3X3XJ.m 3 m 3 3 3 3 m m 3 m.4X*XpX4X4XFXCXAXAXAXAXAXAXAXAXAXAXAXFXBX4XFXAXAXAXAXAXAXAXAXAXAXAXCXPXl.D.PXCXAXAXAXAXAXAXAXAXAXAXAXFX3XCXAXAXAXAXAXCXHX/.lX/.W.lX/.W.c.(.~.!.ZX!.!.lX/.!.lX~./.E.ZX~.L HXCX",
"8XFXCXAXAXFX3XCXAXCXFXpXpXFXFXBX4XFXFXBX8XFXKXq.pXFXAXAXAXAXAXAXAXAXAXAXAXAXAXAXAXAXAXAXAXFXpX7XMXaX9XqX`...xXrXxXcXNXVXNX4XFXCXAXAXAXAXAXFXpXpXFXCXAXAXFXCX3XFXAXAXCXFX4XBXFXCXFX8X].CXAXAX3XAXAXCX3XCXLXU.<XGXCXAXAXAXAXAXAXAXAXAXAXAXAXAXAXAXAXAXAXFXBX4XNXcXxXzXcXo.i.dXpX2X3X3X3X3X*XaXy.+ - + [ aX*X3X3X3X3X2X8XpX3X3XoX4.4.4.4.4.4.4.4.0.,.l.4X2XpX4X4XFXCXAXAXAXAXAXAXAXAXAXAXAXFXBX4XFXAXAXAXAXAXAXAXAXAXAXAXCXPXl.D.PXCXAXAXAXAXAXAXAXAXAXAXAXFX3XCXAXAXAXAXAXCXHX/.lX/.lX~.(.5XA /././.lX/.lX!.lXlX~.!./.lXlX~.L HXCX",
"8XFXCXAXAXFX3XCXAXCXFXpXpXFXFXBX4XFXFXBX8XFXKXq.pXFXAXAXAXAXAXAXAXAXAXAXAXAXAXAXAXAXAXAXAXFXpX7XMXaX9XqX`...xXrXxXcXNXVXNX4XFXCXAXAXAXAXAXFXpXpXFXCXAXAXFXCX3XFXAXAXCXFX4XBXFXCXFX8X].CXAXAX3XAXAXCX3XCXLXU.<XGXCXAXAXAXAXAXAXAXAXAXAXAXAXAXAXAXAXAXAXFXBX4XNXcXxXzXcXo.i.dXpX2X3X3X3X3X*XaXy.+ - + [ aX*X3X3X3X3X2X8XpX4X3X>X;.&.;.;.;.;.;.;.;.&.T.7X2XpX4X4XFXCXAXAXAXAXAXAXAXAXAXAXAXFXBX4XFXAXAXAXAXAXAXAXAXAXAXAXCXPXl.D.PXCXAXAXAXAXAXAXAXAXAXAXAXFX3XCXAXAXAXAXAXCXHX/.lX/.lX/./.1XA /.lX!././.lX/./.!.lX~.~.W.ZX~.L HXCX",
"8XFXCXAXAXFX3XCXAXCXFXpXpXFXFXBX4XFXFXBX8XFXKXq.pXFXAXAXAXAXAXAXAXAXAXAXAXAXAXAXAXAXAXAXAXFXpX7XMXaX9XqX`...xXrXxXcXNXVXNX4XFXCXAXAXAXAXAXFXpXpXFXCXAXAXFXCX3XFXAXAXCXFX4XBXFXCXFX8X].CXAXAX3XAXAXCX3XCXLXU.<XGXCXAXAXAXAXAXAXAXAXAXAXAXAXAXAXAXAXAXAXFXBX4XNXcXxXzXcXo.i.dXpX2X3X3X3X3X*XaXy.+ - + [ aX*X3X3X3X3X2X8XpX4X3X;X-.-.-.-.-.-.-.-.-.;.T.7X2XpX4X4XFXCXAXAXAXAXAXAXAXAXAXAXAXFXBX4XFXAXAXAXAXAXAXAXAXAXAXAXCXPXl.D.PXCXAXAXAXAXAXAXAXAXAXAXAXFX3XCXAXAXAXAXAXAXFXCXCXCXCXBXAX3Xd.ZXZXZXAXCXCXCXZXZXFXCXZXlXHX!.L HXCX",
"8XFXCXAXAXFX3XCXAXCXFXpXpXFXFXBX4XFXFXBX8XFXKXq.pXFXAXAXAXAXAXAXAXAXAXAXAXAXAXAXAXAXAXAXAXFXpX7XMXaX9XqX`...xXrXxXcXNXVXNX4XFXCXAXAXAXAXAXFXpXpXFXCXAXAXFXCX3XFXAXAXCXFX4XBXFXCXFX8X].BXAXAX3XAXAXCX3XCXLXU.<XGXCXAXAXAXAXAXAXAXAXAXAXAXAXAXAXAXAXAXAXFXBX4XNXcXxXzXcXo.i.dXpX2X3X3X3X3X*XaXy.+ - + [ aX*X3X3X3X3X2X8XpX4X3X>X;.C C C C C C C ;.C T.7X2XpX4X4XFXCXAXAXAXAXAXAXAXAXAXAXAXFXBX4XFXAXAXAXAXAXAXAXAXAXAXAXCXPXl.D.PXCXAXAXAXAXAXAXAXAXAXAXAXFX3XCXAXAXAXAXAXAXAXFXFXFXFXFXKX3Xs.IXAXFXFXFXFXFXFXFXAXFXFXFXHX!.L HXCX",
"8XFXCXAXAXFX3XCXAXCXFXpXpXFXFXBX4XFXFXBX8XFXKXq.pXFXAXAXAXAXAXAXAXAXAXAXAXAXAXAXAXAXAXAXAXFXpX7XMXaX9XqX`...xXrXxXcXNXVXNX4XFXCXAXAXAXAXAXFXpXpXFXCXAXAXFXCX3XFXAXAXCXFX4XBXFXCXFX7X].BXAXAX3XAXAXCX3XCXLXU.<XGXCXAXAXAXAXAXAXAXAXAXAXAXAXAXAXAXAXAXAXFXBX4XNXcXxXzXcXo.i.dXpX2X3X3X3X3X*XaXy.+ - + [ aX*X3X3X3X3X2X8XpX4X3X1XT.T.T.T.T.T.T.T.T.T.:X3X3XpX4X4XFXCXAXAXAXAXAXAXAXAXAXAXAXFXBX4XFXAXAXAXAXAXAXAXAXAXAXAXCXPXl.D.PXCXAXAXAXAXAXAXAXAXAXAXAXFX3XCXAXAXAXAXAXAXAXAXAXAXAXCXKX3Xs.PXCXAXAXAXAXAXAXAXAXAXAXCXHX!.L HXCX",
"8XFXCXAXAXFX3XCXAXCXFXpXpXFXFXBX4XFXFXBX8XFXKXq.pXFXAXAXAXAXAXAXAXAXAXAXAXAXAXAXAXAXAXAXAXFXpX7XMXaX9XqX`...xXrXxXcXNXVXNX4XFXCXAXAXAXAXAXFXpXpXFXCXAXAXFXCX3XFXAXAXCXFX4XBXFXAXFX4X].BXFXAX3XAXAXCX3XCXLXU.<XGXCXAXAXAXAXAXAXAXAXAXAXAXAXAXAXAXAXAXAXFXBX4XNXcXxXzXcXo.i.dXpX2X3X3X3X3X*XaXy.+ - + [ aX*X3X3X3X3X2X8XpX3X2X3X>X;X>X>X>X>X>X>X>X>X2X3X3XpX4X4XFXCXAXAXAXAXAXAXAXAXAXAXAXFXBX4XFXAXAXAXAXAXAXAXAXAXAXAXCXPXl.D.PXCXAXAXAXAXAXAXAXAXAXAXAXFX3XCXAXAXAXAXAXAXAXAXAXAXAXCXKX3Xs.PXCXAXAXAXAXAXAXAXAXAXAXCXHX!.L HXCX",
"8XFXCXCXCXAX3XCXCXCXFXpXpXFXAXBX4XFXFXBX4XFXKXq.pXFXCXCXCXCXCXCXCXCXCXCXCXCXCXCXCXCXCXCXCXFXpX7XMXaX9XqX`...xX<XxXcXcXVXNX4XFXCXCXCXCXCXCXFXpXpXFXCXCXCXAXCX3XFXCXCXCXFX4XBXFXCXcXA.| {.NXAX3XCXAXCX3XCXLXU.<XGXCXCXCXCXCXCXCXCXCXCXCXCXCXCXCXCXCXCXCXFXBX1XNXcXxXrXxXo.i.dXpX2X3X3X3X3X*XaXy.+ - + [ aX*X3X3X3X3X2X8XpX3X2X2X>X>X>X>X>X>X>X>X>X>X1X3X3XpX4X4XFXCXAXAXAXAXAXAXAXAXAXAXAXFXBX4XFXAXAXAXAXAXAXAXAXAXAXAXCXPXl.D.PXCXAXAXAXAXAXAXAXAXAXAXAXFX3XCXAXAXAXAXAXAXAXAXAXAXAXCXKX3Xs.PXCXAXAXAXAXAXAXAXAXAXAXCXHX!.L HXCX",
"pXLXFXFXFXFX7XFXFXFXLXaXMXGXFXAX8XGXGXSXpXGXPXq.MXLXFXFXFXFXFXFXFXFXFXFXFXFXFXFXFXFXFXFXFXGXaX7XSXdX9XwX`...cXxXcXcXVXCXBX8XKXFXFXFXFXFXFXKXMXaXLXFXFXFXFXAX7XGXFXFXFXLX8XCXGXVXa.+ @ ; {.AX7XFXFXFX7XFXPXU.>XPXFXFXFXFXFXFXFXFXFXFXFXFXFXFXFXFXFXFXFXGXCX4XVXcXcXxXcX*.i.dXpX2X3X3X3X3X*XaXy.+ - + [ aX*X3X3X3X3X2X8XpX3X2X2X;X-X-X-X-X-X-X-X-X-X1X3X3XpX4X4XFXCXAXAXAXAXAXAXAXAXAXAXAXFXBX4XFXAXAXAXAXAXAXAXAXAXAXAXCXPXl.D.PXCXAXAXAXAXAXAXAXAXAXAXAXFX3XCXAXAXAXAXAXAXAXAXAXAXAXCXKX3Xs.PXCXAXAXAXAXAXAXAXAXAXAXCXHX!.L HXCX",
"#XcXyXyXyXyX$XyXyXyXcX#X4XcXyXuX$XcXyXuX$XyXcX9.#XcXyXyXyXyXyXyXyXyXyXyXyXyXyXyXyXyXyXyXyXyX#X$X4X1X&X=Xx.X.{.{.{.,X,XrX4X$XcXyXyXyXyXyXyXcX#X#XcXyXyXyXyXuX$XyXyXyXyXcX$XuXyXtX1 % Y # } rX$XyXyXyX$XyXNXp.].NXyXyXyXyXyXyXyXyXyXyXyXyXyXyXyXyXyXyXyXyXuX$XrX,X{.{.,Xo.p.dXpX2X3X3X3X3X*XaXy.+ - + [ aX*X3X3X3X3X2X8XpX3X2X2X>X>X>X>X>X>X>X>X>X>X1X3X3XpX4X4XFXCXAXAXAXAXAXAXAXAXAXAXAXFXBX4XFXAXAXAXAXAXAXAXAXAXAXAXCXPXl.D.PXCXAXAXAXAXAXAXAXAXAXAXAXFX3XCXAXAXAXAXAXAXAXAXAXAXAXCXKX3Xs.PXCXAXAXAXAXAXAXAXAXAXAXCXHX!.L HXCX",
"].tX,X,X,X,X'.,X,X,XtX].].tX,X,X'.tX,X{.'.,XtX9.].tX,X,X,X,X,X,X,X,X,X,X,X,X,X,X,X,X,X,X,X,X].'.$X$XOXoXa.` }.}.}.].{.{.{.'.tX,X,X,X,X,X,XtX].].tX,X,X,X,X,X'.tX,X,X,XtX'.{.,X[.< # Y @ } ,X'.,X,X,X'.,XrXi.`.rX,X,X,X,X,X,X,X,X,X,X,X,X,X,X,X,X,X,X,X,X{.`.{.].}.}.]...p.dXpX2X3X3X3X3X*XaXy.+ - + [ aX*X3X3X3X3X2X8XpX3X2X2X;X-X-X-X-X-X-X-X-X-X1X3X3XpX4X4XFXCXAXAXAXAXAXAXAXAXAXAXAXFXBX4XFXCXAXAXAXAXAXAXAXAXAXAXCXPXl.D.PXCXAXAXAXAXAXAXAXAXAXAXCXFX3XCXAXAXAXAXAXAXAXAXAXAXAXCXFX3Xs.PXCXAXAXAXAXAXAXAXAXAXAXCXHX!.L HXCX",
"*XaX9X9X9XaX=X9X9X9XaX3X7XaXaX7X*XaXaX7X*X9XMX6.*XaX9X9X9X9X9X9X9X9X9X9X9X9X9X9X9X9X9X9X9XaX7X=X0X6XeXeXx.X.>X$X>X1X4X4X7X*XaX9X9X9X9X9X9XaX7X3XaX9X9X9XaX9X=XaX9X9X9XaX*X7XaX8Xi.@   ; @.9X=X9X9X9X=X8XdXy.OXdX9X9X9X9X9X9X9X9X9X9X9X9X9X9X9X9X9X9X9XaX7X&X4X1X>X$X>Xo.i.dXpX2X3X3X3X3X*XaXy.+ - + [ aX*X3X3X3X3X2X8XpX3X2X2X>X>X>X>X>X>X>X>X>X>X1X3X3XpX4X8XKXFXFXFXFXFXFXFXFXFXFXFXFXFXCX8XFXFXFXFXFXFXFXFXFXFXFXFXAXIXl.F.IXFXFXFXFXFXFXFXFXFXFXFXFXFX4XAXFXFXFXFXFXFXFXFXFXFXFXFXLX4Xs.IXAXFXFXFXFXFXFXFXFXFXFXAXHX!.L HXAX",
"4XCXBXBXBXCX3XBXCXBXCX8XpXCXCXBX3XCXCXmX4XCXFXq.pXCXBXBXBXBXBXBXBXBXBXBXBXBXBXBXBXBXBXBXBXCXpX3XaX9X7XqX`...rX<XrXxXcXNXmX3XCXBXBXBXBXBXBXCXpXpXCXBXBXBXCXBX3XCXBXBXBXCX4XmXCXCXa.x 3 f d {.7XBXCXBX3XBXGXU.;XFXBXBXBXBXBXBXBXBXBXBXBXBXBXBXBXBXBXBXBXCXmX1XcXxXrX<XxXo.i.dXpX2X3X3X3X3X*XaXy.+ - + [ aX*X3X3X3X3X2X8XpX3X2X2X;X-X-X-X-X-X-X-X-X-X1X3X3XpX4X4XMXpXpXpXpXpXpXpXpXpXpXpXpXmXpX2XmXpXpXpXpXpXpXpXpXpXpXpXpXAXh.l.AXpXpXpXpXpXpXpXpXpXpXpXpXmX*XpXpXpXpXpXpXpXpXpXpXpXpXpXBX%Xq.AXpXpXpXpXpXpXpXpXpXpXpXpXDX!.P DXpX",
"8XFXAXFXAXFX3XAXFXAXFXpXmXFXFXBX4XFXFXBX8XFXKXq.pXFXAXFXFXFXFXFXFXFXFXFXFXFXFXFXFXFXFXAXAXFXpX7XMXaX9XqX`...xXrXxXcXNXVXBX4XFXAXFXFXFXFXAXFXpXpXFXAXFXAXFXCX4XFXAXFXAXFX8XBXGXtXx 6 t.f 0 $.9XCXFXCX3XCXPXU.<XLXCXFXFXFXFXFXFXFXFXFXFXFXFXFXFXFXFXFXAXFXBX4XVXcXxXzXcX*.i.dXpX2X3X3X3X3X*XaXy.+ - + [ aX*X3X3X3X3X2X8XpX3X2X2X>X>X>X>X>X>X>X>X>X>X1X3X3XpX4X4XpXpXpXpXpXpXpXpXpXpXpXpXpXpX8X*XpXpXpXpXpXpXpXpXpXpXpXpX8XBXh.l.BXpXpXpXpXpXpXpXpXpXpXpXpXpX&XpXpXpXpXpXpXpXpXpXpXpXpXpXmXoXq.BX8XpXpXpXpXpXpXpXpXpXpX8XgX).K gX8X",
"8XFXCXAXAXFX3XCXAXCXFXpXpXFXFXBX4XFXFXBX8XFXKXq.pXFXAXAXAXAXAXAXAXAXAXAXAXAXAXAXAXAXAXAXAXFXpX7XMXaX9XqX`...xXrXxXcXNXVXNX4XFXCXAXAXAXAXAXFXpXpXFXCXAXAXAXCX3XFXAXAXCXFX4XMXKXt.4 n [.m.4 | $XFXCXCX3XCXLXU.<XGXCXAXAXAXAXAXAXAXAXAXAXAXAXAXAXAXAXAXAXFXBX4XNXcXxXzXcXo.i.dXpX2X3X3X3X3X*XaXy.+ - + [ aX*X3X3X3X3X2X8XpX3X2X2X;X-X-X-X-X-X-X-X-X-X1X3X3XpX4X8XKXFXFXFXFXFXFXFXFXFXFXFXFXFXCX8XKXFXFXFXFXFXFXFXFXFXFXFXFXIXl.F.IXFXFXFXFXFXFXFXFXFXFXFXFXFX4XFXFXFXFXFXFXFXFXFXFXFXFXFXLX4Xs.IXAXFXFXFXFXFXFXFXFXFXFXAXHX!.L HXAX",
"8XFXCXAXAXFX3XCXAXCXFXpXpXFXFXBX4XFXFXBX8XFXKXq.pXFXAXAXAXAXAXAXAXAXAXAXAXAXAXAXAXAXAXAXAXFXpX7XMXaX9XqX`...xXrXxXcXNXVXNX4XFXCXAXAXAXAXAXFXpXpXFXCXAXAXFXCX3XFXAXAXCXFX4XSXxXx f G.}.#X6 x Z.GXCXCX3XCXLXU.<XGXCXAXAXAXAXAXAXAXAXAXAXAXAXAXAXAXAXAXAXFXBX4XNXcXxXzXcXo.i.dXpX2X3X3X3X3X*XaXy.+ - + [ aX*X3X3X3X3X2X8XpX3X2X2X>X>X>X>X>X>X>X>X>X>X1X3X3XpX4X4XFXCXCXCXCXCXCXCXCXCXCXCXCXAXBX4XFXCXCXCXCXCXCXCXCXCXCXCXCXPXl.D.PXCXCXCXCXCXCXCXCXCXCXCXCXFX3XCXAXCXCXCXCXCXCXCXCXCXCXCXFX3Xs.PXCXCXCXCXCXCXCXCXCXCXCXCXHX!.L HXCX",
"8XFXCXAXAXFX3XCXAXCXFXpXpXFXFXBX4XFXFXBX8XFXKXq.pXFXAXAXAXAXAXAXAXAXAXAXAXAXAXAXAXAXAXAXAXFXpX7XMXaX9XqX`...xXrXxXcXNXVXNX4XFXCXAXAXAXAXAXFXpXpXFXCXAXAXFXCX3XFXAXAXCXFX3XFXA.4 m.<XA.xXn 5 #.VXFXCX3XCXLXU.<XGXCXAXAXAXAXAXAXAXAXAXAXAXAXAXAXAXAXAXAXFXBX4XNXcXxXzXcXo.i.dXpX2X3X3X3X3X*XaXy.+ - + [ aX*X3X3X3X3X2X8XpX3X2X2X;X-X-X-X-X-X-X-X-X-X1X3X3XpX4X4XFXCXAXAXAXAXAXAXAXAXAXAXAXFXBX4XFXAXAXAXAXAXAXAXAXAXAXAXCXPXl.D.PXCXAXAXAXAXAXAXAXAXAXAXAXFX3XCXAXAXAXAXAXAXAXAXAXAXAXCXKX3Xs.PXCXAXAXAXAXAXAXAXAXAXAXCXHX!.L HXCX",
"8XFXCXAXAXFX3XCXAXCXFXpXpXFXFXBX4XFXFXBX8XFXKXq.pXFXAXAXAXAXAXAXAXAXAXAXAXAXAXAXAXAXAXAXAXFXpX7XMXaX9XqX`...xXrXxXcXNXVXNX4XFXCXAXAXAXAXAXFXpXpXFXCXAXAXFXCX3XFXAXAXCXFX9XrXx f iX#XA.xXJ.6 d }.GXCX3XCXLXU.<XGXCXAXAXAXAXAXAXAXAXAXAXAXAXAXAXAXAXAXAXFXBX4XNXcXxXzXcXo.i.dXpX2X3X3X3X3X*XaXy.+ - + [ aX*X3X3X3X3X2X8XpX3X2X2X>X>X>X>X>X>X>X>X>X>X1X3X3XpX4X4XFXCXAXAXAXAXAXAXAXAXAXAXAXFXBX4XFXAXAXAXAXAXAXAXAXAXAXAXCXPXl.D.PXCXAXAXAXAXAXAXAXAXAXAXAXFX3XCXAXAXAXAXAXAXAXAXAXAXAXCXKX3Xs.PXCXAXAXAXAXAXAXAXAXAXAXCXHX!.L HXCX",
"8XFXCXAXAXFX3XCXAXCXFXpXpXFXFXBX4XFXFXBX8XFXKXq.pXFXAXAXAXAXAXAXAXAXAXAXAXAXAXAXAXAXAXAXAXFXpX7XMXaX9XqX`...xXrXxXcXNXVXNX4XFXCXAXAXAXAXAXFXpXpXFXCXAXAXFXCX3XFXAXAXCXFXmXt.4 m.bX#X`.uXyXf x @.BXAX3XCXLXU.<XGXCXAXAXAXAXAXAXAXAXAXAXAXAXAXAXAXAXAXAXFXBX4XNXcXxXzXcXo.i.dXpX2X3X3X3X3X*XaXy.+ - + [ aX*X3X3X3X3X2X8XpX3X2X2X;X-X-X-X-X-X-X-X-X-X1X3X3XpX4X4XFXCXAXAXAXAXAXAXAXAXAXAXAXFXBX4XFXAXAXAXAXAXAXAXAXAXAXAXCXPXl.D.PXCXAXAXAXAXAXAXAXAXAXAXAXFX3XCXAXAXAXAXAXAXAXAXAXAXAXCXKX3Xs.PXCXAXAXAXAXAXAXAXAXAXAXCXHX!.L HXCX",
"8XFXCXAXAXFX3XCXAXCXFXpXpXFXFXBX4XFXFXBX8XFXKXq.pXFXAXAXAXAXAXAXAXAXAXAXAXAXAXAXAXAXAXAXAXFXpX7XMXaX9XqX`...xXrXxXcXNXVXNX4XFXCXAXAXAXAXAXFXpXpXFXCXAXAXFXCX3XFXAXAXCXLX].3 f uXyX#X`.uXbXn 6 | _.GX3XCXLXU.<XGXCXAXAXAXAXAXAXAXAXAXAXAXAXAXAXAXAXAXAXFXBX4XNXcXxXzXcXo.i.dXpX2X3X3X3X3X*XaXy.+ - + [ aX*X3X3X3X3X2X8XpX3X2X2X>X>X>X>X>X>X>X>X>X>X1X3X3XpX4X4XFXCXAXAXAXAXAXAXAXAXAXAXAXFXBX4XFXAXAXAXAXAXAXAXAXAXAXAXCXPXl.D.PXCXAXAXAXAXAXAXAXAXAXAXAXFX3XCXAXAXAXAXAXAXAXAXAXAXAXCXKX3Xs.PXCXAXAXAXAXAXAXAXAXAXAXCXHX!.L HXCX",
"8XFXCXAXAXFX3XCXAXCXFXpXpXFXFXBX4XFXFXBX8XFXKXq.pXFXAXAXAXAXAXAXAXAXAXAXAXAXAXAXAXAXAXAXAXFXpX7XMXaX9XqX`...xXrXxXcXNXVXNX4XFXCXAXAXAXAXAXFXpXpXFXCXAXAXFXCX3XFXAXCXAXVXl 4 P.bXyX#X`.uXbXJ.6 m.O.uX8XCXLXU.<XGXCXAXAXAXAXAXAXAXAXAXAXAXAXAXAXAXAXAXAXFXBX4XNXcXxXzXcXo.i.dXpX2X3X3X3X3X*XaXy.+ - + [ aX*X3X3X3X3X2X8XpX3X2X2X;X-X;X-X-X-X-X;X;X-X1X3X3XpX4X4XFXAXAXAXAXAXAXAXAXCXFXFXFXFXBX4XFXAXAXAXAXAXAXAXAXAXAXAXAXPXl.D.PXCXAXAXAXAXAXAXAXFXAXCXFXFX3XCXAXAXAXAXAXAXAXAXFXFXCXCXKX3Xs.PXCXAXAXAXAXAXAXAXCXAXAXAXHX!.L HXCX",
"8XFXCXAXAXFX3XCXAXCXFXpXpXFXFXBX4XFXFXBX8XFXKXq.pXFXAXAXAXAXAXAXAXAXAXAXAXAXAXAXAXAXAXAXAXFXpX7XMXaX9XqX`...xXrXxXcXNXVXNX4XFXCXAXAXAXAXAXFXpXpXFXCXAXAXFXCX3XFXCXAXUXt.4 n bXuXyX#X`.uXyXbXc c Z.| 7XAXLXU.<XGXCXAXAXAXAXAXAXAXAXAXAXAXAXAXAXAXAXAXAXFXBX4XNXcXxXzXcXo.i.dXpX2X3X3X3X3X*XaXy.+ - + [ aX*X3X3X3X3X2X8XpX3X2X2X>X;X>X>X>X>X>X>X>X;X1X3X3XpX4X8XFXBXFXFXAXAXAXAXCXFXMXBXCXCXCX4XFXAXAXAXAXAXAXAXCXFXFXFXpXIXl.D.PXCXAXAXAXAXAXAXCXpXAXFXpXCX4XCXAXAXAXAXAXAXAXFXCXMXFXFXKX3Xs.PXCXAXAXAXAXAXAXAXFXAXCXmXHX!.L HXCX",
"8XFXCXAXAXFX3XCXAXCXFXpXpXFXFXBX4XFXFXBX8XFXKXq.pXFXAXAXAXAXAXAXAXAXAXAXAXAXAXAXAXAXAXAXAXFXpX7XMXaX9XqX`...xXrXxXcXNXVXNX4XFXCXAXAXAXAXAXFXpXpXFXCXAXAXFXCX3XAXFXUXt.4 c uXcXyXcX#X`.uXyXbXm.4 L.$.| GXPXU.<XGXCXAXAXAXAXAXAXAXAXAXAXAXAXAXAXAXAXAXAXFXBX4XNXcXxXzXcXo.i.dXpX2X3X3X3X3X*XaXy.+ - + [ aX*X3X3X3X3X2X8XpX3X2X2X;X;X;X;X;X;X;X;X;X;X1X3X3XpX4XpXpXpXBXBXFXAXAXCXFX2Xe.=X0.e.BX4XFXAXAXAXAXAXAXCXFXmX<.S.,.F.S.D.PXCXAXAXAXAXCXFXpXw.g.D.w.MX4XCXAXAXAXAXAXAXCXFXG.<.=X%X4.4Xs.PXCXAXAXAXAXAXCXKXw.g.2X<.G.(.P HXCX",
"8XFXCXAXAXFX3XCXAXCXFXpXpXFXFXBX4XFXFXBX8XFXKXq.pXFXAXAXAXAXAXAXAXAXAXAXAXAXAXAXAXAXAXAXAXFXpX7XMXaX9XqX`...xXrXxXcXNXVXNX4XFXCXAXAXAXAXAXFXpXpXFXCXAXAXAXBX8XPXxXl 4 c $XuXuXuX=XoX`.uXuXuX$Xf n bX#.@.PX`.<XGXCXAXAXAXAXAXAXAXAXAXAXAXAXAXAXAXAXAXAXFXBX4XNXcXxXzXcXo.i.dXpX2X3X3X3X3X*XaXy.+ - + [ aX*X3X3X3X3X2X8XpX3X2X2X>X;X;X;X;X;X;X;X;X;X1X3X3XpX4XpX&X4.,.e.AXAXAXAXIXw.e.M.S.k.oXpXFXAXAXAXAXAXCXFXIXS.,.S.j S.S.D.PXCXAXAXAXAXAXLXKXk.0.,.g.CX4XCXAXAXAXAXAXAXFXKXLXF.g.g.w.4Xs.PXCXAXAXAXAXCXKXIXM.r.IXoXt.(.P HXCX",
"8XFXCXAXAXFX3XCXAXCXFXpXpXFXFXBX4XFXFXBX8XFXKXq.pXFXAXAXAXAXAXAXAXAXAXAXAXAXAXAXAXAXAXAXAXFXpX7XMXaX9XqX`...xXrXxXcXNXVXmX4XFXAXBX6XAXAXCXFXpXpXFXCXAXFXKXUX#XB.f 4 n uX#X1XJ.J.K.G.`.uX&X%X,Xm.4 =X#X@.$.@.4XPXAXCXCXCXCXAXAXAXAXAXAXAXAXAXAXAXAXAXAXFXBX4XNXcXxXzXcXo.i.dXpX2X3X3X3X3X*XaXy.+ - + [ aX*X3X3X3X3X2X8XpX3X2X2X;X;X;X;X;X;X;X;X;X;X1X3X3XpX3XpX+Xh oXw.pXFXFXpXM.,.S.7 oXj.G.pXFXAXAXAXAXCXFX&Xg.k h e.0.k.S.D.PXCXAXAXAXAXFXM.3XmXk ,.k.k.MXBXAXAXAXAXCXFXpXj.pXg.M.h k &Xs.PXCXAXAXAXCXFXoXoX3Xg.KXw.DX(.L HXCX",
"4XFXCXCXCXCX3XCXCXCXFXpXpXFXCXBX4XAXCXMX4XCXKXq.pXFXCXCXCXCXCXCXCXCXCXCXCXCXCXCXCXCXCXCXCXAXpX7XaX9X0XqX`...uX<XyXcXcXVXmX3XFXFXMX6XFXFXFXKXVXNXIXKXAXaXK.b 5 4 f P.bXcX$X1XJ.H.K.G.`.uX%X%X#X=X5 n <XpXZ.W o.].BXGXLXGXFXFXAXCXCXCXCXCXCXCXCXCXCXCXCXFXBX1XNXcXxXrXcXo.i.dXpX2X3X3X3X3X*XaXy.+ - + [ aX*X3X3X3X3X2X8XpX3X2X2X>X;X;X;X;X;X;X;X;X;X1X3X3XpX4XpX%Xk %Xr.pXFXAXBX8XD.0.g.0.0.pX4XFXCXCXCXCXCXFXpX3X8X0.e.e.k.l.D.PXCXCXCXCXCXCX8XoXw.w.g.4.oXpXBXAXCXCXCXCXAXmXpX4.j %X%X0.2Xs.PXBXCXCXCXCXFX8XpX&XM.g.g =X!.P HXCX",
"aXLXGXGXGXGX9XGXGXGXLXaXSXLXGXAXaXLXGXSXaXGXPXw.MXLXGXGXGXGXLXGXGXGXGXLXLXLXLXKXKXKXKXKXKXIXVXcXUXBXMXSX}...nXzXnXnXVXUXVXyXKXUX6Xv.BXaX0X6XP.m.C.n c 5 4 5 c P.uXbXuXcX$X#XH.H.H.F.`.uX%XJ.G.bXn 4 H.zX}.V - X.#.@.Z.].yXBXCXAXGXLXLXLXGXGXGXGXFXFXFXFXBX4XVXcXcXzXcX*.i.dXpX2X3X3X3X3X*XaXy.+ - + [ aX*X3X3X3X3X2X8XpX3X2X2X;X;X;X;X;X;X;X;X;X;X1X3X3XpX4X8XKXCXFXAXFXFXFXKXPXKX8XKXMXBXFXpXKXFXFXFXFXFXFXKXPXPXKXKX3XIXS.OXIXFXFXFXFXFXFXPXFX3XFXFXpXPX8XFXKXFXFXFXFXFXKXPXMX4XBXPXPX4Xs.IXFXFXFXFXFXFXLXPXFXFXBX8XDX(.L PXFX",
"`.{.{.{.{.{.`.{.{.{.{.}.].{.{.].`.{.{.].`.{.{.9.}.{.{.{.{.].].].].].].OXOXOXG.J.K.P.P.P.P.P.C.C.C.C.C.C.5.] m.b b b n n n n n c f 6 6 6 6 6 6 6 5 f n C.L.sXiXUX7X6XDXsXiXiXJ.J.J.H.A.bX3XK.oXVXsXf c .X; = N ; _.}.$.$.@.@.$.Z.Z.Z.`.].].{.,XtXrXuXyXcXyX#XcXrXrX,XrXo.i.dXpX2X3X3X3X3X*XaXy.+ - + [ aX*X3X3X3X3X2X8XpX3X2X2X;X;X;X;X;X;X;X;X;X;X1X3X3XpX4X3XpX8X8XpX8X8X8X4X4X4XpX4XpXpX3X+XpX4X8X8X8X8X8X4X4X4X8X8XpXMXf.j.mX4X8X8X8X8X8X4XpXpX8X8XpX8XoX4X8X8X8X8X8X8X4X4XpXpXpX4XpXoXq.MX3X8X8X8X8X8X4X4X8X8XpXpXgXW.K sX4X",
"/ / / / / / / / / / / / / / / / / / / / / / / / / / / / / / Q Q Q Q Q Q Q Q Q Q Q Q ! ' ' d d g 0 5 5 6 0 d 0 0 0 0 0 0 0 0 0 0 8 8 7 d { {  . .=.=.=.;.-.-.*.-.+.@.+.3.} 9.<.4.q.<.} 9.2.<.3.9.9.x 5 3.= ( %.= { y.y.u.u.} } { d d d d ] ] ] ] ] ] ] ] ] W W W W W W ! i.dXyX2X3X3X3X3X*XaXy.+ - + [ aX*X3X3X3X3X2X8XpX3X2X2X>X;X;X;X;X;X;X;X;X;X1X3X3XpXpXoXX o X o X X X X X o o o o o o o X X X X X X X X X X o o o X o o X o X X X X X X o o o o o X o o X X X X X X X X o o o X X o o X o X X X X X X X o o o X o 8 U o X ",
"}.[.[.[.[.[._.[.[.[.[.}.[.[.[.[._.[.[.[.}.[.|.@.}.[.[.[.[.[.[.[.[.[.[.[.XXXXXX_._.:.:.>.=.` ( ( Q ! ^ @.o.` `.{..X|.|..X|.{..X.X`.A  X.X X X`.XX XXXXXXX_.I.-.-.-.-.-.=.&.=.=.=.-.i.a.z.l.z.x.}.z.{.c x V = N ; _.}.}.{.{.{.{.{.<XjXjX|.|.{.{.{.{.{.{.|.{.}.[.[.[.XX[.` i.dXpX2X3X3X3X3X*XaXy.+ - + [ aX*X3X3X3X3X2X8XpX3X2X2X;X;X;X;X;X;X;X;X;X;X1X3X3XpX4X4XBXmXMXMXMXMXMXMXMXMXMXMXMXMXpX*XBXMXMXMXMXMXMXMXMXMXMXMXpXFXh.M.FXmXMXMXMXMXMXMXMXMXMXMXMXBX*XmXMXMXMXMXMXMXMXMXMXMXMXmXCX&Xq.FXpXMXMXMXMXMXMXMXMXMXMXmXDX!.P DXmX",
"aXLXGXGXGXGX9XGXGXGXLXaXSXLXGXJXaXGXGXSXaXGXPXw.SXLXGXGXGXGXGXGXGXGXGXGXGXGXGXGXGXGXGXGXGXFXpX$X}.-.O.~ ! Q ) o._.{.zXcX7X@XCXDXJ.e =XpXNX6XJ.uXVXNXVXNX6XL.%XDXV.J.NX=XOXz.2.I._.=.=.-.I.'.'.<XOXzXk.5 q.] V _.|.zXzXzXzXzXzXzXzXzXzXzXzXzXzXzXzXzXzXzXhX}.|.|.[.[.|...i.dXpX2X3X3X3X3X*XaXy.+ - + [ aX*X3X3X3X3X2X8XpX3X2X2X>X;X;X;X;X;X;X;X;X;X1X3X3XpX4X8XKXFXFXFXFXFXFXFXFXFXFXFXFXFXCX8XFXFXFXFXFXFXFXFXFXFXFXFXAXIXl.F.IXFXFXFXFXFXFXFXFXFXFXFXFXFX8XAXFXFXFXFXFXFXFXFXFXFXFXFXLX4Xs.IXAXFXFXFXFXFXFXFXFXFXFXAXHX!.L HXAX",
"4XFXCXCXCXCX3XCXCXCXFXpXpXAXCXBX4XAXCXMX4XCXKXq.pXFXCXCXCXCXCXCXCXCXCXCXCXCXCXCXCXCXCXCXCXFXaX0XSXfXdXL.3.! ^ Q Q Q ) ` O.+._.[.h.8 l.$X<XB.r.,X#XoXxXrXG.N.D.4X8.8.xXN.D.B.9 b B.M.a._.-.X.-.`.z.|. Xm.f @.XXhXhXhXhXhXhXhXhXhXhXhXhXhXhXhXhXhXhXhXhXhX|.}.|.[.[.[.[...i.dXpX2X3X3X3X3X*XaXy.+ - + [ aX*X3X3X3X3X2X8XpX3X2X2X;X;X;X;X;X;X;X;X;X;X1X3X3XpX4X4XFXCXAXAXAXAXAXAXAXAXAXAXCXAXBX4XFXCXAXAXAXAXAXAXAXAXAXAXCXPXl.D.PXCXAXAXAXAXAXAXAXAXAXAXCXFX3XCXAXAXAXAXAXAXAXAXAXAXAXCXFX3Xs.PXCXAXAXAXAXAXAXAXAXAXAXCXHX!.L HXCX",
"8XFXCXAXAXFX3XCXAXCXFXpXpXFXFXBX4XFXFXBX8XFXKXq.pXFXAXAXAXAXAXAXAXAXAXAXAXAXAXAXAXAXAXAXAXFXpX3XMX9XmXn.8 X.t l }.:.o._ Q / ( / ( ( ( ( ( ( Q ( ) ) ) ) ) _ _ ) _ _ ) ! _ _ _ ! ! _ _ ` _ ( ( ( _ ) ) _ ' Q ) ) ) ) ) ) ) ) ) ) ) ) ) ) ) ) ) ) ) ) ) ) ) ) ) ) ) _ ) Q +.SXyX2X3X3X3X3X*XaXy.+ - + [ aX*X3X3X3X3X2X8XpX3X2X2X>X;X>X>X>X>X>X>X>X;X1X3X3XpX4X4XFXCXAXAXAXAXAXAXAXAXAXAXAXFXBX4XFXAXAXAXAXAXAXAXAXAXAXAXCXPXl.D.PXCXAXAXAXAXAXAXAXAXAXAXAXFX3XCXAXAXAXAXAXAXAXAXAXAXAXCXKX3Xs.PXCXAXAXAXAXAXAXAXAXAXAXCXHX!.L HXCX",
"8XFXCXAXAXFX3XCXAXCXFXpXpXFXFXBX4XFXFXBX8XFXKXq.pXFXAXAXAXAXAXAXAXAXAXAXAXAXAXAXAXAXAXAXAXFXpX7XMX9XaXC.8 ] 8.8.&XJ.eXv.q 8.$X}.3.d } [ @.{ { :.#.] O.O.] ] #.o.] ] O.] O.O.] ] ] O.*.*.#.] #.#.] ) ( *.>.d ] >.*.*.*.*.*.*.*.*.*.*.*.*.*.*.*.*.*.*.*.*.*...*.*.=.=.*._ +.dXyX2X3X3X3X3X*XaXy.+ - + [ aX*X3X3X3X3X2X8XpX3X2X2X;X-X;X-X-X-X-X;X;X-X1X3X3XpX4X4XFXCXAXAXAXAXAXAXAXAXAXAXAXFXBX4XFXAXAXAXAXAXAXAXAXAXAXAXCXPXl.D.PXCXAXAXAXAXAXAXAXAXAXAXAXFX3XCXAXAXAXAXAXAXAXAXAXAXAXCXKX3Xs.PXCXAXAXAXAXAXAXAXAXAXAXCXHX!.L HXCX",
"8XFXCXAXAXFX3XCXAXCXFXpXpXFXFXBX4XFXFXBX8XFXKXq.pXFXAXAXAXAXAXAXAXAXAXAXAXAXAXAXKXFXAXAXAXFXpX7XMX9XMXC.8 ] 8.8.N.b t v e r 6XL.w w w w C.r r fXv.w v.V.w w v.v r v L.r V.V.w w w C.,XGXC.w n.C.r eX-.;.nXn 4 6XUXVXVXVXVXVXVXVXVXVXVXVXVXVXVXVXVXVXVXVXvX<XvXxXhXhXzX*.i.dXpX2X3X3X3X3X*XaXy.+ - + [ aX*X3X3X3X3X2X8XpX3X2X2X>X>X>X>X>X>X>X>X>X>X1X3X3XpX4X4XFXCXAXAXAXAXAXAXAXAXAXAXAXFXBX4XFXAXAXAXAXAXAXAXAXAXAXAXCXPXl.D.PXCXAXAXAXAXAXAXAXAXAXAXAXFX3XCXAXAXAXAXAXAXAXAXAXAXAXCXKX3Xs.PXCXAXAXAXAXAXAXAXAXAXAXCXHX!.L HXCX",
"8XFXCXAXAXFX3XCXAXCXFXpXpXFXFXBX4XFXFXBX8XFXKXq.pXFXAXAXAXAXAXAXAXAXAXAXAXFXKXFXL.eXFXAXFXFXpX7XMXaX6Xv 8 ] m.8.B.9 y b.v q v n.e q e q r v v J.v.t t n.q q v q n.b.V.r v.v r r e n.{.UXn.y v.v.q V.n.A ;.-.5 c vXvXvXvXvXvXvXvXvXvXvXvXvXvXvXvXvXvXvXvXxX{.zXhX|.|.hXo.i.dXpX2X3X3X3X3X*XaXy.+ - + [ aX*X3X3X3X3X2X8XpX3X2X2X;X-X-X-X-X-X-X-X-X-X1X3X3XpX4X4XFXCXAXAXAXAXAXAXAXAXAXAXAXFXBX4XFXAXAXAXAXAXAXAXAXAXAXAXCXPXl.D.PXCXAXAXAXAXAXAXAXAXAXAXAXFX3XCXAXAXAXAXAXAXAXAXAXAXAXCXKX3Xs.PXCXAXAXAXAXAXAXAXAXAXAXCXHX!.L HXCX",
"8XFXCXAXAXFX3XCXAXCXFXpXpXFXAXBX4XFXFXBX8XFXKXq.8XKXFXAXAXAXAXAXAXAXAXAXFXMXV.V.q n.IX6Xn.FXpX8X6Xv.b.w 8 ] B.8.8.b.B.@Xb.q e q q q q e q v v V.v.v.e v q e q v BXv.n.r r q v v.V.v '.aXv q v.v.q t b v jX&.x.6 m.nXvXvXvXvXvXvXvXvXvXvXvXvXvXvXvXvXvXvXxX-XzXhX|.|.hX*.i.dXpX2X3X3X3X3X*XaXy.+ - + [ aX*X3X3X3X3X2X8XpX3X2X2X>X>X>X>X>X>X>X>X>X>X1X3X3XpX4X4XFXCXAXAXAXAXAXAXAXAXAXAXAXFXBX4XFXAXAXAXAXAXAXAXAXAXAXAXCXPXl.D.PXCXAXAXAXAXAXAXAXAXAXAXAXFX3XCXAXAXAXAXAXAXAXAXAXAXAXCXKX3Xs.PXCXAXAXAXAXAXAXAXAXAXAXCXHX!.L HXCX",
"pXFXCXAXAXFX3XCXAXCXFXpXpXFXAXBX4XFXFXBX8XAXPX4.v V.V.KXAXKXFXFXKXAXAXKXKX0Xe r q v.CXn.r FXpXpXL.q e q 8 ] N.r.9 b.UXUXn.q n.v r q q q e n.v v v 9Xv q q e q v.IXV.r r q t v.v.L.q v v.q q r r q e r t JX_.&.8.4 %XnXvXvXvXvXvXvXvXvXvXvXvXvXvXvXvXvXvXxX-XzXhX|.|.hX*.i.dXpX2X3X3X3X3X*XaXy.+ - + [ aX*X3X3X3X3X2X8XpX3X2X2X;X-X-X-X-X-X-X-X-X-X1X3X3XpX4X4XFXCXAXAXAXAXAXAXAXAXAXAXAXFXBX4XFXAXAXAXAXAXAXAXAXAXAXAXCXPXl.D.PXCXAXAXAXAXAXAXAXAXAXAXAXFX3XCXAXAXAXAXAXAXAXAXAXAXAXCXKX3Xs.PXCXAXAXAXAXAXAXAXAXAXAXCXHX!.L HXCX",
"NXFXCXAXAXFX3XCXAXCXFXpXpXFXFXCX4XFXFXBX8XFXPX5.q v.v aXFXL.0XAX6XFXBXV.BXeXq v.L.e r e r FXpXpXV.q q q 8 ] oXk.0 B.VXNXMXn.9XKXv.q r q v BXv q r AXv.q v.r e n.IX6Xe q q q eXBXeXq q q e q q e q q q q fX`._.;.5 c vXvXvXvXvXvXvXvXvXvXvXvXvXvXvXvXvXvXxX-XzXhX|.|.hX*.i.dXpX2X3X3X3X3X*XaXy.+ - + [ aX*X3X3X3X3X2X8XpX3X2X2X>X>X>X>X>X>X>X>X>X>X1X3X3XpX4X4XFXCXAXAXAXAXAXAXAXAXAXAXAXFXBX4XFXAXAXAXAXAXAXAXAXAXAXAXCXPXl.D.PXCXAXAXAXAXAXAXAXAXAXAXAXFX3XCXAXAXAXAXAXAXAXAXAXAXAXCXKX3Xs.PXCXAXAXAXAXAXAXAXAXAXAXCXHX!.L HXCX",
"NXFXCXAXCXAX3XCXAXCXFX8XVXL.n.BX3XFXFXBX7XMXPX5.q v q e MXv v L.q eXL.y 9XV.y n.0Xq e q r SX7XpXV.e q q 8  .xXM.9 1XVXVXNXpXFXKXn.q v.V.v.AXv q r FXv.V.6Xn.b.n.KXBXr q e n.aXIXeXq e q q V.v.q e q q q v 3.yX.X+.4 m.nXvXvXvXvXvXvXvXvXvXvXvXvXvXvXvXvXxX-XzXhX|.|.hX*.i.dXpX2X3X3X3X3X*XaXy.+ - + [ aX*X3X3X3X3X2X8XpX3X2X2X;X-X-X-X-X-X-X-X-X-X1X3X3XpX4X4XFXCXAXAXAXAXAXAXAXAXAXAXAXFXBX4XFXAXAXAXAXAXAXAXAXAXAXAXCXPXl.D.PXCXAXAXAXAXAXAXAXAXAXAXAXFX3XCXAXAXAXAXAXAXAXAXAXAXAXCXKX3Xs.PXCXAXAXAXAXAXAXAXAXAXAXCXHX!.L HXAX",
"pXFXCXFXKXFX3XCXAXCXFX8XVXV.r v.V.KXAXBX3Xv.dXe.q e v e L.v.e n.q v.n.q v.v q n.aXq v e v n.r eXV.v b.C.5.X.xX<XD.cXNXVXmX3XFXFX6Xv.v.FXBXCXv e n.FXMXBXFXKX*XBXFXFXv q r FXFXAXBXn.e V.r 9Xn.q e e q q w 8 8.JXI.8 6 1XnXvXvXvXvXvXvXvXvXvXvXvXvXvXvXvXxX-XzXhX|.|.hX*.i.dXpX2X3X3X3X3X*XaXy.+ - + [ aX*X3X3X3X3X2X8XpX3X2X2X>X>X>X>X>X>X>X>X>X>X1X3X3XpX4X4XFXCXAXAXAXAXAXAXAXAXAXAXAXFXBX4XFXAXAXAXAXAXAXAXAXAXAXAXCXPXl.D.PXCXAXAXAXAXAXAXAXAXAXAXAXFX3XCXAXAXAXAXAXAXAXAXAXAXAXCXKX3Xs.PXCXAXAXAXAXAXAXAXAXAXAXCXHX!.L HXCX",
"8XFXAXBX6XCX4XCXAXAXKXpXBXn.e e n.IXAXCXn.q L.e.e q eXV.e r v.v.q v.v.v y V.n.V.FXe v.t r v.y n.n.n.9XfX`...xXzXbXcXNXVXNX4XFXCXIXV.v.FXFXFXv V.KXAXFXFXAXBX4XFXCXFXv.r V.BXAXCXKX3Xm.0Xr 0Xn.e r r q q q 9 q V.v.[ 5 n nXvXvXvXvXvXvXvXvXvXvXvXvXvXvXvXxX-XzXhX|.|.hX*.i.dXpX2X3X3X3X3X*XaXy.+ - + [ aX*X3X3X3X3X2X8XpX3X2X2X;X-X-X-X-X-X-X-X-X-X1X3X3XpX4X4XFXCXAXAXAXAXAXAXAXAXAXAXAXFXBX4XFXAXAXAXAXAXAXAXAXAXAXAXCXPXl.D.PXCXAXAXAXAXAXAXAXAXAXAXAXFX3XCXAXAXAXAXAXAXAXAXAXAXAXCXKX3Xs.PXCXAXAXAXAXAXAXAXAXAXAXCXHX!.L HX%X",
"=XKXFXeXq 6XyXBXFX9Xv.6XVXv.q q e L.KX0Xe q v b b.L.aXV.y r n.r r v.v V.n.FXCXBXAXr n.r r v v.v.v.n.MXqX`...xX<XxXcXNXVXNX4XFXCXAXBXaXAXAXFXJ.7XKXCXAXAXFXCX3XFXCXKXv.v.NXMXFXAXFX7X{.mXv 9Xn.q L.9Xr r q q e e w 8.<.4 J.nXvXvXvXvXvXvXvXvXvXvXvXvXvXvXxX-XzXhX|.|.hX*.i.dXpX2X3X3X3X3X*XaXy.+ - + [ aX*X3X3X3X3X2X8XpX3X2X2X>X>X>X>X>X>X>X>X>X>X1X3X3XpX4X4XFXCXCXCXCXCXCXCXCXCXCXCXCXAXBX4XFXCXCXCXCXCXCXCXCXCXCXCXCXPXl.D.PXCXCXCXCXCXCXCXCXCXCXCXCXFX3XCXAXCXCXCXCXCXCXCXCXCXCXCXFX3Xs.PXCXCXCXCXCXCXCXCXCXCXCXAXDXY.F ].#X",
"r V.IXn.y L.NXCXKXL.q J.VXv.e r e v.IXn.q r r q n.IXFXMXV.v V.q v v v aXKXCXCXAXFXv.V.eXr q V.r e V.aXqX`...xX<XxXcXcXVXmX4XFXCXCXFXFXCXCXFXNXpXFXCXCXCXAXCX3XFXCXKXn.v.pXMXFXCXFX7X].BXaXFXn.q aXKXv v e r q q q v A 5 c vXvXvXvXvXvXvXvXvXvXvXvXvXvXvXxX-XzXhX|.|.hXo.i.dXpX2X3X3X3X3X*XaXy.+ - + [ aX*X3X3X3X3X2X8XpX3X2X2X;X-X-X-X-X-X-X-X-X-X1X3X3XpX4X8XKXFXFXFXFXFXFXFXFXFXFXFXFXFXCX8XKXFXFXFXFXFXFXFXFXFXFXFXFXIXl.F.IXFXFXFXFXFXFXFXFXFXFXFXFXFX4XFXFXFXFXFXFXFXFXFXFXFXFXFXLX4Xs.IXAXFXFXFXFXFXFXFXFXFXFXAX.XV + ; _.",
"q r V.v.v.V.V.0XFXv e B.CXv v.v n.C.IXv.e v.v.q n.KXAXKXFXaXeXq v.t v.FXFXFXFXFXFXMXCXKXv.v 6Xq v MX9XfX`...xXzXcXbXVXVXBX8XKXFXFXFXFXFXFXKXmXpXKXFXFXFXFXFX4XFXFXIXV.V.mXBXFXFXFX8X].AXFXPXN.r aXKXv v e b.r v.v.q t <.4 K.nXvXvXvXvXvXvXvXvXvXvXvXvXvXvX<XzXzXhX|.hX*.i.dXpX2X3X3X3X3X*XaXy.+ - + [ aX*X3X3X3X3X2X8XpX3X2X2X>X>X>X>X>X>X>X>X>X>X1X3X3XpX4X3XpX8X8X8X8X8X8X8X8X8X8X8X8XpX4X&XpX8X8X8X8X8X8X8X8X8X8X8X4XBXh.l.MX4X8X8X8X8X8X8X8X8X8X8X8XpX&X8X8X8X8X8X8X8X8X8X8X8X8X8XpXoXq.MX4X8X8X8X8X8X8X8X8X8X8XyX@.= ( N & ",
"q e q b.B.r q v.=Xv v.b.=Xv B.N.B.v.V.r v v.b.y B.mX8X8X8XNXJ.q v.t B.mX7X8X8X8X8XpXpX8X3X3X=Xq v.3X@XeXx.X.<X].<X>X1X4X3X&XpX8X8X8X8X8X8XpX3X*XpX8X8X8X8X4X&XpX8X8X7XpX&X3X8X8X8X*XA.4X8X8X%X@X7XpXv v r 2.k.L.n.e e h.c c <X<X<X<X<X<X<X<X<X<X<X<X<X<X<X'.{.{.}.}.{...i.dXpX2X3X3X3X3X*XaXy.+ - + [ aX*X3X3X3X3X2X8XpX3X2X2X;X-X-X-X-X-X-X-X-X-X1X3X3XpX4X4XBXmXMXMXMXMXMXMXMXMXMXMXMXMXpX3XBXMXMXMXMXMXMXMXMXMXMXMXmXFXh.M.FXmXMXMXMXMXMXMXMXMXMXMXMXBX2XmXMXMXMXMXMXMXMXMXMXMXMXmXCX&Xq.FXpXMXMXMXMXMXMXMXMXmXmXVX} = ( N ; ",
"q q q V.6Xq q v.b.v V.q v v aXUXB.t r e J.9XL.e L.DXMXMXMXBX6Xq n.r L.CXMXMXMXMXMXMXMXMXBXBX8XV.6X7X7X0Xx.X.<X<X<XuXyXNXpX3XBXMXMXMXMXMXMXBXpX4XBXMXMXMXMXmX3XBXMXMXMXBX3XpXBXMXBX3X].mXBXMX3XBXMXBXv b.r u.OXaXn.r r v.8.4 e OXvXxXxXxXxXxXxXxXxXxXxXxXjX{.hX{.{.{.{...i.dXpX2X3X3X3X3X*XaXy.+ - + [ aX*X3X3X3X3X2X8XpX3X2X2X1X>X>X>X>X>X>X>X>X>X1X3X3XpX4X8XFXFXFXFXFXFXFXFXFXFXFXFXFXFXCX4XFXFXFXFXFXFXFXFXFXFXFXFXAXIXl.F.PXAXFXFXFXFXFXFXFXFXFXFXFXFX4XAXFXFXFXFXFXFXFXFXFXFXFXFXKX3Xs.IXCXFXFXFXFXFXFXFXFXFXGX}._ = = ; }.",
"q n.q eXMXq q r e v.L.q q v SXFXJ.q V.0X7XKXKX8.0XKXFXFXFXKX9Xq V.r 6XKXFXFXFXFXFXFXFXFXFXFXpX8XSXaX9XwX`...xXzXxXcXNXVXBX8XFXFXFXFXFXFXFXFXmXpXFXFXFXFXFXAX4XFXFXFXFXFX8XBXFXFXFX8X].CXFXFX4XAXFXFXn.n.r y.<XIXeXt n.r t w 5 Q.nXvXvXvXvXvXvXvXvXvXvXvXxX<XzXzXhX|.hX*.i.dXpX2X3X3X3X3X*XaXy.+ - + [ aX*X3X3X3X3X2X8XpX3X2X2X;X-X-X-X-X-X-X-X-X-X1X3X3XpX4X4XFXCXAXAXAXAXAXAXAXAXAXAXAXFXBX4XFXCXAXAXAXAXAXAXAXAXAXAXCXPXl.D.PXCXAXAXAXAXAXAXAXAXAXAXCXFX3XCXAXAXAXAXAXAXAXAXAXAXAXCXKX3Xs.PXCXAXAXAXAXAXAXCXFXGX:.Q ) I.A .XbX",
"v aXr eXKXn.e v t v.eXe t v.KXCX@Xq eXUX3XAXKXq.pXFXAXAXAXFXMXn.0XV.aXFXAXAXAXAXAXAXAXAXAXFXpX7XMXaX9XqX`...xXrXxXcXcXVXNX4XFXCXAXAXAXAXCXFXpXpXFXCXAXAXAXCX3XFXCXAXCXFX4XBXFXCXFX7X].BXAXAX3XCXAXCXyXeXr y.<XPXeXq 6Xn.q b 4 B.nXvXvXvXvXvXvXvXvXvXvXvXxX-XzXhX|.|.hX*.i.dXpX2X3X3X3X3X*XaXy.+ - + [ aX*X3X3X3X3X2X8XpX3X2X2X1X>X>X>X>X>X>X>X>X>X1X3X3XpX4X4XFXCXAXAXAXAXAXAXAXAXAXAXAXFXBX4XFXAXAXAXAXAXAXAXAXAXAXAXCXPXl.D.PXCXAXAXAXAXAXAXAXAXAXAXAXFX3XCXAXAXAXAXAXAXAXAXAXAXAXCXKX3Xs.PXCXAXAXAXAXAXCXFXCX*.Q *.DX(.L HXAX",
"7XAXL.aXKX6Xv FXMXaXSX@XV.eXKXBX3XL.SXBX8XFXKXq.pXFXAXAXAXAXFXFXFXKXFXAXAXAXAXAXAXAXAXAXAXFXpX7XMXaX9XqX`...xXrXxXcXNXVXNX4XFXCXAXAXAXAXAXFXpXpXFXCXAXAXFXCX3XFXAXAXCXFX4XBXFXCXFX8X].CXAXAX3XAXAXCXyXeXr y.<XLX9Xn.6Xn.q t 5 c nXvXvXvXvXvXvXvXvXvXvXvXxX-XzXhX|.|.hX*.i.dXpX2X3X3X3X3X*XaXy.+ - + [ aX*X3X3X3X3X2X8XpX3X2X2X;X-X-X-X-X-X-X-X-X-X1X3X3XpX4X4XFXCXAXAXAXAXAXAXAXAXAXAXAXFXBX4XFXAXAXAXAXAXAXAXAXAXAXAXCXPXl.D.PXCXAXAXAXAXAXAXAXAXAXAXAXFX3XCXAXAXAXAXAXAXAXAXAXAXAXCXKX3Xs.PXCXAXAXAXAXCXFXVX=.Q _.GXHX!.L HXCX",
"pXFXKXFXAXBX=XFXFXFXFXpXVXKXAXBX4XKXFXBX8XFXKXq.pXFXAXAXAXAXAXAXAXAXAXAXAXAXAXAXAXAXAXAXAXFXpX7XMXaX9XqX`...xXrXxXcXNXVXNX4XFXCXAXAXAXAXAXFXpXpXFXCXAXAXFXCX3XFXAXAXCXFX4XBXFXCXFX8X].CXAXAX3XAXAXCXyX6Xr y.<XLXMX6X0XV.q n.m.4 @XnXvXvXvXvXvXvXvXvXvXvXxX-XzXhX|.|.hX*.i.dXpX2X3X3X3X3X*XaXy.+ - + [ aX*X3X3X3X3X2X8XpX3X2X2X1X>X>X>X>X>X>X>X>X>X1X3X3XpX4X4XFXCXAXAXAXAXAXAXAXAXAXAXAXFXBX4XFXAXAXAXAXAXAXAXAXAXAXAXCXPXl.D.PXCXAXAXAXAXAXAXAXAXAXAXAXFX3XCXAXAXAXAXAXAXAXAXAXAXAXCXKX3Xs.PXCXAXAXAXCXGXcX` ( [.GXCXHX!.L HXCX",
"8XFXCXAXAXFX4XCXAXCXFXpXpXFXFXBX4XAXFXBX8XFXKXq.pXFXAXAXAXAXAXAXAXAXAXAXAXAXAXAXAXAXAXAXAXFXpX7XMXaX9XqX`...xXrXxXcXNXVXNX4XFXCXAXAXAXAXAXFXpXpXFXCXAXAXFXCX3XFXAXAXCXFX4XBXFXCXFX8X].CXAXAX3XAXAXCXyX6Xv x.<XLXaXeXaXn.r KXV.4 n vXvXnXvXvXvXvXvXvXvXvXxX-XzXhX|.|.hX*.i.dXpX2X3X3X3X3X*XaXy.+ - + [ aX*X3X3X3X3X2X8XpX3X2X2X;X-X-X-X-X-X-X-X-X-X1X3X3XpX4X4XFXCXAXAXAXAXAXAXAXAXAXAXAXFXBX4XFXAXAXAXAXAXAXAXAXAXAXAXCXPXl.D.PXCXAXAXAXAXAXAXAXAXAXAXAXFX3XCXAXAXAXAXAXAXAXAXAXAXAXCXKX3Xs.PXCXAXAXCXGXcX` ( {.GXCXCXHX!.L HXCX",
"8XFXCXAXAXAX3XCXAXCXFXpXpXFXFXBX4XFXFXBX8XFXKXq.pXFXAXAXAXAXAXAXAXAXAXAXAXAXAXAXAXAXAXAXAXFXpX7XMXaX9XqX`...xXrXxXcXNXVXNX4XFXCXAXAXAXAXAXFXpXpXFXCXAXAXFXCX3XFXAXAXCXFX4XBXFXCXFX8X].CXAXAX3XAXAXCXyX6Xv y.<XGXCX9XFXL.v.FXeXw 5 @X>XN.vXvXvXvXvXvXvXvXxX-XzXhX|.|.hX*.i.dXpX2X3X3X3X3X*XaXy.+ - + [ aX*X3X3X3X3X2X8XpX3X2X2X>X>X>X>X>X>X>X>X>X>X1X3X3XpX4X4XFXCXAXAXAXAXAXAXAXAXAXAXAXFXBX4XFXAXAXAXAXAXAXAXAXAXAXAXCXPXl.D.PXCXAXAXAXAXAXAXAXAXAXAXAXFX3XCXAXAXAXAXAXAXAXAXAXAXAXCXKX3Xs.PXCXAXCXGXcX` ( {.GXCXAXCXHX!.L HXCX",
"8XFXCXAXAXFX3XCXAXCXFXpXpXFXFXBX4XFXFXBX8XFXKXq.pXFXAXAXAXAXAXAXAXAXAXAXAXAXAXAXAXAXAXAXAXFXpX7XMXaX9XqX`...xXrXxXcXNXVXNX4XFXCXAXAXAXAXAXFXpXpXFXCXAXAXFXCX3XFXAXAXCXFX4XBXFXCXFX8X].CXAXAX3XAXAXCXyX0Xv x.<XGXCXFXFXaXL.MX0Xw 4 c 9 9 nXvXvXvXvXvXvXvXxX-XzXhX|.|.hX*.i.dXpX2X3X3X3X3X*XaXy.+ - + [ aX*X3X3X3X3X2X8XpX3X2X2X;X-X-X-X-X-X-X-X-X-X1X3X3XpX4X4XFXCXAXAXAXAXAXAXAXAXAXAXAXFXBX4XFXAXAXAXAXAXAXAXAXAXAXAXCXPXl.D.PXCXAXAXAXAXAXAXAXAXAXAXAXFX3XCXAXAXAXAXAXAXAXAXAXAXAXCXKX3Xs.PXCXCXGXcX` ( {.GXCXAXAXCXHX!.L HXCX",
"8XFXCXAXAXFX3XCXAXCXFXpXpXFXFXBX4XFXFXBX8XFXKXq.pXFXAXAXAXAXAXAXAXAXAXAXAXAXAXAXAXAXAXAXAXFXpX7XMXaX9XqX`...xXrXxXcXNXVXNX4XFXCXAXAXAXAXAXFXpXpXFXCXAXAXFXCX3XFXAXAXCXFX4XBXFXCXFX8X].CXAXAX3XAXAXCX4XMXL.x.<XGXCXAXFXaXL.gX6XL.n 5 b.b.1XvXvXvXvXbXvXvXxX-XzXzX|.|.hX*.i.dXpX2X3X3X3X3X*XaXy.+ - + [ aX*X3X3X3X3X2X8XpX3X2X2X>X>X>X>X>X>X>X>X>X>X1X3X3XpX4X4XFXCXAXAXAXAXAXAXAXAXAXAXAXFXBX4XFXAXAXAXAXAXAXAXAXAXAXAXCXPXl.D.PXCXAXAXAXAXAXAXAXAXAXAXAXFX3XCXAXAXAXAXAXAXAXAXAXAXAXCXKX3Xs.PXBXGXcX` ( {.GXCXAXAXAXCXHX!.L HXCX",
"8XFXCXAXAXFX3XCXAXCXFXpXpXFXFXBX4XFXFXBX8XFXKXq.pXFXAXAXAXAXAXAXAXAXAXAXAXAXAXAXAXAXAXAXAXFXpX7XMXaX9XqX`...xXrXxXcXNXVXNX4XFXCXAXAXAXAXAXFXpXpXFXCXAXAXFXCX3XFXAXAXCXFX4XBXFXCXFX8X].CXAXAX3XAXAXCX3XCXIXU.<XGXCXAXFXaXV.E.).lXL.4 m.8.9 1XnXbXkXkXnXvXxX,XkX^..XY.jX*.i.dXpX2X3X3X3X3X*XaXy.+ - + [ aX*X3X3X3X3X2X8XpX3X2X2X;X-X-X-X-X-X-X-X-X-X1X3X3XpX4X4XFXCXAXAXAXAXAXAXAXAXAXAXAXFXBX4XFXAXAXAXAXAXAXAXAXAXAXAXCXPXl.D.PXCXAXAXAXAXAXAXAXAXAXAXAXFX3XCXAXAXAXAXAXAXAXAXAXAXAXCXKX3Xs.PXAXbX` ( {.GXCXAXAXAXAXCXHX!.L HXCX",
"8XFXCXAXAXFX3XCXAXCXFXpXpXFXFXBX4XFXFXBX8XFXKXq.pXFXAXAXAXAXAXAXAXAXAXAXAXAXAXAXAXAXAXAXAXFXpX7XMXaX9XqX`...xXrXxXcXNXVXNX4XFXCXAXAXAXAXAXFXpXpXFXCXAXAXFXCX3XFXAXAXCXFX4XBXFXCXFX8X].CXAXAX3XAXAXCX3XCXLXU.<XGXCXAXFXaX6XW.V.W.!.w S S 9 W.^.~.kXW.!.vXQ.Q.:XQ.Q.K jX*.i.dXpX2X3X3X3X3X*XaXy.+ - + [ aX*X3X3X3X3X2X8XpX3X2X2X>X>X>X>X>X>X>X>X>X>X1X3X3XpX4X4XFXCXAXAXAXAXAXAXAXAXAXAXAXFXBX4XFXAXAXAXAXAXAXAXAXAXAXAXCXPXl.D.PXCXAXAXAXAXAXAXAXAXAXAXAXFX3XCXAXAXAXAXAXAXAXAXAXAXAXCXKX3Xs.PXNX` / {.GXCXAXAXAXAXAXCXHX!.L HXCX",
"8XFXCXAXAXFX3XCXAXCXFXpXpXFXFXBX4XFXFXBX8XFXKXq.pXFXAXAXAXAXAXAXAXAXAXAXAXAXAXAXAXAXAXAXAXFXpX7XMXaX9XqX`...xXrXxXcXNXVXNX4XFXCXAXAXAXAXAXFXpXpXFXCXAXAXFXCX3XFXAXAXCXFX4XBXFXCXFX8X].CXAXAX3XAXAXCX3XCXLXU.<XGXCXAXFXaX6X~.eX).lXr t S S I ~.^.kX^.^.!.^.Y.^.W.Y.R.:X*.i.dXpX2X3X3X3X3X*XaXy.+ - + [ aX*X3X3X3X3X2X8XpX3X2X2X;X-X-X-X-X-X-X-X-X-X1X3X3XpX4X4XFXCXAXAXAXAXAXAXAXAXAXAXAXFXBX4XFXAXAXAXAXAXAXAXAXAXAXAXCXPXl.D.PXCXAXAXAXAXAXAXAXAXAXAXAXFX3XCXAXAXAXAXAXAXAXAXAXAXAXCXKX2Xf.UX` / {.GXCXAXAXAXAXAXAXCXHX!.L HXCX",
"8XFXCXAXAXFX3XCXAXCXFXpXpXFXFXBX4XFXFXBX8XFXKXq.pXFXAXAXAXAXAXAXAXAXAXAXAXAXAXAXAXAXAXAXAXFXpX7XMXaX9XqX`...xXrXxXcXNXVXNX4XFXCXAXAXAXAXAXFXpXpXFXCXAXAXFXCX3XFXAXAXCXFX4XBXFXCXFX8X].CXAXAX3XAXAXCX3XCXLXU.<XGXCXAXAXCXJX~.5X).lX).t q S c.vXW.^.^.^.^.Q.W.^.W.Q.W.jX*.i.dXpX2X3X3X3X3X*XaXy.+ - + [ aX*X3X3X3X3X2X8XpX3X2X2X>X>X>X>X>X>X>X>X>X>X1X3X3XpX4X4XFXAXFXFXFXFXFXFXFXFXFXFXFXFXBX4XFXAXFXFXFXFXFXFXFXFXFXFXCXPXl.F.PXCXFXFXFXFXFXFXFXFXFXFXAXFX4XCXFXFXFXFXFXFXFXFXFXFXFXAXKX3Xq.=./ {.GXCXFXFXFXFXFXFXFXAXHX!.L HXAX",
"8XFXCXAXAXFX3XCXAXCXFXpXpXFXFXBX4XFXFXBX8XFXKXq.pXFXAXAXAXAXAXAXAXAXAXAXAXAXAXAXAXAXAXAXAXFXpX7XMXaX9XqX`...xXrXxXcXNXVXNX4XFXCXAXAXAXAXAXFXpXpXFXCXAXAXAXCX3XFXAXAXCXFX4XBXFXCXFX8X].CXAXAX3XAXAXCX3XCXLXU.<XGXCXAXAXAXFXZX0X6XCXZXn 5 b.S ^.kXvXkXkXvXkX^.hXjX:XY.hX*.i.dXpX2X3X3X3X3X*XaXy.+ - + [ aX*X3X3X3X3X2X8XpX3X2X2X;X-X-X-X-X-X-X-X-X-X1X3X3XpX4X4XFXCXCXCXCXCXCXCXCXCXCXCXCXCXBX3XAXCXCXCXCXCXCXCXCXCXCXCXBXLXl.D.KXBXCXCXCXCXCXCXCXCXCXCXCXCX3XBXCXCXCXCXCXCXCXCXCXCXCXBXFXpX! ( {.GXBXCXCXCXCXCXCXCXCXBXHX!.L HXBX",
"8XFXCXAXAXAX3XCXAXCXFXpXpXFXAXBX4XFXAXMX8XAXKXq.pXFXAXAXAXAXAXAXAXAXAXAXAXAXAXAXAXAXAXAXCXAXpX7XMX9X9XqX`...xX<XxXcXcXVXmX4XFXCXAXAXAXAXCXFXpXpXFXCXAXAXAXCX3XFXCXAXCXFX4XBXAXCXAX7X].BXAXAX3XCXAXCX3XCXLXU.<XGXCXAXAXAXCXFXaX6X9XKXP.5 @X9 b.nXvXvXvXvXxX<XzXzX.X|.hX*.i.dXpX2X3X3X3X3X*XaXy.+ - + [ aX*X3X3X3X3X2X8XpX3X2X2X>X>X>X>X>X>X>X>X>X>X1X3X3XpX8X*Xq.q.q.q.q.q.q.q.q.q.q.q.q.q.7.2.q.q.q.q.q.q.q.q.q.q.q.q.q.q.h 3.q.q.q.q.q.q.q.q.q.q.q.q.q.q.2.q.q.q.q.q.q.q.q.q.q.q.q.q.6.^ ( } w.7.q.q.q.q.q.q.q.q.q.q.e.A F e.q.",
"sXHXFXFXFXFXuXFXFXFXHXsXBXHXFXDXsXHXHXDXsXHXPXq.sXHXFXFXFXFXFXFXFXFXFXFXFXFXFXFXFXFXFXFXFXHXsXsXSXaXaXfX`...xXzXcXbXVXDXBXsXHXFXFXFXFXFXFXHXsXsXHXFXFXFXFXFXuXHXFXFXFXHXsXDXHXFXHXsX].DXFXFXuXFXFXFXuXFXPX`.<XPXFXFXFXFXFXFXCXL.L.FXfX6 m.n.b.nXbXbXbXnXxX<XzXzX.X|.zX..i.dXpX2X3X3X3X3X*XaXy.+ - + [ aX*X3X3X3X3X2X8XpX3X2X2X;X-X-X-X-X-X-X-X-X-X1X3X3XpX4X8XKXFXFXFXFXFXFXFXFXFXFXFXFXFXCX8XFXFXFXFXFXFXFXFXFXFXFXFXAXIXl.F.IXAXFXFXFXFXFXFXFXFXFXFXFXFX8XAXFXFXFXFXFXFXFXFXFXAXFXFX=.Q p.PXCXFXFXFXFXFXFXFXFXFXFXAXHX!.L HXAX",
"J H H H H H J H H H H H H H H H J H H H J H H G H H H H H H H H H H H H H H H H H H H H H H H J H H H H J F J J J J J H H J H H H H H H H H H H H H H H H H J H H H H H J H H H H H J H H H J H H H J H H J J H H H H H H H H J H H H G G J G J J J J J J J J J J J J F p.dXpX2X3X3X3X3X*XaXy.+ - + [ aX*X3X3X3X3X2X8XpX3X2X2X>X>X>X>X>X>X>X>X>X>X1X3X3XpX4X4XFXCXCXCXCXCXCXCXCXCXCXCXCXAXBX4XFXCXCXCXCXCXCXCXCXCXCXCXCXPXl.D.PXCXCXCXCXCXCXCXCXCXCXCXCXFX3XCXAXCXCXCXCXCXCXAXCXFXCX..( _.f.PXCXCXCXCXCXCXCXCXCXCXCXCXHX!.L HXCX",
"K E.E.E.E.E.K E.E.E.E.K E.E.E.E.K E.E.E.K E.E.F E.E.E.E.E.E.E.E.E.E.E.E.E.E.E.E.E.E.E.E.E.E.E.K E.P P P F F E.K E.E.E.E.E.K E.E.E.E.E.E.E.E.E.K E.E.E.E.E.E.K E.E.E.E.E.K E.E.E.E.K K E.E.E.K E.E.E.K E.E.F K E.E.E.E.E.E.E.E.E.K I E.I S I F E.E.E.E.E.K K K K K K K F p.dXpX2X3X3X3X3X*XaXy.+ - + [ aX*X3X3X3X3X2X8XpX3X2X2X;X-X;X;X;X;X;X;X;X-X1X3X3XpX4X4XFXCXAXAXAXAXAXAXAXAXAXAXAXFXBX4XFXAXAXAXAXAXAXAXAXAXAXAXCXPXl.D.PXCXAXAXAXAXAXAXAXAXAXAXAXFX3XCXAXAXAXAXAXAXAXCXFXCX=.Q |.9Xs.PXCXAXAXAXAXAXAXAXAXAXAXCXHX!.L HXCX",
"sXHXHXHXHXHXsXHXHXHXHXsXDXHXHXHXsXHXHXDXsXHXIXe.BXHXHXHXHXHXHXHXHXHXHXHXHXHXHXHXHXHXHXHXHXHXgXsXJXgXgXfX`...bXzXbXbXDXDXDXsXHXHXHXHXHXHXHXHXBXsXHXHXHXHXHXHXsXHXHXHXHXHXsXDXHXHXHXsX].HXHXHXuXHXHXHXsXHXPX`.tXPXHXHXHXHXHXHXHXHXJX6XHXgXf n b.bXnXnXnXnXbX,XnXzX.X.XzX..i.dXpX2X3X3X3X3X*XaXy.+ - + [ aX*X3X3X3X3X2X8XpX3X2X2X>X;X>X>X>X>X>X>X>X;X1X3X3XpX4X4XFXCXAXAXAXAXAXAXAXAXAXAXAXFXBX4XFXAXAXAXAXAXAXAXAXAXAXAXCXPXl.D.PXCXAXAXAXAXAXAXAXAXAXAXAXFX3XCXAXAXAXAXAXAXCXFXCX=.Q [.PX1Xs.PXCXAXAXAXAXAXAXAXAXAXAXCXHX!.L HXCX",
"8XAXCXCXCXAX3XCXCXCXAX8XpXAXAXBX3XAXAXMX4XAXKXq.pXAXCXCXCXCXCXCXCXCXCXCXCXCXCXCXCXCXCXCXCXAXpX7XMX9X0XqX`...xX<XxXcXcXVXmX3XAXCXCXCXCXCXCXAXpX8XAXCXCXCXAXBX3XAXCXCXCXAX4XMXAXCXAX7X].BXAXCX3XCXAXCX3XCXLXU.>XGXCXCXCXCXCXCXCXCXCXeXeX9Xc 5 b.kXvXvXvXvXxX-XzXhX|.|.hX*.i.dXpX2X3X3X3X3X*XaXy.+ - + [ aX*X3X3X3X3X2X8XpX3X2X2X;X;X;X;X;X;X;X;X;X;X1X3X3XpX4X4XFXCXAXAXAXAXAXAXAXAXAXAXAXFXBX4XFXAXAXAXAXAXAXAXAXAXAXAXCXPXl.D.PXCXAXAXAXAXAXAXAXAXAXAXAXFX3XCXAXAXAXAXAXCXFXCX=.Q XXGXFX3Xs.PXCXAXAXAXAXAXAXAXAXAXAXCXHX!.L HXCX",
"8XFXCXAXAXFX3XCXAXCXFXpXpXFXFXBX4XFXFXBX8XFXKXq.pXFXAXAXAXAXAXAXAXAXAXAXAXAXAXAXAXAXAXAXAXFXpX7XMXaX9XqX`...xXrXxXcXNXVXNX4XFXCXAXAXAXAXAXFXpXpXFXCXAXAXFXCX3XFXAXAXCXFX4XBXFXCXFX8X].CXAXAX3XAXAXCX3XCXLXU.<XGXCXAXAXAXAXAXAXFXZXE.eX).b.5 b W.~.^.W.kXxX<X^.^.W.R.:X*.i.dXpX2X3X3X3X3X*XaXy.+ - + [ aX*X3X3X3X3X2X8XpX3X2X2X>X;X;X;X;X;X;X;X;X;X1X3X3XpX4X4XFXCXAXAXAXAXAXAXAXAXAXAXAXFXBX4XFXAXAXAXAXAXAXAXAXAXAXAXCXPXl.D.PXCXAXAXAXAXAXAXAXAXAXAXAXFX3XCXAXAXAXAXCXFXCX=.Q _.GXCXKX3Xs.PXCXAXAXAXAXAXAXAXAXAXAXCXHX!.L HXCX",
"8XFXCXAXAXFX3XCXAXCXFXpXpXFXFXBX4XFXFXBX8XFXKXq.pXFXAXAXAXAXAXAXAXAXAXAXAXAXAXAXAXAXAXAXAXFXpX7XMXaX9XqX`...xXrXxXcXNXVXNX4XFXCXAXAXAXAXAXFXpXpXFXCXAXAXFXCX3XFXAXAXCXFX4XBXFXCXFX8X].CXAXAX3XAXAXCX3XCXLXU.<XGXCXAXAXAXAXAXAXHXAX).5XgX).5 e ^.^.E.kX~.xXW.W.^.W.W.:X*.i.dXpX2X3X3X3X3X*XaXy.+ - + [ aX*X3X3X3X3X2X8XpX3X2X2X;X;X;X;X;X;X;X;X;X;X1X3X3XpX4X4XFXCXAXAXAXAXAXAXAXAXAXAXAXFXBX4XFXAXAXAXAXAXAXAXAXAXAXAXCXPXl.D.PXCXAXAXAXAXAXAXAXAXAXAXAXFX3XCXAXAXAXCXFXFX*.Q _.GXCXCXKX3Xs.PXCXAXAXAXAXAXAXAXAXAXAXCXHX!.L HXCX",
"8XFXCXAXAXFX3XCXAXCXFXpXpXFXFXBX4XFXFXBX8XFXKXq.pXFXAXAXAXAXAXAXAXAXAXAXAXAXAXAXAXAXAXAXAXFXpX7XMXaX9XqX`...xXrXxXcXNXVXNX4XFXCXAXAXAXAXAXFXpXpXFXCXAXAXFXCX3XFXAXAXCXFX4XBXFXCXFX8X].CXAXAX3XAXAXCX3XCXLXU.<XGXCXAXAXAXAXFXCX/.ZX/.9XeX/.c w ^.^.E.kX^.5X^.^.^.Q.Y.^.*.i.dXpX2X3X3X3X3X*XaXy.+ - + [ aX*X3X3X3X3X2X8XpX3X2X2X>X;X;X;X;X;X;X;X;X;X1X3X3XpX4X4XFXCXAXAXAXAXAXAXAXAXAXAXAXFXBX4XFXAXAXAXAXAXAXAXAXAXAXAXCXPXl.D.PXCXAXAXAXAXAXAXAXAXAXAXAXFX3XCXAXAXCXFXFX*.Q _.GXCXAXCXKX3Xs.PXCXAXAXAXAXAXAXAXAXAXAXCXHX!.L HXCX",
"8XFXCXAXAXFX3XCXAXCXFXpXpXFXFXBX4XFXFXBX8XFXKXq.pXFXAXAXAXAXAXAXAXAXAXAXAXAXAXAXAXAXAXAXAXFXpX7XMXaX9XqX`...xXrXxXcXNXVXNX4XFXCXAXAXAXAXAXFXpXpXFXCXAXAXFXCX3XFXAXAXCXFX4XBXFXCXFX8X].CXAXAX3XAXAXCX3XCXLXU.<XGXCXAXAXAXAXAXAXZXAX/.lXE.~.v.w W.!.^.W.kXkXW.W.^.W.R.:X*.i.dXpX2X3X3X3X3X*XaXy.+ - + [ aX*X3X3X3X3X2X8XpX3X2X2X>X;X;X;X;X;X;X;X;X;X1X3X3XpX4X4XFXCXAXAXAXAXAXAXAXAXAXAXAXFXBX4XFXAXAXAXAXAXAXAXAXAXAXAXCXPXl.D.PXCXAXAXAXAXAXAXAXAXAXAXAXFX3XCXFXCXFXFX*.Q _.GXCXAXAXCXKX3Xs.PXCXAXAXAXAXAXAXAXAXAXAXCXHX!.L HXCX",
"8XFXCXAXAXFX3XCXAXCXFXpXpXFXFXBX4XFXFXBX8XFXKXq.pXFXAXAXAXAXAXAXAXAXAXAXAXAXAXAXAXAXAXAXAXFXpX7XMXaX9XqX`...xXrXxXcXNXVXNX4XFXCXAXAXAXAXAXFXpXpXFXCXAXAXFXCX3XFXAXAXCXFX4XBXFXCXFX8X].CXAXAX3XAXAXCX3XCXLXU.<XGXCXAXAXAXAXAXAXFXFXCXCXeXeXL.4 J.8.+XvXvXxX:XjXhX|.{.zX*.i.dXpX2X3X3X3X3X*XaXy.+ - + [ aX*X3X3X3X3X2X8XpX3X2X2X;X;X;X;X;X;X;X;X;X;X1X3X3XpX4X4XFXCXAXAXAXAXAXAXAXAXAXAXAXFXBX4XFXAXAXAXAXAXAXAXAXAXAXAXCXPXl.D.PXCXAXAXAXAXAXAXAXAXAXAXAXFX3XCXCXAXFX*.Q _.GXCXAXAXAXCXKX3Xs.PXCXAXAXAXAXAXAXAXAXAXAXCXHX!.L HXCX",
"8XFXCXAXAXFX3XCXAXCXFXpXpXFXFXBX4XFXFXBX8XFXKXq.pXFXAXAXAXAXAXAXAXAXAXAXAXAXAXAXAXAXAXAXAXFXpX7XMXaX9XqX`...xXrXxXcXNXVXNX4XFXCXAXAXAXAXAXFXpXpXFXCXAXAXFXCX3XFXAXAXCXFX4XBXFXCXFX8X].CXAXAX3XAXAXCX3XCXLXU.<XGXCXAXAXAXAXAXAXAXAXAXFX6XeX0X5 m.8.B.nXvXxX<XzXhX|.|.hX*.i.dXpX2X3X3X3X3X*XaXy.+ - + [ aX*X3X3X3X3X2X8XpX3X2X2X>X;X;X;X;X;X;X;X;X;X1X3X3XpX4X4XFXCXAXAXAXAXAXAXAXAXAXAXAXFXBX4XFXAXAXAXAXAXAXAXAXAXAXAXCXPXl.D.PXCXAXAXAXAXAXAXAXAXAXAXAXFX3XCXCXGX*.Q _.GXCXCXAXAXAXCXKX3Xs.PXCXAXAXAXAXAXAXAXAXAXAXCXHX!.L HXCX",
"8XFXCXAXAXFX3XCXAXCXFXpXpXFXFXBX4XFXFXBX8XFXKXq.pXFXAXAXAXAXAXAXAXAXAXAXAXAXAXAXAXAXAXAXAXFXpX7XMXaX9XqX`...xXrXxXcXNXVXNX4XFXCXAXAXAXAXAXFXpXpXFXCXAXAXFXCX3XFXAXAXCXFX4XBXFXCXFX8X].CXAXAX3XAXAXCX3XCXLXU.<XGXCXAXAXAXAXAXAXAXAXAXFX0XL.BXc c 9 B.nXvXxX-XzXhX|.|.hX*.i.dXpX2X3X3X3X3X*XaXy.+ - + [ aX*X3X3X3X3X2X8XpX3X2X2X;X;X;X;X;X;X;X;X;X;X1X3X3XpX4X4XFXCXAXAXAXAXAXAXAXAXAXAXAXFXBX4XFXAXAXAXAXAXAXAXAXAXAXAXCXPXl.D.PXCXAXAXAXAXAXAXAXAXAXAXAXFX3XCXGX:.Q _.GXCXCXAXAXAXAXCXKX3Xs.PXCXAXAXAXAXAXAXAXAXAXAXCXHX!.L HXCX",
"8XFXCXAXAXFX3XCXAXCXFXpXpXFXFXBX4XFXFXBX8XFXKXq.pXFXAXAXAXAXAXAXAXAXAXAXAXAXAXAXAXAXAXAXAXFXpX7XMXaX9XqX`...xXrXxXcXNXVXNX4XFXCXAXAXAXAXAXFXpXpXFXCXAXAXFXCX3XFXAXAXCXFX4XBXFXCXFX8X].CXAXAX3XAXAXCX3XCXLXU.<XGXCXAXAXAXAXAXAXAXAXAXFXaXeXaXC.4 9 b.>XvXxX-XzXhX|.|.hX*.i.dXpX2X3X3X3X3X*XaXy.+ - + [ aX*X3X3X3X3X2X8XpX3X2X2X>X;X;X;X;X;X;X;X;X;X1X3X3XpX4X4XFXCXAXAXAXAXAXAXAXAXAXAXAXFXBX4XFXAXAXAXAXAXAXAXAXAXAXAXCXPXl.D.PXCXAXAXAXAXAXAXAXAXAXAXAXFX4XGX:.Q _.GXCXCXAXAXAXAXAXCXKX3Xs.PXCXAXAXAXAXAXAXAXAXAXAXCXHX!.L HXCX",
"8XFXCXAXAXFX3XCXAXCXFXpXpXFXFXBX4XFXFXBX8XFXKXq.pXFXAXAXAXAXAXAXAXAXAXAXAXAXAXAXAXAXAXAXAXFXpX7XMXaX9XqX`...xXrXxXcXNXVXNX4XFXCXAXAXAXAXAXFXpXpXFXCXAXAXFXCX3XFXAXAXCXFX4XBXFXCXFX8X].CXAXAX3XAXAXCX3XCXLXU.<XGXCXAXAXAXAXAXAXAXAXAXAXFXaX9XL.4 q 9 b.vXxX-XzXhX|.|.hX*.i.dXpX2X3X3X3X3X*XaXy.+ - + [ aX*X3X3X3X3X2X8XpX3X2X2X;X;X;X;X;X;X;X;X;X;X1X3X3XpX4X4XFXCXAXAXAXAXAXAXAXAXAXAXAXFXBX4XFXCXAXAXAXAXAXAXAXAXAXAXCXPXl.D.PXCXAXAXAXAXAXAXAXAXAXAXCXFX9X:.Q _.GXCXCXAXAXAXAXAXAXCXFX3Xs.PXCXAXAXAXAXAXAXAXAXAXAXCXHX!.L HXCX",
"8XFXCXAXAXFX3XCXAXCXFXpXpXFXFXBX4XFXFXBX8XFXKXq.pXFXAXAXAXAXAXAXAXAXAXAXAXAXAXAXAXAXAXAXAXFXpX7XMXaX9XqX`...xXrXxXcXNXVXNX4XFXCXAXAXAXAXAXFXpXpXFXCXAXAXFXCX3XFXAXAXCXFX4XBXFXCXFX8X].CXAXAX3XAXAXCX3XCXLXU.<XGXCXAXAXAXAXAXAXAXAXAXAXFXaX0X6X5 w 9 b.vXxX-XzXhX|.|.hX*.i.dXpX2X3X3X3X3X*XaXy.+ - + [ aX*X3X3X3X3X2X8XpX3X2X2X>X>X>X>X>X>X>X>X>X;X1X3X3XpX4X8XFXFXFXFXFXFXFXFXFXFXFXFXFXFXCX4XFXFXFXFXFXFXFXFXFXFXFXFXCXIXl.F.PXAXFXFXFXFXFXFXFXFXFXFXFXGX*.Q _.GXCXFXFXFXFXFXFXFXFXFXKX3Xs.PXCXFXFXFXFXFXFXFXFXFXFXAXHX!.L HXAX",
"8XFXCXAXAXFX3XCXAXCXFXpXpXFXFXBX4XFXFXBX8XFXKXq.pXFXAXAXAXAXAXAXAXAXAXAXAXAXAXAXAXAXAXAXAXFXpX7XMXaX9XqX`...xXrXxXcXNXVXNX4XFXCXAXAXAXAXAXFXpXpXFXCXAXAXFXCX3XFXAXAXCXFX4XBXFXCXFX8X].CXAXAX3XAXAXCX3XCXLXU.<XGXCXAXAXAXAXAXAXAXAXAXAXFXMX6X9Xw 5 9 8.xXxX-XzXhX|.|.hX*.i.dXpX2X3X3X3X3X*XaXy.+ - + [ aX*X3X3X3X3X2X8XpX3X2X2X;X-X;X-X-X-X-X-X-X-X1X3X3XpX4X3X8X3X3X3X3X3X3X3X3X3X3X3X3X4X3X&X4X3X3X3X3X3X3X3X3X3X3X3X3XpXf.h.pX3X3X3X3X3X3X3X3X3X3X3X9X:./ :.aX4X3X3X3X3X3X3X3X3X3X3XpXoX7.pX3X3X3X3X3X3X3X3X3X3X3X3XsXW.K sX3X",
"8XFXCXAXCXAX3XCXAXCXFXpXpXFXAXBX4XFXAXBX8XAXKXq.pXFXCXAXAXAXAXAXAXAXAXAXAXAXAXAXAXAXAXAXCXFXpX7XMXaX9XqX`...xX<XxXcXcXVXmX4XFXCXAXAXAXAXCXFXpXpXFXCXAXAXAXCX3XFXCXAXCXFX4XBXFXCXFX7X].BXAXAX3XCXAXCX3XCXLXU.<XGXCXAXAXAXAXAXAXAXAXAXAXAXCX6X6Xc 4 9 8.vXxX-XzXhX|.|.hX*.i.dXpX2X3X3X3X3X*XaXy.+ - + [ aX*X3X3X3X3X2X8XpX3X2X2X>X>X>X>X>X>X>X>X>X>X1X3X3XpX4X4XFXCXCXCXCXCXCXCXCXCXCXCXCXCXBX3XFXCXCXCXCXCXCXCXCXCXCXCXBXPXl.D.LXBXCXCXCXCXCXCXCXCXCXGX:.Q -.GXCXCXCXCXCXCXCXCXCXCXCXCXFX2Xs.PXBXCXCXCXCXCXCXCXCXCXCXCXHX!.L HXCX",
"pXKXFXFXFXFX4XFXFXFXKXpXMXFXFXCX8XFXFXBX8XFXPXq.mXKXFXFXFXFXFXFXFXFXFXFXFXFXFXFXFXFXFXFXFXFXaX7XSXaX9XfX`...xXzXcXbXNXVXBX8XKXFXFXFXFXFXFXKXmXpXKXFXFXFXFXAX4XFXFXFXFXKX8XCXFXFXFX8X].CXFXFX4XFXFXFX4XFXPXU.<XLXFXFXFXFXFXFXFXFXFXFXFXFXKXaX0Xv 4 q 9 B.xX<XzXzXhX|.hX*.i.dXpX2X3X3X3X3X*XaXy.+ - + [ aX*X3X3X3X3X2X8XpX3X2X2X;X-X-X-X-X-X-X-X-X-X1X3X3XpX4X4XFXAXAXAXAXAXAXAXAXAXAXAXAXFXBX4XFXAXAXAXAXAXAXAXAXAXAXAXCXPXl.F.PXCXAXAXAXAXAXAXCXCXGX:.Q _.9XCXFXAXAXAXAXAXAXAXAXAXAXAXKX3Xs.PXCXAXAXAXAXAXAXAXAXAXAXAXHX!.L HXAX",
"2XpXpXpXpXpX*XpXpXpXpX3X4XpXpXpX*XpXpX8X2XpXBX6.3XmXpXpXpXpXpXpXpXpXpXpXpXpXpXpXpXpXpXpXpXpX3X=X7X6X=X6Xx.X.<X<X<X<X4XyX4X*XpXpXpXpXpXpXpXpX3X3XpXpXpXpXpXpX*XpXpXpXpXpX*XpXpXpXpX3X`.yXpXpX*XpXpXpX*XpXSXx.OXMXpXpXpXpXpXpXpXpXpXpXpXpXpX7XeXn.4 w 9 9 OX{.<X{.{.}.{...i.dXpX2X3X3X3X3X*XaXy.+ - + [ aX*X3X3X3X3X2X8XpX3X2X2X>X>X>X>X>X>X>X>X>X>X1X3X3XpX4X4XFXCXAXAXAXAXAXAXAXAXAXAXAXFXBX4XFXCXAXAXAXAXAXAXAXAXAXAXCXPXl.D.PXCXAXAXAXAXAXCXCXGX:.Q :.GX4XCXAXAXAXAXAXAXAXAXAXAXAXCXKX3Xs.PXCXAXAXAXAXAXAXAXAXAXAXCXHX!.L HXCX",
"2XpXpXpXpXpX*XpXpXpXpX3X4XpXpXpX*XpXpX8X2XpXBX6.3XpXpXpXpXpXpXpXpXpXpXpXpXpXpXpXpXpXpXpXpXpX3X=X7X6X=X6Xx.X.<X<X<X<X4XyX4X*XpXpXpXpXpXpXpXpX3X3XpXpXpXpXpXpX*XpXpXpXpXpX*X8XpXpXpX3X`.yXpXpX*XpXpXpX*XpXSXx.'.MXpXpXpXpXpXpXpXpXpXpXpXpXpX7XeX@X5 5 9 9 ;X{.<X{.{.}.{...i.dXpX2X3X3X3X3X*XaXy.+ - + [ aX*X3X3X3X3X2X8XpX3X2X2X;X-X-X-X-X-X-X-X-X-X1X3X3XpX4X4XFXCXAXAXAXAXAXAXAXAXAXAXAXFXBX4XFXAXAXAXAXAXAXAXAXAXAXAXCXPXl.D.PXCXAXAXAXAXCXCXGX:.Q :.GXFX3XCXAXAXAXAXAXAXAXAXAXAXAXCXKX3Xs.PXCXAXAXAXAXAXAXAXAXAXAXCXHX!.L HXCX",
"pXKXFXFXFXFX4XFXFXFXKXpXMXKXFXCX8XFXFXBX8XFXPXq.mXKXFXFXFXFXFXFXFXFXFXFXFXFXFXFXFXFXFXFXFXFXaX7XSXaX9XfX`...xXzXcXbXNXVXBX8XKXFXFXFXFXFXFXKXmXpXKXFXFXFXFXAX4XFXFXFXFXKX8XCXFXFXFX8X].AXFXFX4XFXFXFX4XFXPXU.<XLXFXFXFXFXFXFXFXFXFXFXFXFXFXSX6XKXC.5 9 9 1X<XzXzXhX|.hX*.i.dXpX2X3X3X3X3X*XaXy.+ - + [ aX*X3X3X3X3X2X8XpX3X2X2X>X>X>X>X>X>X>X>X>X>X1X3X3XpX4X4XFXCXAXAXAXAXAXAXAXAXAXAXAXFXBX4XFXAXAXAXAXAXAXAXAXAXAXAXCXPXl.D.PXCXAXAXAXCXCXGX:.Q :.FXAXFX3XCXAXAXAXAXAXAXAXAXAXAXAXCXKX3Xs.PXCXAXAXAXAXAXAXAXAXAXAXCXHX!.L HXCX",
"8XFXCXAXCXAX3XCXAXCXFXpXpXFXAXBX4XFXAXBX8XAXKXq.pXFXCXAXAXAXAXAXAXAXAXAXAXAXAXAXAXAXAXAXCXFXpX7XMXaX9XqX`...xX<XxXcXcXVXmX4XFXCXAXAXAXAXCXFXpXpXFXCXAXAXAXCX3XFXCXAXCXFX4XBXFXCXFX7X].BXAXAX3XCXAXCX3XCXLXU.<XGXCXAXAXAXAXAXAXAXAXAXAXCXFXMX6XKXL.4 e 9 >X<XzXhX|.|.hX*.i.dXpX2X3X3X3X3X*XaXy.+ - + [ aX*X3X3X3X3X2X8XpX3X2X2X;X-X-X-X-X-X-X-X-X-X1X3X3XpX4X4XFXCXAXAXAXAXAXAXAXAXAXAXAXFXBX4XFXAXAXAXAXAXAXAXAXAXAXAXCXPXl.D.PXCXAXAXCXCXGX:.Q >.FXFXCXFX3XCXAXAXAXAXAXAXAXAXAXAXAXCXKX3Xs.PXCXAXAXAXAXAXAXAXAXAXAXCXHX!.L HXCX",
"8XFXCXAXAXFX3XCXAXCXFXpXpXFXFXBX4XFXFXBX8XFXKXq.pXFXAXAXAXAXAXAXAXAXAXAXAXAXAXAXAXAXAXAXAXFXpX7XMXaX9XqX`...xXrXxXcXNXVXNX4XFXCXAXAXAXAXAXFXpXpXFXCXAXAXFXCX3XFXAXAXCXFX4XBXFXCXFX8X].CXAXAX3XAXAXCX3XCXLXU.<XGXCXAXAXAXAXAXAXAXAXAXAXAXFXBX6XFX0X5 w 9 >X<XzXhX|.|.hX*.i.dXpX2X3X3X3X3X*XaXy.+ - + [ aX*X3X3X3X3X2X8XpX3X2X2X>X>X>X>X>X>X>X>X>X>X1X3X3XpX4X4XFXCXAXAXAXAXAXAXAXAXAXAXAXFXBX4XFXAXAXAXAXAXAXAXAXAXAXAXCXPXl.D.PXCXAXCXCXGX:.Q >.FXFXCXAXFX3XCXAXAXAXAXAXAXAXAXAXAXAXCXKX3Xs.PXCXAXAXAXAXAXAXAXAXAXAXCXHX!.L HXCX",
"8XFXCXAXAXFX3XCXAXCXFXpXpXFXFXBX4XFXFXBX8XFXKXq.pXFXAXAXAXAXAXAXAXAXAXAXAXAXAXAXAXAXAXAXAXFXpX7XMXaX9XqX`...xXrXxXcXNXVXNX4XFXCXAXAXAXAXAXFXpXpXFXCXAXAXFXCX3XFXAXAXCXFX4XBXFXCXFX8X].CXAXAX3XAXAXCX3XCXLXU.<XGXCXAXAXAXAXAXAXAXAXAXAXAXFXBX6XCXFXc 5 9 OX<XzXhX|.|.hX*.i.dXpX2X3X3X3X3X*XaXy.+ - + [ aX*X3X3X3X3X2X8XpX3X2X2X;X-X-X-X-X-X-X-X-X-X1X3X3XpX4X4XFXCXAXAXAXAXAXAXAXAXAXAXAXFXBX4XFXAXAXAXAXAXAXAXAXAXAXAXCXPXl.D.PXCXCXCXGX:.Q >.FXFXCXAXAXFX3XCXAXAXAXAXAXAXAXAXAXAXAXCXKX3Xs.PXCXAXAXAXAXAXAXAXAXAXAXCXHX!.L HXCX",
"8XFXCXAXAXFX3XCXAXCXFXpXpXFXFXBX4XFXFXBX8XFXKXq.pXFXAXAXAXAXAXAXAXAXAXAXAXAXAXAXAXAXAXAXAXFXpX7XMXaX9XqX`...xXrXxXcXNXVXNX4XFXCXAXAXAXAXAXFXpXpXFXCXAXAXFXCX3XFXAXAXCXFX4XBXFXCXFX8X].CXAXAX3XAXAXCX3XCXLXU.<XGXCXAXAXAXAXAXAXAXAXAXAXAXFXBX6XBXKXn 5 9 OX<XzXhX|.|.hX*.i.dXpX2X3X3X3X3X2X3X&XOXOXOX#X3X2X3X3X3X3X2X8XpX3X2X2X>X>X>X>X>X>X>X>X>X>X1X3X3XpX4X4XFXCXAXAXAXAXAXAXAXAXAXAXAXFXBX4XFXAXAXAXAXAXAXAXAXAXAXAXCXPXl.D.PXCXCXGX_.Q *.FXFXCXAXAXAXFX3XCXAXAXAXAXAXAXAXAXAXAXAXCXKX3Xs.PXCXAXAXAXAXAXAXAXAXAXAXCXHX!.L HXCX",
"8XFXCXAXAXFX3XCXAXCXFXpXpXFXFXBX4XFXFXBX8XFXKXq.pXFXAXAXAXAXAXAXAXAXAXAXAXAXAXAXAXAXAXAXAXFXpX7XMXaX9XqX`...xXrXxXcXNXVXNX4XFXCXAXAXAXAXAXFXpXpXFXCXAXAXFXCX3XFXAXAXCXFX4XBXFXCXFX8X].CXAXAX3XAXAXCX3XCXLXU.<XGXCXAXAXAXAXAXAXAXAXAXAXAXFXCX6XBXKXP.4 9 OX<XzXhX|.|.hX*.i.dXpX2X3X3X3X3X3X2X8XBXMXBXpX2X3X3X3X3X3X2X8XpX3X2X2X;X-X-X-X-X-X-X-X-X-X1X3X3XpX4X4XFXCXAXAXAXAXAXAXAXAXAXAXAXFXBX4XFXAXAXAXAXAXAXAXAXAXAXAXCXPXl.D.PXCXGX_.Q >.FXFXCXAXAXAXAXFX3XCXAXAXAXAXAXAXAXAXAXAXAXCXKX3Xs.PXCXAXAXAXAXAXAXAXAXAXAXCXHX!.L HXCX",
"8XFXCXAXAXFX3XCXAXCXFXpXpXFXFXBX4XFXFXBX8XFXKXq.pXFXAXAXAXAXAXAXAXAXAXAXAXAXAXAXAXAXAXAXAXFXpX7XMXaX9XqX`...xXrXxXcXNXVXNX4XFXCXAXAXAXAXAXFXpXpXFXCXAXAXFXCX3XFXAXAXCXFX4XBXFXCXFX8X].CXAXAX3XAXAXCX3XCXLXU.<XGXCXAXAXAXAXAXAXAXAXAXAXAXFXCX6XMXKXL.4 q Q.<XzXhX|.|.hX*.i.dXpX2X3X3X3X3X3X2X3XpXpXpX4X2X3X3X3X3X3X2X8XpX3X2X2X1X>X>X>X>X>X>X>X>X>X1X3X3XpX4X4XFXCXAXAXAXAXAXAXAXAXAXAXAXFXBX4XFXAXAXAXAXAXAXAXAXAXAXAXCXPXl.D.PXGX_.Q >.FXAXCXAXAXAXAXAXFX3XCXAXAXAXAXAXAXAXAXAXAXAXCXKX3Xs.PXCXAXAXAXAXAXAXAXAXAXAXCXHX!.L HXCX",
"8XFXCXAXAXFX3XCXAXCXFXpXpXFXFXBX4XFXFXBX8XFXKXq.pXFXAXAXAXAXAXAXAXAXAXAXAXAXAXAXAXAXAXAXAXFXpX7XMXaX9XqX`...xXrXxXcXNXVXNX4XFXCXAXAXAXAXAXFXpXpXFXCXAXAXFXCX3XFXAXAXCXFX4XBXFXCXFX8X].CXAXAX3XAXAXCX3XCXLXU.<XGXCXAXAXAXAXAXAXAXAXAXAXAXAXAX6XMXKXaXf w OX<XzXhX|.|.hX*.i.dXpX2X3X3X3X3X3X2X3XpXpXpX4X2X3X3X3X3X3X2X8XpX3X2X2X;X-X-X-X-X-X-X-X-X-X1X3X3XpX4X4XFXCXAXAXAXAXAXAXAXAXAXAXAXFXBX4XFXAXAXAXAXAXAXAXAXAXAXAXCXPXl.D.IX_.Q *.FXAXCXAXAXAXAXAXAXFX3XCXAXAXAXAXAXAXAXAXAXAXAXCXKX3Xs.PXCXAXAXAXAXAXAXAXAXAXAXCXHX!.L HXCX",
"8XFXCXAXAXFX3XCXAXCXFXpXpXFXFXBX4XFXFXBX8XFXKXq.pXFXAXAXAXAXAXAXAXAXAXAXAXAXAXAXAXAXAXAXAXFXpX7XMXaX9XqX`...xXrXxXcXNXVXNX4XFXCXAXAXAXAXAXFXpXpXFXCXAXAXFXCX3XFXAXAXCXFX4XBXFXCXFX8X].CXAXAX3XAXAXCX3XCXLXU.<XGXCXAXAXAXAXAXAXAXAXAXAXAXAXFX6XaXFXFXc 5 OX<XzXhX|.|.hX*.i.dXpX2X3X3X3X3X3X2X7XSXSXSXaX2X3X3X3X3X3X2X8XpX3X2X2X1X>X>X>X>X>X>X>X>X>X1X3X3XpX4X4XFXCXCXCXCXCXCXCXCXCXCXCXCXAXBX4XFXCXCXCXCXCXCXCXCXCXCXCXCXPXl.G.[.Q *.FXAXCXAXCXCXCXCXCXCXFX3XCXAXCXCXCXCXCXCXCXCXCXCXCXFX3Xs.PXCXCXCXCXCXCXCXCXCXCXCXCXHX!.L HXCX",
"8XFXCXAXAXFX3XCXAXCXFXpXpXFXFXBX4XFXFXBX8XFXKXq.pXFXAXAXAXAXAXAXAXAXAXAXAXAXAXAXAXAXAXAXAXFXpX7XMXaX9XqX`...xXrXxXcXNXVXNX4XFXCXAXAXAXAXAXFXpXpXFXCXAXAXFXCX3XFXAXAXCXFX4XBXFXCXFX8X].CXAXAX3XAXAXCX3XCXLXU.<XGXCXAXAXAXAXAXAXAXAXAXAXAXAXFX0X0XFXKXn 5 N.<XzXhX|.|.hX*.i.dXpX2X3X3X3X3X2X3X$XI.I.I.}.7X2X3X3X3X3X2X8XpX3X2X2X;X-X-X-X-X-X-X-X-X-X1X3X3XpX4X8XPXKXKXKXKXKXKXKXKXKXKXKXKXKXFXpXLXKXKXKXKXKXKXKXKXKXKXKXFXIXD.@.( >.LXKXKXKXKXKXKXKXKXKXKXKXpXFXKXKXKXKXKXKXKXKXKXKXKXKXPX4Xs.IXFXKXKXKXKXKXKXKXKXKXKXKXPX(.L PXKX",
"8XFXCXAXAXFX3XCXAXCXFXpXpXFXFXBX4XFXFXBX8XFXKXq.pXFXAXAXAXAXAXAXAXAXAXAXAXAXAXAXAXAXAXAXAXFXpX7XMXaX9XqX`...xXrXxXcXNXVXNX4XFXCXAXAXAXAXAXFXpXpXFXCXAXAXFXCX3XFXAXAXCXFX4XBXFXCXFX8X].CXAXAX3XAXAXCX3XCXLXU.<XGXCXAXAXAXAXAXAXAXAXAXAXAXAXFXaX6XaXKXP.4 N.<XzXhX|.|.hX*.i.dXpX2X3X3X3X3X2X0X`.! ~ ! +.0X1X3X3X3X3X2X8XpX3X2X2X1X>X>X>X>X>X>X>X>X>X1X3X3XpX4X3X3X2X2X2X2X2X2X2X2X2X2X2X2X2X&XoX3X2X2X2X2X2X2X2X2X2X2X2X&XaX_.Q X.3X2X1X2X2X2X2X2X2X2X2X2X3XG.*X2X2X2X2X2X2X2X2X2X2X2X2X4XF.1.pX*X2X2X2X2X2X2X2X2X2X2X1XiXW.K iX1X",
"8XFXCXAXAXFX3XCXAXCXFXpXpXFXFXBX4XFXFXBX8XFXKXq.pXFXAXAXAXAXAXAXAXAXAXAXAXAXAXAXAXAXAXAXAXFXpX7XMXaX9XqX`...xXrXxXcXNXVXNX4XFXCXAXAXAXAXAXFXpXpXFXCXAXAXFXCX3XFXAXAXCXFX4XBXFXCXFX8X].CXAXAX3XAXAXCX3XCXLXU.<XGXCXAXAXAXAXAXAXAXAXAXAXAXAXFXaX6X6XCXL.4 B.hXzXhX|.|.hX*.i.dXpX2X3X3X3X3X2X7X`.~ ^ ~ +.0X1X3X3X3X3X2X8XpX3X2X2X;X-X-X-X-X-X-X-X-X-X1X3X3XpX8X*Xf.s.s.s.s.s.s.s.s.s.s.s.s.s.s.q.s.s.s.s.s.s.s.s.s.s.s.s.g.[ Q ..k.s.s.s.s.s.s.s.s.s.s.s.s.s.q.s.s.s.s.s.s.s.s.s.s.s.s.s.f.6.h h.s.s.s.s.s.s.s.s.s.s.s.s.t.I F t.s.",
"4XFXCXCXAXFX3XCXAXCXFXpXpXFXFXBX4XFXFXBX8XFXKXq.pXFXCXCXAXAXAXAXAXAXAXAXAXAXAXAXAXAXAXAXAXFXpX7XMXaX0XqX`...xXrXxXcXNXVXNX4XFXCXAXAXAXAXAXFXpXpXFXCXAXAXFXCX3XFXAXAXCXFX4XBXFXCXFX8X].CXFXAX3XCXAXCX3XCXLXU.<XGXCXAXAXAXAXAXAXAXAXAXAXAXAXFXaX6X6XMX6X6 m.hXzXhX|.|.hX*.i.dXpX2X3X3X3X3X2X7X`.~ ^ ~ +.0X1X3X3X3X3X2X8XpX3X2X2X1X>X>X>X>X>X>X>X>X>X1X3X3XpX4X8XIXPXPXPXPXPXPXPXPXPXPXPXPXPXKXmXIXPXPXPXPXPXPXPXPXPXPXIX[.( ~ &XIXPXPXPXPXPXPXPXPXPXPXPXPXIXpXPXPXPXPXPXPXPXPXPXPXPXPXPXIXpXh.IXLXPXPXPXPXPXPXPXPXPXPXPXIX(.L IXPX",
"pXKXFXKXCXCX3XCXCXCXFXpXpXFXCXBX3XFXAXMX4XAXFXq.BXFXFXFXCXCXCXCXCXCXCXCXCXCXCXCXCXCXCXCXCXAXpXpXSXMXaXqX`...xX<XxXcXcXVXmX3XFXCXCXCXCXCXCXAXMXMXFXKXFXCXCXBX3XAXCXCXCXFX4XMXAXCXCX7X].BXAXAXpXFXFXFX3XCXLXU.<XGXCXCXCXCXCXCXCXCXCXCXCXCXCXCXaX6XeX9XBXf b {.zXhX|.{.hXo.i.dXpX2X3X3X3X3X2X7X`.~ ^ ~ +.0X1X3X3X3X3X2X8XpX3X2X2X;X-X-X-X-X-X-X-X-X-X1X3X3XpX4X4XFXBXCXCXCXCXCXCXCXCXCXCXCXCXBX3XAXCXCXCXCXCXCXCXCXBXGX[.Q >.l.D.KXBXCXCXCXCXCXCXCXCXCXCXCXCX3XBXCXCXCXCXCXCXCXCXCXCXCXCXFX2Xs.LXBXCXCXCXCXCXCXCXCXCXCXBXHX!.L HXBX",
"G.MXpX=XFXPXpXLXLXLXPXBXCXPXPXFXpXPXPXFXpXPXIXq.oXLXpXpXPXLXLXLXLXLXLXLXLXLXLXLXLXLXLXLXLXPXBXF.7X=XJ.wX'...bXxXbXVXUXUXFXpXPXLXLXLXLXLXLXIX3XoXFX2XAXPXLXKXpXPXLXLXLXPXpXFXPXLXPXaX{.KXPXFXD.BXpXpXpXKXIX`.<XIXKXLXLXLXLXLXLXLXLXLXLXLXLXPXFXqX6XfXIXn 5 <XnXzXzX.XzX*.i.dXpX2X3X3X3X3X2X7X`.~ ^ ~ +.0X1X3X3X3X3X2X8XpX3X2X2X>X>X>X>X>X>X>X>X>X>X1X3X3XpX4X4XFXCXAXAXAXAXAXAXAXAXAXAXAXFXBX4XFXAXAXAXAXAXAXAXCXGX[.Q *.IXM.D.PXCXAXAXAXAXAXAXAXAXAXAXAXFX3XCXAXAXAXAXAXAXAXAXAXAXAXCXKX3Xs.PXCXAXAXAXAXAXAXAXAXAXAXCXHX!.L HXCX",
", w.g <.oXoXl.oXoXoXoXS.D.oXoXoXl.oXoXG.l.%XF.> <.k.h h.oXoXoXoXoXoXoXoXoXoXoXoXoXoXoXoXoX&X,.7 e.4., e.y.^ '.A.'.'.'.OXOXl.oXoXoXoXoXoX+XS., <.0.g ,.%XoXoXl.oXoXoXoXoXl.oXoXoXoXM.a.OX&X<., e.j j h.oX&Xu.x.%XoXoXoXoXoXoXoXoXoXoXoXoXoXoXoXB.B.N.#Xn 5 x.`.`.U.U.`.X.p.dXpX2X3X3X3X3X2X7X`.~ ^ ~ +.0X1X3X3X3X3X2X8XpX3X2X2X;X-X-X-X-X-X-X-X-X-X1X3X3XpX4X4XFXCXAXAXAXAXAXAXAXAXAXAXAXFXBX4XFXAXAXAXAXAXAXCXGX[.Q =.AXPXl.F.PXCXAXAXAXAXAXAXAXAXAXAXAXFX3XCXAXAXAXAXAXAXAXAXAXAXAXCXKX3Xs.PXCXAXAXAXAXAXAXAXAXAXAXCXHX!.L HXCX",
"f.S., , f.j.w.h.h.h.j.s.f.h.h.h.s.h.h.h.s.l.<.> OXj > <.l.h.h.h.h.h.h.h.h.h.h.h.h.h.h.h.j.s., h.l.j.h B.9.^ y.y.y.x.x.h.h.s.h.h.h.h.h.h.l.h <.D.q.X <.l.h.h.s.h.h.h.h.h.s.h.h.h.h.s.u.z.w.g z.s.g , j l.j.3.u.l.h.h.h.h.h.h.h.h.h.h.h.h.h.h.h.r.8.r.z.b 4 9.a.a.a.a.a.^ p.dXpX2X3X3X3X3X2X7X`.~ ^ ~ +.0X1X3X3X3X3X2X8XpX3X2X2X>X>X>X>X>X>X>X>X>X>X1X3X3XpX4X4XFXCXAXAXAXAXAXAXAXAXAXAXAXFXBX4XFXAXAXAXAXAXCXGX[.Q ` CXAXPXl.D.PXCXAXAXAXAXAXAXAXAXAXAXAXFX3XCXAXAXAXAXAXAXAXAXAXAXAXCXKX3Xs.PXCXAXAXAXAXAXAXAXAXAXAXCXHX!.L HXCX",
"3XIXIXj.D.IXpXPXPXPXIXBXFXIXIXLXmXIXIXFXmXIX+X> IXj.F.w.KXIXPXPXPXPXPXPXPXPXPXPXPXPXPXPXIXLX<.7XIXJ.r.GX'...bXbXbXVXUXKXFXMXIXPXPXPXPXPXIXS.g.IXS.g.t.IXPXPXpXIXPXPXPXIXMXKXIXPXIXMX{.IXFX0.pXIX3X<.G.IXIX`.4XIXPXPXPXPXPXPXPXPXPXPXPXPXPXPXIXfX6XqXLXL.4 G.nXzXzXzXzX*.i.dXpX2X3X3X3X3X2X7X`.~ ^ ~ +.0X1X3X3X3X3X2X8XpX3X2X2X;X-X-X-X-X-X-X-X-X-X1X3X3XpX4X4XFXCXAXAXAXAXAXAXAXAXAXAXAXFXBX4XFXAXAXAXAXCXGX[.Q ` CXFXBXPXl.D.PXCXAXAXAXAXAXAXAXAXAXAXAXFX3XCXAXAXAXAXAXAXAXAXAXAXAXCXKX3Xs.PXCXAXAXAXAXAXAXAXAXAXAXCXHX!.L HXCX",
"j D.k.0.8XFX3XCXCXCXAX8XpXAXCXBX3XAXCXmX3XFXBX, e.=X,.j.FXCXCXCXCXCXCXCXCXCXCXCXCXCXCXCXBXFXM.j G.M.J.fX`...rX<XxXxXcXNXmX3XAXCXCXCXCXCXAXmX<.e.D.4.j.FXCXBX3XCXCXCXCXAX3XMXCXCXCX7X].NXKXj.h %Xj.r.4XBXGXU.;XGXBXCXCXCXCXCXCXCXCXCXCXCXCXCXCX0XL.L.6X6X5 m.zXhX|.{.hX..i.dXpX2X3X3X3X3X2X7X`.~ ^ ~ +.0X1X3X3X3X3X2X8XpX3X2X2X>X>X>X>X>X>X>X>X>X>X1X3X3XpX4X4XFXCXAXAXAXAXAXAXAXAXAXAXAXFXBX4XFXAXAXAXCXGX[.Q ` CXFXCXCXPXl.D.PXCXAXAXAXAXAXAXAXAXAXAXAXFX3XCXAXAXAXAXAXAXAXAXAXAXAXCXKX3Xs.PXCXAXAXAXAXAXAXAXAXAXAXCXHX!.L HXCX",
"8XAXBXAXFXAX3XCXAXCXFXpXpXFXAXBX4XFXFXMX8XAXLXd.8XFXAXFXAXCXAXAXAXAXAXAXAXAXAXAXAXAXAXAXAXFXMX3XaXaX9XqX`...xXrXxXcXcXVXNX4XFXCXAXAXCXAXCXFXMX4XKXBXFXAXAXCX3XFXCXAXCXFX4XBXFXCXFX7X].CXAXKX3XCXBXFX4XCXLXU.<XGXCXCXAXAXAXCXAXAXAXAXAXAXAXCXFXaXL.L.6XaX5 m.nXhX|.|.hX*.i.dXpX2X3X3X3X3X2X7X`.~ ^ ~ +.0X1X3X3X3X3X2X8XpX3X2X2X;X-X-X-X-X-X-X-X-X-X1X3X3XpX4X4XFXCXAXAXAXAXAXAXAXAXAXAXAXFXBX4XFXAXAXCXGX[./ ` CXFXCXAXCXPXl.D.PXCXAXAXAXAXAXAXAXAXAXAXAXFX3XCXAXAXAXAXAXAXAXAXAXAXAXCXKX3Xs.PXCXAXAXAXAXAXAXAXAXAXAXCXHX!.L HXCX",
"8XKXFXAXAXFX4XAXFXFXFXpXmXFXFXCX4XFXFXBX8XFXLXq.mXKXFXAXFXFXFXAXFXFXFXFXFXFXFXFXFXFXFXFXAXFXpX7XSXaX9XwX`...xXzXxXcXNXVXNX4XKXFXAXFXFXFXAXFXpXpXFXFXAXFXFXCX3XFXFXFXFXFX4XBXFXAXFX8X].CXFXFX3XFXFXCX3XFXPXU.<XLXFXFXFXAXFXFXFXAXAXAXAXAXFXFXFXFXaXeX6XKXc n nXhX|.|.hX*.i.dXpX2X3X3X3X3X2X7X`.~ ^ ~ +.0X1X3X3X3X3X2X8XpX3X2X2X>X>X>X>X>X>X>X>X>X>X1X3X3XpX4X4XFXCXAXAXAXAXAXAXAXAXAXAXAXFXBX4XFXAXCXGX[./ ` NXFXCXAXAXCXPXl.D.PXCXAXAXAXAXAXAXAXAXAXAXAXFX3XCXAXAXAXAXAXAXAXAXAXAXAXCXKX3Xs.PXCXAXAXAXAXAXAXAXAXAXAXCXHX!.L HXCX",
"8XoX%XMXpXoXoXMX4X%X*XF.&XBX3XG.&XBX3XF.*XBX*XoX*XG.4XBX&XG.pXMX%X=X%XoXpXmX+XoXpXpXoX+XmXpX+X3XF.J.7XeXu.X.<X].'.OXA.&XmX*XG.3XBX2XG.3XBX&X3X&XG.8XMX%XoXpXpX%X=X+XoXpXpXoX+XmXpXG.A.mXpX&X4XG.&XBX3XG.7X{.OX=X&XG.3XBX2XG.&XMXFXCXFXMX+X+X+X%X+XB.B.%Xc c `.{.hX|.hX*.i.dXpX2X3X3X3X3X2X7X`.~ ^ ~ +.0X1X3X3X3X3X2X8XpX3X2X2X;X-X-X-X-X-X-X-X-X-X1X3X3XpX4X4XFXCXAXAXAXAXAXAXAXAXAXAXAXFXBX4XFXCXGX[./ ` NXGXCXAXAXAXCXPXl.D.PXCXAXAXAXAXAXAXAXAXAXAXAXFX3XCXAXAXAXAXAXAXAXAXAXAXAXCXKX3Xs.PXCXAXAXAXAXAXAXAXAXAXAXCXHX!.L HXCX",
"8XM.D.pX4Xl.G.mX2XD.+Xl.oXMX&Xj.%XMX%Xj.&XBXG.2X%Xj.*XmXG.j.3XmXF.oXD.M.4XpXS.S.pXpXS.S.pX3XD.3Xj.N.6XeX9.X.<X'.z.A.h.OXmX&Xj.%XMX+Xj.&XMXG.2X+Xj.3XmXF.l.4XmXD.+XS.S.pXpXS.S.pX4XS.a.pX3XG.4Xj.G.mX2Xj.@X{.'.G.oXj.%XMX+Xj.G.pXFXCXFXpXF.&X&X&X+XB.B.&Xn f x.}.hX|.hX*.i.dXpX2X3X3X3X3X2X7X`.~ ^ ~ +.0X1X3X3X3X3X2X8XpX3X2X2X>X>X>X>X>X>X>X>X>X>X1X3X3XpX4X4XFXCXAXAXAXAXAXAXAXAXAXAXAXFXBX4XAXGXzX/ ` NXGXCXAXAXAXAXCXPXl.D.PXCXAXAXAXAXAXAXAXAXAXAXAXFX3XCXAXAXAXAXAXAXAXAXAXAXAXCXKX3Xs.PXCXAXAXAXAXAXAXAXAXAXAXCXHX!.L HXCX",
"8XS.F.pX4XS.G.mX3XF.%XM.oXMX*XM.%XBX&Xl.&XBXoX&X&Xl.2XMXoXM.3XmXG.+XF.S.8XpXD.S.pXpXS.D.pX4XF.3XM.N.7XeXu.X.<X'.A.'.z.OXmX&Xl.&XMX%XM.*XBXoX2X+XM.3XmXG.S.4XpXF.%XD.S.pXpXD.D.pX8XS.a.pX3XoX4XM.oXMX3Xl.@X{.'.G.oXM.&XBX%XM.G.pXFXCXFXpXG.3X3X4XpX@XJ.4Xb 5 z.}.hX|.hX*.i.dXpX2X3X3X3X3X2X7X`.~ ^ ~ +.0X1X3X3X3X3X2X8XpX3X2X2X;X-X-X-X-X-X-X-X-X-X1X3X3XpX4X4XFXCXAXAXAXAXAXAXAXAXAXAXAXFXBX4XLXzX( ` NXGXCXAXAXAXAXAXCXPXl.D.PXCXAXAXAXAXAXAXAXAXAXAXAXFX3XCXAXAXAXAXAXAXAXAXAXAXAXCXKX3Xs.PXCXAXAXAXAXAXAXAXAXAXAXCXHX!.L HXCX",
"8XS.F.pX4XM.G.mX3XF.%XM.oXMX*Xl.%XMX&Xl.&XBXoX*X%Xl.2XMXoXM.3XmXG.+XF.S.8XpXD.S.pXpXS.D.pX4XF.3XM.N.7XeXu.X.<X'.A.'.z.OXmX&Xl.&XMX%Xl.*XBXG.2X+XM.3XmXG.M.4XpXF.%XD.S.pXpXS.D.pX8XS.a.pX3XG.4XM.oXMX2Xl.@X{.'.G.oXM.&XMX%XM.G.pXFXCXFXpXG.3X3X%Xl z x D.b 5 g.}.hX|.hX*.i.dXpX2X3X3X3X3X2X7X`.~ ^ ~ +.0X1X3X3X3X3X2X8XpX3X2X2X>X>X>X>X>X>X>X>X>X>X1X3X3XpX4X4XFXCXAXAXAXAXAXAXAXAXAXAXAXFXBXaXzX( ` NXGXCXAXAXAXAXAXAXCXPXl.D.PXCXAXAXAXAXAXAXAXAXAXAXAXFX3XCXAXAXAXAXAXAXAXAXAXAXAXCXKX3Xs.PXCXAXAXAXAXAXAXAXAXAXAXCXHX!.L HXCX",
"8XS.F.pX4XM.G.mX3XF.%XM.oXMX*Xl.%XMX&Xl.&XBXoX*X%Xl.2XMXoXM.3XmXG.+XF.S.8XpXD.S.pXpXS.D.pX4XF.3XM.N.7XeXu.X.<X'.A.'.z.OXmX&Xl.&XMX%Xl.*XBXG.2X+XM.3XmXG.M.4XpXF.%XD.S.pXpXS.D.pX8XS.a.pX3XG.4XM.oXMX2Xl.@X{.'.G.oXM.&XMX%XM.G.pXFXCXFXpXG.3X4X0.e.%Xr.l b 5 e.{.hX|.hX*.i.dXpX2X3X3X3X3X2X7X`.~ ^ ~ +.0X1X3X3X3X3X2X8XpX3X2X2X;X-X;X;X;X;X;X;X;X-X1X3X3XpX4X4XFXAXFXFXFXFXFXFXFXFXFXFXFXCXGX].( ` VXGXCXFXFXFXFXFXFXFXCXPXl.F.PXCXFXFXFXFXFXFXFXFXFXFXAXFX4XCXFXFXFXFXFXFXFXFXFXFXFXAXKX3Xs.PXCXFXFXFXFXFXFXFXFXFXFXAXHX!.L HXAX",
"8XS.F.pX4XM.G.mX3XF.%XM.oXMX*Xl.%XMX&Xl.&XBXoX*X%Xl.2XMXoXM.3XmXG.+XF.S.8XpXD.S.pXpXS.D.pX4XF.3XM.N.7XeXu.X.<X'.A.'.z.OXmX&Xl.&XMX%Xl.*XMXG.2X+XM.3XmXG.M.4XpXF.%XD.S.pXpXS.D.pX8XS.a.pX3XG.4XM.oXmX2Xl.@X{.'.G.oXM.&XMX%XM.G.pXFXCXFXpXG.4X+Xw.2X3XJ.r.b 5 b {.hX|.hX*.i.dXpX2X3X3X3X3X2X7X`.~ ^ ~ +.0X1X3X3X3X3X2X8XpX3X2X2X>X;X>X>X>X>X>X>X>X;X1X3X3XpX4X4XAXBXCXCXCXCXCXCXCXCXBXCXBXGXzX( ` NXAXBXCXBXCXCXCXCXCXCXBXLXl.D.KXBXCXCXCXCXCXCXCXCXCXCXBXCX3XBXCXBXCXCXCXCXCXCXCXCXCXBXFX2Xs.KXBXCXCXCXCXCXCXCXCXCXCXBXHX!.P HXBX",
"8XS.F.mX4XM.G.mX3XF.%XM.oXMX*Xl.%XBX&Xl.&XBXoX*X%Xl.2XMXoXM.3XmXG.+XF.S.8XpXD.S.pXpXS.D.pX4XF.3XM.N.7XeXu.X.<X'.A.'.z.OXmX&Xl.&XBX%Xl.*XBXoX2X+XM.3XmXG.M.4XmXF.%XD.S.pXpXS.D.pXpXS.a.pX3XG.4XM.oXMX3Xl.@X{.'.G.oXM.&XBX%XM.G.pXFXCXFXpXG.3X3X7 7 mXl > b.5 x {.hX|.hX*.i.dXpX2X3X3X3X3X2X7X`.~ ^ ~ +.0X1X3X3X3X3X2X8XpX3X2X2X;X;X;X;X;X;X;X;X;X;X1X3X3XpX4X3X8X3X4X4X4X4X4X4X4X4X4X4XaX]._ ` 1X7X4X4X4X4X4X4X4X4X4X4X3XpXf.h.pX3X4X4X4X4X4X4X4X4X4X4X4X4X&X3X4X4X4X4X4X4X4X4X4X4X4X3XpXoXq.pX3X4X4X4X4X4X4X4X4X4X4X3XsXW.K sX3X",
"8XS.F.pX3XM.G.pX*XF.%XM.oXmX&Xl.%XmX%Xl.&XmXoX*X%Xl.*XpXoXM.3XpXF.+XF.S.4XpXD.S.pX8XS.D.pX3XF.3XM.N.*XeXu.X.<X'.A.'.z.OXpX%Xl.&XmX+Xl.&XmXG.3X+XM.3XpXG.S.4XpXF.%XD.S.pXpXS.D.pX4XS.a.pX3XG.4XM.oXmX*Xl.%X{.'.G.oXM.%XmX+XM.G.pXFXCXFXpXG.3X4X0.> &X0 0 b.5 c }.hX|.hX*.i.dXpX2X3X3X3X3X2X7X`.~ ^ ~ +.0X1X3X3X3X3X2X8XpX3X2X2X>X;X;X;X;X;X;X;X;X;X1X3X3XpX4X8XKXFXFXFXFXFXFXFXFXFXAXGXzX) ) <XLXCXFXFXFXFXFXFXFXFXFXFXAXIXl.F.PXAXFXFXFXFXFXFXFXFXFXFXFXFX4XAXFXFXFXFXFXFXFXFXFXFXFXFXLX3Xs.IXCXFXFXFXFXFXFXFXFXFXFXAXHX!.L HXAX",
"8XS.D.%XD.S.F.%XS.G.+XM.G.%XS.S.oX+XS.S.oXoXM.2X%XM.%XG.S.S.%XG.S.%XF.S.%XF.S.S.%XF.S.D.%XS.F.3XM.N.H.B.u.X.'.x.A.'.z.F.oXS.S.oXoXS.S.+XoXM.3X+XM.%XG.S.S.%XF.S.%XD.S.%XF.S.D.%XD.S.a.+XS.oX4XM.G.%XS.S.J.`.z.J.oXM.oXoXS.S.G.pXFXCXFXpXG.3X2X3Xj.*Xm.B.b.5 c }.hX{.hX*.i.dXpX2X3X3X3X3X2X7X`.~ ^ ~ +.0X1X3X3X3X3X2X8XpX3X2X2X;X;X;X;X;X;X;X;X;X;X1X3X3XpX4X4XFXCXAXAXAXAXAXAXAXCXGXzX_ ) xX9XAXCXAXAXAXAXAXAXAXAXAXAXCXPXl.D.PXCXAXAXAXAXAXAXAXAXAXAXCXFX3XCXAXAXAXAXAXAXAXAXAXAXAXCXFX3Xs.PXCXAXAXAXAXAXAXAXAXAXAXCXHX!.L HXCX",
"8XS.D.%XS.S.F.%XM.G.+XM.G.+XS.S.G.oXS.S.oXoXl.2X%XM.+XG.S.S.+XF.S.%XF.S.%XD.S.D.%XS.S.D.%XS.F.3XM.N.H.B.u.X.A.x.A.A.z.F.oXS.S.oXG.S.S.+XG.M.3X+XM.%XF.S.S.%XD.S.%XD.S.%XS.S.D.%XS.S.a.oXM.oX4XM.G.+XS.S.J.`.x.J.oXM.oXG.S.S.G.pXFXCXFXpXG.3X3X3X4X3XJ.K.b.w 5 '.hX{.hX*.i.dXpX2X3X3X3X3X2X7X`.~ ^ ~ +.0X1X3X3X3X3X2X8XpX3X2X2X>X;X;X;X;X;X;X;X;X;X1X3X3XpX4X4XFXCXAXAXAXAXAXAXCXGXzX_ ` bXAX4XFXCXAXAXAXAXAXAXAXAXAXAXCXPXl.D.PXCXAXAXAXAXAXAXAXAXAXAXAXFX3XCXAXAXAXAXAXAXAXAXAXAXAXCXKX3Xs.PXCXAXAXAXAXAXAXAXAXAXAXCXHX!.L HXCX",
"pXS.F.%XS.S.F.%XS.G.%XM.G.+XS.S.oX+XS.S.oXoXM.3X&XM.%XG.S.S.%XF.S.%XF.S.%XF.S.D.%XD.S.D.%XS.F.3XM.N.H.B.u.X.'.x.A.'.z.G.oXS.S.oXoXS.S.+XoXM.3X+XM.%XG.S.S.%XF.S.%XD.S.%XD.S.D.%XS.S.a.+XS.oX4XM.G.%XS.S.J.`.z.+XoXM.oXoXS.S.G.mXFXFXFXmXG.3X2X2X*X2XK.B.b.c 5 '.zX|.hX*.i.dXpX2X3X3X3X3X2X7X`.~ ^ ~ +.0X1X3X3X3X3X2X8XpX3X2X2X>X;X;X;X;X;X;X;X;X;X1X3X3XpX4X4XFXCXAXAXAXAXAXCXGXzX) ) cXGXBX4XFXAXAXAXAXAXAXAXAXAXAXAXCXPXl.D.PXCXAXAXAXAXAXAXAXAXAXAXAXFX3XCXAXAXAXAXAXAXAXAXAXAXAXCXKX3Xs.PXCXAXAXAXAXAXAXAXAXAXAXCXHX!.L HXCX",
"3XM.S.oXM.M.D.oXl.D.oXM.F.G.M.M.G.G.M.M.G.G.j.%XoXj.oXD.M.M.oXD.M.oXS.M.oXS.M.S.oXS.M.S.oXM.D.*Xj.M.N.B.u.X.A.x.A.A.z.D.F.M.M.G.F.M.M.G.F.j.*XoXj.oXD.M.M.oXD.M.oXS.M.oXS.M.S.oXM.S.a.oXM.F.3Xl.D.oXS.l.J.U.x.G.G.l.G.G.M.M.F.pXBXMXBXpXS.D.D.D.D.D.B.m.b.b 5 j.|.{.{...i.dXpX2X3X3X3X3X2X7X`.~ ^ ~ +.0X1X3X3X3X3X2X8XpX3X2X2X;X;X;X;X;X;X;X;X;X;X1X3X3XpX4X4XFXCXAXAXAXAXCXGXzX) ) zXGXCXBX4XFXAXAXAXAXAXAXAXAXAXAXAXCXPXl.D.PXCXAXAXAXAXAXAXAXAXAXAXAXFX3XCXAXAXAXAXAXAXAXAXAXAXAXCXKX3Xs.PXCXAXAXAXAXAXAXAXAXAXAXCXHX!.L HXCX",
"&X8X4X4X4X4X&X4X4X4X8X*X2X8X4X3X&X8X4X3X&X4XpX1.&X8X4X4X4X4X4X4X4X4X4X4X4X4X4X4X4X4X4X4X4X4X*X&X*X=X@XeXx.X.$X].$X>X#X4X3X&X8X4X4X4X4X4X4X8X2X*X8X4X4X4X4X4X&X8X4X4X4X8X&X3X8X4X4X=XA.4X8X4X&X4X4X4X&X4XaXa.'.aX4X4X4X4X4X4X4X8X8X8X8X8X4X4X4X4X4X4XJ.K.b.b f g.{.}.{...i.dXpX2X3X3X3X3X2X7X`.~ ^ ~ +.0X1X3X3X3X3X2X8XpX3X2X2X>X;X;X;X;X;X;X;X;X;X1X3X3XpX4X4XFXCXAXAXAXCXGXzX) ) zXGXCXFXBX4XFXAXAXAXAXAXAXAXAXAXAXAXCXPXl.D.PXCXAXAXAXAXAXAXAXAXAXAXAXFX3XCXAXAXAXAXAXAXAXAXAXAXAXCXKX3Xs.PXCXAXAXAXAXAXAXAXAXAXAXCXHX!.L HXCX",
"pXKXAXFXFXFX4XAXFXFXKXpXMXKXFXCX8XKXFXBXpXFXPXq.mXFXFXFXFXFXFXFXFXFXFXFXFXFXFXFXFXFXFXFXFXFXmX7XSXaX9XwX`...xXzXcXbXVXDXBX8XFXFXFXFXFXFXFXKXmXpXKXFXFXFXFXFX4XFXFXFXFXKX8XCXFXFXFXpX].AXFXFX4XFXFXFX4XFXPXU.<XLXAXFXFXFXFXFXFXFXFXFXFXFXFXFXFXFXFXFXaX0Xn.b.f m.hX{.hX*.i.SXpX2X3X3X3X3X2X7X`.~ ^ ~ +.0X1X3X3X3X3X2X8XpX3X2X2X;X;X;X;X;X;X;X;X;X;X1X3X3XpX4X4XFXCXAXAXCXGXxX) ) zXGXCXAXFXBX4XFXAXAXAXAXAXAXAXAXAXAXAXCXPXl.D.PXCXAXAXAXAXAXAXAXAXAXAXAXFX3XCXAXAXAXAXAXAXAXAXAXAXAXCXKX3Xs.PXCXAXAXAXAXAXAXAXAXAXAXCXHX!.L HXCX",
"8XFXKXFXKXKX8XLXFXCXFXpXpXFXAXBX4XFXAXMX4XAXKXq.pXPXKXFXFXCXAXCXCXCXCXCXCXCXCXCXCXCXCXCXCXFXpX7XSXSXaXfX`...xX<XxXcXcXVXmX4XKXKXKXFXCXAXCXFXpXpXFXCXCXCXAXCX3XFXKXFXFXFX4XBXFXCXFX7X].BXAXAX3XCXAXCX3XCXLXU.<XPXKXAXLXKXFXCXCXAXCXCXCXCXCXCXCXCXCXCXFXaXv.B.f m.zX|.zX*.p.dXpX2X3X3X3X3X2X7X`.~ ^ ~ +.0X1X3X3X3X3X2X8XpX3X2X2X>X;X;X;X;X;X;X;X;X;X1X3X3XpX4X4XFXCXAXCXGXxX) ( zXGXCXAXAXFXBX4XFXAXAXAXAXAXAXAXAXAXAXAXCXPXl.D.PXCXAXAXAXAXAXAXAXAXAXAXAXFX3XCXAXAXAXAXAXAXAXAXAXAXAXFXKX3Xs.PXCXFXFXFXFXFXAXCXFXFXFXFXHX!.L HXCX",
"pXpX4.&XM.w.oX,.&XFXFXpXpXFXFXBX4XFXFXBX8XFXKXq.BXG.l.&X2XPXCXAXAXAXAXAXAXAXAXAXAXAXAXAXAXFXpX7X=X,.M.B.'...xXrXxXcXNXVXmX8XG.w.D.&XPXCXAXFXpXpXFXCXAXAXFXCX4XCXe.D.D.BXpXBXFXCXFX8X].CXAXAX3XAXAXCX3XCXLXU.<X7Xw.CXe.S.F.CXFXCXAXAXAXAXAXAXAXAXAXAXAXaXv.v c 0 x.x.3.#.u.SXpX2X3X3X3X3X2X7X`.~ ^ ~ +.0X1X3X3X3X3X2X8XpX3X2X2X;X-X;X;X;X;X;X;X;X;X1X3X3XpX4X4XFXAXCXGXxX) ( hXGXCXAXAXAXFXBX4XFXAXAXAXAXAXAXAXAXAXAXAXCXPXl.D.PXCXAXAXAXAXAXAXAXAXAXAXAXFX3XCXAXAXAXAXAXAXAXAXAXAXFX/.ZX/.A AXFXlX~.ZX!.lXFXHXlXlX/.~.CX~.L HXCX",
"MXF.<.4Xw.l.7 D.w.FXFXpXpXFXFXBX4XFXFXBX8XFXKXq.BXj.w.D.w.oXFXCXAXAXAXAXAXAXAXAXAXAXAXAXAXFXpX7XaXG.j e.9.X.xX<XxXcXNXVXmX8XpX0.e.g.F.AXCXFXpXpXFXCXAXAXFXCXpX3Xh pXg.j.D.AXAXCXFX8X].CXAXAX3XAXAXCX3XCXLXU.<X%X,.S.k.w.,.j.3XFXCXAXAXAXAXAXAXAXAXAXAXaXv.q w x 3.3.x.; 9.SX8X2X3X3X3X3X2X7X`.~ ^ ~ +.0X1X3X3X3X3X2X8XpX3X2X2X>X>X>X>X>X>X>X>X>X;X1X3X3XpX4X4XFXCXGXxX) ( tXGXCXAXAXAXAXFXBX4XFXAXAXAXAXAXAXAXAXAXAXAXCXPXl.D.PXCXAXAXAXAXAXAXAXAXAXAXAXFX3XCXAXAXAXAXAXAXAXAXAXFXFX!.lX3XA lXCX~.lXW.lX~.AXlXE./.!.!.lX~.L HXCX",
"pXMXS.j j.2X> FX0.CXFXpXpXFXFXBX4XFXFXBX8XFXKXq.MXpXj.S.> pXFXCXAXAXAXAXAXAXAXAXAXAXAXAXAXFXpX3XLXj.M.7 d *.xXrXxXcXNXVXmX8XCXw.e.> &XKXCXFXpXpXFXCXAXAXFXCX4XCXF.w.j j pXBXFXCXFX8X].CXAXAX3XAXAXCX3XCXLXU.<XGXk.g.3Xj., <.LXCXAXAXAXAXAXAXAXAXAXAXAXaXv.e c 0 9.u.{.- 9.SX8X2X3X3X3X3X2X7X`.~ ^ ~ +.0X1X3X3X3X3X2X8XpX3X2X2X;X-X-X-X-X-X-X-X-X-X1X3X3XpX4X8XFXFXbX` ( tXGXCXAXAXAXAXAXFXBX4XFXAXAXAXAXAXAXAXAXAXAXAXCXPXl.D.PXCXAXAXAXAXAXAXAXAXAXAXAXFX3XCXAXAXAXAXAXAXAXAXFXlXZXlXlXsXA KXZX/.ZXL AX~.lX/.lX/.~.~.lX~.L HXCX",
"pXpXG.4.e.e.<.e.r.FXFXpXpXFXFXBX4XFXFXBX8XFXKXq.BX3Xg.S.h S.KXCXAXAXAXAXAXAXAXAXAXAXAXAXAXFXpXaXN.g H.j d O.xX<XxXcXNXVXBX3X*Xk.<.k k.FXCXFXpXpXFXCXAXAXFXCX4XMX%Xe.<.,.D.AXAXCXFX8X].CXAXAX3XAXAXCX3XCXLXU.<XAXw.+X0.e.<.,.3XFXCXAXAXAXAXAXAXAXAXAXAXaXn.t b O x.9.3.; 3.CX8X2X3X3X3X3X2X7X`.~ ^ ~ +.0X1X3X3X3X3X2X8XpX3X2X2X>X>X>X>X>X>X>X>X>X>X1X3X3XpX4X4XGXcX` ( tXGXCXAXAXAXAXAXAXFXBX4XFXAXAXAXAXAXAXAXAXAXAXAXCXPXl.D.PXCXAXAXAXAXAXAXAXAXAXAXAXFX3XCXAXAXAXAXAXAXAXAXFXlXZXlXlX).W.ZXZX/.~.~.~./.ZX~.!./.~./.lX~.L HXCX",
"pXpXk.pX3XF.3XM.pXFXFXpXpXFXFXBX4XFXFXBX8XFXKXq.mXBX4XpXpX*XFXAXAXAXAXAXAXAXAXAXAXAXAXAXAXFXpX8X@Xg.M.6Xx.O.xXrXxXcXNXVXNX8XoXS.pXpX*XCXAXFXpXpXFXCXAXAXFXCX4XBXj.*XpXpXG.CXFXCXFX8X].CXAXAX3XAXAXCX3XCXLXU.<XGX3XFXF.*XpX4X4XFXCXAXAXAXAXAXAXAXAXAXAXaXn.t b 3 x.}.x.O.i.SXpX2X3X3X3X3X2X7X`.~ ^ ~ +.0X1X3X3X3X3X2X8XpX3X2X2X;X-X-X-X-X-X-X-X-X-X1X3X3XpX4XaXVX` ( tXGXCXAXAXAXAXAXAXAXFXBX4XFXAXAXAXAXAXAXAXAXAXAXAXCXPXl.F.PXCXAXAXAXAXAXAXAXAXAXAXAXFX4XCXAXAXAXAXAXAXAXAXAXFXFXZXAXQ.c.lXZXZXlXFXlXZXFXlXlXZXlX/.HX!.L HXCX",
"4XKXPXFXFXPX3XPXFXCXFXpXpXFXFXBX3XFXFXBX4XFXKXq.pXFXFXFXFXKXAXAXAXAXAXAXAXAXAXAXAXAXAXAXAXFXpX3XSXSXaXwX`.X.xX<XxXcXcXVXmX3XPXPXFXFXKXAXCXFXpXpXFXCXAXAXFXCX3XFXPXKXFXKXpXBXFXCXFX7X].BXFXAX3XAXAXCX3XCXPXx.<XLXFXAXPXKXFXFXFXCXAXAXAXAXAXAXAXAXAXAXAXaXn.e v.f $X|.zX..+.dXpX2X3X3X3X3X2X7X`.~ ^ ~ +.0X1X3X3X3X3X2X8XpX3X2X2X>X>X>X>X>X>X>X>X>X>X1X3X3XpX8X$X` ( tXGXCXAXAXAXAXAXAXAXAXFXBX3XFXCXAXAXAXAXAXAXAXAXAXAXCXPXl.D.PXCXAXAXAXAXAXAXAXAXAXAXAXFX3XCXAXAXAXAXAXAXAXAXAXAXAXFXKX3Xw.IXCXFXHXAXHXFXAXFXHXFXFXFXHX!.P HXCX",
"pXFXCXAXCXCXpXCXAXAXFXpXMXFXFXCXpXFXFXBXpXFXFXl.mXFXCXAXCXCXAXAXAXAXAXAXAXAXAXAXAXAXAXAXAXFXMXpXBXaXaXfX'.-.cXxXcXcXNXVXBXpXAXCXAXCXCXAXAXFXMXpXFXAXAXAXFXCXpXFXCXCXCXFXpXBXFXAXFXpX,XCXFXAXpXAXAXCXpXCXGX'.4XGXCXAXCXCXCXCXCXAXAXAXAXAXAXAXAXAXAXAXAXaXv.q m.5 S..XhX-.p.aXpX2X3X3X3X3X2X7X`.! ^ ! +.0X1X3X3X3X3X2X8XpX3X2X2X;X-X-X-X-X-X-X-X-X-X1X3X3XpXaX_.) {.GXCXAXAXAXAXAXAXAXAXAXFXCXpXFXAXAXAXAXAXAXAXAXAXAXAXCXLXoX%XKXCXAXAXAXAXAXAXAXAXAXAXAXFXpXCXAXAXAXAXAXAXAXAXAXAXAXAXFX8Xl.KXCXAXAXAXAXAXAXAXAXAXAXCXHX/.!.HXAX",
"2X*X*X*X*X*X2X*X*X*X*X2X2X*X*X2X2X*X*X2X2X*X*X3X2X*X*X*X*X*X*X*X*X*X*X*X*X*X*X*X*X*X*X*X*X*X2X2X2X2X2X2X3X7X2X3X2X2X2X*X2X2X*X*X*X*X*X*X*X*X2X2X*X*X*X*X*X*X2X*X*X*X*X*X2X2X*X*X*X2X3X*X*X*X3X*X*X*X2X*X*X3X3X*X*X*X*X*X*X*X*X*X*X*X*X*X*X*X*X*X*X*X*X=XJ.B.J.B.+X1X&X3X*XpXpX2X3X3X3X3X2X7X'.O.@.O.U.7X2X3X2X2X3X2X8XpX3X2X2X>X>X>X>X>X>X>X>X>X>X1X3X3XpXpX=X&X3X*X*X*X*X*X*X*X*X*X*X*X*X2X2X*X*X*X*X*X*X*X*X*X*X*X*X*X*X3X3X*X*X*X*X*X*X*X*X*X*X*X*X*X*X2X*X*X*X*X*X*X*X*X*X*X*X*X*X*X3X3X*X*X*X*X*X*X*X*X*X*X*X*X*X*X3X3X*X*X",
"pXpXpXpXpXpXpXpXpXpXpXpXpXpXpXpXpXpXpXpXpXpXpXpXpXpXpXpXpXpXpXpXpXpXpXpXpXpXpXpXpXpXpXpXpXpXpXpXpXpXpXpXpXpXpXpXpXpXpXpXpXpXpXpXpXpXpXpXpXpXpXpXpXpXpXpXpXpXpXpXpXpXpXpXpXpXpXpXpXpXpXpXpXpXpXpXpXpXpXpXpXpXpXpXpXpXpXpXpXpXpXpXpXpXpXpXpXpXpXpXpXpXpXpXmXNXmXNXmXpXpXpXpXpXpX2X3X3X3X2X2X2X3X9X7X7X7X2X3X*X3X3X2X2X8XpX3X2X2X;X-X-X-X-X-X-X-X-X-X1X3X3XpXpXpXpXpXpXpXpXpXpXpXpXpXpXpXpXpXpXpXpXpXpXpXpXpXpXpXpXpXpXpXpXpXpXpXpXpXpXpXpXpXpXpXpXpXpXpXpXpXpXpXpXpXpXpXpXpXpXpXpXpXpXpXpXpXpXpXpXpXpXpXpXpXpXpXpXpXpXpXpXpXpXpXpX",
"8X8X8X8X8X8X8X8X8X8X8X8X8X8X8X8X8X8X8X8X8X8X8X8X8X8X8X8X8X8X8X8X8X8X8X8X8X8X8X8X8X8X8X8X8X8X8X8XpXpXpX8X8X8X8X8X8X8X8X8X8X8X8X8X8X8X8X8X8X8X8X8X8X8X8X8X8X8X8X8X8X8X8X8X8X8X8X8X8X8X8X8X8X8X8X8X8X8X8X8X8X8X8X8X8X8X8X8X8X8X8X8X8X8X8X8X8X8X8X8X8X8X8X8X8X8X8X8X8X8X8X8XpXpXpX2X3X3X2X3X8X3X3X%X3X2X3X3X&X8X2X&X4X*X8XpX3X2X2X>X>X>X>X>X>X>X>X>X>X1X3X3XpXpX8X8X8X8X8X8X8X8X8X8X8X8X8X8X8X8X8X8X8X8X8X8X8X8X8X8X8X8X8X8X8X8X8X8X8X8X8X8X8X8X8X8X8X8X8X8X8X8X8X8X8X8X8X8X8X8X8X8X8X8X8X8X8X8X8X8X8X8X8X8X8X8X8X8X8X8X8X8X8X8X8X8X",
"2X2X2X2X2X2X2X2X2X2X2X2X2X2X2X2X2X2X2X2X2X2X2X2X2X2X2X2X2X2X2X2X2X2X2X2X2X2X2X2X2X2X2X2X2X2X2X*X8XpX3X*X2X2X2X2X2X2X2X2X2X2X2X2X2X2X2X2X2X2X2X2X2X2X2X2X2X2X2X2X2X2X2X2X2X2X2X2X2X2X2X2X2X2X2X2X2X2X2X2X2X2X2X2X2X2X2X2X2X2X2X2X2X2X2X2X2X2X2X2X2X2X2X2X2X2X2X2X2X2X2X2X3XpXpX2X3X*X2X&X, j.D.7 ,.3X%Xk j g.<.h D.3X4XpX3X2X2X;X-X-X-X-X-X-X-X-X-X1X3X3XpXpX2X2X2X3X3X3X3X3X3X3X3X3X3X3X3X3X3X3X3X3X3X3X3X3X3X3X3X2X2X3X3X3X3X3X3X3X3X3X3X3X3X3X3X3X3X3X3X3X3X3X3X3X3X3X3X3X3X3X3X2X2X2X2X2X2X2X2X2X2X2X2X2X2X2X2X2X2X2X2X2X2X2X",
"3X3X3X3X3X3X3X3X3X3X3X3X3X3X3X3X3X3X3X3X3X3X3X3X3X3X3X3X3X3X3X3X3X3X3X3X3X3X3X3X3X3X3X3X3X3X3X2X8XpX3X2X3XoXG.G.G.G.G.G.G.G.G.G.G.G.G.G.G.G.G.G.G.G.G.G.G.G.G.G.G.G.G.G.G.G.G.G.G.G.G.G.G.G.G.G.G.G.G.G.G.G.G.G.G.G.G.G.G.G.G.G.G.G.G.G.G.G.G.G.G.G.G.G.G.G.G.G.G.oX2X3X3XpXpX2X2X4XpX&Xh w.3X2Xg +XoXh ,.<.k <.g.8X4XpX3X2X2X>X>X>X>X>X>X>X>X>X>X1X3X3XpXpX3X3X2X%X%X%X%X%X%X%X%X%X%X%X%X%X%X%X%X%X%X%X%X%X%X%X%X*X3X&X%X%X%X%X%X%X%X%X%X%X%X%X%X%X%X%X%X%X%X%X%X%X%X%X%X%X%X%X%X2X3X3X3X3X3X3X3X3X3X3X3X3X3X3X3X3X3X3X3X3X3X3X",
"3X3X3X3X3X3X3X3X3X3X3X3X3X3X3X3X3X3X3X3X3X3X3X3X3X3X3X3X3X3X3X3X3X3X3X3X3X3X3X3X3X3X3X3X3X3X3X2X8XpX3X2X3XG.%X*X&X*X*X*X*X*X*X*X*X*X*X*X*X*X*X*X*X*X*X*X*X*X*X*X*X&X*X&X&X*X&X&X&X&X&X&X&X&X&X&X*X&X*X*X*X*X*X*X*X*X*X*X*X*X*X*X*X*X*X*X*X*X*X*X*X*X*X*X*X*X&X*X&XG.2X2X3XpXpX2X4Xk.0.mXw.e.FXf.,.mX*Xh , j.h , F.3X4XpX3X2X2X;X-X-X-X-X-X-X-X-X-X1X3X3XpXpX3X3X&XF.oXoXoXoXoXoXoXoXoXoXoXoXoXoXoXoXoXoXoXoXoXoXF.%X3XG.G.oXoXoXoXoXoXoXoXoXoXoXoXoXoXoXoXoXoXoXoXoXoXoXoXoXoXoXF.*X3X2X3X3X3X3X3X3X3X3X3X3X3X3X3X3X3X3X3X3X3X3X",
"3X3X3X3X3X3X3X3X3X3X3X3X3X3X3X3X3X3X3X3X3X3X3X3X3X3X3X3X3X3X3X3X3X3X3X3X3X3X3X3X3X3X3X3X3X3X3X2X8XpX3X2X3XG.&X3X3X3X3X3X3X3X3X3X3X3X3X3X3X3X3X3X3X3X3X3X3X3X3X3X3X3X3X4X3X3XpX4X8X4X3X4X3X4X3X8X3X3X3X3X3X3X3X3X3X3X3X3X3X3X3X3X3X3X3X3X3X3X3X3X3X3X3X3X3X3X3X3X2XG.2X2X3XpXpX2X3XG.l.pX4.w.S., oXS.e.<.k.> e.e.,.pX4XpX3X2X2X1X>X>X>X>X>X>X>X>X>X1X3X3XpXpX3X3X&XG.3X3X4X4X3X4X4X3X4X4X3X3X3X3X3X3X3X4X3X3X3X3XoX%X3XoX&X3X3X4X4X4X3X4X3X3X4X4X3X4X4X3X3X3X3X3X3X3X4X3X3X3X3X3XG.*X3X2X3X3X3X3X3X3X3X3X3X3X3X3X3X3X3X3X3X3X3X3X",
"3X3X3X3X3X3X3X3X3X3X3X3X3X3X3X3X3X3X3X3X3X3X3X3X3X3X3X3X3X3X3X3X3X3X3X3X3X3X3X3X3X3X3X3X3X3X3X2X8XpX3X2X3XG.&X3X2X2X2X2X2X2X2X2X2X2X2X2X2X2X2X2X2X2X2X2X2X2X2X2X2X2X4XS.oX4Xr.M.j.F.*XS.G.F.+Xj.4X2X2X2X2X2X2X2X2X2X2X2X2X2X2X2X2X2X2X2X2X2X2X2X2X2X2X2X2X2X2X3X*XG.2X2X3XpXpX2X2X4X4X8Xj.D.w.h 4.e.S.0.k oX4.<.%X3X8XpX3X2X2X-X-X-X-X-X-X-X-X-X-X1X3X3XpXpX3X3X&XG.2X3X%X+X3X%X+X3X+XoX2X2X*X3X*X*X%X%X3X*X*X3XoX%X3XG.&X3X3XoX%X%X&XoX2X3X+XoX3X+X%X*X*X*X2X3X3X&X%X2X3X*X2X2XG.*X3X2X3X3X3X3X3X3X3X3X3X3X3X3X3X3X3X3X3X3X3X3X",
"3X3X3X3X3X3X3X3X3X3X3X3X3X3X3X3X3X3X3X3X3X3X3X3X3X3X3X3X3X3X3X3X3X3X3X3X3X3X3X3X3X3X3X3X3X3X3X2X8XpX3X2X3XG.&X3X2X3X3X3X3X3X3X3X3X3X3X3X3X3X3X3X3X3X3X3X3X3X3X3X3X*XpX5.j.mX5.j.l z %X0.j.0.0.S.4X2X2X2X3X3X3X3X3X3X3X3X3X3X3X3X3X3X3X3X3X3X3X3X3X3X3X3X3X3X2X3X*XG.2X2X3XpXpX2X3X2X2X2X4X3X8XpX8X8X3X8XpX3XpXpX3X2X8XpX3X2X2X1X1X1X1X1X1X1X1X1X1X1X3X3XpXpX3X3X&XG.3X3X5.5.M.5.5.M.,.g.*X+Xz 4X0.w.0.5.j.r.%X3XoX%X3XG.%X4Xg.e.k.,.e.,.e.F.l S.k.5.j.e.4Xw.3Xl S.g.0.j G.t.%X3XG.*X3X2X3X3X3X3X3X3X3X3X3X3X3X3X3X3X3X3X3X3X3X3X",
"3X3X3X3X3X3X3X3X3X3X3X3X3X3X3X3X3X3X3X3X3X3X3X3X3X3X3X3X3X3X3X3X3X3X3X3X3X3X3X3X3X3X3X3X3X3X3X2X8XpX3X2X3XG.&X3X2X3X3X3X3X3X3X3X3X3X3X3X3X3X3X3X3X3X3X3X3X3X3X3X3X*XpX0.j.pXw.M.r.l e.g.S.> r.mX*X3X3X3X3X3X3X3X3X3X3X3X3X3X3X3X3X3X3X3X3X3X3X3X3X3X3X3X3X3X2X3X*XG.2X2X3XpXpX2X3X3X3X3X2X2X*X3X3X3X4X*X*X2X*X*X2X2X8XpX3X2X3X3X3X3X3X3X3X3X3X7X3X3X2X3XpXpX3X3X&XG.3X*Xe.r.w.w.t.g.l k.4X&Xg F.l k.r.oXl r.8X3XoX%X3XG.%X8Xw.w.*Xe.w.+Xg.w.l M.5.&XpXl 0.l oXl g.M.g.l ,.r.%X3XG.*X3X2X3X3X3X3X3X3X3X3X3X3X3X3X3X3X3X3X3X3X3X3X",
"3X3X3X3X3X3X3X3X3X3X3X3X3X3X3X3X3X3X3X3X3X3X3X3X3X3X3X3X3X3X3X3X3X3X3X3X3X3X3X3X3X3X3X3X3X3X3X2X8XpX3X2X3XG.&X3X2X3X3X3X3X3X3X3X3X3X3X3X3X3X3X3X3X3X3X3X3X3X3X3X3X*XpX0.S.CXw.S.e.F.g 0.M.l ,.+X*X&X&X&X3X3X3X3X3X3X3X3X3X3X3X3X3X3X3X3X3X3X3X3X3X3X3X3X3X3X2X3X*XG.2X2X3XpXpX2X3X3X3X3X3X*XpXj.F.+XM.2X3X2X3X3X3X2X8XpX3X2X3X2X3X1X1X3X3X;X1X-X>X2X2X3XpXpX3X3X&XG.3X3Xj r.&Xj j G.0.*Xk.k.0.5.5.j.r.G.l w.8X3XoX%X3XG.&X3X8Xr.0.t.w.+Xg.w.e.2X5.&XpX5.F.e.r.g l g.t.g.5.g 2X3XG.*X3X2X3X3X3X3X3X3X3X3X3X3X3X3X3X3X3X3X3X3X3X3X",
"3X3X3X3X3X3X3X3X3X3X3X3X3X3X3X3X3X3X3X3X3X3X3X3X3X3X3X3X3X3X3X3X3X3X3X3X3X3X3X3X3X3X3X3X3X3X3X2X8XpX3X2X3XG.&X3X2X3X3X3X3X3X3X3X3X3X3X3X3X3X3X3X3X3X3X3X3X3X3X3X3X*XpXe.z g.l r.e.&Xr.l S.g.M.4.t.g.g.w.2X3X2X3X3X3X3X3X3X3X3X3X3X3X3X3X3X3X3X3X3X3X3X3X3X3X2X3X*XG.2X2X3XpXpX2X3X3X3X3X2X3X%Xh r.g k k 3X2X2X3X3X2X8XpX3X2X3X3X7XT.}.6X}.T.>XT.T.3X2X3XpXpX3X3X&XG.3X*Xe.8X&Xr.M.r.,.g.+XF.t.0.g.j.0.,.S.w.oX4XoX%X3XG.&X4XM.e.w.5.e.l w.G.l M.k.,.M.w.3Xr.0.F.g.l e.g.oXz *X3XG.*X3X2X3X3X3X3X3X3X3X3X3X3X3X3X3X3X3X3X3X3X3X3X",
"3X3X3X3X3X3X3X3X3X3X3X3X3X3X3X3X3X3X3X3X3X3X3X3X3X3X3X3X3X3X3X3X3X3X3X3X3X3X3X3X3X3X3X3X3X3X3X2X8XpX3X2X3XG.&X3X2X2X2X2X2X2X2X2X2X2X2X2X2X2X2X2X2X2X2X2X2X2X2X2X2X2X3X*XoX+X%X&X2X2X3X2X2X*X3X&X&X*X*X*X2X2X2X2X2X2X2X2X2X2X2X2X2X2X2X2X2X2X2X2X2X2X2X2X2X2X2X3X*XG.2X2X3XpXpX2X3X3X3X*X8Xg.h > g.h k.h 3X2X2X3X3X2X8XpX3X2X3X;X1X}.}.6XT.T.2X;XT.7X2X3XpXpX3X3X&XG.3X2X*X*X2X*X2X*X%X+X3X3X*X3X2X*X&X%X3X*X*X3XoX%X3XG.&X3X%X+X3X&X&XoX2X3X+X+X3X+X%X2X2X*X*X4X3X%X&X*X3X2X2X2XG.*X3X2X3X3X3X3X3X3X3X3X3X3X3X3X3X3X3X3X3X3X3X3X",
"3X3X3X3X3X3X3X3X3X3X3X3X3X3X3X3X3X3X3X3X3X3X3X3X3X3X3X3X3X3X3X3X3X3X3X3X3X3X3X3X3X3X3X3X3X3X3X2X8XpX3X2X3XG.&X3X3X3X3X3X3X3X3X3X3X3X3X3X3X3X3X3X3X3X3X3X3X3X3X3X3X3X3X3X4X4X3X3X3X3X3X3X3X3X3X3X3X3X3X3X3X3X3X3X3X3X3X3X3X3X3X3X3X3X3X3X3X3X3X3X3X3X3X3X3X3X3X3X2XG.2X2X3XpXpX2X3X3X3X*XpXh %Xe.w.g <.j 2X3X2X3X3X2X8XpX3X2X3X{.;X}.}.3XT.T.}.T.-X3X2X3XpXpX3X3X&XG.3X3X3X3X3X3X3X3X4X4X3X3X3X3X3X3X3X4X3X3X3X3XoX%X3XoX&X3X3X4X3X3X3X4X3X3X4X4X3X4X4X3X3X3X3X3X3X4X3X3X3X3X3X3XG.*X3X2X3X3X3X3X3X3X3X3X3X3X3X3X3X3X3X3X3X3X3X3X",
"3X3X3X3X3X3X3X3X3X3X3X3X3X3X3X3X3X3X3X3X3X3X3X3X3X3X3X3X3X3X3X3X3X3X3X3X3X3X3X3X3X3X3X3X3X3X3X2X8XpX3X2X3XG.%X*X&X&X&X&X&X&X&X&X&X&X&X&X&X&X&X&X&X&X&X&X&X&X&X&X&X&X&X&X&X&X&X&X&X&X&X&X&X&X&X&X&X&X&X&X&X&X&X&X&X&X&X&X&X&X&X&X&X&X&X&X&X&X&X&X&X&X&X&X&X&X&X*X&XG.2X2X3XpXpX2X3X3X3X*XpX4.,.7 w.g l., %X3X2X3X3X2X8XpX3X2X2X3X7X;X>X1X-XT.1X-X3X3X2X3XpXpX3X3X&XF.oXoXoXoXoXoXoXoXoXoXoXoXoXoXoXoXoXoXoXoXoXoXF.%X3XG.G.oXoXoXoXoXoXoXoXoXoXoXoXoXoXoXoXoXoXoXoXoXoXoXoXoXoXoXF.*X3X2X3X3X3X3X3X3X3X3X3X3X3X3X3X3X3X3X3X3X3X3X",
"3X3X3X3X3X3X3X3X3X3X3X3X3X3X3X3X3X3X3X3X3X3X3X3X3X3X3X3X3X3X3X3X3X3X3X3X3X3X3X3X3X3X3X3X3X3X3X2X8XpX3X2X3XoXG.G.G.G.G.G.G.G.G.G.G.G.G.G.G.G.G.G.G.G.G.G.G.G.G.G.G.G.G.G.G.G.G.G.G.G.G.G.G.G.G.G.G.G.G.G.G.G.G.G.G.G.G.G.G.G.G.G.G.G.G.G.G.G.G.G.G.G.G.G.G.G.G.G.G.oX2X3X3XpXpX2X3X3X3X2X3X&Xe.w.%Xw.<.S.4X2X3X3X3X2X8XpX4X2X3X2X2X3X3X3X3X7X3X3X3X3X3X3XpXpX3X3X2X%X%X%X%X%X%X%X%X%X%X%X%X%X%X%X%X%X%X%X%X%X%X%X%X*X3X&X%X%X%X%X%X%X%X%X%X%X%X%X%X%X%X%X%X%X%X%X%X%X%X%X%X%X%X%X%X2X3X3X3X3X3X3X3X3X3X3X3X3X3X3X3X3X3X3X3X3X3X3X",
"2X2X2X2X2X2X2X2X2X2X2X2X2X2X2X2X2X2X2X2X2X2X2X2X2X2X2X2X2X2X2X2X2X2X2X2X2X2X2X2X2X2X2X2X2X2X2X*X8XpX3X*X2X2X2X2X2X2X2X2X2X2X2X2X2X2X2X2X2X2X2X2X2X2X2X2X2X2X2X2X2X2X2X2X2X2X2X2X2X2X2X2X2X2X2X2X2X2X2X2X2X2X2X2X2X2X2X2X2X2X2X2X2X2X2X2X2X2X2X2X2X2X2X2X2X2X2X2X2X2X2X2X3XpXpX2X2X2X2X2X2X3XpXpX3XpXpX4X*X2X2X2X2X*X8XpX3X*X2X2X2X2X2X2X2X1X2X2X2X2X2X2XpXpX2X2X2X3X3X3X3X3X3X3X3X3X3X3X3X3X3X3X3X3X3X3X3X3X3X3X3X2X2X3X3X3X3X3X3X3X3X3X3X3X3X3X3X3X3X3X3X3X3X3X3X3X3X3X3X3X3X3X3X2X2X2X2X2X2X2X2X2X2X2X2X2X2X2X2X2X2X2X2X2X2X2X",
"8X8X8X8X8X8X8X8X8X8X8X8X8X8X8X8X8X8X8X8X8X8X8X8X8X8X8X8X8X8X8X8X8X8X8X8X8X8X8X8X8X8X8X8X8X8X8X8XpXpXpX8X8X8X8X8X8X8X8X8X8X8X8X8X8X8X8X8X8X8X8X8X8X8X8X8X8X8X8X8X8X8X8X8X8X8X8X8X8X8X8X8X8X8X8X8X8X8X8X8X8X8X8X8X8X8X8X8X8X8X8X8X8X8X8X8X8X8X8X8X8X8X8X8X8X8X8X8X8X8X8X8XpXpXpX8X8X8X8X8X8X8X4X4X8X4X4X4X8X8X8X8X8X8XpXpXpX8X8X8X8X8X8X8X8X8X8X8X8X8X8X8XpXpX8X8X8X8X8X8X8X8X8X8X8X8X8X8X8X8X8X8X8X8X8X8X8X8X8X8X8X8X8X8X8X8X8X8X8X8X8X8X8X8X8X8X8X8X8X8X8X8X8X8X8X8X8X8X8X8X8X8X8X8X8X8X8X8X8X8X8X8X8X8X8X8X8X8X8X8X8X8X8X8X8X8X",
"mXmXmXmXmXmXmXmXmXmXmXmXmXmXmXmXmXmXmXmXmXmXmXmXmXmXmXmXmXmXmXmXmXmXmXmXmXmXmXmXmXmXmXmXmXmXmXmXpXpXmXmXmXmXmXmXmXmXmXmXmXmXmXmXmXmXmXmXmXmXmXmXmXmXmXmXmXmXmXmXmXmXmXmXmXmXmXmXmXmXmXmXmXmXmXmXmXmXmXmXmXmXmXmXmXmXmXmXmXmXmXmXmXmXmXmXmXmXmXmXmXmXmXmXmXmXmXmXmXmXmXmXmXpXpXmXmXmXmXmXmXmXmXmXmXmXmXmXmXmXmXmXmXmXpXpXpXmXmXmXmXmXmXmXmXmXmXmXmXmXmXmXpXpXmXmXmXmXmXmXmXmXmXmXmXmXmXmXmXmXmXmXmXmXmXmXmXmXmXmXmXmXmXmXmXmXmXmXmXmXmXmXmXmXmXmXmXmXmXmXmXmXmXmXmXmXmXmXmXmXmXmXmXmXmXmXmXmXmXmXmXmXmXmXmXmXmXmXmXmXmXmXmXmXmXmX",
"oXoXoXoXoXoXoXoXoXoXoXoXoXoXoXoXoXoXoXoXoXoXoXoXoXoXoXoXoXoXoXoXoXoXoXoXoXoXoXoXoXoXoXoXoXoXoXoX+X+X+XoXoXoXoXoXoXoXoXoXoXoXoXoXoXoXoXoXoXoXoXoXoXoXoXoXoXoXoXoXoXoXoXoXoXoXoXoXoXoXoXoXoXoXoXoXoXoXoXoXoXoXoXoXoXoXoXoXoXoXoXoXoXoXoXoXoXoXoXoXoXoXoXoXoXoXoXoXoXoXoXoX+X+X+XoXoXoXoXoXoXoXoXoXoXoXoXoXoXoXoXoX+XoX3XmX&XoX+XoXoXoXoXoXoXoXoXoXoXoXoX+X+X+XoXoXoXoXoXoXoXoXoXoXoXoXoXoXoXoXoXoXoXoXoXoXoXoXoXoXoXoXoXoXoXoXoXoXoXoXoXoXoXoXoXoXoXoXoXoXoXoXoXoXoXoXoXoXoXoXoXoXoXoXoXoXoXoXoXoXoXoXoXoXoXoXoXoXoXoXoXoXoXoXoXoX",
"D.D.D.D.D.D.D.D.D.D.D.D.D.D.D.D.D.D.D.D.D.D.D.D.D.D.D.D.D.D.D.D.D.D.D.D.D.D.D.D.D.D.D.D.D.D.D.D.D.D.D.D.D.D.D.D.D.D.D.D.D.D.D.D.D.D.D.D.D.D.D.D.D.D.D.D.D.D.D.D.D.D.D.D.D.D.D.D.D.D.D.D.D.D.D.D.D.D.D.D.D.D.D.D.D.D.D.D.D.D.D.D.D.D.D.D.D.D.D.D.D.D.D.D.D.D.D.D.D.D.D.D.D.D.D.D.D.D.D.D.D.D.D.D.D.D.D.D.D.D.D.D.D.S.*XMX+XS.D.D.D.D.D.D.D.D.D.D.D.D.D.D.D.D.D.D.D.D.D.D.D.D.D.D.D.D.D.D.D.D.D.D.D.D.D.D.D.D.D.D.D.D.D.D.D.D.D.D.D.D.D.D.D.D.D.D.D.D.D.D.D.D.D.D.D.D.D.D.D.D.D.D.D.D.D.D.D.D.D.D.D.D.D.D.D.D.D.D.D.D.D.D.D.D.D.D.",
"F.F.F.F.F.F.F.F.F.F.F.F.F.F.F.F.F.F.F.F.F.F.F.F.F.F.F.F.F.F.F.F.F.F.F.F.F.F.F.F.F.F.F.F.F.F.F.F.F.F.F.F.F.F.F.F.F.F.F.F.F.F.F.F.F.F.F.F.F.F.F.F.F.F.F.F.F.F.F.F.F.F.F.F.F.F.F.F.F.F.F.F.F.F.F.F.F.F.F.F.F.F.F.F.F.F.F.F.F.F.F.F.F.F.F.F.F.F.F.F.F.F.F.F.F.F.F.F.F.F.F.F.F.F.F.F.F.F.F.F.F.F.F.F.F.F.F.F.F.F.F.F.F.D.*XMX%XD.F.G.D.oXG.F.F.F.F.F.F.F.F.F.F.F.F.F.F.F.F.F.F.F.F.F.F.F.F.F.F.F.F.F.F.F.F.F.F.F.F.F.F.F.F.F.F.F.F.F.F.F.F.F.F.F.F.F.F.F.F.F.F.F.F.F.F.F.F.F.F.F.F.F.F.F.F.F.F.F.F.F.F.F.F.F.F.F.F.F.F.F.F.F.F.F.F.F.",
"F.F.F.F.F.F.F.F.F.F.F.F.F.F.F.F.F.F.F.F.F.F.F.F.F.F.F.F.F.F.F.F.F.F.F.F.F.F.F.F.F.F.F.F.F.F.F.F.F.F.F.F.F.F.F.F.F.F.F.F.F.F.F.F.F.F.F.F.F.F.F.F.F.F.F.F.F.F.F.F.F.F.F.F.F.F.F.F.F.F.F.F.F.F.F.F.F.F.F.F.F.F.F.F.F.F.F.F.F.F.F.F.F.F.F.F.F.F.F.F.F.F.F.F.F.F.F.F.F.F.F.F.F.F.F.F.F.F.F.F.F.F.F.F.F.F.F.F.F.F.F.F.F.D.*XMX+XD.oXl j l D.G.D.G.F.D.oXF.D.G.S.F.F.D.G.G.D.F.F.F.F.F.F.F.F.F.F.F.F.F.F.F.F.F.F.F.F.F.F.F.F.F.F.F.F.F.F.F.F.F.F.F.F.F.F.F.F.F.F.F.F.F.F.F.F.F.F.F.F.F.F.F.F.F.F.F.F.F.F.F.F.F.F.F.F.F.F.F.F.F.F.F.F.F.",
"F.F.F.F.F.F.F.F.F.F.F.F.F.F.F.F.F.F.F.F.F.F.F.F.F.F.F.F.F.F.F.F.F.F.F.F.F.F.F.F.F.F.F.F.F.F.F.F.F.F.F.F.F.F.F.F.F.F.F.F.F.F.F.F.F.F.F.F.F.F.F.F.F.F.F.F.F.F.F.F.F.F.F.F.F.F.F.F.F.F.F.F.F.F.F.F.F.F.F.F.F.F.F.F.F.F.F.F.F.F.F.F.F.F.F.F.F.F.F.F.F.F.F.F.F.F.F.F.F.F.F.F.F.F.F.F.F.F.F.F.F.F.F.F.F.F.F.F.F.F.F.F.F.D.*XMX+XD.G.z F.5.0.w.j k.0.l r.l e.4.l k.5.,.t.z r.G.F.F.F.F.F.F.F.F.F.F.F.F.F.F.F.F.F.F.F.F.F.F.F.F.F.F.F.F.F.F.F.F.F.F.F.F.F.F.F.F.F.F.F.F.F.F.F.F.F.F.F.F.F.F.F.F.F.F.F.F.F.F.F.F.F.F.F.F.F.F.F.F.F.F.F.F.",
"F.F.F.F.F.F.F.F.F.F.F.F.F.F.F.F.F.F.F.F.F.F.F.F.F.F.F.F.F.F.F.F.F.F.F.F.F.F.F.F.F.F.F.F.F.F.F.F.F.F.F.F.F.F.F.F.F.F.F.F.F.F.F.F.F.F.F.F.F.F.F.F.F.F.F.F.F.F.F.F.F.F.F.F.F.F.F.F.F.F.F.F.F.F.F.F.F.F.F.F.F.F.F.F.F.F.F.F.F.F.F.F.F.F.F.F.F.F.F.F.F.F.F.F.F.F.F.F.F.F.F.F.F.F.F.F.F.F.F.F.F.F.F.F.F.F.F.F.F.F.F.F.F.D.*XMX+XD.G.j F.j.z z l g z l z l k.,.0.e.z l z l oXD.F.F.F.F.F.F.F.F.F.F.F.F.F.F.F.F.F.F.F.F.F.F.F.F.F.F.F.F.F.F.F.F.F.F.F.F.F.F.F.F.F.F.F.F.F.F.F.F.F.F.F.F.F.F.F.F.F.F.F.F.F.F.F.F.F.F.F.F.F.F.F.F.F.F.F.F.",
"F.F.F.F.F.F.F.F.F.F.F.F.F.F.F.F.F.F.F.F.F.F.F.F.F.F.F.F.F.F.F.F.F.F.F.F.F.F.F.F.F.F.F.F.F.F.F.F.F.F.F.F.F.F.F.F.F.F.F.F.F.F.F.F.F.F.F.F.F.F.F.F.F.F.F.F.F.F.F.F.F.F.F.F.F.F.F.F.F.F.F.F.F.F.F.F.F.F.F.F.F.F.F.F.F.F.F.F.F.F.F.F.F.F.F.F.F.F.F.F.F.F.F.F.F.F.F.F.F.F.F.F.F.F.F.F.F.F.F.F.F.F.F.F.F.F.F.F.F.F.F.F.F.D.*XMX+XD.G.z j.l 5.z e.w.g e.j.k.g j.,.g z g.0.5.oXD.F.F.F.F.F.F.F.F.F.F.F.F.F.F.F.F.F.F.F.F.F.F.F.F.F.F.F.F.F.F.F.F.F.F.F.F.F.F.F.F.F.F.F.F.F.F.F.F.F.F.F.F.F.F.F.F.F.F.F.F.F.F.F.F.F.F.F.F.F.F.F.F.F.F.F.F.",
"F.F.F.F.F.F.F.F.F.F.F.F.F.F.F.F.F.F.F.F.F.F.F.F.F.F.F.F.F.F.F.F.F.F.F.F.F.F.F.F.F.F.F.F.F.F.F.F.F.F.F.F.F.F.F.F.F.F.F.F.F.F.F.F.F.F.F.F.F.F.F.F.F.F.F.F.F.F.F.F.F.F.F.F.F.F.F.F.F.F.F.F.F.F.F.F.F.F.F.F.F.F.F.F.F.F.F.F.F.F.F.F.F.F.F.F.F.F.F.F.F.F.F.F.F.F.F.F.F.F.F.F.F.F.F.F.F.F.F.F.F.F.F.F.F.F.F.F.F.F.F.F.F.D.*XMX%XD.oX5.j 0.oXr.l j.r.,.g.,.e.e.l j.e.5.t.r.oXD.F.F.F.F.F.F.F.F.F.F.F.F.F.F.F.F.F.F.F.F.F.F.F.F.F.F.F.F.F.F.F.F.F.F.F.F.F.F.F.F.F.F.F.F.F.F.F.F.F.F.F.F.F.F.F.F.F.F.F.F.F.F.F.F.F.F.F.F.F.F.F.F.F.F.F.F.",
"F.F.F.F.F.F.F.F.F.F.F.F.F.F.F.F.F.F.F.F.F.F.F.F.F.F.F.F.F.F.F.F.F.F.F.F.F.F.F.F.F.F.F.F.F.F.F.F.F.F.F.F.F.F.F.F.F.F.F.F.F.F.F.F.F.F.F.F.F.F.F.F.F.F.F.F.F.F.F.F.F.F.F.F.F.F.F.F.F.F.F.F.F.F.F.F.F.F.F.F.F.F.F.F.F.F.F.F.F.F.F.F.F.F.F.F.F.F.F.F.F.F.F.F.F.F.F.F.F.F.F.F.F.F.F.F.F.F.F.F.F.F.F.F.F.F.F.F.F.F.F.F.F.D.*XMX+XD.F.oXoXoXF.G.oXF.oXoXG.oXoXG.oXG.oXG.G.G.F.F.F.F.F.F.F.F.F.F.F.F.F.F.F.F.F.F.F.F.F.F.F.F.F.F.F.F.F.F.F.F.F.F.F.F.F.F.F.F.F.F.F.F.F.F.F.F.F.F.F.F.F.F.F.F.F.F.F.F.F.F.F.F.F.F.F.F.F.F.F.F.F.F.F.F.F.F.",
"D.D.D.D.D.D.D.D.D.D.F.F.F.F.F.F.F.F.F.F.F.F.F.F.F.F.F.F.F.F.F.F.F.F.F.F.F.F.F.F.F.F.F.F.F.F.F.F.F.F.F.F.F.F.F.F.F.F.F.F.F.F.F.F.F.F.F.F.F.F.F.F.F.F.F.F.F.F.F.F.F.F.F.F.F.F.F.F.F.F.F.F.F.F.F.F.F.F.F.F.F.F.F.F.F.F.F.F.F.F.F.F.F.F.F.F.F.F.F.F.F.F.F.F.F.F.F.F.F.F.F.F.F.F.F.F.F.F.F.F.F.F.F.F.F.F.F.F.F.F.F.F.F.D.*XMX%XD.F.F.F.F.F.F.F.F.F.F.F.F.F.F.F.F.F.F.F.F.F.F.F.F.F.F.F.F.F.F.F.F.F.F.F.F.F.F.F.F.F.F.F.F.F.F.F.F.F.F.F.F.F.F.F.F.F.F.F.F.F.F.F.F.F.F.F.F.F.F.F.F.F.F.F.F.F.F.F.F.F.F.F.F.F.F.F.F.F.F.F.F.F.F.F.F.F.F.",
"q.q.q.q.q.q.q.q.q.1.h.pX4X*X*X2X3X2X2X2X2X2X2X2X2X2X2X2X2X2X2X2X2X2X2X2X2X2X2X2X2X2X2X2X2X2X2X2X2X2X2X2X2X2X2X2X2X2X2X2X2X2X2X2X2X2X2X2X2X2X2X2X2X2X2X2X2X2X2X2X2X2X2X2X2X2X2X2X3X2X*X*X4XpX3X*X*X*X*X*X*X*X*X*X*X*X*X*X*X*X*X*X*X*X*X*X*X*X*X*X*X*X*X*X*X*X*X*X*X*X*X*X*X*X*X*X*X*X*X*X*X*X*X*X*X*X*X*X*X*X*X*X*X*X4XpX3X*X*X*X*X*X*X*X*X*X*X*X*X*X*X*X*X*X*X*X*X*X*X*X*X*X*X*X*X*X*X*X*X*X*X*X*X*X*X*X*X*X*X*X*X*X*X*X*X*X*X*X*X*X*X*X*X*X*X*X*X*X*X*X*X*X*X*X*X*X*X*X*X*X*X*X*X*X*X*X*X*X*X*X*X*X*X*X*X*X*X*X*X*X*X*X*X*X*X*X",
"1.1.1.1.1.1.1.1.1.2.h.BX8X2X3X1X#X#X#X#X#X#X#X#X#X#X#X#X#X#X#X#X#X#X#X#X#X#X#X#X#X#X#X#X#X#X#X#X#X#X#X#X#X#X#X#X#X#X#X#X#X#X#X#X#X#X#X#X#X#X#X#X#X#X#X#X#X#X#X#X#X#X#X#X#X#X#X#X#X1X3X2XpXpX3X2X3X3X3X3X3X3X3X3X3X3X3X3X3X3X3X3X3X3X3X3X3X3X3X3X3X3X3X3X3X3X3X3X3X3X3X3X3X3X3X3X3X3X3X3X3X3X3X3X3X3X3X3X3X3X3X3X3X2X8XpX4X2X3X3X3X3X3X3X3X3X3X3X3X3X3X3X3X3X3X3X3X3X3X3X3X3X3X3X3X3X3X3X3X3X3X3X3X3X3X3X3X3X3X3X3X3X3X3X3X3X3X3X3X3X3X3X3X3X3X3X3X3X3X3X3X3X3X3X3X3X3X3X3X3X3X3X3X3X3X3X3X3X3X3X3X3X3X3X3X3X3X3X3X3X3X3X3X3X3X3X",
"<.<.<.<.<.<.<.<.7.2.h.MX4X*X9XZ.a T Y Y Y Y Y Y Y Y Y Y Y Y Y Y Y Y Y Y Y Y Y Y Y Y Y Y Y Y Y Y Y Y Y Y Y Y Y Y Y Y Y Y Y Y Y Y Y Y Y Y Y Y Y Y Y Y Y Y Y Y Y Y Y Y Y Y Y Y Y T a Z.0X*X8XpX3X2X3X2X2X2X2X2X2X2X2X2X3X2X3XpXpXpXpXpXpXpXpXpXpXpXpXpXpXpXpXpXpXpXpXpXpXpXpXpXpXpXpXpXpXpXpXpXpX4XpXpXpXpXpXpXpX4X2X2X8XpX3X2X3X2X2X2X3X2X*X*X2X3X2X2X2X3X3X2X3X2X2X2X2X2X2X2X2X2X2X2X2X2X2X2X3X2X*X2X*X3X2X2X2X2X2X2X2X2X2X2X2X2X2X2X2X2X2X2X2X2X2X2X2X2X3X2X*X*X3X3X2X3X2X2X2X2X2X2X2X3X3X2X3X2X2X2X2X2X2X2X2X2X2X2X2X2X2X2X3X*X",
"1.1.1.1.1.1.1.<.7.2.h.MX8X*X0X$.p # $ $ $ $ $ $ $ $ $ $ $ $ $ $ $ $ $ $ $ $ $ $ $ $ $ $ $ $ $ # $ # # $ $ $ $ $ $ # $ $ $ $ $ $ $ $ $ $ $ $ $ $ $ $ $ $ $ $ $ $ $ $ $ $ $ $ $ # p Z.0X*X8XpX3X2X3X3X3X2X4X8X2X3X8X4X3X2X3XpXpXpXpXpXpXpXpXpXpXpXmXpXpXpXpXpXpXpXpXpXpXpXpXpXpXpXpXpXpXpXpXpXpX4XpXpXpXmXpXpXpX4X2X2X8XpX3X2X3X3X3X3X2X4XpXpX3X*X*X2X3X&X+X3X*X*X3X3X3X3X3X3X3X3X3X3X3X3X3X3X2X3X4X3XpX*X*X*X2X*X*X2X*X*X2X3X3X3X3X3X3X3X3X3X3X3X3X3X3X3X2X4XpXpX*X&X2X2X*X*X2X*X*X2X*X*X%X*X2X3X3X3X3X3X3X3X3X3X3X3X3X3X3X3X2X8X",
"1.1.1.1.1.6.1.<.7.2.h.MX8X*X0XZ.p # # # # # # # # # # # # # # # # # # # # # # # # # # # # # $ % # $ $ # # # # $ # % # # # # # # # # # # # # # # # # # # # # # # # # # # # # # # p Z.0X*X8XpX3X2X3X%X2X3XF.j.3X&Xj.S.3X2X3XpXpXCXMXpXCXBXpXpXpXpX3XMXCXCXpXpXBXpXpXpXpXpXpXpXpXpXpXpXpXpXpXpXpX4XpXpXmX&XpXpXpX4X2X2X8XpX3X2X3X3X3X2X8XM.g ,.&X8XpX2XoX2XD.8XpX8X2X3X3X3X3X3X3X3X3X3X3X3X3X2X3X+Xg.%Xe.pXpX8X3XpX8X3XpX8X3X3X3X3X3X3X3X3X3X3X3X3X3X3X3X2X4Xf.g k k g.CX2XpX8X3XpX4X4XmXD.<.CX3X2X3X3X3X3X3X3X3X3X3X3X3X3X3X*X8Xw.",
"1.1.1.1.1.6.1.<.7.2.h.MX8X*X0XZ.p # $ # # # # # # # # # # # # # # # # # # # # # # # # # # # % p & p % & & % p % # & & # # # # # # # # # # # # # # # # # # # # # # # # # # # $ # p Z.0X*X8XpX3X2X2Xh *X*X, k 4.4.g g.2X2X3XpXMXw.j.4Xk w.pXpXBXpX<.F.h 4.4X*Xk.FXBXpXmXCX8X*XMXpXpXpXpXpXpXpXpX4XpXMXD.O k.BXpX4X2X2X8XpX3X2X3X3X3X*XpX4.w.<.e.k.,.g.> r.j.G.h g.4X2X3X3X3X3X3X3X3X3X3X3X3X2X4XF.h <.g.g.j e.3X4.0.*X,.e.3X2X2X3X3X3X3X3X3X3X3X3X3X3X3X2X2X3Xh w.r., ,.+X4.0.oX<.k.j.<.w., k S.4X2X3X3X3X3X3X3X3X3X3X3X3X2X3X3X, ",
"1.1.1.1.1.6.1.<.7.2.h.MX8X*X0XZ.p # # # # # # # # # # # # # # # # # # # # # # # # # # # # # % p & p % p p & p # # $ & # # # # # # # # # # # # # # # # # # # # # # # # # # # # # p Z.0X*X8XpX3X2X2Xg &X&Xg w.j ,.4.%X3X2X3XpXpXg 4.pXoXj D.AXg.h k e.g.0.g.k.w.g.j 3XoX<.k > %XmXpXpXpXpXpXpXpX4XpXmXl > z 8XpX4X2X2X8XpX3X2X3X3X3X*XpXe.> g %XS.g k k j.j <.j.g G.3X2X3X3X3X3X3X3X3X3X3X3X2X3X%XX 7 FX, g.j ,.g g , j , k.8X*X3X3X3X3X3X3X3X3X3X3X3X3X3X*XpX4.M.f.<.4.0., oXk h 7 , 4.S.g g.j pX*X3X3X3X3X3X3X3X3X3X3X3X2X8Xj.7 ",
"1.1.1.1.1.6.1.<.7.2.h.MX8X*X0XZ.p # # # # # # # # # # # # # # # # # # # # # # # # # # # # # & p $ p & p p & p % $ p % # # # # # # # # # # # # # # # # # # # # # # # # # # # # # p Z.0X*X8XpX3X2X*Xh 8X3X> ,.3X,.7 k.3X2X3XpXCXD.4.KX4Xh pX*Xh S.j g., g oX0.g.,.l.<.k oXj.<.BXpXpXpXpXpXpXpXpX4XpXpX+X*X+X4XpX4X2X2X8XpX3X2X3X3X3X*XpX0.,.j g.j g j ,.F.j j *Xh D.4X2X3X3X3X3X3X3X3X3X3X3X2X4XG.g j k.j &X<.j 7 g.h g w.G.3X2X3X3X3X3X3X3X3X3X3X3X3X3X3X*XpX<.j.w.g.k.<.j MXh h w.oX,.h 4.+Xh pX*X3X3X3X3X3X3X3X3X3X3X3X*XpXk h ",
"1.1.1.1.1.6.1.<.7.2.h.MX8X*X0XZ.p # # # # # # # # # # # # # # # # # # # # # # # # # # # # # $ # # & & # $ % $ $ $ & % # # # # # # # # # # # # # # # # # # # # # # # # # # # # # p Z.0X*X8XpX3X2X3X, w.M.g pXmXk j.BX*X2X3XpXCXj.4.CXj G.AX+Xj 3Xj w.g.k.g e.M.4.&Xj j pXD.,.FXpXpXpXpXpXpXpXpX4XpXBXj o g pXpX4X2X2X8XpX3X2X3X3X3X*XpXw.j.k.k k j f.k ,.w.j.7 4.3X2X3X3X3X3X3X3X3X3X3X3X3X2X4XoX4.+Xk <.%X4.S.<.0.D.k 0.&X3X2X3X3X3X3X3X3X3X3X3X3X3X3X3X*X8Xe.M.g.k.j.e.,.8XM.j w.r.h ,.e.oX,.pX*X3X3X3X3X3X3X3X3X3X3X2X3X&X<.pX",
"1.1.1.1.1.6.1.<.7.2.h.MX8X*X0XZ.p # $ # # # # # # # # # # # # # # # # # # # # # # # # # # # # # # # # # # # # # # # # # # # # # # # # # # # # # # # # # # # # # # # # # # # $ # p Z.0X*X8XpX3X2X3Xf.<.j.S.&X3XD.oX3X2X2X3XpXBXS.g.l.> ,.oXCX0.h 4.j.7 <.,.M.MX<.g %Xj.g j.j G.MXpXpXpXpXpXpXpX4XpXmX*X, +XBXpX4X2X2X8XpX3X2X3X3X3X3X2X3X3X3X4X*X*X4X3X*X3X4X&X3X3X2X3X3X3X3X3X3X3X3X3X3X3X3X2X3X3X3X3X3X3X3X3X2X+X3X*X+X2X3X3X3X3X3X3X3X3X3X3X3X3X3X3X3X3X2X3X3X3X3X3X3X3X2X4X&X%X&X&X4X3X3X3X2X3X3X3X3X3X3X3X3X3X3X3X3X3X2X3X*X",
"6.6.6.6.6.7.1.<.7.2.h.MX8X*X0XZ.p # # # # # # # # # # # # # # # # # # # # # # # # # # # # # # # # # # # # # # # # # # # # # # # # # # # # # # # # # # # # # # # # # # # # # # # p Z.0X*X8XpX3X2X2XpXmX8X4X3X2X4X3X2X3X2X3XpXpXpXpXpXpX4XpXpXmXpXmXpXpXpXBXpXpXmXpXmXmXpXpXpXpXpXpXpXpXpXpXpXpX4XpXpXpXpXpXpXpX4X2X2X8XpX3X2X3X3X3X3X3X2X2X2X2X3X3X2X3X3X2X2X3X2X2X3X3X3X3X3X3X3X3X3X3X3X3X3X3X2X2X2X2X2X2X2X2X3X3X2X3X3X3X3X3X3X3X3X3X3X3X3X3X3X3X3X3X3X3X3X2X2X2X2X2X2X2X3X2X3X3X3X3X2X2X2X2X3X3X3X3X3X3X3X3X3X3X3X3X3X3X3X2X2X",
"1.1.1.1.1.1.2.<.7.2.h.MX8X*X0X$.p % % % % % % % % % % % % % % % % % % % % % % % % % % % % % % % % % % % % % % % % % % % % % % % % % % % % % % % % % % % % % % % % % % % % % % % p Z.0X*X8XpX3X2X3X*X*X2X2X2X3X2X2X3X3X2X3XpXpXpXpXpXpXpXpXpXpXpXpXpXpXpXpXpXpXpXpXpXpXpXpXpXpXpXpXpXpXpXpXpXpX4XpXpXpXpXpXpXpX4X2X2X8XpX3X2X3X3X3X3X3X3X3X3X3X2X2X3X2X2X3X3X2X3X3X3X3X3X3X3X3X3X3X3X3X3X3X3X3X3X3X3X3X3X3X3X3X2X2X3X2X2X3X3X3X3X3X3X3X3X3X3X3X3X3X3X3X3X3X3X3X3X3X3X3X3X3X3X3X2X2X3X2X3X3X3X3X3X3X3X3X3X3X3X3X3X3X3X3X3X3X3X3X3X",
"<.<.<.<.<.<.<.<.7.2.h.MX8X*X0XZ.E R R R R R R R R R R R R R R R R R R R R R R R R R R R R R R R R R R R R R R R R R R R R R R R R R R R R R R R R R R R R R R R R R R R R R R R E Z.0X*X8XpX3X2X3X3X3X3X3X3X3X3X3X3X3X2X3XpXpXpXpXpXpXpXpXpXpXpXpXpXpXpXpXpXpXpXpXpXpXpXpXpXpXpXpXpXpXpXpXpXpX4XpXpXpXpXpXpXpX4X2X2X8XpX3X2X3X3X3X3X3X3X3X3X3X3X3X3X3X3X3X3X3X3X3X3X3X3X3X3X3X3X3X3X3X3X3X3X3X3X3X3X3X3X3X3X3X3X3X3X3X3X3X3X3X3X3X3X3X3X3X3X3X3X3X3X3X3X3X3X3X3X3X2X2X2X2X2X2X2X2X2X3X3X3X3X3X3X3X3X3X3X3X3X3X3X3X3X3X3X3X3X3X3X",
"6.6.6.6.6.6.6.6.6.2.h.MX8X2X2X3X0X0X0X0X0X0X0X0X0X0X0X0X0X0X0X0X0X0X0X0X0X0X0X0X0X0X0X0X0X0X0X0X0X0X0X0X0X0X0X0X0X0X0X0X0X0X0X0X0X0X0X0X0X0X0X0X0X0X0X0X0X0X0X0X0X0X0X0X0X0X0X0X0X3X2X2X8XpX3X2X3X3X3X3X3X3X3X3X2X2X3X3X2X2X2X2X2X2X2X2X2X2X2X2X2X2X2X2X2X2X2X2X2X2X2X2X2X2X2X2X2X2X2X2X2X2X2X2X2X2X2X2X2X2X2X2X3X2X8XpX3X2X3X3X3X3X3X3X3X3X3X3X3X3X3X3X3X3X3X3X3X3X3X3X3X3X3X3X3X3X3X3X3X3X3X3X3X3X3X3X3X3X3X3X3X3X3X3X3X3X3X3X3X3X3X3X3X3X3X3X3X3X3X3X3X3X3X2X2X3XiXiX3X3X3X3XiX3X2X2X3X3X3X3X3X3X3X3X3X3X3X3X3X3X3X3X3X3X3X3X",
"1.1.1.1.1.1.1.1.6.2.h.MX8X2X3X2X2X2X2X2X2X3X2X2X2X2X2X2X2X2X2X2X2X2X2X2X2X2X2X2X2X2X2X2X2X2X2X2X2X2X*X*X3X*X2X2X2X2X2X2X2X2X2X2X2X2X2X2X2X2X2X2X2X*X2X3X2X2X2X2X4X*X2X2X2X2X2X2X2X2X3X2X8XpX3X2X3X3X3X3X3X3X3X2X3X3X3X2X3X3X3X3X3X3X3X3X3X3X3X3X3X3X3X3X3X3X3X3X3X3X3X3X3X3X3X3X3X3X2X3X3X2X3X3X3X3X3X3X3X3X3X3X3X2X8XpX3X2X3X3X3X3X3X3X3X3X3X3X3X3X3X3X3X3X3X3X3X3X3X3X3X3X3X3X3X3X3X3X3X3X3X3X3X3X3X3X3X3X3X3X3X3X3X3X3X3X3X3X3X3X3X3X3X3X3X3X3X3X3X3X3X3X2X3XiX5XQ.E.H J H K ).Q.3X3X2X2X3X3X3X3X3X3X3X3X3X3X3X3X3X3X3X3X3X3X",
"6.6.1.1.1.1.1.1.6.2.h.MX8X2X3X3X3X3X3X2X3X&X&X2X3X2X3X3X*X3X3X2X3X3X3X3X3X3X3X3X3X3X3X3X3X3X3X3X3X2X3X4X&X4X3X2X3X3X3X3X3X3X3X3X3X3X3X3X3X3X3X3X2X4X2X&X2X3X3X&XS.3X3X3X2X3X3X3X3X3X3X2X8XpX3X2X3X3X3X3X3X3X2X3X2X%X*X2X3X2X3X2X2X3X2X3X3X3X3X3X3X3X3X3X3X3X3X3X3X3X3X3X3X3X3X3X3X2X4X*X2X4X2X3X3X3X3X3X3X3X3X3X3X2X8XpX3X2X3X3X3X3X3X3X3X3X3X2X2X*X*X2X2X3X3X3X3X3X3X3X3X3X3X3X3X3X3X3X3X3X3X3X3X3X3X2X2X2X2X2X2X3X3X3X3X3X3X3X3X3X3X3X3X3X3X3X3X3X3X3X2X2X3X5XE.G D D D D D D D G K Q.3X3X2X3X3X3X3X3X3X3X3X3X3X3X3X3X3X3X3X3X",
"7.1.7.1.1.1.1.1.6.2.h.MX8X2X3X3X3X3X*XpX,.7 w.4X&X3X*X*X8X*X3X3X2X3X3X3X3X3X3X3X3X3X3X3X3X3X3X3X2X3X*Xk g ,.3X2X2X3X3X3X3X3X3X3X3X3X3X3X3X3X3X2X4Xj.g j F.*X&X3XG.4X*X3X3X2X3X3X3X3X3X2X8XpX3X2X3X3X3X3X3X2X3X%X, j S.8X&X3X%X3X4X&X3X2X3X3X3X3X3X3X3X3X3X3X3X3X3X3X3X3X3X3X3X3X2X8Xg.g h M.4X2X3X3X3X3X3X3X3X3X3X2X8XpX3X2X3X3X3X3X3X3X3X2X2X3X7XaXaX7X3X2X2X3X3X3X3X3X3X3X3X3X3X3X3X3X3X3X3X3X3X2X2X3X7X7X7X7X3X2X2X3X3X3X3X3X3X3X3X3X3X3X3X3X3X3X3X2X2XiXQ.G D G K W./.5X5XQ.E.G D D E.3X3X2X3X3X3X3X3X3X3X3X3X3X3X3X3X3X3X3X",
"> > h q.1.1.1.1.6.2.h.MX8X2X3X3X3X3X*XpXj k.pXk j S.k <.M.h 7 k.pX*X3X3X3X3X3X3X3X3X3X3X3X3X3X3X*XpXe.k CXh g.pX*X3X3X3X3X3X3X3X3X3X3X3X3X3X2X3X2X7 F.*X3Xg.h g.e.e.7 h &X3X2X3X3X3X3X2X8XpX3X2X3X3X3X3X3X2X4XoXg 4XG., g.g.g g.e.g g 3X2X3X3X3X3X3X3X3X3X3X3X3X3X3X3X3X3X3X3X2X3X*X, &XS.g 8X2X3X3X3X3X3X3X3X3X3X2X8XpX3X2X3X3X3X3X3X3X2X3XpX#Xz.y.y.z.&XaX3X2X3X3X3X3X3X3X3X3X3X3X3X3X3X3X3X3X2X3X7X#X'.`.`.'.2X7X3X2X3X3X3X3X3X3X3X3X3X3X3X3X3X3X3X2XiXW.D D K 5XsXsXsXsXsXsXsX8XW.G D K 3X3X2X3X3X3X3X3X3X3X3X3X3X3X3X3X3X3X",
"> 3.> d.1.1.1.1.6.2.h.MX8X2X3X3X3X3X*XpXj , k.7 oXe.7 h > D.0.e.pX*X3X3X3X3X3X3X3X3X3X3X3X3X3X3X*XpX<.f.KX4.0.pX*X3X3X3X3X3X3X3X3X3X3X3X3X3X2X3XoXg pXg e.S.g h ,.k l.<.j.8X2X3X3X3X3X2X8XpX3X2X3X3X3X3X3X2X3X%X> <.w.g pX, k , g 2X7 *X3X3X3X3X3X3X3X3X3X3X3X3X3X3X3X3X3X3X3X2X3XoXg pX2X7 3X2X2X3X3X3X3X3X3X3X3X2X8XpX3X2X3X3X3X3X3X2X7X+X} ; = @ @ + ; } OX7X2X3X3X3X3X3X3X3X3X3X3X3X3X3X2X2X7X$X+.^ ~ ! ! ~ X.p.&X7X2X3X3X3X3X3X3X3X3X3X3X3X3X3X2XiX).D G ).sXsXpXpXpXpXpXpXpXpXsX5XJ D K 3X3X2X3X3X3X3X3X3X3X3X3X3X3X3X2X2X",
", 3.> d.1.1.1.1.6.2.h.MX8X2X3X3X3X3X*XpXh M.BXg *Xw.7 M.<.e.<.w.pX*X3X3X3X3X3X3X3X3X3X3X3X3X3X3X*XpXg.g &Xh M.8X2X3X3X3X3X3X3X3X3X3X3X3X3X3X2X2X4X7 j.r.7 g g g ,.k F.<.k.8X2X3X3X3X3X2X8XpX3X2X3X3X3X3X3X2X4XG.g CXj.j MX7 ,.l.g j., *X3X3X3X3X3X3X3X3X3X3X3X3X3X3X3X3X3X3X3X2X2X4Xg j.g.j pX*X3X3X3X3X3X3X3X3X3X2X8XpX3X2X3X3X3X3X2X7X}. .+ + ; { [ V - @ ; x.7X2X3X3X3X3X3X3X3X3X3X3X3X3X2X7X`.^ ~ ^ O.+.+.O.~ ! O.'.7X2X3X3X3X3X3X3X3X3X3X3X3X2X3XQ.G D ).sXpXpXpXpXpXpXpXpXpXpXpXsX7XG D W.iX2X3X3X3X3X3X3X3X3X3X3X3X3X2X4X",
"h <.g q.1.1.1.1.6.2.h.MX8X2X3X3X3X3X*X8Xf.F.8Xw.&X3X0.4.oX4., w.pX*X3X3X3X3X3X3X3X3X3X3X3X3X3X3X3X2X3Xr.> g pX*X3X3X3X3X3X3X3X3X3X3X3X3X3X3X3X2X4XG.k j j.0.4.g.k.g.oXg.F.4X2X3X3X3X3X2X8XpX3X2X3X3X3X3X3X2X3X%Xw.4XG.r.pXD.k j.j.j , 2X3X3X3X3X3X3X3X3X3X3X3X3X3X3X3X3X3X3X3X3X2X4XG.j > S.4X2X3X3X3X3X3X3X3X3X3X2X8XpX3X2X3X3X3X2X7X`.^ ~ #.OXmXBXBXpX$X{ + - x.7X2X3X3X3X3X3X3X3X3X3X3X2X7XU.~ ~ +.<XpXMXMXpX<Xo.~ ^ '.7X2X3X3X3X3X3X3X3X3X3X2X2X3XK D W.sXpXpXpXpXpXpXpXpXpXpXpXpX8XsX~.D G 5X3X2X3X3X3X3X3X3X3X3X3X3X2X4XB.",
"q.6.q.1.1.1.1.1.6.2.h.MX8X2X3X3X3X3X3X2X8X3X2X8X3X3XpX8X3XCXw.w.pX*X3X3X3X3X3X3X3X3X3X3X3X3X3X3X3X3X2XpX*Xe.&X3X2X3X3X3X3X3X3X3X3X3X3X3X3X3X3X3X2X3XpXpX4X8XpX8X4X4X3X4X3X2X3X3X3X3X3X2X8XpX3X2X3X3X3X3X3X3X2X3X8X2X3X8X*X4XpX3X4XpXh &X3X3X3X3X3X3X3X3X3X3X3X3X3X3X3X3X3X3X3X3X3X2X3XmXg.j.4X2X3X3X3X3X3X3X3X3X3X2X8XpX3X2X3X3X2X3X&XX.~ I.MXH.&XmXpXpXMXBXu.+ - OX3X2X3X3X3X3X3X3X3X3X2X7XOX^ ^ _.MXaXpXpXpXpXaXaX+.~ O.1X3X2X3X3X3X3X3X3X3X3X2X3XQ.G G 8XpXpXpXpXpXpXpXpXpXpXpXpXpXpXpXsXE.D W.iX2X3X3X3X3X3X3X3X3X3X2X4X@Xu ",
"1.1.1.1.1.1.1.1.6.2.h.MX8X2X3X3X3X3X3X3X*X2X3X*X*X*X&X&X2X*X&X&X3X2X3X3X3X3X3X3X3X3X3X3X3X3X3X3X2X2X2X&X1X4X2X2X3X3X3X3X3X3X3X3X3X3X3X3X3X3X3X3X3X2X*X*X*X&X&X&X*X*X2X2X2X3X3X3X3X3X3X2X8XpX3X2X3X3X3X3X3X3X3X2X*X3X2X1X1X1X&X1X2X*X%X2X3X3X3X3X3X3X3X3X3X3X3X3X3X3X3X3X3X3X3X3X2X2X*X&X4X4X2X3X3X3X3X3X3X3X3X3X3X2X8XpX3X2X3X3X2X7Xp.~ o.MX3XX g BXpXpXpXpXBX{ @ [ 7X2X3X3X3X3X3X3X3X2X2X7X+.~ +.SXpXpXpXpXpXpXyXpXpXO.~ I.7X2X3X3X3X3X3X3X3X3X2XiXW.D E.sXpXpXpXpXpXpXpXpXpXpXpXpXpXpXpXsX5XD J 2X3X2X3X3X3X3X3X3X3X3X2X4Xb.u ",
"1.1.1.1.1.1.1.1.6.2.h.MX8X2X3X3X3X3X3X3X3X2X2X7X9X9X9X9X3X*X3X3X2X3X3X3X3X3X3X3X3X3X3X3X3X3X3X2X2X3X9X9X9X0X7X2X2X3X3X3X3X3X3X3X3X3X3X3X3X3X3X3X3X2X2X3X7X9X9X9X7X3X*X2X3X3X3X3X3X3X3X2X8XpX3X2X3X3X3X3X3X3X3X3X2X1X3X7X0X0X0X7X3X1X3X3X3X3X3X3X3X3X3X3X3X3X3X3X3X3X3X3X3X3X2X1X3X7XaXaXaX7X3X1X2X3X3X3X3X3X3X3X3X2X8XpX3X2X3X2X3X2XX.~ {.aXBXe.O g.BXpXpXpXMXOX= ; %X3X2X3X3X3X3X3X3X2X3X#X^ ^ 4XaXpXpXpXpXpXBXCXpXMX}.~ O.*X3X2X3X3X3X3X3X3X2X2X3XH D /.sXpXpXpXpXpXpXpXpXpXpXpXpXpXpXpXpX8XG G 5X3X2X3X3X3X3X3X3X3X2X3X@XS u ",
"q.1.1.1.1.1.1.1.6.2.h.MX8X2X3X3X3X3X3X2X2X7X3XA.i.| @.Z.$X9X3X*X3X3X3X3X3X3X3X3X3X3X3X3X3X3X2X3X9XOXZ.@.| i.A.3X9X2X2X3X3X3X3X3X3X3X3X3X3X3X3X3X2X2X9X&XA.@.| @.A.&X9X3X2X3X3X3X3X3X3X2X8XpX3X2X3X3X3X3X3X3X3X2X3X0X>X_.-.-.-.}.2X0X2X2X3X3X3X3X3X3X3X3X3X3X3X3X3X3X3X3X3X2X2XaX2XU.i.@.@.a.#XaX3X2X3X3X3X3X3X3X3X2X8XpX3X2X3X2X7XOX^ O.yXpXpXmX, 7 mXpXpXpXpXpX; = z.7X2X3X3X3X3X3X3X2X7X`.~ o.aXpXpXpXpXpXpXS.l > l yX; - OX3X2X3X3X3X3X3X3X2X3X1XG G 7XpXpXpXpXpXpXpXpXpXpXpXpXpXpXpXpXpXsXP D Q.iX2X3X3X3X3X3X3X3X2X4XN.u S ",
"V 7.7.1.1.1.1.1.6.2.h.MX8X2X3X3X3X3X2X3X7XA.W p i i i i a #.OX7X2X3X3X3X3X3X3X3X3X3X3X3X3X2X7X$X| a i i i i p W Z.7X2X2X3X3X3X3X3X3X3X3X3X3X3X2X3X3Xa.s p i i i i a | &X7X*X3X3X3X3X3X2X8XpX3X2X3X3X3X3X3X3X1X7X1X-.&.%.%.C %.%.&.I.3X3X2X3X3X3X3X3X3X3X3X3X3X3X3X3X3X3X2X3X7Xa.B M M M M M N  .$X7X1X3X3X3X3X3X3X2X8XpX3X2X3X2X7X'.~ o.aXpXpXmX*X*XpXpXpXpXpXBX{ + x.pX2X3X3X3X3X3X3X2X7X`.! I.MXpXpXpXpXmX2XO X > t.BX; + '.7X2X3X3X3X3X3X3X2X3X5XG G pXpXpXpXpXpXpXpXpXpXBXS.> > > > > 7 sXE.D Q.iX2X3X3X3X3X3X3X3X2XuXB.u b.",
"1 1 <.q.1.1.1.1.6.2.h.MX8X2X3X3X3X2X3X3X| p i s #.@.@.#.a i a A.7X*X3X3X3X3X3X3X3X3X3X3X2X7XA.a i p W @.@.| s i p | 3X3X2X3X3X3X3X3X3X3X3X3X2X3X&XW i p s | @.@.W p i s A.7X*X3X3X3X3X2X8XpX3X2X3X3X3X3X3X2X7X{.&.%.%.&.-.-.-.&.%.%.;.1X3X2X3X3X3X3X3X3X3X3X3X3X3X3X3X2X3X2X .M M B  .+.+. .N M B U.7X1X3X3X3X3X3X2X8XpX3X2X3X2X7X'.~ o.aXpXpXpXmXmXpXpXpXpXpXBX{ @ x.pX*X3X3X3X3X3X3X2X7X`.! -.MXpXpXpXpXpXpXF.3XBXBXaXV + A.7X2X3X3X3X3X3X3X2X3X5XG G pXpXpXpXpXpXpXpXpXpXBXF.g g g g g g sXA Z c.sX2X3X3X3X3X3X3X3X2XuXB.u b.",
"1   1 1.7.1.1.1.6.2.h.MX8X2X3X3X3X2X7X| i a @.uXMXSXSXMX#X#.p a A.7X2X3X3X3X3X3X3X3X3X2X7XA.a p W $XMXSXSXSXpXZ.a i #.7X2X2X3X3X3X3X3X3X3X2X3X2XW i s Z.pXSXSXSXMX,XW . : OX7X2X3X3X3X2X8XpX3X2X3X3X3X3X2X3X-X&.%.&. XaXdXfXfXaXXX&.%.&.3X3X2X3X3X3X3X3X3X3X3X3X3X3X2X2X3X .M N p.pXSXSXSXMX-X .M N '.7X2X3X3X3X3X2X8XpX3X2X3X2X7X'.^ X.4XpXpXpXpXpXpXpXpXpXpXpXV = A.7X2X3X3X3X3X3X3X2X7X`.~ O.pXpXpXpXpXpXpXBXmXpXpX4X; - OX3X2X3X3X3X3X3X3X2X3X1XG G 7XpXpXpXpXpXpXpXpXpXpXpXBXBXBXBXBXMXMXA Z h.sX2X3X3X3X3X3X3X3X2XuXN.u S ",
"q.1   1 q.1.1.1.6.2.h.MX8X2X3X3X2X7XA.p a A.SXpXpXpXpXpXMXSX@.i s #X3X2X3X3X3X3X3X3X2X3X3Xs i | pXMXpXpXpXpXpXSX].a i Z.9X2X3X3X3X3X3X3X3X*X9X@.i s $XSXpXpXpXpX4X@XmXd . ; 7X2X2X3X3X2X8XpX3X2X3X3X3X3X2X0X;.%.;.4XfXpXpXpXpXpXfX4X&.%.-.0X1X3X3X3X3X3X3X3X3X3X3X3X1XaXa.M B '.SXpXpXpXpXpXMXMX .M B 2X3X2X3X3X3X2X8XpX3X2X3X2X2X3XO.~ ].MXpXpXpXpXpXpXpXpXMX'.= ; 2X3X2X3X3X3X3X3X3X2X3X&XX.^ <XaXpXpXpXpXpXpXpXpXBXx.+ V 7X2X2X3X3X3X3X3X3X2X2X3XH D /.sXpXpXpXpXpXpXpXpXpXpXpXpXpXpXpXpX8XU Z oX3X2X3X3X3X3X3X3X3X2X3X&XS u ",
"s.2.    3.q.1.1.6.2.h.MX8X2X3X2X2X3XW i @.SXyXpXpXpXpXpXpXpXMXW i @.9X*X3X3X3X3X3X3X2X9Xi.i s pXpXpXpXpXpXpXpX4XSXZ.i s 2X3X2X3X3X3X3X3X2X3X$Xa p A.SXyXpXpXpXBXl X &X4X: . y.9X*X3X3X2X8XpX3X2X3X3X3X2X7X}.%.%.<XaXyXpXpXpXpXpX4XfX{.%.%.-X7X2X3X3X3X3X3X3X3X3X3X2X3X&XB M I.JX4XpXpXpXpXpXpXpXpXB M a.aX1X3X3X3X2X8XpX3X2X3X3X2X7XI.~ O.pXaXpXpXpXpXpXpXpXMX] + } 7X2X3X3X3X3X3X3X3X3X2X7X+.~ +.aXpXpXpXpXpXpXpXMX4X; + u.7X2X3X3X3X3X3X3X3X3X2XiXW.D E.sXpXpXpXpXpXpXpXpXpXpXpXpXpXpXpXBXQ.Z U 2X3X2X3X3X3X3X3X3X3X3X2XuXb.u ",
"d.s.1   < q.1.1.6.2.h.MX8X2X3X2X7X'.p a uXpXpXpXpXpXpXpXpXpXSXA.p s 2X3X2X3X3X3X3X2X2X7XW i Z.SXyXpXpXpXpXmXBXCXCXpXs p A.7X2X3X3X3X3X3X2X7XZ.i W MXpXpXpXpXMXe.o l pXSX} . d 8X2X2X3X2X8XpX3X2X3X3X3X1X0X-.%.-.fXyXpXpXpXpXmXBXBXVXSX;.%.I.0X1X3X3X3X3X3X3X3X3X3X2X7XU.M B pXpXpXpXpXpXpXpXpXpXSXp.M V 7X2X2X3X3X2X8XpX3X2X3X3X2X3X1XO.~ +.pXpXpXpXpXpXpX4X[ + ; %X3X2X3X3X3X3X3X3X3X3X2X3X#XX.~ I.pXpXpXpXpXpXpX4X{ + V 3X3X2X3X3X3X3X3X3X3X3X2X3X5XG G 7XpXpXpXpXpXpXpXpXpXpXpXpXpXpXpXmXA Z c.sX2X3X3X3X3X3X3X3X3X3X2X3X@XS ",
"q.s.3.  1 q.1.1.6.2.h.MX8X2X3X2X9XZ.i #.MXpXpXpXpXpXpXpXpXpXaX1Xa a $X3X2X3X3X3X3X2X3X&Xa a #XMXpXpXpXpXpX%Xt.l g 9X#.$ | 9X*X3X3X3X3X3X*X9X| i i.SXpXpXpXpXpX> z BXpXBXA.. ; 3X3X2X3X2X8XpX3X2X3X3X2X2X7X&.%. XaXpXpXpXpXpX3XS.r.l =X_.C =.0X1X3X3X3X3X3X3X3X3X3X1XaX+.M #.SXpXpXpXpXpXpXpXpXpXMX-XN B &X3X2X3X3X2X8XpX3X2X3X3X3X2X7XOXX.! +.aXpXpXpXpXaX} @ - z.7X2X3X3X3X3X3X3X3X3X3X3X2X7X'.^ ! I.aXpXpXpXpXpX{ @ ; OX3X2X3X3X3X3X3X3X3X3X3X3X2XiXK D K sXpXpXpXpXpXpXpXpXpXpXpXpX8XDXQ.Z Z &X3X2X3X3X3X3X3X3X3X3X3X3X2X4XN.",
"q.s.3.  1 q.1.1.6.2.h.MX8X2X3X*X9X@.i @.SXpXpXpXpXpXMXBXpXpXpXpXs p '.7X2X3X3X3X3X2X3X$Xp a yXpXpXpXpXpXBXj O O > 7X9.. } aX*X3X3X3X3X3X*X9X#.i A.SXpXpXpXpXmX3X8XpXpXMX#X# : 2X3X2X3X2X8XpX3X2X3X3X2X2X3X&.%.<XaXpXpXpXpXCXw.o O O H.}.M V aX1X3X3X3X3X3X3X3X3X3X1XaX .M p.SXpXpXpXBXmXpXpXpXpXpX4XN N #X3X2X3X3X2X8XpX3X2X3X3X3X3X2X7XOXO.`.7X3X3X3X3X7Xx.; x.7X2X3X3X3X3X3X3X3X3X3X3X3X3X2X7X'.X.'.7X3X3X3X2X7Xu.; '.7X2X3X3X3X3X3X3X3X3X3X3X3X2X3X5XG D W.gXpXpXpXpXpXpXpXpXpXpXpXBXQ.Z Z c.sX2X3X3X3X3X3X3X3X3X3X3X3X3X2XuX",
"q.s.3.  1 q.1.1.6.2.h.MX8X2X3X*X9Xi.i | SXpXpXpXpXBXg.j mXmXpXpXs p '.7X2X3X3X3X3X2X3X$Xa a 4XpXpXpXpXpXpX&XG.3XBXAX| . } aX*X3X3X3X3X3X*X9X#.i Z.SXpXpXpXpXpXmXpXpXpXMX$X# : 2X3X2X3X2X8XpX3X2X3X3X2X2X3X&.%.{.aXpXpXpXpXmX&XS.%X3XMXU.M V aX1X3X3X3X3X3X3X3X3X3X1XaX[ M i.SXpXpXmXM.%XmXpXpXpXpX4XN N #X3X2X3X3X2X8XpX3X2X3X3X3X3X3X2X3X2X3X3X2X2X2X2X3X3X2X7X2X3X3X3X3X3X3X3X3X3X3X3X3X3X3X2X7X2X3X3X2X2X2X2X3X3X2X7X2X3X3X3X3X3X3X3X3X3X3X3X3X3X2XiXQ.G D W.pXpXpXpXpXpXpXpXpXpXmXQ.Z Z A 3X2X2X3X3X3X3X3X3X3X3X3X3X3X3X3X2X",
"q.s.<   1 q.1.1.6.2.h.MX8X2X3X2X9XZ.p W pXpXpXpXpXBXw.o z pXMX#Xa s &X3X2X3X3X3X3X2X3X&Xs p ].MXpXpXpXpXpXmXBXmXpXMXd . u.9X*X3X3X3X3X3X1X9X| i | SXpXpXpXpXpXpXpXpXpXBXx.. d 7X2X2X3X2X8XpX3X2X3X3X2X2X7X;.%._.fXpXpXpXpXpXmXBXMXpXSX+.M @.aX1X3X3X3X3X3X3X3X3X3X1XaXi.M  .MXpXMX+XX l CXpXpXpXMX'.N B 3X3X2X3X3X2X8XpX3X2X3X3X3X3X3X3X2X3X2X3X3X3X3X3X3X2X3X2X3X3X3X3X3X3X3X3X3X3X3X3X3X3X3X3X2X3X2X3X3X3X3X3X2X3X3X2X3X3X3X3X3X3X3X3X3X3X3X3X3X3X3X2XiXQ.G D W.sXpXpXpXpXpXpXpXsXQ.Z Z A 2X3X2X3X3X3X3X3X3X3X3X3X3X3X3X3X3X3X",
"q.d.1   < q.1.1.6.2.h.MX8X2X3X2X3X#Xa p $XMXpXpXpXpXCXg.o j GX@.i #.9X*X3X3X3X3X3X3X*X9X| i | SXyXpXpXpXpXpXpXpXMX$X# # OX3X2X3X3X3X3X3X2X7XA.p s yXpXpXpXpXpXpXpXpXpXMXd . } aX*X3X3X2X8XpX3X2X3X3X3X1X0XI.%.;.fXpXpXpXpXpXpXpXpXpX4XB M U.7X2X3X3X3X3X3X3X3X3X3X2X7XOXN N 1XaXmXg O =XmXpXpXpXSX#.M [ aX1X3X3X3X2X8XpX3X2X3X3X3X3X3X3X3X2X2X3X3X3X3X3X3X2X2X3X3X3X3X3X3X3X3X3X3X3X3X3X3X3X3X3X3X2X3X3X3X3X3X3X3X2X2X3X3X3X3X3X3X3X3X3X3X3X3X3X3X3X3X3X2XiXQ.J Q.3X3X4X8XpX8X4X3X3X&XA A 4X3X2X3X3X3X3X3X3X3X3X3X3X3X3X3X3X3X3X",
"h.<   o 2.6.1.1.6.2.h.MX8X2X3X2X2X9X| i W MXmXpXpXpXpXBXk.J.rXa p Z.7X2X3X3X3X3X3X3X2X7XA.p a ].SXpXpXpXpXpXpXpXSXd . d 7X2X2X3X3X3X3X3X2X2X3XW i | SXpXpXpXpXpXpXpXGXx.. * A.7X2X3X3X2X8XpX3X2X3X3X3X2X3X>X%.%.XXfXpXpXpXpXpXpXpXJX+.M B 1X3X2X3X3X3X3X3X3X3X3X3X2X2X7X .M  .JX+XX e.CXpXpXpXJX'.N N U.7X2X3X3X3X2X8XpX3X2X3X3X3X3X3X3X3X3X3X3X3X3X3X3X3X3X3X3X3X3X3X3X3X3X3X3X3X3X3X3X3X3X3X3X3X3X3X3X3X3X3X3X3X3X3X3X3X3X3X3X3X3X3X3X3X3X3X3X3X3X3X3X3X2X3X2X3X3X2X2X2X2X2X2X2X2X3X*X4X3X2X3X3X3X3X3X3X3X3X3X3X3X3X3X3X3X3X3X",
"<     < q.1.1.1.6.2.h.MX8X2X3X3X2X3X#Xs i #.uXpXpXpXpXpXBX'.; i #.7X2X2X3X3X3X3X3X3X3X2X9X| i s ].pXpXpXpXpXpX4X{ . * OX7X2X3X3X3X3X3X3X3X2X7XA.p p @.pXpXpXpXpXpXpXy.* . } aX*X3X3X3X2X8XpX3X2X3X3X3X3X1X0XI.%.%.XXpXpXpXpXpXpXpXi.N N U.7X2X3X3X3X3X3X3X3X3X3X3X3X2X7X'.N M @.cXG.4XpXpXpXpXU.B M [ 7X2X3X3X3X3X2X8XpX3X2X3X3X3X3X3X3X3X3X3X3X3X3X3X3X3X3X3X3X3X3X3X3X3X3X3X3X3X3X3X3X3X3X3X3X3X3X3X2X2X3X3X2X2X3X2X2X3X3X3X3X3X3X3X3X3X3X3X3X3X3X3X3X3X3X2X3X3X2X3X3X2X3X3X3X3X2X2X3X2X2X3X3X3X3X3X3X3X3X3X3X3X3X3X3X3X3X3X3X",
"    < q.1.1.1.1.6.2.h.MX8X2X3X3X3X2X7XA.a i @.aXpXpXpXpX8X; . d #X3X2X3X3X3X3X3X3X3X3X2X3X3XW i s 4XpXpXpXpXMXu.. @ y.7X*X3X3X3X3X3X3X3X3X3X2X9XZ.p i A.aXpXpXpXpX&X# . d 3X2X2X3X3X3X2X8XpX3X2X3X3X3X3X3X2X7X-.%.%.<XaXpXpXpXaX`.M M +.7X2X3X3X3X3X3X3X3X3X3X3X3X3X3X1X7Xx.N B _.dXpXpXpXpX4XB M  .2X3X2X3X3X3X3X2X8XpX3X2X3X3X3X3X3X3X3X3X3X3X3X3X3X3X3X3X3X3X3X3X3X3X3X3X3X3X3X3X3X3X3X3X3X3X3X3X2X3X3X2X2X3X3X*X3X3X2X3X3X3X3X3X3X3X3X3X3X3X3X3X3X3X3X3X3X2X2X2X3X2X3X3X2X2X3X3X2X3X3X2X3X3X3X3X3X3X3X3X3X3X3X3X3X3X3X3X3X3X",
"< < q.1.1.1.1.1.6.2.h.MX8X2X3X3X3X3X2X7XA.W OX3X3X3X3X2X7Xu.d #X7X2X3X3X3X3X3X3X3X3X3X3X2X3X3X#.i.7X2X3X3X3X3X$Xd y.9X*X3X3X3X3X3X3X3X3X3X3X3X2X9XZ.#.*X3X3X3X3X2X7X} { 3X3X2X3X3X3X3X2X8XpX3X2X3X3X3X3X3X2X2X0X-.-.7X2X3X3X3X2X3X .i.7X2X2X3X3X3X3X3X3X3X3X3X3X3X3X3X3X1X0XU.;.>X*X3X3X3X2X7Xi. .2X3X2X3X3X3X3X3X2X8XpX3X2X3X3X3X3X3X3X3X3X3X3X3X3X3X3X3X3X3X3X3X3X3X3X3X3X3X3X3X3X3X3X3X3X3X3X3X2X4X%X+X3X3X&X&X8X&X*X3X2X3X3X3X3X3X3X3X3X3X3X3X3X3X3X3X3X3X2X3X4X2X3X+X3X3X3X3X&X4X*X&X3X2X3X3X3X3X3X3X3X3X3X3X3X3X3X3X3X3X3X",
"7.q.1.1.1.1.1.1.6.2.h.MX8X2X3X3X3X3X3X2X7X7X3X2X2X2X2X3X3X3X7X3X2X3X3X3X3X3X3X3X3X3X3X3X3X2X3X7X3X3X2X2X2X2X2X3X7X7X2X3X3X3X3X3X3X3X3X3X3X3X3X3X2X7X7X3X2X2X2X2X2X3X3X7X3X2X3X3X3X3X3X2X8XpX3X2X3X3X3X3X3X3X2X2X7X3X3X2X2X2X2X2X3X3X7X2X2X3X3X3X3X3X3X3X3X3X3X3X3X3X3X3X3X2X7X7X3X2X2X2X2X3X3X3X7X3X2X3X3X3X3X3X3X2X8XpX3X2X3X3X3X3X3X3X3X3X3X3X3X3X3X3X3X3X3X3X3X3X3X3X3X3X3X3X3X3X3X3X3X3X3X3X*X3XS.j k.8XoXg j S.g j *X3X2X3X3X3X3X3X3X3X3X3X3X3X3X3X3X3X*X2X*X, g.F.g k 2X2Xj g S.k g G.3X2X3X3X3X3X3X3X3X3X3X3X3X3X3X3X3X2X",
"1.1.1.1.1.1.1.1.6.2.h.MX8X2X3X3X3X3X3X3X2X2X2X3X3X3X3X3X3X2X2X2X3X3X3X3X3X3X3X3X3X3X3X3X3X3X2X2X2X3X3X3X3X3X3X2X2X2X3X3X3X3X3X3X3X3X3X3X3X3X3X3X3X2X2X2X3X3X3X3X3X2X2X2X2X3X3X3X3X3X3X2X8XpX3X2X3X3X3X3X3X3X3X2X2X2X2X3X3X3X3X3X2X2X2X2X3X3X3X3X3X3X3X3X3X3X3X3X3X3X3X3X3X3X2X2X2X3X3X3X3X3X2X2X2X2X3X3X3X3X3X3X3X2X8XpX3X2X3X3X3X3X3X3X3X3X2X2X3X3X2X2X3X2X2X3X3X3X3X3X3X3X3X3X3X3X3X3X3X3X3X2X8XmXh h D.pX4.w.g.> M.4.g.pX*X3X3X3X3X3X3X3X3X3X3X3X3X3X3X2X4XpX*Xj e.4X4Xg +Xl.<.F.> e.k.,.pX*X3X3X3X3X3X3X3X3X3X3X3X3X3X3X3X2X",
"1.1.1.1.1.1.1.1.6.2.h.MX8X2X3X3X2X2X2X2X2X2X3X3X2X2X2X2X2X2X2X3X2X2X3X3X3X3X3X3X3X3X3X3X3X3X3X2X2X2X2X3X3X2X2X3X2X2X3X3X3X3X3X3X3X3X3X3X3X3X2X2X3X3X2X2X2X2X2X3X3X3X3X*X2X2X2X2X3X3X3X2X8XpX3X2X3X3X3X2X2X3X2X2X3X2X2X3X2X2X3X2X2X2X3X2X3X2X2X3X3X3X3X3X3X3X3X3X3X3X3X3X3X3X2X2X3X3X2X2X3X2X2X2X2X2X3X3X3X3X3X3X3X2X8XpX3X2X3X3X3X3X3X3X3X2X3X4X2X2X3X3X*X3X3X2X3X3X3X3X3X3X3X3X3X3X3X3X3X2X2X3Xe.f.g g.g pX0.l.j.> %Xe.w.pX*X3X3X3X3X3X3X3X3X3X3X3X3X3X2X4Xj.,.pXr.e.FXg.,.CXk.0.&X> k.D.k pX*X3X3X3X3X3X3X3X3X3X3X3X3X3X3X3X3X",
"1.7.q.6.q.6.1.1.6.2.h.MX8X2X3X2X3X4X4X3X2X3X2X2X3X3X8X4X3X2X3X3X3X3X2X2X2X3X3X3X3X3X3X3X3X3X3X3X2X3X3X2X2X4X3X*X4X3X2X3X3X3X3X3X3X3X3X3X3X2X3X4X3X3X2X3X3X3X4X2X3X3X*X8X3X3X4X2X2X3X3X2X8XpX3X2X3X3X2X2X3X2X3X4X*X3X4X*X3X3X*X3X3X2X3X3X3X3X3X2X2X2X3X3X3X3X3X3X3X3X3X3X3X2X3X3X2X2X3X4X2X3X4X*X3X4X2X3X3X3X3X3X3X2X8XpX3X2X3X3X3X3X3X3X2X4X+XF.3X3X&XoX8X%X+X4X2X3X3X3X3X3X3X3X3X3X3X3X3X3X3X3XD.+Xj g.j g.w.<.,.h 0.j l.8X2X3X3X3X3X3X3X3X3X3X3X3X3X3X2X3XoXS.pX0.e.D.> G.j.g.k 0.h <.,.e.pX*X3X3X3X3X3X3X3X3X3X3X3X3X3X3X3X3X",
"q.<.h 1.3.1.7.1.6.2.h.MX8X2X3X3X&XS.D.&X3X&X3X3X*X+XS.F.&X3X&X2X&X*X8X4X3X2X3X3X3X3X3X3X3X3X3X2X3X2X&X3X3XoX%X8XG.&X3X2X3X3X3X3X3X3X3X3X2X3X&XS.2X3X3X*X*XoXF.4X2X*XpXk.oXoXD.3X3X2X3X2X8XpX3X2X3X2X3X3X&X3X&XG.8X%XoX8X+XoX8XoX+X4X2X&X2X&X&X8X4X3X2X3X3X3X3X3X3X3X3X3X2X4XoX+X3X3X*XF.4X&XG.4X&XG.4X2X3X3X3X3X3X2X8XpX3X2X3X3X3X3X3X2X4XF.j g.3X%Xh g j.h g G.3X2X3X3X3X3X3X3X3X3X3X3X3X3X3X2X4X8XG.j M.f.+X4.0.3X,.e.4X2X3X3X3X3X3X3X3X3X3X3X3X3X3X3X3X2X3X4X4XM.D.g.h 4.w.F.g.k 3Xw.<.2X3X2X3X3X3X3X3X3X3X3X3X3X3X3X3X3X3X3X",
"1., , > > > <.7.6.2.h.MX8X2X2X3XG.,., 4.k j MXF.> k.,.> g.pXh pXg.0.oXF.*X3X2X3X3X3X3X3X3X3X3X*XpX7 4.BXj.7 <.g.7 k 3X3X2X3X3X3X3X3X3X2X3X%Xk e.*X2XpX, w.e.g g.8X*X%Xh g.7 k ,.4X2X3X2X8XpX3X2X3X2X8X,., 4Xh g k.h g k.h h k.g h oX8Xh 4Xj.4.oXF.*X3X2X3X3X3X3X3X3X3X2X4XF.g h oX4X<.7 g.<.7 k.k 7 j.4X2X3X3X3X3X2X8XpX3X2X3X3X3X3X3X*XpX<.7 k.pXf.4.D.> g.g.4.pX*X3X3X3X3X3X3X3X3X3X3X3X3X3X3X2X2X3XpX4X4X3XpXpX2XpXpX2X3X3X3X3X3X3X3X3X3X3X3X3X3X3X3X3X3X2X2X2X4X3X8XpX8XpX3X4XpX3X8XpX3X2X3X3X3X3X3X3X3X3X3X3X3X3X3X3X3X3X3X",
"> X , > h > <.7.6.2.h.MX8X2X3X2X3XBX<.S.g.k MX0., *XpXj +X4X7 M.,.,.e.> +X3X2X3X3X3X3X3X3X3X*X8XS., w.BXk S.e.> +X<.M.8X2X3X3X3X3X3X3X*XpXr., w.&X8Xj., g.4Xk e.MXe.h , g.j g.j 8X2X3X2X8XpX3X2X3X3X3Xj.j j.,.oX> w.D.> g.l.> j.w.e.MX7 j.4.<.w.> G.4X2X3X3X3X3X3X3X3X*XpX4.g.w.w.%Xj &X> <.%X> 0.D.k pX*X3X3X3X3X2X8XpX3X2X3X3X3X3X3X2X8Xg g.h %Xk.w.oX> M.j.,.pX*X3X3X3X3X3X3X3X3X3X3X3X3X3X3X3X3X2X*X*X4X3X4X4X2X*X*X3X3X3X3X3X3X3X3X3X3X3X3X3X3X3X3X3X3X3X3X3X2X2X*X*X4X2X8X3X&X2X*X*X2X3X3X3X3X3X3X3X3X3X3X3X3X3X3X3X3X3X3X",
"7 3., > > > <.7.1.2.h.MX8X2X3X2X4XF.g pXS.,.g.j g F.k.k pX3X, ,., r.S.e.pX*X3X3X3X3X3X3X3X2X3X%Xg <.<.CXk oXe.> 3X<.j.8X2X3X3X3X3X3X3X*XpX<.e.,.g.2Xg k 0.oX7 r.pXg 3X<.g.7 k <.4X2X3X2X8XpX3X2X3X2X3X&Xk j.0.&X> g.oX> l.S.> F.g.4.BX, <.7 e.F.0.pX*X3X3X3X3X3X3X3X3X*XpX4.M.f.w.&Xk 4X> 4.3X> e.oXj pX*X3X3X3X3X2X8XpX3X2X3X3X3X3X3X*XpX,.4.<.0.g.j ,.k <.k g.pX*X3X3X3X3X3X3X3X3X3X3X3X3X3X3X3X3X2X2XpXw.%XS.M.3X3X2X3X3X3X3X3X3X3X3X3X3X3X3X3X3X3X3X3X3X3X3X3X3X2X3X3Xw.*Xj.F.4X2X3X3X3X3X3X3X3X3X3X3X3X3X3X3X3X3X3X3X3X3X3X",
"> > > > h > h q.1.2.h.MX8X2X3X*XpX<.w.BXj.k M.<.X k.h M.4X2X7 mXg.k , g.*X3X2X3X3X3X3X3X3X2X3XoX,., , k.e.k k k ,.h oX3X2X3X3X3X3X3X3X*XpXg.<.,.,.r.4.> 7 oX4.k BXk e., r.g l.7 2X3X3X2X8XpX3X2X3X2X3X+Xg +Xh ,.k k <.k <.<.k <.j k.pX7 pXj.j , f.*X3X2X3X3X3X3X3X3X3X2X8Xk.j k 4.j.k <.k k <.k k k 0.pX*X3X3X3X3X2X8XpX3X2X3X3X3X3X3X2X3X&X,.j.j.oXg.0.4Xw.e.3X2X3X3X3X3X3X3X3X3X3X3X3X3X3X3X3X3X2X3X*XD.g f.7 <.4.8X*X3X3X3X3X3X3X3X3X3X3X3X3X3X3X3X3X3X3X3X3X3X2X3X&Xg.h e.g j g.8X2X3X3X3X3X3X3X3X3X3X3X3X3X3X3X3X3X3X3X3X3X",
"7 , <.h > g 7.1.6.2.h.MX8X2X3X2X3Xk.&X4X+Xl.pXmXS.&Xk.3X2X3Xk.*XG.k.0.4.%X3X2X3X3X3X3X3X3X3X2X3XmX%XF.k.&X0.k.3X4.j.4X2X3X3X3X3X3X3X3X2X2X3Xe.f.D.M.CXoXF.e.4.&X3X+X0.w.%X0.<.F.4X2X3X2X8XpX3X2X3X3X3X&Xj.8Xk.0.4Xg.e.4Xr.e.8Xw.w.4X3Xk.&XoXk.0.4.+X3X2X3X3X3X3X3X3X3X2X2X3Xe.g.F.S.F.,.*XM.,.3Xj.4.2X3X2X3X3X3X3X2X8XpX3X2X3X3X3X3X3X3X2X3XpX4X8X3X8XpX2XpXpX2X3X3X3X3X3X3X3X3X3X3X3X3X3X3X3X3X3X*X8X,.h , g.j e.,.pX*X3X3X3X3X3X3X3X3X3X3X3X3X3X3X3X3X3X3X3X3X2X3X3Xh h h e.4.<.f.8X*X3X3X3X3X3X3X3X3X3X3X3X3X3X3X3X3X3X3X3X3X",
"q.q.7.q.d.q.1.1.6.2.h.MX8X2X3X3X2X8X3X2X3X4X*X*X4X3X8X2X3X2X8X2X3X8XpXpX3X2X3X3X3X3X3X3X3X3X3X2X*X3X3X8X3XpX8X2XpX8X2X3X3X3X3X3X3X3X3X3X3X2XpXpX4X4X&X3X4XpXpX3X2X3XpXpX3XpXpX4X2X3X3X2X8XpX3X2X3X3X2X3X8X2X8XpX2X8XpX2XpXpX2XpXpX2X2X8X3X3X8XpXpX3X2X3X3X3X3X3X3X3X3X3X3X2XpX8X4X4X4XpX3X4XpX2X8XpX3X2X3X3X3X3X3X2X8XpX3X2X3X3X3X3X3X3X3X2X*X2X2X2X*X*X3X*X*X3X3X3X3X3X3X3X3X3X3X3X3X3X3X3X3X3X2X3X*Xg pXk f.7 <.,.4X2X3X3X3X3X3X3X3X3X3X3X3X3X3X3X3X3X3X3X3X3X2X4XS.j pXj e.g j f.8X*X3X3X3X3X3X3X3X3X3X3X3X3X3X3X3X3X3X3X3X3X",
"1.1.1.1.1.1.1.1.6.2.h.MX8X2X3X3X3X*X2X3X2X2X3X3X2X2X*X2X3X3X*X3X2X*X*X*X2X3X3X3X3X3X3X3X3X3X3X3X3X2X2X2X2X*X*X2X*X2X3X3X3X3X3X3X3X3X3X3X3X3X*X*X2X2X3X2X2X*X*X2X3X2X*X*X2X*X*X2X3X3X3X2X8XpX3X2X3X3X3X2X*X3X*X*X3X*X*X3X*X*X3X*X*X3X3X*X3X2X*X*X*X2X3X3X3X3X3X3X3X3X3X3X3X3X*X*X2X2X2X*X2X2X*X2X2X*X2X3X3X3X3X3X3X2X8XpX3X2X3X3X3X3X3X3X3X3X3X3X3X3X3X3X3X3X3X3X3X3X3X3X3X3X3X3X3X3X3X3X3X3X3X3X2X2X4Xj 4., r.h f.g 4X2X3X3X3X3X3X3X3X3X3X3X3X3X3X3X3X3X3X3X3X3X2X3X&Xg ,.g 0.,.,.,.pX*X3X3X3X3X3X3X3X3X3X3X3X3X3X3X3X3X3X3X3X3X",
"6.6.6.6.6.6.6.6.7.1.h.MX8X2X3X3X3X3X3X3X3X3X3X3X3X3X3X3X3X3X3X3X3X3X3X3X3X3X3X3X3X3X3X3X3X3X3X3X3X3X3X3X3X3X3X3X3X3X3X3X3X3X3X3X3X3X3X3X3X3X3X3X3X3X3X3X3X3X3X3X3X3X3X3X3X3X3X3X3X3X3X2X8XpX3X2X3X3X3X3X3X3X3X3X3X3X3X3X3X3X3X3X3X3X3X3X3X3X3X3X3X3X3X3X3X3X3X3X3X3X3X3X3X3X3X3X3X3X3X3X3X3X3X3X3X3X3X3X3X3X3X3X3X2X8XpX4X2X3X3X3X3X3X3X3X3X3X3X3X3X3X3X3X3X3X3X3X3X3X3X3X3X3X3X3X3X3X3X3X3X3X3X3X2X3XoXe.j.%Xe.0.+X3X2X3X3X3X3X3X3X3X3X3X3X3X3X3X3X3X3X3X3X3X3X3X2X4XS.e.S.oX,.w.2X3X3X3X3X3X3X3X3X3X3X3X3X3X3X3X3X3X3X3X3X3X3X",
"1.1.1.1.1.1.1.1.1.<.f.MX4X*X2X2X2X2X2X2X2X2X2X2X2X2X2X2X2X2X2X2X2X2X2X2X2X2X2X2X2X2X2X2X2X2X2X2X2X2X2X2X2X2X2X2X2X2X2X2X2X2X2X2X2X2X2X2X2X2X2X2X2X2X2X2X2X2X2X2X2X2X2X2X2X2X2X2X2X2X2X*X8XpX3X2X2X2X2X2X2X2X2X2X2X2X2X2X2X2X2X2X2X2X2X2X2X2X2X2X2X2X2X2X2X2X2X2X2X2X2X2X2X2X2X2X2X2X2X2X2X2X2X2X2X2X2X2X2X2X2X2X2X*X8XpX3X*X2X2X2X2X2X2X2X2X2X2X2X2X2X2X2X2X2X2X2X2X2X2X2X2X2X2X2X2X2X2X2X2X2X2X2X2X2X3XpX8X3XpXpX3X2X2X2X2X2X2X2X2X2X2X2X2X2X2X2X2X2X2X2X2X2X2X2X2X*X4XpX4X3XpXpX2X2X2X2X2X2X2X2X2X2X2X2X2X2X2X2X2X2X2X2X2X2X2X",
"%X%X%X%X%X%X%X%X%X%X*XpXpXpXpXpXpXpXpXpXpXpXpXpXpXpXpXpXpXpXpXpXpXpXpXpXpXpXpXpXpXpXpXpXpXpXpXpXpXpXpXpXpXpXpXpXpXpXpXpXpXpXpXpXpXpXpXpXpXpXpXpXpXpXpXpXpXpXpXpXpXpXpXpXpXpXpXpXpXpXpXpXpXpXpXpXpXpXpXpXpXpXpXpXpXpXpXpXpXpXpXpXpXpXpXpXpXpXpXpXpXpXpXpXpXpXpXpXpXpXpXpXpXpXpXpXpXpXpXpXpXpXpXpXpXpXpXpXpXpXpXpXpXpXpXpXpXpXpXpXpXpXpXpXpXpXpXpXpXpXpXpXpXpXpXpXpXpXpXpXpXpXpXpXpXpXpXpXpXpXpXpXpXpXpX8X4X8X8X4X4X8XpXpXpXpXpXpXpXpXpXpXpXpXpXpXpXpXpXpXpXpXpXpXpXpXpX8X4X8X8X4X4XpXpXpXpXpXpXpXpXpXpXpXpXpXpXpXpXpXpXpXpXpXpXpX",
"MXMXMXMXMXMXMXMXMXMXmXpXpXpXpXpXpXpXpXpXpXpXpXpXpXpXpXpXpXpXpXpXpXpXpXpXpXpXpXpXpXpXpXpXpXpXpXpXpXpXpXpXpXpXpXpXpXpXpXpXpXpXpXpXpXpXpXpXpXpXpXpXpXpXpXpXpXpXpXpXpXpXpXpXpXpXpXpXpXpXpXpXpXpXpXpXpXpXpXpXpXpXpXpXpXpXpXpXpXpXpXpXpXpXpXpXpXpXpXpXpXpXpXpXpXpXpXpXpXpXpXpXpXpXpXpXpXpXpXpXpXpXpXpXpXpXpXpXpXpXpXpXpXpXpXpXpXpXpXpXpXpXpXpXpXpXpXpXpXpXpXpXpXpXpXpXpXpXpXpXpXpXpXpXpXpXpXpXpXpXpXpXpXpXpXpXpXpXpXpXpXpXpXpXpXpXpXpXpXpXpXpXpXpXpXpXpXpXpXpXpXpXpXpXpXpXpXpXpXpXpXpXpXpXpXpXpXpXpXpXpXpXpXpXpXpXpXpXpXpXpXpXpXpXpXpX",
"3X3X3X3X3X3X3X3X3X3X3X3X3X3X3X3X3X3X3X3X3X3X3X3X3X3X3X3X3X3X3X3X3X3X3X3X3X3X3X3X3X3X3X3X3X3X3X3X3X3X3X3X3X3X3X3X3X3X3X3X3X3X3X3X3X3X3X3X3X3X3X3X3X3X3X3X3X3X3X3X3X3X3X3X3X3X3X3X3X3X3X3X3X3X3X3X3X3X3X3X3X3X3X3X3X3X3X3X3X3X3X3X3X3X3X3X3X3X3X3X3X3X3X3X3X3X3X3X3X3X3X3X3X3X3X3X3X3X3X3X3X3X3X3X3X3X3X3X3X3X3X3X3X3X3X3X3X3X3X3X3X3X3X3X3X3X3X3X3X3X3X3X3X3X3X3X3X3X3X3X3X3X3X3X3X3X3X3X3X3X3X3X3X3X3X3X3X3X3X3X3X3X3X3X3X3X3X3X3X3X3X3X3X3X3X3X3X3X3X3X3X3X3X3X3X3X3X3X3X3X3X3X3X3X3X3X3X3X3X3X3X3X3X3X3X3X3X3X3X3X3X3X3X3X3X3X",
"2X2X2X2X2X2X2X2X2X2X2X2X2X2X2X2X2X2X2X2X2X2X2X2X2X2X2X2X2X2X2X2X2X2X2X2X2X2X2X2X2X2X2X2X2X2X2X2X2X2X2X2X2X2X2X2X2X2X2X2X2X2X2X2X2X2X2X2X2X2X2X2X2X2X2X2X2X2X2X2X2X2X2X2X2X2X2X2X2X2X2X2X2X2X2X2X2X2X2X2X2X2X2X2X2X2X2X2X2X2X2X2X2X2X2X2X2X2X2X2X2X2X2X2X2X2X2X2X2X2X2X2X2X2X2X2X2X2X2X2X2X2X2X2X2X2X2X2X2X2X2X2X2X2X2X2X2X2X2X2X2X2X2X2X2X2X2X2X2X2X2X2X2X2X2X2X2X2X2X2X2X2X2X2X2X2X2X2X2X2X2X2X2X2X2X2X2X2X2X2X2X2X2X2X2X2X2X2X2X2X2X2X2X2X2X2X2X2X2X2X2X2X2X2X2X2X2X2X2X2X2X2X2X2X2X2X2X2X2X2X2X2X2X2X2X2X2X2X2X2X2X2X2X2X2X2X",
"3X3X3X3X3X3X3X3X3X3X3X3X3X3X3X3X3X3X3X3X3X3X3X3X3X3X3X3X3X3X3X3X3X3X3X3X3X3X3X3X3X3X3X3X3X3X3X3X3X3X3X3X3X3X3X3X3X3X3X3X3X3X3X3X3X3X3X3X3X3X3X3X3X3X3X3X3X3X3X3X3X3X3X3X3X3X3X3X3X3X3X3X3X3X3X3X3X3X3X3X3X3X3X3X3X3X3X3X3X3X3X3X3X3X3X3X3X3X3X3X3X3X3X3X3X3X3X3X3X3X3X3X3X3X3X3X3X3X3X3X3X3X3X3X3X3X3X3X3X3X3X3X3X3X3X3X3X3X3X3X3X3X3X3X3X3X3X3X3X3X3X3X3X3X3X3X3X3X3X3X3X3X3X3X3X3X3X3X3X3X3X3X3X3X3X3X3X3X3X3X3X3X3X3X3X3X3X3X3X3X3X3X3X3X3X3X3X3X3X3X3X3X3X3X3X3X3X3X3X3X3X3X3X3X3X3X3X3X3X3X3X3X3X3X3X3X3X3X3X3X3X3X3X3X3X3X",
"3X3X3X3X3X3X3X3X3X3X3X3X3X3X3X3X3X3X3X3X3X3X3X3X3X3X3X3X3X3X3X3X3X3X3X3X3X3X3X3X3X3X3X3X3X3X3X3X3X3X3X3X3X3X3X3X3X3X3X3X3X3X3X3X3X3X3X3X3X3X3X3X3X3X3X3X3X3X3X3X3X3X3X3X3X3X3X3X3X3X3X3X3X3X3X3X3X3X3X3X3X3X3X3X3X3X3X3X3X3X3X3X3X3X3X3X3X3X3X3X3X3X3X3X3X3X3X3X3X3X3X3X3X3X3X3X3X3X3X3X3X3X3X3X3X3X3X3X3X3X3X3X3X3X3X3X3X3X3X3X3X3X3X3X3X3X3X3X3X3X3X3X3X3X3X3X3X3X3X3X3X3X3X3X3X3X3X3X3X3X3X3X3X3X3X3X3X3X3X3X3X3X3X3X3X3X3X3X3X3X3X3X3X3X3X3X3X3X3X3X3X3X3X3X3X3X3X3X3X3X3X3X3X3X3X3X3X3X3X3X3X3X3X3X3X3X3X3X3X3X3X3X3X3X3X3X",
"3X3X3X3X3X3X3X3X3X3X3X3X3X3X3X3X3X3X3X3X3X3X3X3X3X3X3X3X3X3X3X3X3X3X3X3X3X3X3X3X3X3X3X3X3X3X3X3X3X3X3X3X3X3X3X3X3X3X3X3X3X3X3X3X3X3X3X3X3X3X3X3X3X3X3X3X3X3X3X3X3X3X3X3X3X3X3X3X3X3X3X3X3X3X3X3X3X3X3X3X3X3X3X3X3X3X3X3X3X3X3X3X3X3X3X3X3X3X3X3X3X3X3X3X3X3X3X3X3X3X3X3X3X3X3X3X3X3X3X3X3X3X3X3X3X3X3X3X3X3X3X3X3X3X3X3X3X3X3X3X3X3X3X3X3X3X3X3X3X3X3X3X3X3X3X3X3X3X3X3X3X3X3X3X3X3X3X3X3X3X3X3X3X3X3X3X3X3X3X3X3X3X3X3X3X3X3X3X3X3X3X3X3X3X3X3X3X3X3X3X3X3X3X3X3X3X3X3X3X3X3X3X3X3X3X3X3X3X3X3X3X3X3X3X3X3X3X3X3X3X3X3X3X3X3X3X",
"3X3X3X3X3X3X3X3X3X3X3X3X3X3X3X3X3X3X3X3X3X3X3X3X3X3X3X3X3X3X3X3X3X3X3X3X3X3X3X3X3X3X3X3X3X3X3X3X3X3X3X3X3X3X3X3X3X3X3X3X3X3X3X3X3X3X3X3X3X3X3X3X3X3X3X3X3X3X3X3X3X3X3X3X3X3X3X3X3X3X3X3X3X3X3X3X3X3X3X3X3X3X3X3X3X3X3X3X3X3X3X3X3X3X3X3X3X3X3X3X3X3X3X3X3X3X3X3X3X3X3X3X3X3X3X3X3X3X3X3X3X3X3X3X3X3X3X3X3X3X3X3X3X3X3X3X3X3X3X3X3X3X3X3X3X3X3X3X3X3X3X3X3X3X3X3X3X3X3X3X3X3X3X3X3X3X3X3X3X3X3X3X3X3X3X3X3X3X3X3X3X3X3X3X3X3X3X3X3X3X3X3X3X3X3X3X3X3X3X3X3X3X3X3X3X3X3X3X3X3X3X3X3X3X3X3X3X3X3X3X3X3X3X3X3X3X3X3X3X3X3X3X3X3X3X3X",
"3X3X3X3X3X3X3X3X3X3X3X3X3X3X3X3X3X3X3X3X3X3X3X3X3X3X3X3X3X3X3X3X3X3X3X3X3X3X3X3X3X3X3X3X3X3X3X3X3X3X3X3X3X3X3X3X3X3X3X3X3X3X3X3X3X3X3X3X3X3X3X3X3X3X3X3X3X3X3X3X3X3X3X3X3X3X3X3X3X3X3X3X3X3X3X3X3X3X3X3X3X3X3X3X3X3X3X3X3X3X3X3X3X3X3X3X3X3X3X3X3X3X3X3X3X3X3X3X3X3X3X3X3X3X3X3X3X3X3X3X3X3X3X3X3X3X3X3X3X3X3X3X3X3X3X3X3X3X3X3X3X3X3X3X3X3X3X3X3X3X3X3X3X3X3X3X3X3X3X3X3X3X3X3X3X3X3X3X3X3X3X3X3X3X3X3X3X3X3X3X3X3X3X3X3X3X3X3X3X3X3X3X3X3X3X3X3X3X3X3X3X3X3X3X3X3X3X3X3X3X3X3X3X3X3X3X3X3X3X3X3X3X3X3X3X3X3X3X3X3X3X3X3X3X3X3X",
"3X3X3X3X3X3X3X3X3X3X3X3X3X3X3X3X3X3X3X3X3X3X3X3X3X3X3X3X3X3X3X3X3X3X3X3X3X3X3X3X3X3X3X3X3X3X3X3X3X3X3X3X3X3X3X3X3X3X3X3X3X3X3X3X3X3X3X3X3X3X3X3X3X3X3X3X3X3X3X3X3X3X3X3X3X3X3X3X3X3X3X3X3X3X3X3X3X3X3X3X3X3X3X3X3X3X3X3X3X3X3X3X3X3X3X3X3X3X3X3X3X3X3X3X3X3X3X3X3X3X3X3X3X3X3X3X3X3X3X3X3X3X3X3X3X3X3X3X3X3X3X3X3X3X3X3X3X3X3X3X3X3X3X3X3X3X3X3X3X3X3X3X3X3X3X3X3X3X3X3X3X3X3X3X3X3X3X3X3X3X3X3X3X3X3X3X3X3X3X3X3X3X3X3X3X3X3X3X3X3X3X3X3X3X3X3X3X3X3X3X3X3X3X3X3X3X3X3X3X3X3X3X3X3X3X3X3X3X3X3X3X3X3X3X3X3X3X3X3X3X3X3X3X3X3X3X",
"3X3X3X3X3X3X3X3X3X3X3X3X3X3X3X3X3X3X3X3X3X3X3X3X3X3X3X3X3X3X3X3X3X3X3X3X3X3X3X3X3X3X3X3X3X3X3X3X3X3X3X3X3X3X3X3X3X3X3X3X3X3X3X3X3X3X3X3X3X3X3X3X3X3X3X3X3X3X3X3X3X3X3X3X3X3X3X3X3X3X3X3X3X3X3X3X3X3X3X3X3X3X3X3X3X3X3X3X3X3X3X3X3X3X3X3X3X3X3X3X3X3X3X3X3X3X3X3X3X3X3X3X3X3X3X3X3X3X3X3X3X3X3X3X3X3X3X3X3X3X3X3X3X3X3X3X3X3X3X3X3X3X3X3X3X3X3X3X3X3X3X3X3X3X3X3X3X3X3X3X3X3X3X3X3X3X3X3X3X3X3X3X3X3X3X3X3X3X3X3X3X3X3X3X3X3X3X3X3X3X3X3X3X3X3X3X3X3X3X3X3X3X3X3X3X3X3X3X3X3X3X3X3X3X3X3X3X3X3X3X3X3X3X3X3X3X3X3X3X3X3X3X3X3X3X3X",
"3X3X3X3X3X3X3X3X3X3X3X3X3X3X3X3X3X3X3X3X3X3X3X3X3X3X3X3X3X3X3X3X3X3X3X3X3X3X3X3X3X3X3X3X3X3X3X3X3X3X3X3X3X3X3X3X3X3X3X3X3X3X3X3X3X3X3X3X3X3X3X3X3X3X3X3X3X3X3X3X3X3X3X3X3X3X3X3X3X3X3X3X3X3X3X3X3X3X3X3X3X3X3X3X3X3X3X3X3X3X3X3X3X3X3X3X3X3X3X3X3X3X3X3X3X3X3X3X3X3X3X3X3X3X3X3X3X3X3X3X3X3X3X3X3X3X3X3X3X3X3X3X3X3X3X3X3X3X3X3X3X3X3X3X3X3X3X3X3X3X3X3X3X3X3X3X3X3X3X3X3X3X3X3X3X3X3X3X3X3X3X3X3X3X3X3X3X3X3X3X3X3X3X3X3X3X3X3X3X3X3X3X3X3X3X3X3X3X3X3X3X3X3X3X3X3X3X3X3X3X3X3X3X3X3X3X3X3X3X3X3X3X3X3X3X3X3X3X3X3X3X3X3X3X3X3X"
};
