/* XPM */
static char *deesser_stereo[] = {
/* columns rows colors chars-per-pixel */
"256 256 256 2 ",
"   c #2B2C2A",
".  c #595801",
"X  c #4C4A10",
"o  c #646400",
"O  c #53502E",
"+  c #535030",
"@  c #6C6635",
"#  c #34364D",
"$  c #710D75",
"%  c #195665",
"&  c #535250",
"*  c #615C45",
"=  c #726D58",
"-  c #706B53",
";  c #494C62",
":  c #565769",
">  c #7C7865",
",  c #6E6E76",
"<  c #556C74",
"1  c #58371F",
"2  c #A26F27",
"3  c #D9701A",
"4  c #DA7726",
"5  c #D37633",
"6  c #DF6B25",
"7  c #BF3670",
"8  c #94794A",
"9  c #827D69",
"0  c #887974",
"q  c #A9606B",
"w  c #D1726D",
"e  c #D16260",
"r  c #C03D6A",
"t  c #6C836A",
"y  c #A49C25",
"u  c #D8833A",
"i  c #88846B",
"p  c #8B8775",
"a  c #928D78",
"s  c #97937B",
"d  c #918F6B",
"f  c #AB8779",
"g  c #9C985F",
"h  c #D68A4F",
"j  c #D19373",
"k  c #E29A69",
"l  c #11549C",
"z  c #054B8C",
"x  c #185AA9",
"c  c #1E5FB1",
"v  c #2262AD",
"b  c #7B7B83",
"n  c #686BA5",
"m  c #3373DC",
"M  c #2D6CC7",
"N  c #3872EE",
"B  c #1374E9",
"V  c #5967D8",
"C  c #7071D2",
"Z  c #4974F8",
"A  c #5A7CF6",
"S  c #5477F4",
"D  c #516EEC",
"F  c #6777E8",
"G  c #5E5BDC",
"H  c #6E2086",
"J  c #8C6DB1",
"K  c #9F6499",
"L  c #C8688D",
"P  c #C136D2",
"I  c #8E71CE",
"U  c #C346D3",
"Y  c #C95BD6",
"T  c #C657D4",
"R  c #C249CB",
"E  c #CA6CD4",
"W  c #9432A3",
"Q  c #009CAC",
"!  c #138EAB",
"~  c #2791A8",
"^  c #2891A8",
"/  c #2590A7",
"(  c #3A98AC",
")  c #3496AB",
"_  c #228FA6",
"`  c #0EA6B4",
"'  c #2EB0BB",
"]  c #218C9B",
"[  c #6D8C90",
"{  c #4A92AC",
"}  c #7AB2BB",
"|  c #6DABB7",
" . c #5695A2",
".. c #0285ED",
"X. c #1592E9",
"o. c #2F93ED",
"O. c #229FD6",
"+. c #7887D8",
"@. c #70B4D5",
"#. c #5784F8",
"$. c #708CEC",
"%. c #50AAE5",
"&. c #72B2E9",
"*. c #53B4CC",
"=. c #6FC6CB",
"-. c #6BC2DD",
";. c #898887",
":. c #968C87",
">. c #959389",
",. c #9A9786",
"<. c #9D8E92",
"1. c #9E9C95",
"2. c #9C9494",
"3. c #8B9298",
"4. c #A29C8A",
"5. c #A09E97",
"6. c #A29E99",
"7. c #A59899",
"8. c #B39190",
"9. c #A6A28D",
"0. c #A4A39C",
"q. c #ABA797",
"w. c #B2AB9C",
"e. c #B2B299",
"r. c #9492AB",
"t. c #B193AD",
"y. c #92ABB2",
"u. c #ACAAA3",
"i. c #A8A6A2",
"p. c #B2A4A4",
"a. c #B6A9A9",
"s. c #BAACAD",
"d. c #B5AAA4",
"f. c #B8B5A8",
"g. c #BCAEB1",
"h. c #B7A8B6",
"j. c #A9B3BE",
"k. c #BEB1B3",
"l. c #BCBBB5",
"z. c #A6ACB6",
"x. c #9EA390",
"c. c #C49D94",
"v. c #CF918C",
"b. c #C7A49A",
"n. c #D3AB90",
"m. c #C896AF",
"M. c #C8AAA7",
"N. c #C4B3AD",
"B. c #C7AAB4",
"V. c #C1B4B5",
"C. c #C4B6B9",
"Z. c #C6B9BC",
"A. c #CABBBE",
"S. c #C7B9B3",
"D. c #D3B7B8",
"F. c #D5B0AC",
"G. c #E6BAB5",
"H. c #E9A691",
"J. c #B1C5B0",
"K. c #C4C2B6",
"L. c #C6C4B9",
"P. c #C8C6BB",
"I. c #CBC9BE",
"U. c #CBC9B6",
"Y. c #D3C9B6",
"T. c #E9C6B7",
"R. c #C6C294",
"E. c #8487D9",
"W. c #8F91D2",
"Q. c #93B0D3",
"!. c #BBBDCB",
"~. c #B7B4C8",
"^. c #AFB0CF",
"/. c #8996E7",
"(. c #92AAEA",
"). c #A8B9E6",
"_. c #AC9ACB",
"`. c #CD92D4",
"'. c #CCA9C9",
"]. c #CBBEC2",
"[. c #C7B8C5",
"{. c #D1B4D0",
"}. c #DAAAE1",
"|. c #D1B4E3",
" X c #E2B9E3",
".X c #D29AE0",
"XX c #92CBD1",
"oX c #A3C2C5",
"OX c #BBC6CB",
"+X c #B9C4D6",
"@X c #B1D4DA",
"#X c #90C7EB",
"$X c #AEC2E9",
"%X c #B5CFE8",
"&X c #B9E0E0",
"*X c #CFC2C6",
"=X c #CECCC3",
"-X c #CFC4CA",
";X c #C5C7C9",
":X c #D0C3C7",
">X c #D1CDC6",
",X c #D2C5C9",
"<X c #D4CACC",
"1X c #DBCAC9",
"2X c #D3D1C6",
"3X c #D5D3CB",
"4X c #D8D6CF",
"5X c #DDDBCA",
"6X c #D9D7C5",
"7X c #C5CCD6",
"8X c #CACED5",
"9X c #C7C7D6",
"0X c #D8CAD4",
"qX c #CED1D4",
"wX c #C8D6D9",
"eX c #D4D5D2",
"rX c #D9D7D0",
"tX c #DBD9D2",
"yX c #DEDDDA",
"uX c #D7D9D9",
"iX c #CAD2CB",
"pX c #E4DACC",
"aX c #E4DDD4",
"sX c #E0DFD9",
"dX c #EBDBD8",
"fX c #EBD3CE",
"gX c #DCE1D6",
"hX c #C2E1DE",
"jX c #E4E3DD",
"kX c #E7E4D8",
"lX c #F4E4DA",
"zX c #E4E2CD",
"xX c #D5DAE7",
"cX c #CFCEE7",
"vX c #E8D5E5",
"bX c #E9D8E6",
"nX c #E6C9E5",
"mX c #D7E5EA",
"MX c #D8E6EB",
"NX c #DAE9ED",
"BX c #D7E5E6",
"VX c #D5EAED",
"CX c #E7E6E0",
"ZX c #E8E6E1",
"AX c #EBEAE4",
"SX c #EFEEE9",
"DX c #E5EAE7",
"FX c #F0EFEA",
"GX c #F2EAE3",
"HX c #F2F1EC",
"JX c #FCF3EC",
"KX c #F7F6E8",
"LX c #F5F4F1",
"PX c #FBFBF5",
"IX c #FBFAF6",
"UX c #E8F1F0",
/* pixels */
"tXtXtXtXtXtXtXtXtXtXtXtXtXtXtXtXtXtXtXtXtXtXtXtXtXtXtXtXtXtXtXtXtXtXtXtXtXtXtXtXtXtXtXtXtXtXtXtXtXtXtXtXtXtXtXtXtXtXtXtXtXtXtXtXtXtXtXtXtXtXtXtXtXtXtXtXtXtXtXtXtXtXtXtXtXtXtXtXtXtXtXtXtXtXtXtXtXtXtXtXtXtXtXtXtXtXtXtXtXtXtXtXtXtXtXtXtXtXtXtXtXtXtXtXtXtXtXtXtXtXtXtXtXtXtXtXtXtXtXtXtXtXtXtXtXtXtXtXtXtXtXtXtXtXtXtXtXtXtXtXtXtXtXtXtXtXtXtXtXtXtXtXtXtXtXtXtXtXtXtXtXtXtXtXtXtXtXtXtXtXtXtXtXtXtXtXtXtXtXtXtXtXtXtXtXtXtXtXtXtXtXtXtXtXtXtXtXtXtXtXtXtXtXtXtXtXtXtXtXtXtXtXtXtXtXtXtXtXtXtXtXtXtXtXtXtXtXtXtXtXtXtXtXtXtXtX",
"tXtXtXtXtXtXtXtXtXtXtXtXtXtXtXtXtXtXtXtXtXtXtXtXtXtXtXtXtXtXtXtXtXtXtXtXtXtXtXtXtXtXtXtXtXtXtXtXtXtXtXtXtXtXtXtXtXtXtXtXtXtXtXtXtXtXtXtXtXtXtXtXtXtXtXtXtXtXtXtXtXtXtXtXtXtXtXtXtXtXtXtXtXtXtXtXtXtXtXtXtXtXtXtXtXtXtXtXtXtXtXtXtXtXtXtXtXtXtXtXtXtXtXtXtXtXtXtXtXtXtXtXtXtXtXtXtXtXtXtXtXtXtXtXtXtXtXtXtXtXtXtXtXtXtXtXtXtXtXtXtXtXtXtXtXtXtXtXtXtXtXtXtXtXtXtXtXtXtXtXtXtXtXtXtXtXtXtXtXtXtXtXtXtXtXtXtXtXtXtXtXtXtXtXtXtXtXtXtXtXtXtXtXtXtXtXtXtXtXtXtXtXtXtXtXtXtXtXtXtXtXtXtXtXtXtXtXtXtXtXtXtXtXtXtXtXtXtXtXtXtXtXtXtXtXtX",
"tXtXtXtXtXtXtXtXtXtXtXtXtXtXtXtXtXtXtXtXtXtXtXtXtXtXtXtXtXtXtXtXtXtXtXtXtXtXtXtXtXtXtXtXtXtXtXtXtXtXtXtXtXtXtXtXtXtXtXtXtXtXtXtXtXtXtXtXtXtXtXtXtXtXtXtXtXtXtXtXtXtXtXtXtXtXtXtXtXtXtXtXtXtXtXtXtXtXtXtXtXtXtXtXtXtXtXtXtXtXtXtXtXtXtXtXtXtXtXtXtXtXtXtXtXtXtXtXtXtXtXtXtXtXtXtXtXtXtXtXtXtXtXtXtXtXtXtXtXtXtXtXtXtXtXtXtXtXtXtXtXtXtXtXtXtXtXtXtXtXtXtXtXtXtXtXtXtXtXtXtXtXtXtXtXtXtXtXtXtXtXtXtXtXtXtXtXtXtXtXtXtXtXtXtXtXtXtXtXtXtXtXtXtXtXtXtXtXtXtXtXtXtXtXtXtXtXtXtXtXtXtXtXtXtXtXtXtXtXtXtXtXtXtXtXtXtXtXtXtXtXtXtXtXtXtX",
"tXtXtXtXtXtXtXtXtXtXtXtXtXtXtXtXtXtXtXtXtXtXtXtXtXtXtXtXtXtXtXtXtXtXtXtXtXtXtXtXtXtXtXtXtXtXtXtXtXtXtXtXtXtXtXtXtXtXtXtXtXtXtXtXtXtXtXtXtXtXtXtXtXtXtXtXtXtXtXtXtXtXtXtXtXtXtXtXtXtXtXtXtXtXtXtXtXtXtXtXtXtXtXtXtXtXtXtXtXtXtXtXtXtXtXtXtXtXtXtXtXtXtXtXtXtXtXtXtXtXtXtXtXtXtXtXtXtXtXtXtXtXtXtXtXtXtXtXtXtXtXtXtXtXtXtXtXtXtXtXtXtXtXtXtXtXtXtXtXtXtXtXtXtXtXtXtXtXtXtXtXtXtXtXtXtXtXtXtXtXtXtXtXtXtXtXtXtXtXtXtXtXtXtXtXtXtXtXtXtXtXtXtXtXtXtXtXtXtXtXtXtXtXtXtXtXtXtXtXtXtXtXtXtXtXtXtXtXtXtXtXtXtXtXtXtXtXtXtXtXtXtXtXtXtXtX",
"tXtXtXtXtXtXtXtXtXtXtXtXtXtXtXtXtXtXtXtXtXtXtXtXtXtXtXtXtXtXtXtXtXtXtXtXtXtXtXtXtXtXtXtXtXtXtXtXtXtXtXtXtXtXtXtXtXtXtXtXtXtXtXtXtXtXtXtXtXtXtXtXtXtXtXtXtXtXtXtXtXtXtXtXtXtXtXtXtXtXtXtXtXtXtXtXtXtXtXtXtXtXtXtXtXtXtXtXtXtXtXtXtXtXtXtXtXtXtXtXtXtXtXtXtXtXtXtXtXtXtXtXtXtXtXtXtXtXtXtXtXtXtXtXtXtXtXtXtXtXtXtXtXtXtXtXtXtXtXtXtXtXtXtXtXtXtXtXtXtXtXtXtXtXtXtXtXtXtXtXtXtXtXtXtXtXtXtXtXtXtXtXtXtXtXtXtXtXtXtXtXtXtXtXtXtXtXtXtXtXtXtXtXtXtXtXtXtXtXtXtXtXtXtXtXtXtXtXtXtXtXtXtXtXtXtXtXtXtXtXtXtXtXtXtXtXtXtXtXtXtXtXtXtXtXtX",
"tXtXtXtXtXtXtXtXtXtXtXtXtXtXtXtXtXtXtXtXtXtXtXtXtXtXtXtXtXtXtXtXtXtXtXtXtXtXtXtXtXtXtXtXtXtXtXtXtXtXtXtXtXtXtXtXtXtXtXtXtXtXtXtXtXtXtXtXtXtXtXtXtXtXtXtXtXtXtXtXtXtXtXtXtXtXtXtXtXtXtXtXtXtXtXtXtXtXtXtXtXtXtXtXtXtXtXtXtXtXtXtXtXtXtXtXtXtXtXtXtXtXtXtXtXtXtXtXtXtXtXtXtXtXtXtXtXtXtXtXtXtXtXtXtXtXtXtXtXtXtXtXtXtXtXtXtXtXtXtXtXtXtXtXtXtXtXtXtXtXtXtXtXtXtXtXtXtXtXtXtXtXtXtXtXtXtXtXtXtXtXtXtXtXtXtXtXtXtXtXtXtXtXtXtXtXtXtXtXtXtXtXtXtXtXtXtXtXtXtXtXtXtXtXtXtXtXtXtXtXtXtXtXtXtXtXtXtXtXtXtXtXtXtXtXtXtXtXtXtXtXtXtXtXtXtX",
"tXtXtXtXtXtXtXtXtXtXtXtXtXtXtXtXtXtXtXtXtXtXtXtXtXtXtXtXtXtXtXtXtXtXtXtXtXtXtXtXtXtXtXtXtXtXtXtXtXtXtXtXtXtXtXtXtXtXtXtXtXtXtXtXtXtXtXtXtXtXtXtXtXtXtXtXtXtXtXtXtXtXtXtXtXtXtXtXtXtXtXtXtXtXtXtXtXtXtXtXtXtXtXtXtXtXtXtXtXtXtXtXtXtXtXtXtXtXtXtXtXtXtXtXtXtXtXtXtXtXtXtXtXtXtXtXtXtXtXtXtXtXtXtXtXtXtXtXtXtXtXtXtXtXtXtXtXtXtXtXtXtXtXtXtXtXtXtXtXtXtXtXtXtXtXtXtXtXtXtXtXtXtXtXtXtXtXtXtXtXtXtXtXtXtXtXtXtXtXtXtXtXtXtXtXtXtXtXtXtXtXtXtXtXtXtXtXtXtXtXtXtXtXtXtXtXtXtXtXtXtXtXtXtXtXtXtXtXtXtXtXtXtXtXtXtXtXtXtXtXtXtXtXtXtXtX",
"tXtXtXtXtXtXtXtXtXtXtXtXtXtXtXtXtXtXtXtXtXtXtXtXtXtXtXtXtXtXtXtXtXtXtXtXtXtXtXtXtXtXtXtXtXtXtXtXtXtXtXtXtXtXtXtXtXtXtXtXtXtXtXtXtXtXtXtXtXtXtXtXtXtXtXtXtXtXtXtXtXtXtXtXtXtXtXtXtXtXtXtXtXtXtXtXtXtXtXtXtXtXtXtXtXtXtXtXtXtXtXtXtXtXtXtXtXtXtXtXtXtXtXtXtXtXtXtXtXtXtXtXtXtXtXtXtXtXtXtXtXtXtXtXtXtXtXtXtXtXtXtXtXtXtXtXtXtXtXtXtXtXtXtXtXtXtXtXtXtXtXtXtXtXtXtXtXtXtXtXtXtXtXtXtXtXtXtXtXtXtXtXtXtXtXtXtXtXtXtXtXtXtXtXtXtXtXtXtXtXtXtXtXtXtXtXtXtXtXtXtXtXtXtXtXtXtXtXtXtXtXtXtXtXtXtXtXtXtXtXtXtXtXtXtXtXtXtXtXtXtXtXtXtXtXtX",
"tXtXtXtXtXtXtXtXtXtXtXtXtXtXtXtXtXtXtXtXtXtXtXtXtXtXtXtXtXtXtXtXtXtXtXtXtXtXtXtXtXtXtXtXtXtXtXtXtXtXtXtXtXtXtXtXtXtXtXtXtXtXtXtXtXtXtXtXtXtXtXtXtXtXtXtXtXtXtXtXtXtXtXtXtXtXtXtXtXtXtXtXtXtXtXtXtXtXtXtXtXtXtXtXtXtXtXtXtXtXtXtXtXtXtXtXtXtXtXtXtXtXtXtXtXtXtXtXtXtXtXtXtXtXtXtXtXtXtXtXtXtXtXtXtXrXrXrXrXrXrXrXrXrXrXrXrXrXrXrXrXrXrXrXrXrXrXrXrXrXrXrXrXrXrXrXrXrXrXrXrXrXrXrXrXrXrXrXrXrXrXrXrXrXrXrXrXrXrXrXrXrXrXrXrXrXrXrXrXrXrXrXrXrXrXrXrXrXrXrXrXrXrXrXrXrXrXrXrXrXrXrXrXrXrXrXrXrXrXrXrXrXrXrXrXrXrXrXrXrXrXrXrXrXrXrX",
"tXtXtXtXtXtXtXtXtXtXtXtXtXtXtXtXtXtXtXtXtXtXtXtXtXtXtXtXtXtXtXtXtXtXtXtXtXtXtXtXtXtXtXtXtXtXtXtXtXtXtXtXtXtXtXtXtXtXtXtXtXtXtXtXtXtXtXtXtXtXtXtXtXtXtXtXtXtXtXtXtXtXtXtXtXtXtXtXtXtXtXtXtXtXtXtXtXtXtXtXtXtXtXtXtXtXtXtXtXtXtXtXtXtXtXtXtXtXtXtXtXtXtXtXtXtXtXtXtXtXtXtXtXtXtXtXtXtXtXtXtXtXtXrXtXtXtXtXtXtXtXtXtXtXtXtXtXtXtXtXtXtXtXtXtXtXtXtXtXtXtXtXtXtXtXtXtXtXtXtXtXtXtXtXtXtXtXtXtXtXtXtXtXtXtXtXtXtXtXtXtXtXtXtXtXtXtXtXtXtXtXtXtXtXtXtXtXtXtXtXtXtXtXtXtXtXtXtXtXtXtXtXtXtXtXtXtXtXtXtXtXtXtXtXtXtXtXtXtXtXtXtXtXtXtXtX",
"tXtXtXtXtXtXtXtXtXtXtXtXtXtXtXtXtXtXtXtXtXtXtXtXtXtXtXtXtXtXtXtXtXtXtXtXtXtXtXtXtXtXtXtXtXtXtXtXtXtXtXtXtXtXtXtXtXtXtXtXtXtXtXtXtXtXtXtXtXtXtXtXtXtXtXtXtXtXtXtXtXtXtXtXtXtXtXtXtXtXtXtXtXtXtXtXtXtXtXtXtXtXtXtXtXtXtXtXtXtXtXtXtXtXtXtXtXtXtXtXtXtXtXtXtXtXtXtXtXtXtXtXtXtXtXtXtXtXtXtXtXtXtXrXsXjXjXjXjXjXjXjXjXjXjXjXjXjXjXjXjXjXjXjXjXjXjXjXjXjXjXjXjXjXjXjXjXjXjXjXjXjXjXjXjXjXjXjXjXjXjXjXjXjXjXjXjXjXjXjXjXjXjXjXjXjXjXjXjXjXjXjXjXjXjXjXjXjXjXjXjXjXjXjXjXjXjXjXjXjXjXjXjXjXjXjXjXjXjXjXjXjXjXjXjXjXjXjXjXjXjXjXjXjXjXjX",
"tXtXtXtXtXtXtXtXtXtXtXtXtXtXtXtXtXtXtXtXtXtXtXtXtXtXtXtXtXtXtXtXtXtXtXtXtXtXtXtXtXtXtXtXtXtXtXtXtXtXtXtXtXtXtXtXtXtXtXtXtXtXtXtXtXtXtXtXtXtXtXtXtXtXtXtXtXtXtXtXtXtXtXtXtXtXtXtXtXtXtXtXtXtXtXtXtXtXtXtXtXtXtXtXtXtXtXtXtXtXtXtXtXtXtXtXtXtXtXtXtXtXtXtXtXtXtXtXtXtXtXtXtXtXtXtXtXtXtXtXtXtXrXsXjXjXjXjXjXjXjXjXjXjXjXjXjXjXjXjXjXjXjXjXjXjXjXjXjXjXjXjXjXjXjXjXjXjXjXjXjXjXjXjXjXjXjXjXjXjXjXjXjXjXjXjXjXjXjXjXjXjXjXjXjXjXjXjXjXjXjXjXjXjXjXjXjXjXjXjXjXjXjXjXjXjXjXjXjXjXjXjXjXjXjXjXjXjXjXjXjXjXjXjXjXjXjXjXjXjXjXjXjXjXjXjX",
"tXtXtXtXtXtXtXtXtXtXtXtXtXtXtXtXtXtXtXtXtXtXtXtXtXtXtXtXtXtXtXtXtXtXtXtXtXtXtXtXtXtXtXtXtXtXtXtXtXtXtXtXtXtXtXtXtXtXtXtXtXtXtXtXtXtXtXtXtXtXtXtXtXtXtXtXtXtXtXtXtXtXtXtXtXtXtXtXtXtXtXtXtXtXtXtXtXtXtXtXtXtXtXtXtXtXtXtXtXtXtXtXtXtXtXtXtXtXtXtXtXtXtXtXtXtXtXtXtXtXtXtXtXtXtXtXtXtXtXtXtXrXsXjXjXjXjXjXjXjXjXjXjXjXjXjXjXjXjXjXjXjXjXjXjXjXjXjXjXjXjXjXjXjXjXjXjXjXjXjXjXjXjXjXjXjXjXjXjXZXSXAXjXjXjXjXCXjXjXjXjXjXjXjXjXjXjXjXjXjXjXjXjXjXjXjXjXjXjXjXjXjXjXjXjXjXjXjXjXjXjXjXjXjXjXjXjXjXjXjXjXjXjXjXjXjXjXjXjXjXjXjXjXjXjXjX",
"tXtXtXtXtXtXtXtXtXtXtXtXtXtXtXtXtXtXtXtXtXtXtXtXtXtXtXtXtXtXtXtXtXtXtXtXtXtXtXtXtXtXtXtXtXtXtXtXtXtXtXtXtXtXtXtXtXtXtXtXtXtXtXtXtXtXtXtXtXtXtXtXtXtXtXtXtXtXtXtXtXtXtXtXtXtXtXtXtXtXtXtXtXtXtXtXtXtXtXtXtXtXtXtXtXtXtXtXtXtXtXtXtXtXtXtXtXtXtXtXtXtXtXtXtXtXtXtXtXtXtXtXtXtXtXtXtXtXtXtXrXsXjXjXjXjXjXjXjXjXjXjXjXjXjXjXjXjXjXjXjXjXjXjXjXjXjXjXjXjXjXjXjXjXjXjXjXjXjXjXjXjXjXjXjXjXjXjXZX>Xw.I.jXAXSX2Xq.ZXSXAXjXAXSXjXtXAXjXCXAXSXjXCXAXAXCXSXjXCXSXZXjXSXAXjXtXAXjXjXjXjXjXjXjXjXjXjXjXjXjXjXjXjXjXjXjXjXjXjXjXjXjXjXjXjXjXjX",
"tXtXtXtXtXtXtXtXtXtXtXtXtXtXtXtXtXtXtXtXtXtXtXtXtXtXtXtXtXtXtXtXtXtXtXtXtXtXtXtXtXtXtXtXtXtXtXtXtXtXtXtXtXtXtXtXtXtXtXtXtXtXtXtXtXtXtXtXtXtXtXtXtXtXtXtXtXtXtXtXtXtXtXtXtXtXtXtXtXtXtXtXtXtXtXtXtXtXtXtXtXtXtXtXtXtXtXtXtXtXtXtXtXtXtXtXtXtXtXtXtXtXtXtXtXtXtXtXtXtXtXtXtXtXtXtXtXtXtXrXsXjXjXjXjXjXjXjXkXyXXXuXjXjXjXjXjXjXjXjXjXjXjXjXjXjXjXjXjXjXjXjXjXjXjXjXjXjXjXjXjXjXjXjXjXjXjXCXrXp f.S.ZXf.P.2Xs ZXf.P.SXL.f.w.i >XZX3XK.f.sX4XK.P.3Xw.yXtXw.I.jXd.2Xl.9 =XCXjXjXjXjXjXjXjXjXjXjXjXjXjXjXjXjXjXjXjXjXjXjXjXjXjXjXjXjXjX",
"tXtXtXtXtXtXtXtXtXtXtXtXtXtXtXtXtXtXtXtXtXtXtXtXtXtXtXtXtXtXtXtXtXtXtXtXtXtXtXtXtXtXtXtXtXtXtXtXtXtXtXtXtXtXtXtXtXtXtXtXtXtXtXtXtXtXtXtXtXtXtXtXtXtXtXtXtXtXtXtXtXtXtXtXtXtXtXtXtXtXtXtXtXtXtXtXtXtXtXtXtXtXtXtXtXtXtXtXtXtXtXtXtXtXtXtXtXtXtXtXtXtXtXtXtXtXtXtXtXtXtXtXtXtXtXtXtXtXrXsXjXjXjXjXjXjXjXjXuX@.wXjXjXjXjXjXjXjXjXjXjXjXjXjXjXjXjXjXjXjXjXjXjXjXjXjXjXjXjXjXjXjXjXjXjXjXjXjXyXp S.LXw.,.s q.q.q.4.a d.s K.q.p 3XSXw.p q.9.w.i I.s 9.s s 9.4X9.4.s 9.p 3XjXjXjXjXjXjXjXjXjXjXjXjXjXjXjXjXjXjXjXjXjXjXjXjXjXjXjXjXjXjX",
"tXtXtXtXtXtXtXtXtXtXtXtXtXtXtXtXtXtXtXtXtXtXtXtXtXtXtXtXtXtXtXtXtXtXtXtXtXtXtXtXtXtXtXtXtXtXtXtXtXtXtXtXtXtXtXtXtXtXtXtXtXtXtXtXtXtXtXtXtXtXtXtXtXtXtXtXtXtXtXtXtXtXtXtXtXtXtXtXtXtXtXtXtXtXtXtXtXtXtXtXtXtXtXtXtXtXtXtXtXtXtXtXtXtXtXtXtXtXtXtXtXtXtXtXtXtXtXtXtXtXtXtXtXtXtXtXtXrXsXjXjXjXjXjXjXjXjXjXwX@.gXjXjXjXjXjXjXjXjXjXjXjXjXjXjXjXjXjXjXjXjXjXjXjXjXjXjXjXjXjXjXjXjXjXjXjXjXjXZXsX,.9.a ,.9.q.9.i 4.9.a f.IXL.q.HXAXf.f.LXs q.S.3X> q.9.K.4.=Xi 9.4.w.w.HXjXjXjXjXjXjXjXjXjXjXjXjXjXjXjXjXjXjXjXjXjXjXjXjXjXjXjXjXjXjX",
"tXtXtXtXtXtXtXtXtXtXtXtXtXtXtXtXtXtXtXtXtXtXtXtXtXtXtXtXtXtXtXtXtXtXtXtXtXtXtXtXtXtXtXtXtXtXtXtXtXtXtXtXtXtXtXtXtXtXtXtXtXtXtXtXtXtXtXtXtXtXtXtXtXtXtXtXtXtXtXtXtXtXtXtXtXtXtXtXtXtXtXtXtXtXtXtXtXtXtXtXtXtXtXtXtXtXtXtXtXtXtXtXtXtXtXtXtXtXtXtXtXtXtXtXtXtXtXtXtXtXtXtXtXtXtXtXrXsXjXjXjXjXjXjXjXjXjXjXlXwX@.yXjXjXjXjXjXjXjXjXjXjXjXjXjXjXjXjXjXjXjXjXjXjXjXjXjXjXjXjXjXjXjXjXjXjXjXjXtX>X=Xs 4.q.tXL.,.4.w.yXf.s rXl.a yXSXd.s S.,.q.f.yXp =X3X4Xf.a ,.f.tXL.a yXjXjXjXjXjXjXjXjXjXjXjXjXjXjXjXjXjXjXjXjXjXjXjXjXjXjXjXjXjXjX",
"tXtXtXtXtXtXtXtXtXtXtXtXtXtXtXtXtXtXtXtXtXtXtXtXtXtXtXtXtXtXtXtXtXtXtXtXtXtXtXtXtXtXtXtXtXtXtXtXtXtXtXtXtXtXtXtXtXtXtXtXtXtXtXtXtXtXtXtXtXtXtXtXtXtXtXtXtXtXtXtXtXtXtXtXtXtXtXtXtXtXtXtXtXtXtXtXtXtXtXtXtXtXtXtXtXtXtXtXtXtXtXtXtXtXtXtXtXtXtXtXtXtXtXtXtXtXtXtXtXtXtXtXtXtXtXrXsXjXjXjXjXjXjXjXjXjXjXjXjXkXuXgXjXjXjXjXjXjXjXjXjXjXjXjXjXjXjXjXjXjXjXjXjXjXjXjXjXjXjXjXjXjXjXjXjXjXjXjXyXq.,.>XjX9.9.I.S.tX4.9.yXf.4.4Xq.S.HXf.a 9.4XP.P.SXK.,.l.f.,.=XtX4.q.tXq.S.ZXjXjXjXjXjXjXjXjXjXjXjXjXjXjXjXjXjXjXjXjXjXjXjXjXjXjXjXjXjX",
"tXtXtXtXtXtXtXtXtXtXtXtXtXtXtXtXtXtXtXtXtXtXtXtXtXtXtXtXtXtXtXtXtXtXtXtXtXtXtXtXtXtXtXtXtXtXtXtXtXtXtXtXtXtXtXtXtXtXtXtXtXtXtXtXtXtXtXtXtXtXtXtXtXtXtXtXtXtXtXtXtXtXtXtXtXtXtXtXtXtXtXtXtXtXtXtXtXtXtXtXtXtXtXtXtXtXtXtXtXtXtXtXtXtXtXtXtXtXtXtXtXtXtXtXtXtXtXtXtXtXtXtXtXtXrXsXjXjXjXjXjXjXjXjXjXjXjXjXjXjXjXjXjXjXjXjXjXjXjXjXjXjXjXjXjXjXjXjXjXjXjXjXjXjXjXjXjXjXjXjXjXjXjXjXjXjXjXjXjXAXSXZXjXSXAXZXAXjXSXAXjXAXSXCXAXCXSXw.w.PXjXZXZXjXAXSXZXAXSXZXjXSXAXjXAXZXjXjXjXjXjXjXjXjXjXjXjXjXjXjXjXjXjXjXjXjXjXjXjXjXjXjXjXjXjXjX",
"rXrXrXrXrXrXrXrXrXrXrXrXrXrXrXrXrXrXrXrXrXrXrXrXrXrXrXrXrXrXrXrXrXrXrXrXrXrXrXrXrXrXrXrXrXrXrXrXrXrXrXrXrXrXrXrXrXrXrXrXrXrXrXrXrXrXrXrXrXrXrXrXrXrXrXrXrXrXrXrXrXrXrXrXrXrXrXrXrXrXrXrXrXrXrXrXrXrXrXrXrXrXrXrXrXrXrXrXrXrXrXrXrXrXrXrXrXrXrXrXrXrXrXrXrXrXrXrXrXrXrXrXrXrXsXjXjXjXjXjXjXjXjXjXjXjXjXjXjXjXjXjXjXjXjXjXjXjXjXjXjXjXjXjXjXjXjXjXjXjXjXjXjXjXjXjXjXjXjXjXjXjXjXjXjXjXjXjXjXjXjXjXjXjXjXjXjXjXjXjXjXjXjXjXjXjXAXI.P.CXjXjXjXjXjXjXjXjXjXjXjXjXjXjXjXjXjXjXjXjXjXjXjXjXjXjXjXjXjXjXjXjXjXjXjXjXjXjXjXjXjXjXjXjXjXjX",
"yXyXyXyXyXyXyXyXyXyXyXyXyXyXyXyXyXyXyXyXyXyXyXyXyXyXyXyXyXyXyXyXyXyXyXyXyXyXyXyXyXyXyXyXyXyXyXyXyXyXyXyXyXyXyXyXyXyXyXyXyXyXyXyXyXyXyXyXyXyXyXyXyXyXyXyXyXyXyXyXyXyXyXyXyXyXyXyXyXyXyXyXyXyXyXyXyXyXyXyXyXyXyXyXyXyXyXyXyXyXyXyXyXyXyXyXyXyXyXyXyXyXyXyXyXyXyXyXyXyXyXyXyXsXjXjXjXjXjXjXjXjXjXjXjXjXjXjXjXjXjXjXjXjXjXjXjXjXjXjXjXjXjXjXjXjXjXjXjXjXjXjXjXjXjXjXjXjXjXjXjXjXjXjXjXjXjXjXjXjXjXjXjXjXjXjXjXjXjXjXjXjXjXjXjXjXjXZXZXjXjXjXjXjXjXjXjXjXjXjXjXjXjXjXjXjXjXjXjXjXjXjXjXjXjXjXjXjXjXjXjXjXjXjXjXjXjXjXjXjXjXjXjXjXjXjX",
"CXCXCXCXCXCXCXCXCXCXCXCXCXCXCXCXCXCXCXCXCXCXCXCXCXCXCXCXCXCXCXCXCXCXCXCXCXCXCXCXCXCXCXCXCXCXCXCXCXCXCXCXCXCXCXCXCXCXCXCXCXCXCXCXCXCXCXCXCXCXCXCXCXCXCXCXCXCXCXCXCXCXCXCXCXCXCXCXCXCXCXCXCXCXCXCXCXCXCXCXCXCXCXCXCXCXCXCXCXCXCXCXCXCXCXCXCXCXCXCXCXCXCXCXCXCXCXCXCXCXCXCXCXjXjXjXjXjXjXjXjXjXjXjXjXjXjXjXjXjXjXjXjXjXjXjXjXjXjXjXjXjXjXjXjXjXjXjXjXjXjXjXjXjXCXCXCXCXCXCXCXCXCXCXCXCXCXCXCXCXCXCXCXCXCXCXCXCXCXCXCXCXCXCXCXCXCXjXjXCXCXCXCXCXCXCXCXCXCXCXCXCXCXCXCXCXCXCXCXCXCXCXCXCXCXCXCXCXCXCXCXCXCXCXCXCXCXCXCXCXCXCXCXCXCXCX",
"3X3X3X3X3X3X3X3X3X3X3X3X3X3X3X3X3X3X3X3X3X3X3X3X3X3X3X3X3X3X3X3X3X3X3X3X3X3X3X3X3X3X3X3X3X3X3X3X3X3X3X3X3X3X3X3X3X3X3X3X3X3X3X3X3X3X3X3X3X3X3X3X3X3X3X3X3X3X3X3X3X3X3X3X3X3X3X3X3X3X3X3X3X3X3X3X3X3X3X3X3X3X3X3X3X3X3X3X3X3X3X3X3X3X3X3X3X3X3X3X3X3X3X3X3X3X3X3X3X3X3X3X3XjXjXyXyXyXyXyXyXyXyXyXyXyXyXyXyXyXyXyXyXyXjXjXsXyXyXyXyXyXyXyXyXyXyXyXyXyXyXyXjXjX3X3X3X3X3X3X3X3X3X3X3X3X3X3X3X3X3X3X3X3X3X3X3X3X3X3X3X3X3X3X3X3X3X3X3X3X3X3X3X3X3X3X3X3X3X3X3X3X3X3X3X3X3X3X3X3X3X3X3X3X3X3X3X3X3X3X3X3X3X3X3X3X3X3X3X3X3X3X3X3X3X3X",
"L.L.L.L.L.L.L.L.L.L.L.L.L.L.L.L.L.L.L.L.L.L.L.L.L.L.L.L.L.L.L.L.L.L.L.L.L.L.L.L.L.L.L.L.L.L.L.L.L.L.L.L.L.L.L.L.L.L.L.L.L.L.L.L.L.L.L.L.L.L.L.L.L.L.L.L.L.L.L.L.L.L.L.L.L.L.L.L.L.L.L.L.L.L.L.L.L.L.L.L.L.L.L.L.L.L.L.L.L.L.L.L.L.L.L.L.L.L.L.L.L.L.L.L.L.L.L.L.L.L.L.K.I.jXjXrXrXrXrXrXrXtXtXtXtXtXtXtXrXrXrXrXrX4XsXjXtX4XrXrX4X4XrXrXrX4XrXrXrXrXrXrXjXjXL.L.L.K.K.L.K.K.L.K.K.K.L.K.L.K.L.L.K.K.K.K.K.K.K.L.K.K.L.L.K.L.K.L.L.L.L.L.L.L.L.L.L.L.L.L.L.L.L.L.L.L.L.L.L.L.L.L.L.L.L.L.L.L.L.L.L.L.L.L.L.L.L.L.L.L.L.L.L.L.L.L.",
"P.P.P.P.P.P.P.P.P.P.P.P.P.P.P.P.P.P.P.P.P.P.P.P.P.P.P.P.P.P.P.P.P.P.P.P.P.P.P.P.P.P.P.P.P.P.P.P.P.P.P.P.P.P.P.P.P.P.P.P.P.P.P.P.P.P.P.P.P.P.P.P.P.P.P.P.P.P.P.P.P.P.P.P.P.P.P.P.P.P.P.P.P.P.P.P.P.P.P.P.P.P.P.P.P.P.P.P.P.P.P.P.P.P.P.P.P.P.P.P.P.P.P.P.P.P.P.P.P.P.P.P.=XjXjXrXtXtXtXrXtX>XS.P.K.L.S.I.tXrXtXtXtXrXsXjXyXrXrXtXjXyXrXrXrXtXtXrXrXrXtXtXjXjXP.P.I.=X=XI.=X=XI.=X=X=XP.=XP.=XI.I.=X=X=X=X=X=XI.I.=X=XI.I.=XP.=XI.P.P.P.P.P.P.P.P.P.P.P.P.P.P.P.P.P.P.P.P.P.P.P.P.P.P.P.P.P.P.P.P.P.P.P.P.P.P.P.P.P.P.P.P.P.P.P.P.",
"P.P.P.P.P.P.P.P.P.P.P.P.P.P.P.P.P.P.P.P.P.P.P.P.P.P.P.P.P.P.P.P.P.P.P.P.P.P.P.P.P.P.P.P.P.P.P.P.P.P.P.P.P.P.P.P.P.P.P.P.P.P.P.P.P.P.P.P.P.P.P.P.P.P.P.P.P.P.P.P.P.P.P.P.P.P.P.P.P.P.P.P.P.P.P.P.P.P.P.P.P.P.P.P.P.P.P.P.P.P.P.P.P.P.P.P.P.P.P.P.P.P.P.P.P.P.P.P.P.P.P.L.I.jXjXrXtXtXtXrXyXL.K.w.4.w.>Xl.yXrXtXtXtXrXsXjXyX4XyX3Xf.K.tXsXsXK.=XsXsXtXrXtXjXjXP.I.l.a s S.4.a w.4.a 9.L.9.=Xw.f.f.s 9.,.d 4.s q.K.s s S.f.,.=Xq.S.I.P.P.P.P.P.P.P.P.P.P.P.P.P.P.P.P.P.P.P.P.P.P.P.P.P.P.P.P.P.P.P.P.P.P.P.P.P.P.P.P.P.P.P.P.P.P.P.",
"P.P.P.P.P.P.P.P.P.P.P.P.P.P.P.P.P.P.P.P.P.P.P.P.P.P.P.P.P.P.P.P.P.P.P.P.P.P.P.P.P.P.P.P.P.P.P.P.P.P.P.P.P.P.P.P.P.P.P.P.P.P.P.P.P.P.P.P.P.P.P.P.P.P.P.P.P.P.P.P.P.P.P.P.P.P.P.P.P.P.P.P.P.P.P.P.P.P.P.P.P.P.P.P.P.P.P.P.P.P.P.P.P.P.P.P.P.P.P.P.P.P.P.P.P.P.P.P.P.P.P.L.I.jXjXrXtXtXtXrXtXI.q.f.rXw.f.L.tXrXtXtXtXrXsXjXtXtX>Xi ,.d.4Xf.=X>X>XI.f.3XtXtXjXjXP.=Xw.,.q.,.s f.P.d S.s 9.a >X4.4.a f.S.S.d K.s w.s w.d.s w.- f.,.f.I.P.P.P.P.P.P.P.P.P.P.P.P.P.P.P.P.P.P.P.P.P.P.P.P.P.P.P.P.P.P.P.P.P.P.P.P.P.P.P.P.P.P.P.P.P.P.P.",
"P.P.P.P.P.P.P.P.P.P.P.P.P.P.P.P.P.P.P.P.P.P.P.P.P.P.P.P.P.P.P.P.P.P.P.P.P.P.P.P.P.P.P.P.P.P.P.P.P.P.P.P.P.P.P.P.P.P.P.P.P.P.P.P.P.P.P.P.P.P.P.P.P.P.P.P.P.P.P.P.P.P.P.P.P.P.P.P.P.P.P.P.P.P.P.P.P.P.P.P.P.P.P.P.P.P.P.P.P.P.P.P.P.P.P.P.P.P.P.P.P.P.P.P.P.P.P.P.P.P.P.L.I.jXjXrXtXtXtXrXyXI.,.3XZX=Xq.P.tXrXtXtXtXrXsXjXtXjX4.9.rXK.2X4.a ,.w.> a ,.jX4XjXjXP.=Xf.i i l.a d f.s =Xf.s s >Xq.s 4.2XP.L.s I.9.w.s I.=Xs q.,.s 4.f.I.P.P.P.P.P.P.P.P.P.P.P.P.P.P.P.P.P.P.P.P.P.P.P.P.P.P.P.P.P.P.P.P.P.P.P.P.P.P.P.P.P.P.P.P.P.P.P.",
"P.P.P.P.P.P.P.P.P.P.P.P.P.P.P.P.P.P.P.P.P.P.P.P.P.P.P.P.P.P.P.P.P.P.P.P.P.P.P.P.P.P.P.P.P.P.P.P.P.P.P.P.P.P.P.P.P.P.P.P.P.P.P.P.P.P.P.P.P.P.P.P.P.P.P.P.P.P.P.P.P.P.P.P.P.P.P.P.P.P.P.P.P.P.P.P.P.P.P.P.P.P.P.P.P.P.P.P.P.P.P.P.P.P.P.P.P.P.P.P.P.P.P.P.P.P.P.P.P.P.P.L.I.jXjXrXtXtXtXrXtXI.w.q.P.4.4.K.tXrXtXtXtXrXsXjXtXjX,.w.3X> d.,.9 a q.,.rXi sXrXjXjXP.=Xw.,.,.w.s l.P.d I.,.9.s I.,.9.a L.P.K.a P.4.w.a f.f.s q.q.9.- S.I.P.P.P.P.P.P.P.P.P.P.P.P.P.P.P.P.P.P.P.P.P.P.P.P.P.P.P.P.P.P.P.P.P.P.P.P.P.P.P.P.P.P.P.P.P.P.P.",
"P.P.P.P.P.P.P.P.P.P.P.P.P.P.P.P.P.P.P.P.P.P.P.P.P.P.P.P.P.P.P.P.P.P.P.P.P.P.P.P.P.P.P.P.P.P.P.P.P.P.P.P.P.P.P.P.P.P.P.P.P.P.P.P.P.P.P.P.P.P.P.P.P.P.P.P.P.P.P.P.P.P.P.P.P.P.P.P.P.P.P.P.P.P.P.P.P.P.P.P.P.P.P.P.P.P.P.P.P.P.P.P.P.P.P.P.P.P.P.P.P.P.P.P.P.P.P.P.P.P.P.L.I.jXjXrXtXtXtXrXyXL.P.l.q.q.> q.sX4XtXtXtXrXsXjXtXyXL.9 d.p i p p p q.s >Xi sXrXjXjXP.=Xf.q.l.4.,.d w.s d ,.I.q.a ,.I.q.d q.L.4.L.s q.f.a a f.f.w.I.i S.I.P.P.P.P.P.P.P.P.P.P.P.P.P.P.P.P.P.P.P.P.P.P.P.P.P.P.P.P.P.P.P.P.P.P.P.P.P.P.P.P.P.P.P.P.P.P.P.",
"P.P.P.P.P.P.P.P.P.P.P.P.P.P.P.P.P.P.P.P.P.P.P.P.P.P.P.P.P.P.P.P.P.P.P.P.P.P.P.P.P.P.P.P.P.P.P.P.P.P.P.P.P.P.P.P.P.P.P.P.P.P.P.P.P.P.P.P.P.P.P.P.P.P.P.P.P.P.P.P.P.P.P.P.P.P.P.P.P.P.P.P.P.P.P.P.P.P.P.P.P.P.P.P.P.P.P.P.P.P.P.P.P.P.P.P.P.P.P.P.P.P.P.P.P.P.P.P.P.P.P.P.=XjXjXrXtXtXtXrXtX>Xl.P.P.P.d.K.tXrXtXtXtXrXsXjXyX4XyXP.9.l.>Xw.L.P.=XP.4XK.tXtXjXjXP.P.I.I.I.I.I.P.P.I.P.=XP.I.P.I.P.=XP.P.P.I.P.I.P.I.I.P.I.P.I.P.=XP.P.P.P.P.P.P.P.P.P.P.P.P.P.P.P.P.P.P.P.P.P.P.P.P.P.P.P.P.P.P.P.P.P.P.P.P.P.P.P.P.P.P.P.P.P.P.P.P.",
"L.L.L.L.L.L.P.L.L.L.L.L.L.L.L.L.L.L.L.L.L.L.L.I.L.L.L.L.L.L.L.L.L.L.L.L.L.L.L.L.L.L.L.L.L.L.L.L.L.L.L.L.P.L.L.L.L.L.L.L.L.L.L.L.L.L.L.L.L.L.P.P.L.L.L.L.L.L.P.L.L.L.L.L.L.L.L.L.L.P.L.L.L.L.P.P.L.L.P.L.L.I.P.L.L.L.L.L.L.L.L.L.L.L.L.L.L.L.L.L.L.L.L.L.L.L.L.L.L.L.L.K.I.jXjXrXtXtXtXtXrXtXtXrXrXrXyXtXrXtXtXtXtXrXsXjXyXrXrXyXjXsXtXjXyXyXtXyXtXyXrXtXjXjXP.L.L.L.L.L.L.L.L.L.L.L.L.L.L.L.L.L.L.L.L.L.L.L.L.L.L.L.L.L.L.P.P.L.L.L.L.L.L.L.L.L.L.L.L.L.L.P.L.L.L.L.L.L.L.L.L.L.L.L.L.L.P.I.L.L.U.L.L.L.L.L.L.L.L.L.L.L.L.L.L.L.",
"jXZXjXjXjXCXjXjXCXjXZXjXjXZXCXjXjXZXCXjXjXCXZX2XjXZXjXjXjXjXjXjXjXjXjXjXjXjXjXjXjXjXjXjXjXZXjXjXZXjXCXjXaXCXjXjXjXjXjXCXjXjXZXjXjXjXjXjXjXZXjXsXZXjXjXjXCXjXjXCXjXjXjXZXjXjXCXjXCXjXjXCXjXCXjXuXCXjXjXjXAX3XyXZXjXjXjXjXjXjXjXjXjXjXjXjXjXjXjXjXjXjXjXCXjXjXZXjXjXjXjXZX4XjXjXrXtXtXtXtXtXrXtXtXtXtXtXrXtXtXtXtXtXrXsXjXyXrXtXrX4X4XrX4XrXrXrXrXrXrXrXtXjXyXtXZXjXjXjXjXjXjXjXjXjXjXjXjXCXjXjXZXjXjXjXjXjXjXjXjXjXjXjXjXAXrXtXAXjXjXjXjXjXjXjXjXjXjXjXjXCXjXjXCXjXjXjXjXjXjXjXjXjXjXjXZXsX3XAXsX XjXCXjXjXjXjXjXjXjXjXZXjXjXZXjX",
"jXLXHXHXHXHXyXHXHXHXLXjXZXHXHXSXyXHXHXAXsXHXPX0.CXLXHXHXHXHXHXHXHXHXHXHXHXHXHXHXHXHXHXHXHXHXZXjXLXHXHXHXfXHXHXHXHXHXHXHXSXsXHXHXHXHXHXHXHXLX5X6XPXHXHXHXHXFXyXHXHXHXHXHXsXAXHXHXHXyXSXHXHXHXyX@XHXHXyXHXIXd.2XPXHXHXHXHXHXHXHXHXHXHXHXHXHXHXHXHXHXHXHXHXSXyXHXHXHXHXHXHXtXjXjXrXtXtXtXtXtXrXyXjXjXjXsXrXtXtXtXtXtXrXsXjXyXrXtX4X4X4X4X4X4X4X4X4X4XrXrXtXjXyXsXLXHXHXHXHXHXHXHXHXHXHXHXHXHXSXyXHXHXHXHXHXHXHXHXHXHXHXHXFXIXl.L.IXFXHXHXHXHXHXHXHXHXHXHXHXHXyXFXHXHXHXHXHXHXHXHXHXHXHXHXLXtXi.IXbXT HXHXHXHXHXHXHXHXHXHXLXjXZXHXHX",
"sXHXSXFXSXFXtXSXFXSXHXjXjXHXFXAXyXHXFXAXsXFXLX0.jXHXSXFXFXFXFXFXFXFXFXFXFXFXFXFXFXFXFXFXSXHXCXjXHXSXFXSX1XFXFXFXFXFXSXHXAXyXHXSXFXFXFXFXSXLX5X6XLXSXFXFXFXSXyXHXSXFXSXHXyXAXHXSXHXyXSXFXSXFXtX@XFXSXtXSXPXf.>XLXSXFXFXFXFXFXFXFXFXFXFXFXFXFXFXFXFXFXSXFXAXyXHXSXFXFXSXHXtXjXjXrXtXtXtXtXtXrXyXjXjXjXsXrXtXtXtXtXtXrXsXjXyXrXtXyXyXyXyXyXyXyXyXyXyXtXrXtXjXyXyXHXSXFXFXFXFXFXFXFXFXFXFXSXFXAXyXHXSXFXFXFXFXFXFXFXFXFXFXSXPXl.L.PXSXFXFXFXFXFXFXFXFXSXSXSXHXyXSXFXFXFXFXSXHXFXHXFXSXFXSXHXtXu.PXvXY SXFXSXFXFXFXFXFXFXSXHXjXCXHXSX",
"sXHXSXFXFXHXtXSXFXSXHXjXjXHXHXAXyXHXHXAXsXHXLX0.jXHXFXFXFXFXFXFXFXFXFXFXFXFXFXFXFXFXFXFXFXHXCXjXHXSXFXFX1XFXFXFXFXFXFXHXAXyXHXSXFXFXFXFXSXLX5X6XLXSXFXFXHXSXyXHXFXFXSXHXyXAXHXSXHXyXSXHXFXFXtX@XFXSXtXSXPXf.>XLXSXFXFXFXFXFXFXFXFXFXFXFXFXFXFXFXFXFXFXHXAXyXHXFXFXFXSXHXtXjXjXrXtXtXtXtXtXrXyXjXjXjXsXrXtXtXtXtXtXrXsXjXtXtX3XU.U.U.U.U.U.U.U.U.U.Y.tXtXjXyXyXHXSXFXFXFXFXFXFXFXFXFXFXFXHXAXyXHXFXFXFXFXFXFXFXFXFXFXFXSXPXl.L.PXSXFXFXFXFXFXFXFXHXvX`.}. XtXFXHXSXHXFXHXSXbX XHXHXSXHXbX'.u.nXnXY FXHXFXFXFXFXFXFXFXSXHXjXZXHXFX",
"sXHXSXFXFXHXtXSXFXSXHXjXjXHXHXAXyXHXHXAXsXHXLX0.jXHXFXFXFXFXFXFXFXFXFXFXFXFXFXFXFXFXFXFXFXHXCXjXHXSXFXFX1XFXFXFXFXFXFXHXAXyXHXSXFXFXFXFXSXLX5X6XLXSXFXFXHXSXyXHXFXFXSXHXyXAXHXSXHXyXSXHXFXFXtX@XFXSXtXSXPXf.>XLXSXFXFXFXFXFXFXFXFXFXFXFXFXFXFXFXFXFXFXHXAXyXHXFXFXFXSXHXtXjXjXrXtXtXtXtXtXrXyXjXjXjXsXrXtXtXtXtXtXrXsXjXtXtXY.y 2 y 2 y y 2 y y 2 n.yX4XjXyXyXHXSXFXFXFXFXFXFXFXFXFXFXFXHXAXyXHXFXFXFXFXFXFXFXFXFXFXFXSXPXl.L.PXSXFXFXFXFXFXFXFXSXKX}.AX.X`.nX}.nX}..X}.}.bX.X}.bX}.}.vX.X`..XnXY FXHXFXFXFXFXFXFXFXSXHXjXZXHXFX",
"sXHXSXFXFXHXtXSXFXSXHXjXjXHXHXAXyXHXHXAXsXHXLX0.jXHXFXFXFXFXFXFXFXFXFXFXFXFXFXFXFXFXFXFXFXHXCXjXHXSXFXFX1XFXFXFXFXFXFXHXAXyXHXSXFXFXFXFXSXLX5X6XLXSXFXFXHXSXyXHXFXFXSXHXyXAXHXSXHXyXSXHXFXFXtX@XFXSXtXSXPXf.>XLXSXFXFXFXFXFXFXFXFXFXFXFXFXFXFXFXFXFXFXHXAXyXHXFXFXFXSXHXtXjXjXrXtXtXtXtXtXrXtXjXjXjXyXrXtXtXtXtXtXrXsXjXtXtX=Xx.x.x.x.9.0.x.x.x.,.l.yXrXjXyXyXHXSXFXFXFXFXFXFXFXFXFXFXFXHXAXyXHXFXFXFXFXFXFXFXFXFXFXFXSXPXl.L.PXSXFXFXFXFXFXFXFXFXHX}.bX X{.}. XbX.X X X XvX XnX}.nXnX X`.[. XnXY FXHXFXFXFXFXFXFXFXSXHXjXZXHXFX",
"sXHXSXFXFXHXtXSXFXSXHXjXjXHXHXAXyXHXHXAXsXHXLX0.jXHXFXFXFXFXFXFXFXFXFXFXFXFXFXFXFXFXFXFXFXHXCXjXHXSXFXFX1XFXFXFXFXFXFXHXAXyXHXSXFXFXFXFXSXLX5X6XLXSXFXFXHXSXyXHXFXFXSXHXyXAXHXSXHXyXSXHXFXFXtX@XFXSXtXSXPXf.>XLXSXFXFXFXFXFXFXFXFXFXFXFXFXFXFXFXFXFXFXHXAXyXHXFXFXFXSXHXtXjXjXrXtXtXtXtXrXaXoX( { ( y.aXrXtXtXtXtXrXsXjXtX4XqX#.o.#.o.#.$.o.#.#.o.).pXrXjXyXyXHXSXFXFXFXFXFXFXFXFXFXFXFXHXAXyXHXFXFXFXFXFXFXFXFXFXFXFXSXPXl.L.PXSXFXFXFXFXFXFXFXFXHX}.bX X{. X XSX}.nXvX.X XnXnX X}.}.nX.X`..XnXY FXHXFXFXFXFXFXFXFXSXHXjXZXHXFX",
"sXHXSXFXFXHXtXSXFXSXHXjXjXHXHXAXyXHXHXAXsXHXLX0.jXHXFXFXFXFXFXFXFXFXFXFXFXFXFXFXFXFXFXFXFXHXCXjXHXSXFXFX1XFXFXFXFXFXFXHXAXyXHXSXFXFXFXFXSXLX5X6XLXSXFXFXHXSXyXHXFXFXSXHXyXAXHXSXHXyXSXHXFXFXtX@XFXSXtXSXPXf.>XLXSXFXFXFXFXFXFXFXFXFXFXFXFXFXFXFXFXFXFXHXAXyXHXFXFXFXSXHXtXjXjXrXtXtXtXtXrXaXoX_ ) _ } aXrXtXtXtXtXrXsXjXtX5X8X&.&.&.&./.(.&.&.&.$.).pXrXjXyXyXHXSXFXFXFXFXFXFXFXFXFXFXFXHXAXyXHXFXFXFXFXFXFXFXFXFXFXFXSXPXl.L.PXSXFXFXFXFXFXFXFXFXHXSXSXFXtXAXSXHXAXbXbXbXFXSXSXFXAXAXHXtXi.LXvXY FXHXFXFXFXFXFXFXFXSXHXjXZXHXFX",
"sXHXSXFXFXHXtXSXFXSXHXjXjXHXHXAXyXHXHXAXsXHXLX0.jXHXFXFXFXFXFXFXFXFXFXFXFXFXFXFXFXFXFXFXFXHXCXjXHXSXFXFX1XFXFXFXFXFXFXHXAXyXHXSXFXFXFXFXSXLX5X6XLXSXFXFXHXSXyXHXFXFXSXHXyXAXHXSXHXyXSXHXFXFXtX@XFXSXtXSXPXf.>XLXSXFXFXFXFXFXFXFXFXFXFXFXFXFXFXFXFXFXFXHXAXyXHXFXFXFXSXHXtXjXjXrXtXtXtXtXrXaXoX^ ( ^ } aXrXtXtXtXtXrXsXjXtX4XqX#.N #.N #.$.N o.o.N ).pXrXjXyXyXHXSXFXFXFXFXFXFXFXFXFXFXFXHXAXyXHXFXFXFXFXFXFXFXFXFXFXFXSXPXl.L.PXSXFXFXFXFXFXFXFXFXFXHXFXHXyXSXHXFXHXHXHXHXFXHXHXFXHXHXLXtXu.PXvXY FXHXFXFXFXFXFXFXFXSXHXjXZXHXFX",
"sXHXSXFXFXHXtXSXFXSXHXjXjXHXHXAXyXHXHXAXsXHXLX0.jXHXFXFXFXFXFXFXFXFXFXFXFXFXFXFXFXFXFXFXFXHXCXjXHXSXFXFX1XFXFXFXFXFXFXHXAXyXHXSXFXFXFXFXSXLX5X6XLXSXFXFXHXSXyXHXFXFXSXHXyXAXHXSXHXyXSXHXFXFXtX@XFXSXtXSXPXf.>XLXSXFXFXFXFXFXFXFXFXFXFXFXFXFXFXFXFXFXFXHXAXyXHXFXFXFXSXHXtXjXjXrXtXtXtXtXrXaXoX^ ( ~ } aXrXtXtXtXtXrXsXjXtXtXeX).).).).).).).).).).7XtXtXjXyXyXHXSXFXFXFXFXFXFXFXFXFXFXFXHXAXyXHXFXFXFXFXFXFXFXFXFXFXFXSXPXl.L.PXSXFXFXFXFXFXFXFXFXFXFXFXHXyXSXFXFXFXFXFXFXFXFXFXFXFXSXLXtXu.PXvXY FXHXFXFXFXFXFXFXFXSXHXjXZXHXFX",
"sXHXSXFXFXHXtXSXFXSXHXjXjXHXHXAXyXHXHXAXsXHXLX0.jXHXFXFXFXFXFXFXFXFXFXFXFXFXFXFXFXFXFXFXFXHXCXjXHXSXFXFX1XFXFXFXFXFXFXHXAXyXHXSXFXFXFXFXSXLX5X6XLXSXFXFXHXSXyXHXFXFXSXHXyXAXHXSXHXyXSXHXFXFXtX@XFXSXtXSXPXf.>XLXSXFXFXFXFXFXFXFXFXFXFXFXFXFXFXFXFXFXFXHXAXyXHXFXFXFXSXHXtXjXjXrXtXtXtXtXrXaXoX^ ( ~ } aXrXtXtXtXtXrXsXjXyXrXtXqX8XqX8XeXeX8XqXqXqXrXtXtXjXyXyXHXSXFXFXFXFXFXFXFXFXFXFXFXHXAXyXHXFXFXFXFXFXFXFXFXFXFXFXSXPXl.L.PXSXFXFXFXFXFXFXFXFXFXFXFXHXyXSXFXFXFXFXFXFXFXFXFXFXFXSXLXtXu.PXvXY FXHXFXFXFXFXFXFXFXSXHXjXZXHXFX",
"sXHXSXFXFXHXtXSXFXSXHXjXjXHXHXAXyXHXHXAXsXHXLX0.jXHXFXFXFXFXFXFXFXFXFXFXFXFXFXFXFXFXFXFXFXHXCXjXHXSXFXFX1XFXFXFXFXFXFXHXAXyXHXSXFXFXFXFXSXLX5X6XLXSXFXFXHXSXyXHXFXFXSXHXyXAXHXSXHXyXSXHXFXFXtX@XFXSXtXSXPXf.>XLXSXFXFXFXFXFXFXFXFXFXFXFXFXFXFXFXFXFXFXHXAXyXHXFXFXFXSXHXtXjXjXrXtXtXtXtXrXaXoX^ ( ~ } aXrXtXtXtXtXrXsXjXyXrXrXqXqXqXqXqXeXqXqXqXqXeXtXtXjXyXyXHXSXFXFXFXFXFXFXFXFXFXFXFXHXAXyXHXFXFXFXFXFXFXFXFXFXFXFXSXPXl.L.PXSXFXFXFXFXFXFXFXFXFXFXFXHXyXSXFXFXFXFXFXFXFXFXFXFXFXSXLXtXu.PXvXY FXHXFXFXFXFXFXFXFXSXHXjXZXHXFX",
"sXHXSXFXFXHXtXSXFXSXHXjXjXHXHXAXyXHXHXAXsXHXLX0.jXHXFXFXFXFXFXFXFXFXFXFXFXFXFXFXFXFXFXFXFXHXCXjXHXSXFXFX1XFXFXFXFXFXFXHXAXyXHXSXFXFXFXFXSXLX5X6XLXSXFXFXHXSXyXHXFXFXSXHXyXAXHXSXHXyXSXHXFXFXtX@XFXSXtXSXPXf.>XLXSXFXFXFXFXFXFXFXFXFXFXFXFXFXFXFXFXFXFXHXAXyXHXFXFXFXSXHXtXjXjXrXtXtXtXtXrXaXoX^ ( ~ } aXrXtXtXtXtXrXsXjXyXrXrX8X7X7X7X8XqX7X7X7X7XeXtXtXjXyXyXHXSXFXFXFXFXFXFXFXFXFXFXFXHXAXyXHXFXFXFXFXFXFXFXFXFXFXFXSXPXl.L.PXSXFXFXFXFXFXFXFXFXFXFXFXHXyXSXFXFXFXFXFXFXFXFXFXFXFXSXLXtXu.PXvXY FXHXFXFXFXFXFXFXFXSXHXjXZXHXFX",
"sXHXSXFXFXHXtXSXFXSXHXjXjXHXHXAXyXHXHXAXsXHXLX0.jXHXFXFXFXFXFXFXFXFXFXFXFXFXFXFXFXFXFXFXFXHXCXjXHXSXFXFX1XFXFXFXFXFXFXHXAXyXHXSXFXFXFXFXSXLX5X6XLXSXFXFXHXSXyXHXFXFXSXHXyXAXHXSXHXyXSXHXFXFXtX@XFXSXtXSXPXf.>XLXSXFXFXFXFXFXFXFXFXFXFXFXFXFXFXFXFXFXFXHXAXyXHXFXFXFXSXHXtXjXjXrXtXtXtXtXrXaXoX^ ( ~ } aXrXtXtXtXtXrXsXjXyXrXrXqXqXqXqXeXeXqXqXqXqXeXtXtXjXyXyXHXSXFXFXFXFXFXFXFXFXFXFXFXHXAXyXHXFXFXFXFXFXFXFXFXFXFXFXSXPXl.L.PXSXFXFXFXFXFXFXFXFXFXFXFXHXyXSXFXFXFXFXFXFXFXFXFXFXFXSXLXtXu.PXvXY FXHXFXFXFXFXFXFXFXSXHXjXZXHXFX",
"sXHXSXFXSXFXtXSXFXSXHXjXjXHXFXAXyXHXHXAXsXHXLX0.jXHXSXFXFXFXFXFXFXFXFXFXFXFXFXFXFXFXFXFXSXHXCXjXHXSXFXFX1XFXFXFXFXFXFXHXAXyXHXSXFXFXFXFXSXLX5X6XLXSXFXFXFXSXyXHXSXFXSXHXyXAXHXSXHXyXSXFXFXFXtX@XFXSXtXSXPXf.>XLXSXFXFXFXFXFXFXFXFXFXFXFXFXFXFXFXFXFXFXHXAXyXHXSXFXFXSXHXtXjXjXrXtXtXtXtXrXaXoX^ ( ~ } aXrXtXtXtXtXrXsXjXyXrXrX8X7X7X7X8XqX7X7X7X7XeXtXtXjXyXyXHXSXFXFXFXFXFXFXFXFXFXFXFXHXAXyXHXSXFXFXFXFXFXFXFXFXFXFXSXPXl.L.PXSXFXFXFXFXFXFXFXFXFXFXSXHXtXSXFXFXFXFXFXFXFXFXFXFXFXSXHXtXu.PXvXY SXFXFXFXFXFXFXFXFXSXHXjXCXHXSX",
"jXLXHXHXHXHXyXHXHXHXLXjXZXHXHXSXsXHXHXAXsXHXPX0.CXLXHXHXHXHXHXHXHXHXHXHXHXHXHXHXHXHXHXHXHXHXZXjXLXHXHXHXfXHXHXHXHXHXHXHXSXsXHXHXHXHXHXHXHXLX5X6XPXHXHXHXHXFXyXHXHXHXHXLXsXSXHXHXHXyXFXHXHXHXyX&XHXHXyXHXIXf.3XPXHXHXHXHXHXHXHXHXHXHXHXHXHXHXHXHXHXHXHXHXSXsXHXHXHXHXHXHXtXjXjXrXtXtXtXtXrXaXoX^ ( ~ } aXrXtXtXtXtXrXsXjXyXrXrXqXqXqXqXeXeXqXqXqXqXeXtXtXjXyXsXLXHXHXHXHXHXHXHXHXHXHXHXHXHXSXsXHXHXHXHXHXHXHXHXHXHXHXHXFXIXl.P.IXHXHXHXHXHXHXHXHXHXHXHXHXHXyXFXHXHXHXHXHXHXHXHXHXHXHXHXLXtXu.IXbXY HXHXHXHXHXHXHXHXHXHXLXjXZXHXHX",
"tXZXjXjXjXCX4XjXjXjXZXtXsXZXCXjXrXZXCXjXtXCXAX5.tXZXjXjXjXjXjXjXjXjXjXjXjXjXjXjXjXjXjXjXjXZXsXtXZXjXjXjXY.jXjXjXjXjXjXCXjXrXZXjXjXjXjXjXjXAX6XY.AXjXjXjXCXjX4XZXjXjXjXZXrXjXCXjXZX4XjXCXjXjX4X@XjXjX4XjXHXu.=XSXjXjXjXjXjXjXjXjXjXjXjXjXjXjXjXjXjXjXjXCXjXrXZXjXjXjXjXAXtXjXjXrXtXtXtXtXrXaXoX^ ( ~ } aXrXtXtXtXtXrXsXjXyXrXrX8X7X7X7X8XqX7X7X7X7XeXtXtXjXyXyXZXjXjXjXjXjXjXjXjXjXjXjXjXCXjXrXZXjXjXjXjXjXjXjXjXjXjXjXjXFXf.l.FXjXjXjXjXjXjXjXjXjXjXjXjXZX4XjXjXjXjXjXjXjXjXjXjXjXjXjXAX2X0.HX0XY jXjXjXjXjXjXjXjXjXjXZXtXsXZXjX",
"4XjXjXjXjXjX3XjXjXjXjXtXtXjXjXsX4XjXjXyX4XjXZX1.rXjXjXjXjXjXjXjXjXjXjXjXjXjXjXjXjXjXjXjXjXjXtXrXjXjXjXjXY.jXjXjXjXjXjXjXsX4XjXjXjXjXjXjXjXCX2XU.CXjXjXjXjXjX4XjXjXjXjXjX4XsXjXjXjX4XjXjXjXjX3X@XjXjX3XjXAXu.P.ZXjXjXjXjXjXjXjXjXjXjXjXjXjXjXjXjXjXjXjXjXsX4XjXjXjXjXjXjXtXjXjXrXtXtXtXtXrXaXoX^ ( ~ } aXrXtXtXtXtXrXsXjXyXrXrXqXqXqXqXeXeXqXqXqXqXeXtXtXjXyXyXjXjXjXjXjXjXjXjXjXjXjXjXjXjXsX4XjXjXjXjXjXjXjXjXjXjXjXjXsXAXf.l.AXjXjXjXjXjXjXjXjXjXjXjXjXjX4XjXjXjXjXjXjXjXjXjXjXjXjXjXZX=X0.SX0XT jXjXjXjXjXjXjXjXjXjXjXrXtXjXjX",
"jXLXHXHXHXHXyXHXHXHXLXjXZXLXHXSXsXLXHXAXjXHXPX0.CXLXHXHXHXHXHXHXHXHXHXHXHXHXHXHXHXHXHXHXHXLXZXjXLXHXHXHXfXHXHXHXHXHXHXHXSXsXLXHXHXHXHXHXHXLX5X6XPXHXHXHXHXHXyXHXHXHXHXLXsXSXHXHXHXyXFXHXHXHXyX&XHXHXyXHXIXf.3XPXHXHXHXHXHXHXHXHXHXHXHXHXHXHXHXHXHXHXHXHXSXsXLXHXHXHXHXHXtXjXjXrXtXtXtXtXrXaXoX^ ( ~ } aXrXtXtXtXtXrXsXjXyXrXrX8X7X7X7X8XqX7X7X7X7XeXtXtXjXyXsXLXHXHXHXHXHXHXHXHXHXHXHXHXHXSXsXLXHXHXHXHXHXHXHXHXHXHXHXHXIXl.P.IXHXHXHXHXHXHXHXHXHXHXHXHXHXyXHXHXHXHXHXHXHXHXHXHXHXHXHXPXyXu.IXbXY HXHXHXHXHXHXHXHXHXHXLXjXAXLXHX",
"sXHXSXSXSXFXtXSXFXSXHXjXjXHXFXAXyXHXFXAXyXFXLX0.jXHXSXSXSXSXSXSXSXSXSXSXSXSXSXSXSXSXSXSXSXHXCXjXHXSXFXSX1XFXSXSXSXSXSXHXAXyXHXSXSXSXSXSXSXIXgX4XLXSXFXSXFXSXtXHXSXSXSXHXyXAXHXSXHXyXSXFXSXFXtX@XFXSXtXSXPXf.>XLXSXSXSXSXSXSXSXSXSXSXSXSXSXSXSXSXSXSXSXFXAXyXHXSXSXSXSXHXtXjXjXrXtXtXtXtXrXaXoX^ ( ~ } aXrXtXtXtXtXrXsXjXyXrXrXqXqXqXqXqXeXqXqXqXqXeXtXtXjXyXyXHXSXSXSXSXSXSXSXSXSXSXSXSXFXAXyXHXSXSXSXSXSXSXSXSXSXSXSXSXPXl.L.PXSXSXSXSXSXSXSXSXSXSXSXSXHXtXSXFXSXSXSXSXSXSXSXSXSXSXSXHXtXu.PXvXY SXFXSXSXSXSXSXSXSXSXHXjXCXHXSX",
"sXHXSXFXFXHXtXSXFXSXHXjXjXHXHXAXyXHXHXAXsXHXLX0.jXHXFXFXFXFXFXFXFXFXFXFXFXFXFXFXFXFXFXFXFXHXCXjXHXSXFXFX1XFXFXFXFXFXFXHXAXyXHXSXFXFXFXFXLXT.k n.GXHXFXFXHXSXyXHXFXFXSXHXyXAXHXSXHXyXSXHXFXFXtX@XFXSXtXSXPXf.>XLXSXFXFXFXFXFXFXFXFXFXFXFXFXFXFXFXFXFXFXHXAXyXHXFXFXFXSXHXtXjXjXrXtXtXtXtXrXaXoX^ ( ~ } aXrXtXtXtXtXrXsXjXyXrXrX8X7X7X7X8XqX7X7X7X7XeXtXtXjXyXyXHXSXFXFXFXFXFXFXFXFXFXFXFXHXAXyXHXFXFXFXFXFXFXFXFXFXFXFXSXPXl.L.PXSXFXFXFXFXFXFXFXFXFXFXFXHXyXSXFXFXFXFXFXFXFXFXFXFXFXSXLXtXu.PXvXY FXHXFXFXFXFXFXFXFXSXHXjXZXHXFX",
"sXHXSXFXFXHXtXSXFXSXHXjXjXHXHXAXyXHXHXAXsXHXLX0.jXHXFXFXFXFXFXFXFXFXFXFXFXFXFXFXFXFXFXFXFXHXCXjXHXSXFXFX1XFXFXFXFXFXFXHXAXyXHXSXFXFXHXHXH.4 5 4 h kXLXFXHXSXyXHXFXFXSXHXyXAXHXSXHXyXSXHXFXFXtX@XFXSXtXSXPXf.>XLXSXFXFXFXFXFXFXFXFXFXFXFXFXFXFXFXFXFXFXHXAXyXHXFXFXFXSXHXtXjXjXrXtXtXtXtXrXaXoX^ ( ~ } aXrXtXtXtXtXrXsXjXyXrXrXqXqXqXqXqXeXqXqXqXqXeXtXtXjXyXyXHXSXFXFXFXFXFXFXFXFXFXFXFXHXAXyXHXFXFXFXFXFXFXFXFXFXFXFXSXPXl.L.PXSXFXFXFXFXFXFXFXFXFXFXFXHXyXSXFXFXFXFXFXFXFXFXFXFXFXSXLXtXu.PXvXY FXHXFXFXFXFXFXFXFXSXHXjXZXHXFX",
"sXHXSXSXSXFXtXSXSXSXHXjXjXHXFXAXyXHXFXZXyXFXLX0.jXHXSXSXSXSXSXSXSXSXSXSXSXSXSXSXSXSXSXSXSXHXjXjXHXSXSXSX1XSXSXSXSXSXSXFXAXyXHXSXSXHXSXk 3 8 + O 2 h lXHXSXSXtXHXSXSXSXHXyXAXFXSXHXtXAXFXSXFXtX@XFXSXtXSXPXf.>XLXSXSXSXSXSXSXSXSXSXSXSXSXSXSXSXSXSXSXSXFXAXyXHXSXSXSXSXHXtXjXjXrXtXtXtXtXrXaXoX^ ( ~ } aXrXtXtXtXtXrXsXjXyXrXrX8X7X7X7X8XqX7X7X7X7XeXtXtXjXyXyXHXSXFXFXFXFXFXFXFXFXFXFXFXHXAXyXHXFXFXFXFXFXFXFXFXFXFXFXSXPXl.L.PXSXFXFXFXFXFXFXFXFXFXFXFXHXyXSXFXFXFXFXFXFXFXFXFXFXFXSXLXtXu.PXvXY FXHXFXFXFXFXFXFXFXSXHXjXZXHXFX",
"jXLXLXLXLXLXsXLXLXLXLXCXAXLXLXFXjXLXLXSXjXLXIXi.ZXLXLXLXLXLXLXLXLXLXLXLXLXLXLXLXLXLXLXLXLXLXAXCXLXLXLXLXfXLXLXLXLXLXLXLXSXjXLXHXLXlXh 4 j O @ @ - u h FXLXHXsXLXLXLXLXLXjXSXLXLXLXsXHXLXLXLXsX&XLXHXsXHXIXf.3XIXHXLXLXLXLXLXLXLXLXLXLXLXLXLXLXLXLXLXLXLXFXjXLXLXLXLXLXLXtXjXjXrXtXtXtXtXrXaXoX^ ( ~ } aXrXtXtXtXtXrXsXjXyXrXrXqXqXqXqXqXeXqXqXqXqXeXtXtXjXyXyXHXSXFXFXFXFXFXFXFXFXFXFXFXHXAXyXHXFXFXFXFXFXFXFXFXFXFXFXSXPXl.L.PXSXFXFXFXFXFXFXFXFXFXFXFXHXyXSXFXFXFXFXFXFXFXFXFXFXFXSXLXtXu.PXvXY FXHXFXFXFXFXFXFXFXSXHXjXZXHXFX",
"Y.5X5X5X5X5XU.5X5X5X5XY.2X5X5X6XU.5X5X6XU.5XzX4.Y.5X5X5X5X5X5X5X5X5X5X5X5X5X5X5X5X5X5X5X5X5X2XY.5X5X5X5XD.5X5X5X5X5X5X5X6XU.5XgXT.h 3 n.e.X y @ O n.3 k zX6XU.5X5X5X5X5XU.6X5X5X5XU.6X5X5X5XU.oX5X5XU.5XzXq.K.zX5X5X5X5X5X5X5X5X5X5X5X5X5X5X5X5X5X5X5X5X6XU.5X5X5X5X5XzXtXjXjXrXtXtXtXtXrXaXoX^ ( ~ } aXrXtXtXtXtXrXsXjXyXrXrX8X7X8X7X8XqX7X8X8X7XeXtXtXjXyXyXHXFXFXFXFXFXFXFXFXSXHXHXHXHXAXyXHXFXFXFXFXFXFXFXFXFXFXFXFXPXl.L.PXSXFXFXFXFXFXFXFXHXFXSXHXHXyXSXFXFXFXFXFXFXFXFXHXHXSXSXLXtXu.PXvXY FXHXFXFXFXFXSXFXFXHXHXjXZXHXFX",
"2XkXkXkXkXkX2XkXkXkXkX6X5XkXkXaX2XkXkX5X2XkXkX9.5XkXkXkXkXkXkXkXkXkXkXkXkXkXkXkXkXkXkXkXkXkX5X6XkXkXkXkXY.kXkXkXkXkXkXkXpX3XCXn.3 u pXCXg @ O O i g n.3 k CX2XkXkXkXkXkX2XtXkXkXkX2XzXkXjXkX2X@XkXzX2XzXlXw.P.kXkXkXkXkXkXkXkXkXkXkXkXkXkXkXkXkXkXkXkXkXaX2XkXkXkXkXkXkXtXjXjXrXtXtXtXtXrXaXoX^ ( ~ } aXrXtXtXtXtXrXsXjXyXrXrXqX8XqX8XqXeX8XqXqX8XeXtXtXjXyXsXHXAXHXHXFXFXFXFXSXHXZXAXSXSXSXyXHXFXFXFXFXFXFXFXSXHXHXHXjXIXl.L.PXSXFXFXFXFXFXFXSXjXFXHXjXSXyXSXFXFXFXFXFXFXFXHXSXZXHXHXLXtXu.PXvXY FXHXFXFXFXFXHXFXSXZXLXjXZXHXFX",
"jXLXHXHXHXLXsXHXHXHXLXjXAXLXLXSXsXLXLXSXjXLXIX0.ZXLXHXHXHXHXHXHXHXHXHXHXHXHXHXHXHXHXHXHXHXLXAXjXLXHXHXHXfXHXHXHXHXHXHXLXLX6Xk 4 k GXKXj j T.s 9.zXe.g k 4 H.DXLXHXHXHXLXjXSXLXHXLXsXHXLXlXGXjX&XLXHXsXHXIXf.3XIXHXHXHXHXHXHXHXHXHXHXHXHXHXHXHXHXHXHXHXLXSXsXLXHXHXHXHXLXtXjXjXrXtXtXtXtXrXaXoX^ ( ~ } aXrXtXtXtXtXrXsXjXyXrXrX8X8X8X7XqXqX7X8X8X8XeXtXtXjXyXjXjXjXAXSXHXFXFXSXHXrXq.4X9.q.AXyXHXFXFXFXFXFXFXSXHXZX,.K.,.P.K.L.PXSXFXFXFXFXSXHXjXw.f.L.w.AXyXSXFXFXFXFXFXFXSXHXI.,.4X2X4.yXu.PXvXY FXHXFXFXSXLXq.f.rX,.I.CXjXHXFX",
"sXHXSXFXSXFXtXSXFXSXHXjXjXHXFXAXyXHXFXAXyXFXLX0.jXHXSXFXFXFXFXFXFXFXFXFXFXFXFXFXSXSXSXSXSXHXjXyXHXSXSXFXfXKXJXJXKXFXNXjXH.4 2 y.#X#X .[ $X@XL.Y.lXlXR.g h 4 k HXLXSXSXHXyXAXHXSXFXtXHXH.3 h 2X&XSXSXtXSXPXf.>XLXSXFXFXFXFXFXFXFXFXFXFXFXFXFXFXFXFXFXSXFXAXyXHXSXFXFXSXHXtXjXjXrXtXtXtXtXrXaXoX^ ( ~ } aXrXtXtXtXtXrXsXjXyXrXrXqX8X8X8XqXeX8X8X8X8XeXtXtXjXyXjX3X4.,.9.FXFXFXFXIXw.q.S.K.f.=XjXHXFXFXFXFXFXSXHXIXK.,.K.a K.K.L.PXSXFXFXFXFXFXLXLXf.9.,.f.SXyXSXFXFXFXFXFXFXHXLXLXP.f.f.q.yXu.PXvXY FXHXFXSXLXIXS.w.IX>Xw.AXjXHXFX",
"sXHXSXFXFXHXtXSXFXSXHXjXjXHXHXAXyXHXHXAXsXHXLX0.jXHXFXFXFXFXFXSXSXSXSXSXSXSXSXSXSXSXFXHXHXJXGXlXJXJXHXDX-XhX%X#X&.&.r.5 3 j #X&. .[ @.&.@.&.%.*.#X@XjXY.g y 3 k aXLXHXHXyXAXFXSXHXgXk 3 j 4 k &XFXSXtXSXPXf.>XLXSXFXFXFXFXFXFXFXFXFXFXFXFXFXFXFXFXFXFXHXAXyXHXFXFXFXSXHXtXjXjXrXtXtXtXtXrXaXoX^ ( ~ } aXrXtXtXtXtXrXsXjXyXrXrX8X8X8X8XqXeX8X8X8X8XeXtXtXjXtXjX>Xp =Xq.jXHXHXjXS.,.K.9 =Xf.I.jXHXFXFXFXFXSXHX3Xf.a p q.9.f.K.L.PXSXFXFXFXFXHXS.tXCXs ,.f.f.ZXAXFXFXFXFXSXHXjXl.jXf.S.p s 3Xu.PXvXY FXHXSXHX=X=XtXf.LXq.ZXjXCXHXFX",
"yXHXSXSXSXSXtXSXSXSXHXjXjXHXSXAXyXFXSXZXyXSXLX0.jXHXSXSXFXFXFXHXHXHXKXKXKXJXJXJXJXKXFXSXDXmX%XXX#X#X&.&.@.&.&.#Xy.h 4 k >XOXR.g s I.gXgXgXuXJ.Q.Q.*.%.#XOXs y 3 4 H.AXIXCXSXLXLXSXk 3 n.VXn.u @XUXAXtXSXPXf.>XLXSXSXSXSXSXSXSXFXFXFXFXFXFXFXFXFXFXFXFXFXAXyXHXSXFXFXSXHXtXjXjXrXtXtXtXtXrXaXoX^ ( ~ } aXrXtXtXtXtXrXsXjXyXrXrXqX8X8X8XqXeX8X8X8X8XeXtXtXjXyXjX2Xs 2Xw.jXHXFXAXsXK.9.f.9.9.jXyXHXSXSXSXSXSXHXjXtXsX9.q.q.f.l.L.PXSXSXSXSXSXSXsX=Xw.q.f.4.=XjXAXFXSXSXSXSXFXZXjX4.a 2X2X9.rXu.PXvXY SXSXSXHXsXjX3XS.d.i 3XjXjXHXSX",
"kXJXKXJXJXJXaXKXJXJXJXkXlXJXJXKXkXJXJXGXlXJXPXq.lXJXHXHXFXSXSXSXDXNXmXmX%X%X#X#X#X&.&.&.&.&.&.&.#X#X^.;.= V.T.k 3 4 g e.s g 9.L.uXwXwXqXqXiXf.K.Y.N.@X@.%.%.} x.u 3 4 k n.T.fXH.u 4 N.UXNXoX* < XXNXsXLXIXf.eXIXLXLXLXLXLXLXLXHXHXHXHXHXHXHXHXHXHXHXHXLXSXsXLXHXHXHXHXLXtXjXjXrXtXtXtXtXrXaXoX^ ( ~ } aXrXtXtXtXtXrXsXjXyXrXrX8X8X8X8XqXeX8X8X8X8XeXtXtXjXyXsXLXSXHXFXHXHXHXLXIXLXsXLXZXAXHXjXLXHXHXHXHXHXHXLXPXPXLXLXtXIXK.=XIXHXHXHXHXHXHXIXHXtXHXHXjXPXsXHXLXHXHXHXHXHXLXPXAXyXAXIXPXyXu.IXbXY HXHXHXHXLXPXHXHXAXsXZXCXAXLXHX",
"@XmXmXhXhXhX@XhX&X%X&X%X$X%X%X$X#X%X#X#X#X#X#X| &.&.&.&.&.&.%.%.%.*.*.*.*.@.*.@.@.Q.oXoXJ.J.J.f.U.R.9 1 q 1 5 u g 9.e.e.K.iXNXBXgXgXBXiXiXL.e.e.P.K.gXgXhX@X@.%.%.y.f 5 4 4 4 4 2 d e.e.J.b % l % y.U.Y.zX9.K.zXpXzXzXzXzXzXzXkXkXkXkXkXkXkXkXkXkXkXkXkXzX6XkXkXkXkXkXkX6XjXjXrXtXtXtXtXrXaXoX^ ( ~ } aXrXtXtXtXtXrXsXjXyXrXrX8X8X8X8XqXeX8X8X8X8XeXtXtXjXyXtXjXsXsXjXsXsXsXyXyXyXjXyXjXjXtX>XjXyXsXsXsXsXsXyXyXyXsXsXjXAXd.f.ZXyXsXsXsXsXsXyXjXjXsXsXjXsX=XyXsXsXsXsXsXsXyXyXjXjXjXyXjX=X5.AX0XT yXsXsXsXyXyXsXsXjXjXjX2X4XjXyX",
"{ { { { { { { { { { {  . . . . . . . . .b b < < < t t t t t t 9 i i i i i i g g g i i i i 8 > = = 9 1 e w 1 8 7.1.6.0.i.i.1.i.0.6.2.<.q 8.q q q w w L L L L w q K n n n n b K K 0 8 8 8 9 # ! X.% & 8 8 8 8 8 8 8 8 8 8 8 8 8 8 8 8 8 8 8 8 8 8 8 8 8 8 8 8 8 8 8 8 8 8 e.DXjXrXtXtXtXtXrXaXoX^ ( ~ } aXrXtXtXtXtXrXsXjXyXrXrXqX8X8X8XqXeX8X8X8X8XeXtXtXjXjX=X+ O O O O O O O O O O O O O O O O O O O O O O O O O O O O + O O + O O O O O O O O O O O O O O O O O O O O O O O O O O O O O O O * R + O O O O O O O O O O O O O O ",
"F.T.T.T.T.T.F.G.T.T.T.G.G.T.T.G.F.T.T.G.F.T.T.f G.T.T.T.T.T.G.G.G.G.G.G.G.G.G.G.G.G.G.G.G.G.D.F.G.H.2 1 2 * F.G.G.D.F.F.n.v.v.w w w w e w w w w w j j H.G.F.F.G.G.G.G.1XD.1X1X1XfXD.fXfX0X[ % z % Q.C.,X0X7.g.0X,X,X,X,X,X,X,X,X:X,X,X,X,X:X,X<X<X<X<X<X-XZ.<X<X<X<X<X<X>XjXjXrXtXtXtXtXrXaXoX^ ( ~ } aXrXtXtXtXtXrXsXjXyXrXrX8X8X8X8XqXeX8X8X8X8XeXtXtXjXyXyXAXZXZXZXZXZXZXZXZXZXZXZXZXAXjX4XAXZXZXZXZXZXZXZXZXZXZXZXjXHXf.S.HXCXZXZXZXZXZXZXZXZXZXZXZXAX4XCXZXZXZXZXZXZXZXZXZXZXZXZXSX3X0.KXdXY ZXZXZXZXZXZXZXZXZXZXAXtXsXAXZX",
"E.E.E.E.E.E.E.E.E.E.E.E.E.E.E.E.E.E.E.E.E.E.E.C E.E.E.E.E.E.E.E.E.E.E.E.E.E.E.E.E.E.E.E.E.E.E.E.E.n K n ; J E.E.E.E.E.I J J J J J I E.I E.E.E.+.E.E.E.E././.E./.E.E.E.E.E.E.E.E.E.E.E.E.+.+.v l V +.+.E.E.C +.E.E.E.E.E.E.E.E.E.E.E.E.E.E.E.E.E.E.E.E.E.E.+.E.E.E.E.E.+.^.kXjXrXtXtXtXtXrXaXoX^ ( ~ } aXrXtXtXtXtXrXsXjXyXrXrXqX8X8X8XqXeX8X8X8X8XeXtXtXjXyXsXLXHXHXHXHXHXHXHXHXHXHXHXHXHXSXsXHXHXHXHXHXHXHXHXHXHXHXHXFXIXl.P.IXHXHXHXHXHXHXHXHXHXHXHXHXHXsXFXHXHXHXHXHXHXHXHXHXHXHXHXLXtXu.IXbXY HXHXHXHXHXHXHXHXHXHXLXjXAXHXHX",
"A A A A A S Z Z A A A A A A A A A A A A A A A S A A A A A A A A A A A A A A A A A A A S #.A V V S #.#.$.C V V D #.#.A #.A V #.#.#.#.A A A A #.A S Z A A A A A A A A A A A A A A A A A A A A #.#.F A A A A S S A A A A A A A A A A A A A A A A A A A A A A A A A A A A Z Q.kXjXrXtXtXtXtXrXaXoX^ ( ~ } aXrXtXtXtXtXrXsXjXyXrXrX8X8X8X7XqXqX7X8X8X8XeXtXtXjXyXyXHXSXFXFXFXFXFXFXFXFXFXFXSXFXAXyXHXSXFXFXFXFXFXFXFXFXFXFXSXPXl.L.PXSXFXFXFXFXFXFXFXFXFXFXSXHXtXSXFXFXFXFXFXFXFXFXFXFXFXSXHXtXu.PXvXY SXFXSXFXFXFXFXFXFXSXHXjXCXHXSX",
"1XlXdXdXlX!.V C fXlXlXfXfXlXlXdX1XlXlXdX1XlXlX8.fXlXlXlXlXlXlXlXlXlXdXdXlXlXlXlXdXdXlX(.p.u 4 k lXdXG.v.w H.fXlX%XMXKXIXH.q _.H.SXdXfXW.h.T.n.Y._.+.H.fXHXSXaXHXHXHXHXKXaXAXHXHXHXaXSXHXHXFXjXj 5 yXwXBXUXz.OXUXMXNXNXNXNXNXNXNXNXNXNXNXNXNXNXNXNXNXNXNXBXwXNXMXNXNXMXNXeXjXjXrXtXtXtXtXrXaXoX^ ( ~ } aXrXtXtXtXtXrXsXjXyXrXrXqX8XqX8XqXeX8XqXqX8XeXtXtXjXyXyXHXSXFXFXFXFXFXFXFXFXFXFXFXHXAXyXHXFXFXFXFXFXFXFXFXFXFXFXSXPXl.L.PXSXFXFXFXFXFXFXFXFXFXFXFXHXyXSXFXFXFXFXFXFXFXFXFXFXFXSXLXtXu.PXvXY FXHXFXFXFXFXFXFXFXSXHXjXZXHXFX",
"1XlXdXdXlX_.E.E.0XlXdXfXfXlXdXdX1XdXdXdX1XdXGX7.fXlXdXdXdXdXdXdXdXdXdXZXdXdXdXdXdXZXfXj 3 h T.1XH.w v.G.].(.T.lXD ).KXlXt.N J 6 jXfX1XZ _.k 6 k _.V q <XSXAXyXHXFXFXSXHXyXAXHXAXHXyXSXHXFXFXBXf.3 Y.wXBXUXz.OXNXmXMXMXMXMXMXMXMXMXMXMXMXMXMXMXMXMXMXMXMXBXwXNXMXMXMXMXNXeXjXjXrXtXtXtXtXrXaXoX^ ( ~ } aXrXtXtXtXtXrXsXjXyXrXrX8X7X8X7X8XqX7X8X8X7XeXtXtXjXyXyXHXSXFXFXFXFXFXFXFXFXFXFXFXHXAXyXHXFXFXFXFXFXFXFXFXFXFXFXSXPXl.L.PXSXFXFXFXFXFXFXFXFXFXFXFXHXyXSXFXFXFXFXFXFXFXFXFXFXFXSXLXtXu.PXvXY FXHXFXFXFXFXFXFXFXSXHXjXZXHXFX",
"1XlXdXdXlXW.W.E.0XlXdXfXfXdXdXdX1XdXdXdX1XdXGX7.fXlXdXdXdXdXdXdXdXAXG.w dXdXdXZXdXH.4 5 b.fXv.w H.fXHXPX~.N J J D E.KX8.J Z C q aXlX].Z _.C n r I Z Z _.fXzXtXFXSXHXHXHXyXZXIXH.H.BXAXFXSXSXyXOX4 n.hXBXUXz.OXNXmXMXMXMXMXMXMXMXMXMXMXMXMXMXMXMXMXMXMXMXBXwXNXmXMXMXMXNXeXjXjXrXtXtXtXtXrXaXoX^ ( ~ } aXrXtXtXtXtXrXsXjXyXrXrXqXqXqXqXqXeXqXqXqXqXeXtXtXjXyXyXHXSXFXFXFXFXFXFXFXFXFXFXFXHXAXyXHXFXFXFXFXFXFXFXFXFXFXFXSXPXl.L.PXSXFXFXFXFXFXFXFXFXFXFXFXHXyXSXFXFXFXFXFXFXFXFXFXFXFXSXLXtXu.PXvXY FXHXFXFXFXFXFXFXFXSXHXjXZXHXFX",
"1XlXdXdXlXE._.E.9XlXdXfXfXlXdXdXfXlXdXdX1XdXGX7.fXlXdXdXdXdXdXdXdXGXF.r fXlXZX_.h 3 k J L v.H.pXPXHXSXKX_.S D D Z V J Z Z S Z Z [.H.B.Z /.A Z Z S S D _.~.(.yXLXHXlXlXHXgXSXLXt.8.jXSXHXGXGXtX&Xh h wXBXUXz.OXNXmXMXMXMXMXMXMXMXMXMXMXMXMXMXMXMXMXMXMXMXBXwXNXMXMXMXMXNXeXjXjXrXtXtXtXtXrXaXoX^ ( ~ } aXrXtXtXtXtXrXsXjXyXrXrX8X7X7X7X8XqX7X7X7X7XeXtXtXjXyXyXHXSXFXFXFXFXFXFXFXFXFXFXFXHXAXyXHXFXFXFXFXFXFXFXFXFXFXFXSXPXl.L.PXSXFXFXFXFXFXFXFXFXFXFXFXHXyXSXFXFXFXFXFXFXFXFXFXFXFXSXLXtXu.PXvXY FXHXFXFXFXFXFXFXFXSXHXjXZXHXFX",
"!.lXdXdXdX+.h.C |.lXdXfXfXdXlX0X~.dXdXdX1XdXGX7.fXlXdXdXdXdXdXlXdXlX).V aXlXH.4 5 H.H.K t.GXDXjXHXSXSXKXW.$.#.Z $.E.N C K Z D V Q.5 L Z F $.$.F S S +.F D A D.fXUX8.v.IXT.1X(.N /.zXMXHXuXuXaX&XH.4 ;XNXUXz.OXNXmXMXMXMXMXMXMXMXMXMXMXMXMXMXMXMXMXMXMXMXBXwXNXMXMXMXMXNXeXjXjXrXtXtXtXtXrXaXoX^ ( ~ } aXrXtXtXtXtXrXsXjXyXrXrXqXqXqXqXqXeXqXqXqXqXeXtXtXjXyXyXHXSXFXFXFXFXFXFXFXFXFXFXFXHXAXyXHXFXFXFXFXFXFXFXFXFXFXFXSXPXl.L.PXSXFXFXFXFXFXFXFXFXFXFXFXHXyXSXFXFXFXFXFXFXFXFXFXFXFXSXLXtXu.PXvXY FXHXFXFXFXFXFXFXFXSXHXjXZXHXFX",
"!.lXZXGXcXC M.C |.lXdXfXfXdXlX^.V 0XlXfX1XdXGX7.fXlXdXdXdXlXdX!.0XdXW.D ].k 3 q w w H.F (.PXjXsXHXSXHXk n Q.F Z $.1XD (.T.W.F J E.5 q Z D /.j r.Z F W.Z V F W.C $.#.K H.~.G S Z E./.A SX(.(.zX&XfX3 N.VXUXz.OXNXmXMXMXMXMXMXMXMXMXMXMXMXMXMXMXMXMXMXMXMXBXwXNXMXMXMXMXNXeXjXjXrXtXtXtXtXrXaXoX^ ( ~ } aXrXtXtXtXtXrXsXjXyXrXrX8X7X7X7X8XqX7X7X7X7XeXtXtXjXyXyXHXSXFXFXFXFXFXFXFXFXFXFXFXHXAXyXHXFXFXFXFXFXFXFXFXFXFXFXSXPXl.L.PXSXFXFXFXFXFXFXFXFXFXFXFXHXyXSXFXFXFXFXFXFXFXFXFXFXFXSXLXtXu.PXvXY FXHXFXFXFXFXFXFXFXSXHXjXZXHXFX",
"^.lXw w m.+.F.C ^.lXdXfXfXdXlX(.D 9XlXfX1XlXlX7.pXlXdXdXlX].m.+.F ).+.K 5 4 w K K lXLX#.W.KXCXDXLXKXxXC V h.W._.Z.uXS (.KX~.A t.F 6 q F D /.T.z.Z 9X_.Z C C #.Z D Z C J #.$.S Z C V Z MX(./.kX@XAX5 j VXUXz.OXNXmXMXMXMXMXMXMXMXMXMXMXMXMXMXMXMXMXMXMXMXBXwXNXMXMXMXMXNXeXjXjXrXtXtXtXtXrXaXoX^ ( ~ } aXrXtXtXtXtXrXsXjXyXrXrXqXqXqXqXqXeXqXqXqXqXeXtXtXjXyXyXHXSXFXFXFXFXFXFXFXFXFXFXFXHXAXyXHXFXFXFXFXFXFXFXFXFXFXFXSXPXl.L.PXSXFXFXFXFXFXFXFXFXFXFXFXHXyXSXFXFXFXFXFXFXFXFXFXFXFXSXLXtXu.PXvXY FXHXFXFXFXFXFXFXFXSXHXjXZXHXSX",
"W._.6 r J W.F.C ^.lXdXfXfXdXlXE.V |.lXfX1X9X/.8.fXlXdXdXlXE.C C D W.j 3 5 r L F $.DXFX#.C 1XAXj dXKX%XN A M.F.F.D.1XA (.kXV.r.].C C n C V /.Y.z.S eX_.N +.I Z D Z S Z C C {.C K S D D xX/.F ^.&XLXk h BXUXz.OXNXmXMXMXMXMXMXMXMXMXMXMXMXMXMXMXMXMXMXMXMXBXwXNXMXMXMXMXNXeXjXjXrXtXtXtXtXrXaXoX^ ( ~ } aXrXtXtXtXtXrXsXjXyXrXrX8X7X7X7X8XqX7X7X7X7XeXtXtXjXyXyXHXSXFXFXFXFXFXFXFXFXFXFXFXHXAXyXHXFXFXFXFXFXFXFXFXFXFXFXSXPXl.L.PXSXFXFXFXFXFXFXFXFXFXFXFXHXyXSXFXFXFXFXFXFXFXFXFXFXFXSXLXtXu.PXvXY FXHXFXFXFXFXFXFXFXSXHXjXZXHXHX",
"C V C F D _.F.E._.lXdXfXfXlXdX+.C ^.lXdXW.F F w B.ZXdXdXlXE.V F J 5 3 e K C /.$.D ).cXZ Z %XlXJ 0XPX).F _.F.D.D.:X:XF _.1XZ.fX<X$.Z D W.].].U.z.$.1X^.N /.t.Z ^.+.D _.e e n.e j Z +.C %X/.N $.&XIXT.3 2XUXz.OXNXmXMXMXMXMXMXMXMXMXMXMXMXMXMXMXMXMXMXMXMXBXwXNXMXMXMXMXNXeXjXjXrXtXtXtXtXrXaXoX^ ( ~ } aXrXtXtXtXtXrXsXjXyXrXrXqXqXqXqXeXeXqXqXqXqXeXtXtXjXyXyXHXSXFXFXFXFXFXFXFXFXFXFXFXHXAXyXHXFXFXFXFXFXFXFXFXFXFXFXSXPXl.L.PXSXFXFXFXFXFXFXFXFXFXFXFXHXyXSXFXFXFXFXFXFXFXFXFXFXFXSXLXtXu.PXvXY FXHXFXFXFXFXFXFXFXSXHXjXCXHXFX",
"C D D V K M.F.W.J lXdXfXfXlXbXC J F 9XdXC F F C F aXlXdXlX$.V q 4 6 e J Z Z C /.$.(.).D D (.$.Z cXKX(.W.H.V.Y.A.,X:XA Q.:XC.uX<X$.D Z /.KXtXV.V.uX,XB.C $.yX$.sX/.D T.w w D.n.F.h.F.+.)./.Z $.i.j aX4 n.UXz.OXUXmXMXMXMXMXMXMXMXMXMXMXMXMXMXMXMXMXMXMXMXBXwXNXMXMXMXMXNXeXjXjXrXtXtXtXtXrXaXoX^ ( ~ } aXrXtXtXtXtXrXsXjXyXrXrX8X7X7X7X8XqX7X7X7X7XeXtXtXjXyXyXHXSXFXFXFXFXFXFXFXFXFXFXFXHXAXyXHXFXFXFXFXFXFXFXFXFXFXFXSXPXl.L.PXSXFXFXFXFXFXFXFXFXFXFXFXHXyXSXFXFXFXFXFXFXFXFXFXFXFXSXLXtXu.PXvXY FXHXFXFXFXFXFXFXFXSXHXjXZXHX2X",
"I D D V v.D.M.W.J fXlX1XfXlX{.C w n ).dXF V F V D /.aXlXGXr.5 3 e K ~._.V $.Z /.).$./.C S $.S Z ).KX(.r.n.Z.,X:X*X:XK h.:XC.<X1X/.J D Q.kX0XV.N.pX].1X$XQ.aX3XpX/.F Y.T.M.A.F.F.F.T./._.+.Z $.+.J 0Xe h UXz.OXmXmXMXmXMXMXMXMXMXMXMXMXMXMXMXMXMXMXMXmXMXBXwXNXmXMXMXmXMXeXjXjXrXtXtXtXtXrXaXoX^ ( ~ } aXrXtXtXtXtXrXsXjXyXrXrXqXqXqXqXeXeXqXqXqXqXeXtXtXjXyXyXHXSXSXSXSXSXSXSXSXSXSXSXSXFXAXyXHXSXSXSXSXSXSXSXSXSXSXSXSXPXl.L.PXSXSXSXSXSXSXSXSXSXSXSXSXHXtXSXFXSXSXSXSXSXSXSXSXSXSXSXHXtXu.PXvXY SXFXSXSXSXSXSXSXSXSXHXjXCX3X3X",
"I D C C fX1XM._.C fXGXfXaXfXe C w q (.dXV V V F W.G |.lXk 4 6 w '.Z %Xw e cXZ /.9XZ D E.D D S V /.UXF L n.*X,X:X:X,Xv.F.-XC.,X,XD.j xX-XyX0XV.N.0X:X-XsXpX0X3X1X/.+.1XY.S.].:X*XD.1X(.D S D A #.F J K 4 DXj.Q.$.mXNXNXNXNXNXNXNXNXNXNXNXNXNXNXNXNXNXNXNXmXwXNXNXNXNXNXNXeXjXjXrXtXtXtXtXrXaXoX^ ( ~ } aXrXtXtXtXtXrXsXjXyXrXrX8X7X7X7X8XqX7X7X7X7XeXtXtXjXyXsXLXHXHXHXHXHXHXHXHXHXHXHXHXHXSXsXLXHXHXHXHXHXHXHXHXHXHXHXHXIXl.P.IXHXHXHXHXHXHXHXHXHXHXHXHXHXyXHXHXHXHXHXHXHXHXHXHXHXHXHXPXyXu.IXbXY HXHXHXHXHXHXHXHXHXHXLXjX=XrXHX",
"r.F n 6 D.B.M.h.C D.pXY.fX].C C v.K I h.D V C F T.C _.h 3 e J E.eXS !.w e yXF E.~.Z S W.F C Z C C ).n w p.Z.Z.Z.Z.C.A.A.C.k.Z.C.>XeX5XA.C.A.s.d.].C.C.*XA.].*XD.E.+.S.V.s.C.Z.C.].S._.Z C F C Z D Z C 3 Y.b.q #.wXwXwXwXwXwXwXwXwXwXwXwXwXwXwXwXwXwXwXwXwX7XwXwXwXwXwXwXeXjXjXrXtXtXtXtXrXaXoX^ ( ~ } aXrXtXtXtXtXrXsXjXyXrXrXqXqXqXqXeXeXqXqXqXqXeXtXtXjXyXyXjXsXsXsXsXsXsXsXsXsXsXsXsXjXyX3XjXsXsXsXsXsXsXsXsXsXsXsXyXAXf.l.ZXyXsXsXsXsXsXsXsXsXsXsXsXjX3XsXsXsXsXsXsXsXsXsXsXsXsXsXjX=X0.AX0XT sXjXsXsXsXsXsXsXsXsXjX2XI.sXjX",
"D.^.J 6 D.D.M.h.C 1XlX~.[.!.D E.F.t.V E.F C C C aXv.4 6 q C S $.:Xn ~.v.v.3XF /.[.S S r.K $.Z E.C $.K j B.].].].].].*X*XA.V.].].*X,X4X*XA.*XN.s.*X].].*X].].C.].V.N.].*XC.A.].].].V.!.K q A r.Z Z S Z 5 h w q Z wXBXBXBXxXxXxXxXxXxXxXxXxXxXxXxXxXxXxXBXxX7XBXxXxXxXxXBXeXjXjXrXtXtXtXtXrXaXoX^ ( ~ } aXrXtXtXtXtXrXsXjXyXrXrX8X7X7X7X8XqX7X7X7X7XeXtXtXjXyXyXAXZXZXZXZXZXZXZXZXZXZXZXZXAXjXtXAXZXZXZXZXZXZXZXZXZXZXZXCXHXf.Z.HXCXZXZXZXZXZXZXZXZXZXZXZXAXrXCXZXZXZXZXZXZXZXZXZXZXZXZXSX3X0.KXvXY ZXZXZXZXZXZXZXZXZXZX>XI.CXAXZX",
"D.1XF.e D.D.M.C.C _.fX/.J t.C [.F._.V F D C C C h 3 e J Z A F $.Y.v.D.<X<X1X$./.fX(.S c.j /.N W.I Z _.F.B.:X:X:X:X:X,X,X*XC.,X:X,X,X1X,X*X,XV.N.<X*X:X:X:X*XC.,X:X:X*X,XZ.*X,X:X,XC.<XfX<X(.p.F S S Z K 4 C Z Z cXmX(.cXNXNXNXNXNXNXNXNXNXNXNXNXNXNXNXNXmXwXNXNXNXNXNXNXeXjXjXrXtXtXtXtXrXaXoX^ ( ~ } aXrXtXtXtXtXrXsXjXyXrXrXeXqXqXqXeXeXqXqXqXqXeXtXtXjXyXsXHXHXHXHXHXHXHXHXHXHXHXHXHXHXSXyXHXHXHXHXHXHXHXHXHXHXHXHXFXIXl.P.IXFXHXHXHXHXHXHXHXHXHXHXHXHXyXFXHXHXHXHXHXHXHXHXHXHXHXHXLXtXu.IXbXY HXHXHXHXHXHXHXHXHX3X4XjXZXHXHX",
"D.1XF.e D.D.M.D.C G _./.K K t.fXB.b.K V F C <.5 3 k I Z Z F $.$.1XxX,X,X<X:X$.E.T.).A M.Y./.N r.e D ^.F.B.*X*X*X*X*X*X:X].C.:X*X*X*X*X*X*X,XV.k.,X*X*X*X*X*XC.*X,X<X*X:XC.].:X*X:XC.*XSXjXpXM.l.$.N $.E.3 J N S #.S Z %XNXmXmXmXMXMXMXMXMXMXMXMXMXmXMXMXBXwXNXmXMXmXmXNXeXjXjXrXtXtXtXtXrXaXoX^ ( ~ } aXrXtXtXtXtXrXsXjXyXrXrX8X7X7X7X8XqX7X7X7X7XeXtXtXjXyXyXHXSXFXFXFXFXFXFXFXFXFXFXFXHXAXyXHXSXFXFXFXFXFXFXFXFXFXFXSXPXl.L.PXSXFXFXFXFXFXFXFXFXFXFXSXHXyXSXFXFXFXFXFXFXFXFXFXFXFXSXLXtXu.PXvXY SXHXFXFXFXSXFXHX3X2XHXjXCXHXSX",
"B.D.D.D.D.D.M.D.C D /.$.n n ~.Y.B.F.e V E.q 3 5 v.0Xw n Z F /./.1X<X*X,X,X:X!.t.F.^./.b.n.W.Z W.e C ^.F.B.*X*X*X*X*X*X:X].C.:X*X*X*X*X*X*X,XV.N.,X*X*X*X*X*XC.:X*X:X*X:XC.].:X*X:XC.].yX0X<XM.d./.#.9X/.5 q Z #.Z Z Z $XDXNXNXNXmXMXmXMXMXmXMXmXMXNXmXMXBXwXNXNXmXNXMXNXeXjXjXrXtXtXtXtXrXaXoX^ ( ~ } aXrXtXtXtXtXrXsXjXyXrXrXeXqXqXqXeXeXqXqXqXqXeXtXtXjXyXyXHXSXFXFXFXFXFXFXFXFXFXFXFXHXAXyXHXFXFXFXFXFXFXFXFXFXFXFXSXPXl.L.PXSXFXFXFXFXFXFXFXFXFXFXFXHXyXSXFXFXFXFXFXFXFXFXFXFXFXSXLXtXu.PXvXY FXHXFXFXFXFXHX3X3XHXHXjXZXHXFX",
"B.D.D.].D.D.M.D.L V C C D C F.D.M.].0Xt.5 3 k <.].0Xe e ).S 9X-X*X<X*XA.*X*X1Xb.M.<XsXb.c.Y.$.r.H.fXS.S.B.*X*X*X*X*X*X:X].C.:X*X*X*X*X*X*X,XV.N.,X*X*X*X*X*XC.:X*X*X*X:XC.].:X*X:XC.].<X,X,XN.7.D.sXpX).K 4 D $.#.$.N ).xX.X|.cXNXNXNXNXNXNXNXNXxXcXNXNXBXwXxXcXVXcXxXNXeXjXjXrXtXtXtXtXrXaXoX^ ( ~ } aXrXtXtXtXtXrXsXjXyXrXrX8X7X7X7X8XqX7X7X7X7XeXtXtXjXyXyXHXSXFXFXFXFXFXFXFXFXFXFXFXHXAXyXHXFXFXFXFXFXFXFXFXFXFXFXSXPXl.L.PXSXFXFXFXFXFXFXFXFXFXFXFXHXyXSXFXFXFXFXFXFXFXFXFXFXFXSXLXtXu.PXvXY FXHXFXFXFXHX3X3XHXFXHXjXZXHXFX",
"B.D.D.D.D.D.M.D.].F V C D J F.D.B.D.j 3 5 n.uXi.C.eXe k cXD -X1X*X,XA.M.*X*X:Xb.M.<X1Xc.c.F.$.r.Y.CXb.A.B.*X*X*X*X*X*X:X].C.:X*X*X*X*X*X*X,XV.N.,X*X*X*X*X*XC.:X*X*X*X:XC.].:X*X:XC.*X*X*X,XV.8.F.tXY.).V 4 p.).A /.N (.UX.X0X.X.XxX|.cXcX|.cX|.cX`.|.mX|.{.cX}.|.`.xXNXeXjXjXrXtXtXtXtXrXaXoX^ ( ~ } aXrXtXtXtXtXrXsXjXyXrXrXeXqXqXqXeXeXqXqXqXqXeXtXtXjXyXyXHXSXFXFXFXFXFXFXFXFXFXFXFXHXAXyXHXFXFXFXFXFXFXFXFXFXFXFXSXPXl.L.PXSXFXFXFXFXFXFXFXFXFXFXFXHXyXSXFXFXFXFXFXFXFXFXFXFXFXSXLXtXu.PXvXY FXHXFXFXHX4X3XHXFXSXHXjXZXHXFX",
"B.D.D.D.D.D.M.D.].+.D F V W.D.[.b.h 3 k B.eX1X7.Z.qXe j 9XF -X,X*X,XS.b.].-XA.b.b.:XD.c.b.b.F r.F.D.M.].B.*X*X*X*X*X*X:X].C.:X*X*X*X*X*X*X,XV.N.,X*X*X*X*X*XC.:X*X*X*X:XC.].:X*X:XC.*X*X*X*XV.7.M.1XC.[.F e k 7X$.(.A Z r.L _.}.|.|..XcX`..X.X|.xX}.|.}.|.'.|..X|..XxXNXeXjXjXrXtXtXtXtXrXaXoX^ ( ~ } aXrXtXtXtXtXrXsXjXyXrXrX8X7X7X7X8XqX7X7X7X7XeXtXtXjXyXyXHXSXFXFXFXFXFXFXFXFXFXFXFXHXAXyXHXFXFXFXFXFXFXFXFXFXFXFXSXPXl.L.PXSXFXFXFXFXFXFXFXFXFXFXFXHXyXSXFXFXFXFXFXFXFXFXFXFXFXSXLXtXu.PXvXY FXHXFXHX4X2XHXHXFXSXHXjXZXHXFX",
"B.D.D.D.D.D.M.D.].D.q q V ).D.j 4 4 v.uX].:X<X7.Z.qXw v.qX9X*X:X*X,XN.c.A.A.S.M.b.N.N.b.b.b.W.t.M.b.S.,XB.*X*X*X*X*X*X:X].C.:X*X*X*X*X*X*X,XV.N.,X*X*X*X*X*XC.:X*X*X*X:XC.].:X*X:XC.*X*X*X*XC.z.M.:XC.1X].K 4 l.xX8XwX).A C D W.cX}.|.xX.XcXxX.X|.|.|.}.|.`.|.`.|..XxXNXeXjXjXrXtXtXtXtXrXaXoX^ ( ~ } aXrXtXtXtXtXrXsXjXyXrXrXqXqXqXqXeXeXqXqXqXqXeXtXtXjXyXyXHXSXFXFXFXFXFXFXFXFXFXFXFXHXAXyXHXFXFXFXFXFXFXFXFXFXFXFXSXPXl.L.PXSXFXFXFXFXFXFXFXFXFXFXFXHXyXSXFXFXFXFXFXFXFXFXFXFXFXSXLXtXu.PXvXY SXHXHX4X>XFXHXFXFXSXHXjXCXHXSX",
"B.D.D.D.D.D.M.D.D.].H.e ^.D.h 3 h D.8X*XC.*X,X2.Z.qXw w <X1X*X*X*X:XM.c.A.M.M.M.S.M.M.M.b.b.c.M.N.b.A.-XB.*X*X*X*X*X*X:X].C.:X*X*X*X*X*X*X,XV.N.,X*X*X*X*X*XC.:X*X*X*X:XC.].:X*X:XC.*X*X*X*XC.j.b.A.C.,XDXd.3 n.7XOXwXDXhXV Z $.xXcXcXMXcX|.cX|.xXxXxXxX|.{.mXcX|.|.mXNXeXjXjXrXtXtXtXtXrXaXoX^ ( ~ } aXrXtXtXtXtXrXsXjXyXrXrX8X7X7X7X8XqX7X7X7X7XeXtXtXjXyXyXHXSXFXFXFXFXFXFXFXFXFXFXFXHXAXyXHXFXFXFXFXFXFXFXFXFXFXFXSXPXl.L.PXSXFXFXFXFXFXFXFXFXFXFXFXHXyXSXFXFXFXFXFXFXFXFXFXFXFXSXLXtXu.PXvXY SXHX4X>XFXHXSXSXSXSXHXjXZXJXJX",
"B.D.D.D.D.D.M.D.D.D.dX<Xj 4 4 v.Z.,X:X].C.*X,X7.Z.<Xc.M.-X:X*X*X].*XM.b.N.b.b.M.A.b.b.M.M.M.c.M.N.M.].*XB.*X*X*X*X*X*X:X].C.:X*X*X*X*X*X*X,XV.N.,X*X*X*X*X*XC.:X*X*X*X:XC.].:X*X:XC.].*X*X*XC.j.M.A.C.*XaXp.5 h +XOX9XmXBX!.#.#.NXMXDXNXNXNXNXNXMXMXMXNXBXwXNXMXNXNXmXMXeXjXjXrXtXtXtXtXrXaXoX^ ( ~ } aXrXtXtXtXtXrXsXjXyXrXrXqXqXqXqXeXeXqXqXqXqXeXtXtXjXyXyXHXSXFXFXFXFXFXFXFXFXFXFXFXHXAXyXHXFXFXFXFXFXFXFXFXFXFXFXSXPXl.L.PXSXFXFXFXFXFXFXFXFXFXFXFXHXyXSXFXFXFXFXFXFXFXFXFXFXFXSXLXtXu.PXvXY HXtX2XFXSXSXFXJXJXJXJXjXgXNXhX",
"N.D.D.D.D.D.M.D.D.D.T.h 3 h D.-XS.,X,X*XZ.,X<X2.L.,X<X<X*X,X*XP.N.A.M.b.b.b.b.M.*Xb.b.S.P.M.c.N.I.I.,X*XN.:X*X:X:X:X*X,X*XZ.>X*X:X:X:X:X*X<XS.f.<X*X:X:X:X*XC.,X*X:X*X>XZ.*X,X*X,XC.*X:X*X:XC.j.b.A.Z.*X4Xi.f 4 N.+XOXwXBXUX$X#.xXUX).%XNXNXNXNXNXNXNXNXBXwXNXNXNXNXNXNXeXjXjXrXtXtXtXtXrXaXoX^ ( ~ } aXrXtXtXtXtXrXsXjXyXrXrX8X7X7X7X8XqX7X7X7X7XeXtXtXjXyXyXHXSXFXFXFXFXFXFXFXFXFXFXFXHXAXyXHXFXFXFXFXFXFXFXFXFXFXFXSXPXl.L.PXSXFXFXFXFXFXFXFXFXFXFXFXHXyXSXFXFXFXFXFXFXFXFXFXFXFXSXLXtXu.PXvXY 4X=XSXSXJXJXHXBXXX=.' ' ` Q Q ",
"m.B.B.B.B.B.m.B.'.m.e 5 v.'.{.'.B.'.'.'.B.'.{.<.'.'.'.'.'.'.'.B.m.m.m.m.m.m.m.m.'.m.m.'.{.B.c.m.{.'.'.'.m.'.'.'.'.'.'.'.'.B.'.'.'.'.'.'.'.{.B.B.{.'.'.'.'.'.B.'.'.'.'.'.B.'.'.'.'.B.'.'.'.'.B._.m.m.B.'.{.t.t.5 v.^.~.~.'.{.|.F F '.C /.xXcXcXcXcXcXcXcXcX{.cXcXcXcXcXcXeXjXjXrXtXtXtXtXrXaXoX^ ( ~ } aXrXtXtXtXtXrXsXjXyXrXrXqXqXqXqXeXeXqXqXqXqXeXtXtXjXyXyXHXSXFXFXFXFXFXFXFXFXFXFXFXHXAXyXHXFXFXFXFXFXFXFXFXFXFXFXSXPXl.L.PXSXFXFXFXFXFXFXFXFXFXFXFXHXyXSXFXFXFXFXFXFXFXFXFXFXFXSXLXtXu.PXbXT =XFXJXJXhX=.' Q Q ` ' *.=.XXXX",
"U U U U U U U U U P R U U U U U U U U U U U U U U U U U U U U U U U U U U U U U U U U U U U U U U U U U U U U U U U U U U U U U U U U U U U U U U U U U U U U U U U U U U U U U U U U U U U U U U U U U U U U U U U U U U U U U P P U U U U U U U U U U U U U U U U U Y eXjXjXrXtXtXtXtXrXaXoX^ ( ~ } aXrXtXtXtXtXrXsXjXyXrXrX8X7X7X7X8XqX7X7X7X7XeXtXtXjXyXyXHXSXFXFXFXFXFXFXFXFXFXFXFXHXAXyXHXFXFXFXFXFXFXFXFXFXFXFXSXPXl.L.PXSXFXFXFXFXFXFXFXFXFXFXFXHXyXSXFXFXFXFXFXFXFXFXFXFXFXSXHXtX0.xXr.W xXDXXX' Q Q ' XXhXBXJXlXGXJXJX",
"m.'.m.m.'.'.v.e e m.'.'.'.'.'.'.'.'.'.'.'.'.'.t.'.'.'.'.'.m.m.m.m.m.m.m.m.'.m.m.'.m.m.'.'.'.m.m.'.'.'.'.m.'.'.'.'.'.'.'.'.'.'.'.'.'.'.'.'.'.m.m.'.'.'.'.'.'.m.'.'.'.'.'.'.'.'.'.'.m.'.'.'.'.m._.m.m.m.'.{.t.h.m.e m.^._._._._./.L e /./.|.F |.cXcXcXcXcX|.{.cXcXcXcX|.cXeXjXjXrXtXtXtXtXrXaXoX^ ( ~ } aXrXtXtXtXtXrXsXjXyXrXrXqXqXqXqXqXeXqXqXqXqXeXtXtXjXyXyXHXFXHXHXHXHXHXHXHXHXHXHXHXHXSXyXHXFXHXHXHXHXHXHXHXHXHXHXSXIXl.P.PXSXHXHXHXHXHXHXHXHXHXHXFXHXyXSXHXHXHXHXHXHXHXHXHXHXHXFXLXtX<.: l l n ' Q ' XXBXJXJXJXHXHXjXCXHXSX",
"N.D.D.A.D.j 3 u F.=X>XZ.L.>X=X*XS.=X=XP.Z.=X>X2.A.>X=X*X=XM.c.b.b.b.S.S.N.>Xb.N.>XP.A.=X=X>XM.N.>X*X=X=XN.=X=X=X=X=X=X=X*XS.>X*X=X=X=X=X*X>XS.f.>X*X=X=X=X*XS.=X=X=X*X>XS.*X=X*X=XS.*X=X=X=XS.~.S.c.w.I.<X6.k.>X4 h +XOXOXOX!.hXuXY.#XC Q.#.BXNXVXVXNXVXBXwXNXVXNXNXVXVXeXjXjXrXtXtXtXtXrXaXoX^ ( ~ } aXrXtXtXtXtXrXsXjXyXrXrX8X7X7X7X8XqX7X7X7X7XeXtXtXjXyXyXHXSXSXSXSXSXSXSXSXSXSXSXSXSXAXtXFXSXSXSXSXSXSXSXSXSXSXSXAXPXl.L.LXAXSXSXSXSXSXSXSXSXSXSXSXSXtXAXSXSXSXSXSXSXSXSXSXSXSXSXFXaX, % A S % { @XFXJXFXAXAXAXAXFXsXjXFXSX",
":.<.<.q 5 4 w <.2.<.<.<.<.<.<.<.:.<.<.<.:.<.7.0 <.<.<.<.<.f q f <.0 <.<.<.<.f :.<.<.<.<.<.<.<.:.<.<.<.<.<.<.<.<.<.<.<.<.<.:.<.<.<.<.<.<.<.<.:.:.<.<.<.<.<.<.:.<.<.<.<.<.:.<.<.<.<.:.<.<.<.<.:.3.<.f 0 <.7.0 :.2.h 4 <.3.3.3.3.3.r.`.E.G G S r.`._.r.`.r.3.3.t.r.`._.3.y.eXjXjXrXtXtXtXtXrXaXoX^ ( ~ } aXrXtXtXtXtXrXsXjXyXrXrXqXqXqXqXqXeXqXqXqXqXeXtXtXjXsX4X0.0.0.0.0.0.0.0.0.0.0.0.0.0.5.2.0.0.0.0.0.0.0.0.0.0.0.0.0.0.p ;.0.0.0.0.0.0.0.0.0.0.0.0.0.0.2.0.0.0.0.0.0.0.0.0.0.0.0.0.1.b.0 # D M ; r.w.0.5.0.0.0.0.0.0.1.1.0.0.",
"B.D.j 4 5 n.[.:X:X:X,XA.].,X:X*XC.,X,X].Z.,X<X7.A.,X:X:X,XM.c.M.:Xb.A.,X:X,XS.D.,X:X:X:X:X,X].Z.,X:X:X:XB.:X:X:X:X:X:X,X*XZ.,X:X:X:X:X:X:X,XS.N.<X:X:X:X:X*XC.,X:X:X:X,XZ.*X,X:X,XC.*X:X:X:XC.~.,XN.8.A.0X7.g.0XF.4 b.+X!.!.!.7X9X9XI F C S cX.XcX}.|.}.MX.X`.|..X.XxXNXeXjXjXrXtXtXtXtXrXaXoX^ ( ~ } aXrXtXtXtXtXrXsXjXyXrXrX8X7X7X7X8XqX7X7X7X7XeXtXtXjXyXsXLXHXHXHXHXHXHXHXHXHXHXHXHXHXSXsXHXHXHXHXHXHXHXHXHXHXHXHXFXIXl.P.IXFXHXHXHXHXHXHXHXHXHXHXHXHXsXFXHXHXHXHXHXHXHXHXHXHXFXJXkX} n # # # h.DXHXHXHXHXHXHXHXHXHXjXAXHXHX",
"b.h 3 k A.-XC.*X*X*X:XZ.A.:X*X].C.:X*X].C.*X,X2.].:X*X*X*XM.c.M.*XM.].*X*X*X*X*X*X*X*X*X*X:XA.Z.:X*X*X*XB.*X*X*X*X*X*X*X].C.:X*X*X*X*X*X*X,XV.g.,X*X*X*X*X*XC.:X*X*X*X:XC.].*X*X:XC.*X*X*X*XC.j.*XA.8.A.<X7.g.,X-Xh h !.!.!.!._.!.'.W.A C N %XxX.X|..X}.cX|.|.|.}.|.cXNXeXjXjXrXtXtXtXtXrXaXoX^ ( ~ } aXrXtXtXtXtXrXsXjXyXrXrXqXqXqXqXqXeXqXqXqXqXeXtXtXjXyXyXHXSXSXSXSXSXSXSXSXSXSXSXSXFXAXyXHXSXSXSXSXSXSXSXSXSXSXSXSXPXl.L.PXSXSXSXSXSXSXSXSXSXSXSXSXHXtXSXFXSXSXSXSXSXSXFXSXSXJXeX' Q  .A.t.R dXHXFXSXSXSXSXSXSXSXHXjXCXHXSX",
"4 5 n.-X-X:XC.*X*X*X:XZ.A.:X*X*XC.:X:X].C.*XA.<.V.,X*X*X*XM.c.M.,X*X*X*X*X*X*X*X*X*X*X*X*X:X].Z.,X*X*X*XB.*X*X*X*X*X*X:X].C.:X*X*X*X*X*X*X,XV.N.,X*X*X*X*X*XC.:X*X*X*X:XC.].:X*X:XC.*X*X*X*XC.j.*X*X8.S.0X7.g.,X-Xn.3 N.+X!.!.~._.E W.F I D |.cX.XcX.XcXxX`..X|..X}.cXNXeXjXjXrXtXtXtXtXrXaXoX^ ( ~ } aXrXtXtXtXtXrXsXjXyXrXrX8X7X8X7X8XqX7X8X8X7XeXtXtXjXyXyXHXSXFXFXFXFXFXFXFXFXFXFXFXHXAXyXHXFXFXFXFXFXFXFXFXFXFXFXSXPXl.L.PXSXFXFXFXFXFXFXFXFXFXFXFXHXyXSXFXFXFXFXFXFXFXSXSXJX@X` ` y.d.PXdXY FXHXFXFXFXFXFXFXFXSXHXjXZXHXFX",
"h A.-X*X*X*XC.*X*X*X:XZ.A.:X*X*XZ.:X:X].Z.A.M.f c.S.*X,XA.M.b.M.,X*X*X*X*X*X*X*X*X*X*X*X*X:X].Z.,X*X*X*XB.*X*X*X*X*X*X:X].C.:X*X*X*X*X*X*X,XV.N.,X*X*X*X*X*XC.:X*X*X*X:XC.].:X*X:XC.*X*X*X*XC.j.*X-XM.b.<X7.g.,X-XD.4 j +X!.!.OX~.~.^.7X$.N ).vXxXxXcXNXBX9XxXmXcXcXNXNXeXjXjXrXtXtXtXtXrXaXoX^ ( ~ } aXrXtXtXtXtXrXsXjXyXrXrXqX8XqX8XqXeX8XqXqX8XeXtXtXjXyXyXHXSXFXFXFXFXFXFXFXFXFXFXFXHXAXyXHXFXFXFXFXFXFXFXFXFXFXFXSXPXl.L.PXSXFXFXFXFXFXFXFXFXFXFXFXHXyXSXFXFXFXFXFXFXSXSXJXXXQ ' hXdXi.PXvXY SXHXFXFXFXFXFXFXFXSXHXjXZXHXFX",
"[.,X*X*X*X:XV.A.*X*X:XZ.A.:X*XA.M.:X:X].V.N.b.f c.b.A.A.M.b.M.M.,X*X*X*X*X*X*X*X*X*X*X*X*X:X].Z.,X*X*X*XB.*X*X*X*X*X*X:X].C.:X*X*X*X*X*X*X,XV.N.,X*X*X*X*X*XC.:X*X*X*X:XC.].:X*X:XC.*X*X*X*XC.j.*X*XN.M.<X7.g.<X*X-Xh 5 !.!.!.!.!.OXOX;X+X$.+.wXMXNXNXMXBXwXNXMXNXNXMXNXeXjXjXrXtXtXtXtXrXaXoX^ ( ~ } aXrXtXtXtXtXrXsXjXyXrXrX8X8X8X8XqXqX7X8X8X8XeXtXtXjXyXyXHXSXFXFXFXFXFXFXFXFXFXFXFXHXAXyXHXFXFXFXFXFXFXFXFXFXFXFXSXPXl.L.PXSXFXFXFXFXFXFXFXFXFXFXFXHXyXSXFXFXFXFXFXSXSXJX=.Q *.DXPXeXu.PXvXY FXHXFXFXFXFXFXFXFXSXHXjXZXHXFX",
"C.:X*X*X*X*Xp.b.:X*X:XZ.A.:X,XS.8.A.,X].c.b.b.f M.b.M.b.c.b.S.S.*X*X*X*X*X*X*X*X*X*X*X*X*X:X].Z.,X*X*X*XB.*X*X*X*X*X*X:X].C.:X*X*X*X*X*X*X,XV.N.,X*X*X*X*X*XC.:X*X*X*X:XC.].:X*X:XC.*X*X*X*XC.j.*X*XV.b.,X7.g.<X*X-Xn.3 b.+X!.!.!.!.!.!.8X).N F xXMXmXMXBXwXNXMXMXMXMXNXeXjXjXrXtXtXtXtXrXaXoX^ ( ~ } aXrXtXtXtXtXrXsXjXyXrXrXqX8X8X8XqXeX8X8X8X8XeXtXtXjXyXyXHXSXFXFXFXFXFXFXFXFXFXFXFXHXAXyXHXFXFXFXFXFXFXFXFXFXFXFXSXPXl.L.PXSXFXFXFXFXFXFXFXFXFXFXFXHXyXSXFXFXFXFXSXFXJX=.Q =.HXHXHXtXu.PXvXY FXHXFXFXFXFXFXFXFXSXHXjXZXHXFX",
"Z.:X*X*X-XA.8.b.].*X:XZ.A.:X,XM.8.A.,X].c.b.b.f *XN.c.b.b.b.].*X*X*X*X*X*X*X*X*X*X*X*X*X*X:X].Z.,X*X*X*XB.*X*X*X*X*X*X:X].C.:X*X*X*X*X*X*X,XV.N.,X*X*X*X*X*XC.:X*X*X*X:XC.].:X*X:XC.*X*X*X*XC.j.*X*XC.b.:X7.g.<X*X*X*X5 h +X!.!.!.!.!.!.OX7X%X$.cXNXmXMXBXwXNXMXMXMXMXNXeXjXjXrXtXtXtXtXrXaXoX^ ( ~ } aXrXtXtXtXtXrXsXjXyXrXrX8X8X8X8XqXeX8X8X8X8XeXtXtXjXyXyXHXSXFXFXFXFXFXFXFXFXFXFXFXHXAXyXHXFXFXFXFXFXFXFXFXFXFXFXSXPXl.L.PXSXFXFXFXFXFXFXFXFXFXFXFXHXyXSXFXFXFXSXHXHX*.Q XXJXFXSXLXtXu.PXvXY FXHXFXFXFXFXFXFXFXSXHXjXZXHXFX",
"Z.:X*X*X-XS.8.b.A.*X:XZ.A.:X*XM.8.S.:X].c.b.b.f ].A.b.c.b.b.].*X*X*X*X*X*X*X*X*X*X*X*X*X*X:X].Z.,X*X*X*XB.*X*X*X*X*X*X:X].C.:X*X*X*X*X*X*X,XV.N.,X*X*X*X*X*XC.:X*X*X*X:XC.].:X*X:XC.*X*X*X*XC.j.*X*XC.M.A.0.g.<X*X*X-Xj 4 l.!.!.!.!.!.!.!.7XBX#.cXDXmXMXBXwXNXMXMXMXMXNXeXjXjXrXtXtXtXtXrXaXoX^ ( ~ } aXrXtXtXtXtXrXsXjXyXrXrXqX8X8X8XqXeX8X8X8X8XeXtXtXjXyXyXHXSXFXFXFXFXFXFXFXFXFXFXFXHXAXyXHXFXFXFXFXFXFXFXFXFXFXFXSXPXl.L.PXSXFXFXFXFXFXFXFXFXFXFXFXHXyXSXFXFXSXHXHX*.Q XXJXSXSXFXLXtXu.PXvXY FXHXFXFXFXFXFXFXFXSXHXjXZXHXFX",
"Z.:X*X*X,XN.M.M.A.-X:XZ.A.:X*XM.8.M.A.].8.b.b.f ].:XN.M.S.M.].*X*X*X*X*X*X*X*X*X*X*X*X*X*X:X].Z.,X*X*X*XB.*X*X*X*X*X*X:X].C.:X*X*X*X*X*X*X,XV.N.,X*X*X*X*X*XC.:X*X*X*X:XC.].:X*X:XC.*X*X*X*XC.j.*X*XC.M.M.7.g.,X*X*X-XF.4 c.+X!.!.!.!.!.!.OXBX$.(.VXNXMXBXwXNXMXMXMXMXNXeXjXjXrXtXtXtXtXrXaXoX^ ( ~ } aXrXtXtXtXtXrXsXjXyXrXrXqX8X8X8XqXeX8X8X8X8XeXtXtXjXyXyXHXSXFXFXFXFXFXFXFXFXFXFXFXHXAXyXHXFXFXFXFXFXFXFXFXFXFXFXSXPXl.L.PXSXFXFXFXFXFXFXFXFXFXFXFXHXyXSXHXSXHXHX*.Q XXJXSXSXFXSXLXtXu.PXvXY FXHXFXFXFXFXFXFXFXSXHXjXZXHXFX",
"Z.:X*X*X,XM.M.M.A.-X:XZ.A.:X*Xb.M.M.A.A.8.b.b.f ].:XN.S.*XN.*X*X*X*X*X*X*X*X*X*X*X*X*X*X*X:X].Z.,X*X*X*XB.*X*X*X*X*X*X:X].C.:X*X*X*X*X*X*X,XV.N.,X*X*X*X*X*XC.:X*X*X*X:XC.].:X*X:XC.*X*X*X*XC.j.*X*XC.N.b.<.k.,X*X*X*X-Xh h !.!.!.!.!.!.!.!.qX+.N _.1XVXBXwXNXMXMXMXMXNXeXjXjXrXtXtXtXtXrXaXoX^ ( ~ } aXrXtXtXtXtXrXsXjXyXrXrX8X8X8X8XqXeX8X8X8X8XeXtXtXjXyXyXHXSXFXFXFXFXFXFXFXFXFXFXFXHXAXyXHXFXFXFXFXFXFXFXFXFXFXFXSXPXl.L.PXSXFXFXFXFXFXFXFXFXFXFXFXHXyXSXSXFXHX*.Q XXJXSXSXFXFXSXLXtXu.PXvXY FXHXFXFXFXFXFXFXFXSXHXjXZXHXFX",
"Z.:X*X*X-XM.N.M.S.-X:XZ.A.,X*Xb.N.M.M.N.8.b.F.:.].,XN.S.*X].*X*X*X*X*X*X*X*X*X*X*X*X*X*X*X:X].Z.,X*X*X*XB.*X*X*X*X*X*X:X].C.:X*X*X*X*X*X*X,XV.N.,X*X*X*X*X*XC.:X*X*X*X:XC.].:X*X:XC.*X*X*X*XC.j.*X*XZ.S.b.:.s.,X*X*X*X-Xn.3 N.+X!.!.!.!.!.!.[.+.N q v.VXBXwXNXMXMXMXMXNXeXjXjXrXtXtXtXtXrXaXoX^ ( ~ } aXrXtXtXtXtXrXsXjXyXrXrXqX8X8X8XqXeX8X8X8X8XeXtXtXjXyXyXHXSXFXFXFXFXFXFXFXFXFXFXFXHXAXyXHXFXFXFXFXFXFXFXFXFXFXFXSXPXl.L.PXSXFXFXFXFXFXFXFXFXFXFXFXHXyXSXSXJX*.Q XXJXSXSXFXFXFXSXLXtXu.PXvXY FXHXFXFXFXFXFXFXFXSXHXjXZXHXFX",
"Z.:X*X*X*XM.V.M.S.-X:XZ.A.,XS.b.V.M.c.M.8.b.A.<.A.,XN.S.-X*X*X*X*X*X*X*X*X*X*X*X*X*X*X*X*X:X].Z.,X*X*X*XB.*X*X*X*X*X*X:X].C.:X*X*X*X*X*X*X,XV.N.,X*X*X*X*X*XC.:X*X*X*X:XC.].:X*X:XC.*X*X*X*XC.j.*X*XC.A.b.f a.<X*X*X*X-XA.4 j +X!.!.!.!.!.!.;X+.N K v.VXBXwXNXMXMXMXMXNXeXjXjXrXtXtXtXtXrXaXoX^ ( ~ } aXrXtXtXtXtXrXsXjXyXrXrX8X8X8X8XqXeX8X8X8X8XeXtXtXjXyXyXHXSXFXFXFXFXFXFXFXFXFXFXFXHXAXyXHXFXFXFXFXFXFXFXFXFXFXFXSXPXl.L.PXSXFXFXFXFXFXFXFXFXFXFXFXHXtXSXJX=.Q XXJXSXSXFXFXFXFXSXLXtXu.PXvXY FXHXFXFXFXFXFXFXFXSXHXjXZXHXFX",
"Z.:X*X*X].b.C.M.S.-X:XZ.].:XM.b.Z.S.c.b.c.M.<X2.A.,XS.S.-X*X*X*X*X*X*X*X*X*X*X*X*X*X*X*X*X:X].Z.,X*X*X*XB.*X*X*X*X*X*X:X].C.:X*X*X*X*X*X*X,XV.N.,X*X*X*X*X*XC.:X*X*X*X:XC.].:X*X:XC.*X*X*X*XC.j.*X*XC.A.b.f p.:X*X*X*X*X-Xk 5 !.!.!.!.!.!.!.;X/.Z D $.NXBXwXNXMXMXMXMXNXeXjXjXrXtXtXtXtXrXaXoX^ ( ~ } aXrXtXtXtXtXrXsXjXyXrXrXqX8X8X8XqXeX8X8X8X8XeXtXtXjXyXyXHXSXFXFXFXFXFXFXFXFXFXFXFXHXAXyXHXFXFXFXFXFXFXFXFXFXFXFXSXPXl.L.PXSXFXFXFXFXFXFXFXFXFXFXFXHXtXJX=.Q XXJXSXSXFXFXFXFXFXSXLXtXu.PXvXY FXHXFXFXFXFXFXFXFXSXHXjXZXHXFX",
"Z.:X*X-XA.b.Z.M.N.-X:XZ.].].b.M.Z.A.b.c.M.*X,X2.Z.,XS.D.-X*X*X*X*X*X*X*X*X*X*X*X*X*X*X*X*X:X].Z.:X*X*X*XB.*X*X*X*X*X*X*X].C.:X*X*X*X*X*X*X,XV.k.,X*X*X*X*X*XC.:X*X*X*X:XC.].:X*X:XC.*X*X*X*XC.j.*X*XC.*XD.f 8.M.*X*X*X*X-Xn.3 b.+X!.!.!.!.!.;X/.Z Z #.xXBXwXNXmXMXMXmXNXeXjXjXrXtXtXtXtXrXaXoX^ ( ~ } aXrXtXtXtXtXrXsXjXyXrXrX8X8X8X7XqXqX7X8X8X8XeXtXtXjXyXyXHXSXFXFXFXFXFXFXFXFXFXFXFXHXAXyXHXSXFXFXFXFXFXFXFXFXFXFXSXPXl.L.PXSXFXFXFXFXFXFXFXFXFXFXSXHXdX=.Q XXJXSXSXFXFXFXFXFXFXSXHXtXu.PXvXY SXFXFXFXFXFXFXFXFXSXHXjXCXHXSX",
"C.,X*X*XS.M.Z.N.M.,X,XZ.].A.b.A.Z.].N.M.C.,X<X7.A.,X*X*X:X:X:X:X:X:X:X:X:X:X:X:X:X:X:X:X:X,X].Z.,X*X:X:XB.:X:X:X:X:X:X:X*XC.,X*X:X:X:X:X*X,XV.N.,X*X:X:X:X*XC.:X:X:X*X,XC.].:X*X,XC.*X:X:X:XC.~.:X*XC.,X:Xf 8.b.*X:X:X:X:X:X5 h +X!.!.!.!.!.;X/.Z Z S xXMXwXNXMXMXMXMXNXeXjXjXrXtXtXtXtXrXaXoX^ ( ~ } aXrXtXtXtXtXrXsXjXyXrXrXqXqXqX8XqXeX8XqXqX8XeXtXtXjXyXsXHXHXHXHXHXHXHXHXHXHXHXHXHXHXSXyXHXHXHXHXHXHXHXHXHXHXHXHXSXIXl.P.IXFXHXHXHXHXHXHXHXHXHXHXHXJX*.Q XXJXSXHXHXHXHXHXHXHXHXHXLXtXu.IXbXY FXHXHXHXHXHXHXHXHXHXHXjXZXHXHX",
"s.C.N.M.8.M.k.M.b.C.C.g.V.M.b.C.g.C.C.C.k.C.Z.:.g.C.C.C.C.C.C.C.C.C.C.C.C.C.C.C.C.C.C.C.C.C.V.k.C.C.C.C.a.C.C.C.C.C.C.C.V.g.C.C.C.C.C.C.C.Z.s.d.Z.C.C.C.C.C.g.C.C.C.C.C.k.V.C.C.C.g.C.C.C.C.g.z.C.C.g.C.C.f 8.c.V.C.C.C.V.[.j 4 h.~.j.j.j.j.l.W.Z F D +XwXOXwXwXwXwXwXwXeXjXjXrXtXtXtXtXrXaXoX^ ( ~ } aXrXtXtXtXtXrXsXjXyXrXrX8X7X8X7X8XqX7X8X7X7XeXtXtXjXyXtXsXtXyXyXyXyXyXyXyXyXyXyXyXyXtX3XyXtXyXyXyXyXyXyXyXyXyXyXtXjXd.f.jXtXyXyXyXyXyXyXyXyXtXtXdX=.Q =.kXtXtXyXyXyXyXyXyXyXyXtXjX=X5.jX0XT tXyXtXyXyXyXyXyXyXtXyX3XrXyXtX",
"N.,XM.b.c.S.Z.S.b.*X:XV.M.M.M.*XC.*X*X].C.*X,X2.Z.:X*X*X*X*X*X*X*X*X*X*X*X*X*X*X*X*X*X*X*X*XA.Z.:X*X*X*XB.*X*X*X*X*X*X*X].C.*X*X*X*X*X*X*X,XV.g.,X*X*X*X*X*XC.*X*X*X*X:XC.].*X*X*XC.].*X*X*XC.j.*X*XC.*X,X8.8.b.A.*X*X*X*X-XF.4 c.+X!.!.!.!.;XQ.#.wX$.$XBXwXMXmXmXmXmXMXeXjXjXrXtXtXtXtXrXaXoX^ ( ~ } aXrXtXtXtXtXrXsXjXyXrXrXqXqXqXqXqXeXqXqXqXqXeXtXtXjXyXyXHXSXSXSXSXSXSXSXSXSXSXSXSXSXAXyXHXSXSXSXSXSXSXSXSXSXSXSXAXPXl.L.LXAXSXSXSXSXSXSXSXSXSXJX=.Q @.JXSXSXSXSXSXSXSXSXSXSXSXSXHXrXu.PXvXY SXSXSXSXSXSXSXSXSXSXHXsXjXFXSX",
"M.N.b.b.M.A.Z.A.b.*X,XM.c.b.S.*XC.:X:X].C.:X,X7.A.,X*X*X*X*X*X*X*X*X*X*X*X*X*X*X*X*X*X*X*X:X].Z.,X*X*X*XB.*X*X*X*X*X*X:X].C.:X*X*X*X*X*X*X,XV.N.,X*X*X*X:X*XC.:X*X*X*X,XC.].:X*X:XC.*X:X*X*XC.~.:X*XC.*X<X8.8.b.A.:X*X*X*X*X-Xh h +X!.!.!.!.;XQ.#.yXE.&.DXwXNXMXMXMXMXNXeXjXjXrXtXtXtXtXrXaXoX^ ( ~ } aXrXtXtXtXtXrXsXjXyXrXrX8X7X7X7X8XqX7X7X7X7XeXtXtXjXyXyXHXFXFXFXFXFXFXFXFXFXFXFXFXHXAXyXHXFXFXFXFXFXFXFXFXFXFXFXSXIXl.P.PXSXFXFXFXFXFXFXSXSXJX=.Q XXdXSXHXFXFXFXFXFXFXFXFXFXFXFXLXtXu.PXvXY FXHXFXFXFXFXFXFXFXFXHXjXZXHXFX",
"b.b.c.b.A.*XC.].M.N.A.M.c.b.A.*XC.:X:X].C.*X,X2.A.:X*X*X*X*X*X*X*X*X*X*X*X*X*X*X*X*X*X*X*X:X].Z.,X*X*X*XB.*X*X*X*X*X*X:X].C.:X*X*X*X*X*X*X,XV.N.,X*X*X*X*X*XC.:X*X*X*X:XC.].:X*X:XC.*X*X*X*XC.j.*X*XC.*X<X7.p.M.S.-X*X*X*X*X-Xj 3 N.+X!.!.!.;XQ.#.eXW.$.NXwXNXMXMXMXMXNXeXjXjXrXtXtXtXtXrXaXoX^ ( ~ } aXrXtXtXtXtXrXsXjXyXrXrXqXqXqXqXqXeXqXqXqXqXeXtXtXjXyXyXHXSXFXFXFXFXFXFXFXFXFXFXFXHXAXyXHXSXFXFXFXFXFXFXFXFXFXFXSXPXl.L.PXSXFXFXFXFXFXSXSXJX=.Q =.JXtXSXFXFXFXFXFXFXFXFXFXFXFXSXLXtXu.PXvXY FXHXFXFXFXFXFXFXFXSXHXjXZXHXFX",
"c.b.c.b.].:XC.*Xb.c.M.b.b.b.*X*XC.:X:X].C.*X,X2.A.,X*X*X*X*X*X*X*X*X*X*X*X*X*X*X*X*X*X*X*X:X].Z.,X*X*X*XB.*X*X*X*X*X*X:X].C.:X*X*X*X*X*X*X,XV.N.,X*X*X*X*X*XC.:X*X*X*X:XC.].:X*X:XC.*X*X*X*XC.j.*X*XC.*X<X7.k.D.M.,X*X*X*X*X-XD.4 j +X!.!.!.!.^.^.;XQ.$.NXwXNXMXMXMXMXNXeXjXjXrXtXtXtXtXrXaXoX^ ( ~ } aXrXtXtXtXtXrXsXjXyXrXrX8X7X7X7X8XqX7X7X7X7XeXtXtXjXyXyXHXSXFXFXFXFXFXFXFXFXFXFXFXHXAXyXHXFXFXFXFXFXFXFXFXFXFXFXSXPXl.L.PXSXFXFXFXFXSXSXJX=.Q =.JXHXtXSXFXFXFXFXFXFXFXFXFXFXFXSXLXtXu.PXvXY FXHXFXFXFXFXFXFXFXSXHXjXZXHXFX",
"c.b.b.M.].:XC.*XM.c.M.b.b.M.*X*XC.:X:X].C.*X,X2.A.,X*X*X*X*X*X*X*X*X*X*X*X*X*X*X*X*X*X*X*X:X].Z.,X*X*X*XB.*X*X*X*X*X*X:X].C.:X*X*X*X*X*X*X,XV.N.,X*X*X*X*X*XC.:X*X*X*X:XC.].:X*X:XC.*X*X*X*XC.j.*X*XC.*X<X7.k.D.M.,X*X*X*X*X*X-Xh h !.!.!.!.!.!.;X;XQ.$.BXwXNXMXMXMXMXNXeXjXjXrXtXtXtXtXrXaXoX^ ( ~ } aXrXtXtXtXtXrXsXjXyXrXrXqXqXqXqXeXeXqXqXqXqXeXtXtXjXyXyXHXSXFXFXFXFXFXFXFXFXFXFXFXHXAXyXHXFXFXFXFXFXFXFXFXFXFXFXSXPXl.L.PXSXFXFXFXSXSXJX=.Q =.HXFXHXyXSXFXFXFXFXFXFXFXFXFXFXFXSXLXtXu.PXvXY FXHXFXFXFXFXFXFXFXSXHXjXZXHXFX",
"b.b.M.N.*X*XC.-XM.c.b.c.M.D.:X].C.:X:X].C.*X,X2.A.,X*X*X*X*X*X*X*X*X*X*X*X*X*X*X*X*X*X*X*X:X].Z.,X*X*X*XB.*X*X*X*X*X*X:X].C.:X*X*X*X*X*X*X,XV.N.,X*X*X*X*X*XC.:X*X*X*X:XC.].:X*X:XC.*X*X*X*XC.j.*X*XC.*X<X7.g.].b.S.,X*X*X*X*X-Xn.4 N.+X!.!.!.!.!.;XQ.$.BXwXNXMXMXMXMXNXeXjXjXrXtXtXtXtXrXaXoX^ ( ~ } aXrXtXtXtXtXrXsXjXyXrXrX8X7X7X7X8XqX7X7X7X7XeXtXtXjXyXyXHXSXFXFXFXFXFXFXFXFXFXFXFXHXAXyXHXFXFXFXFXFXFXFXFXFXFXFXSXPXl.L.PXSXFXFXSXSXJX=.Q =.HXHXSXHXyXSXFXFXFXFXFXFXFXFXFXFXFXSXLXtXu.PXvXY FXHXFXFXFXFXFXFXFXSXHXjXZXHXFX",
"M.M.S.N.*X*XC.*XS.M.b.c.M.A.:X].C.:X:X].C.*X,X2.A.,X*X*X*X*X*X*X*X*X*X*X*X*X*X*X*X*X*X*X*X:X].Z.,X*X*X*XB.*X*X*X*X*X*X:X].C.:X*X*X*X*X*X*X,XV.N.,X*X*X*X*X*XC.:X*X*X*X:XC.].:X*X:XC.*X*X*X*XC.j.*X*XC.*X<X7.g.:Xc.M.,X*X*X*X*X-XA.4 j +X!.!.!.!.!.;XQ.$.BXwXNXMXMXMXMXNXeXjXjXrXtXtXtXtXrXaXoX^ ( ~ } aXrXtXtXtXtXrXsXjXyXrXrXqXqXqXqXeXeXqXqXqXqXeXtXtXjXyXyXHXSXFXFXFXFXFXFXFXFXFXFXFXHXAXyXHXFXFXFXFXFXFXFXFXFXFXFXSXPXl.L.PXSXFXSXSXJX=.Q =.HXHXSXFXHXyXSXFXFXFXFXFXFXFXFXFXFXFXSXLXtXu.PXvXY FXHXFXFXFXFXFXFXFXSXHXjXZXHXFX",
"C.:XA.M.*X*XC.*X-XA.b.b.N.*X:X*XC.:X:X].C.*X,X2.A.,X*X*X*X*X*X*X*X*X*X*X*X*X*X*X*X*X*X*X*X:X].Z.,X*X*X*XB.*X*X*X*X*X*X:X].C.:X*X*X*X*X*X*X,XV.N.,X*X*X*X*X*XC.:X*X*X*X:XC.].:X*X:XC.*X*X*X*XC.j.*X*XC.*X<X7.g.,Xc.b.*X*X*X*X*X*X-Xh u !.!.!.!.!.!.;XQ.A $.7XNXmXMXMXMXNXeXjXjXrXtXtXtXtXrXaXoX^ ( ~ } aXrXtXtXtXtXrXsXjXyXrXrX8X7X7X7X8XqX7X7X7X7XeXtXtXjXyXyXHXSXFXFXFXFXFXFXFXFXFXFXFXHXAXyXHXFXFXFXFXFXFXFXFXFXFXFXSXPXl.L.PXSXSXSXJX=.Q =.HXHXSXFXFXHXyXSXFXFXFXFXFXFXFXFXFXFXFXSXLXtXu.PXvXY FXHXFXFXFXFXFXFXFXSXHXjXZXHXFX",
"Z.,X*XA.*X*XC.*X*X*XA.N.].:X*X*XC.:X:X].C.*X,X2.A.,X*X*X*X*X*X*X*X*X*X*X*X*X*X*X*X*X*X*X*X:X].Z.,X*X*X*XB.*X*X*X*X*X*X:X].C.:X*X*X*X*X*X*X,XV.N.,X*X*X*X*X*XC.:X*X*X*X:XC.].:X*X:XC.*X*X*X*XC.j.*X*XC.*X<X7.g.,XM.b.S.,X*X*X*X*X-Xn.4 N.+X!.!.!.!.OX^.Z A 7XNXmXMXMXMXNXeXjXjXrXtXtXtXtXrXaXoX^ ( ~ } aXrXtXtXtXtXrXsXjXyXrXrXqXqXqXqXeXeXqXqXqXqXeXtXtXjXyXyXHXSXFXFXFXFXFXFXFXFXFXFXFXHXAXyXHXFXFXFXFXFXFXFXFXFXFXFXSXPXl.L.PXSXSXJXXXQ *.HXHXSXFXFXFXHXyXSXFXFXFXFXFXFXFXFXFXFXFXSXLXtXu.PXvXY FXHXFXFXFXFXFXFXFXSXHXjXZXHXFX",
"Z.:X*X*X*X*XC.*X*X*X,XZ.A.:X*X*XC.:X:X].C.*X,X2.A.,X*X*X*X*X*X*X*X*X*X*X*X*X*X*X*X*X*X*X*X:X].Z.,X*X*X*XB.*X*X*X*X*X*X:X].C.:X*X*X*X*X*X*X,XV.N.,X*X*X*X*X*XC.:X*X*X*X:XC.].:X*X:XC.*X*X*X*XC.j.*X*XC.*X<X7.g.,X-XN.b.].*X*X*X*X-XA.4 j +X!.!.!.!.!.^.Z S 7XNXmXMXMXMXNXeXjXjXrXtXtXtXtXrXaXoX^ ( ~ } aXrXtXtXtXtXrXsXjXyXrXrX8X7X7X7X8XqX7X7X7X7XeXtXtXjXyXyXHXSXFXFXFXFXFXFXFXFXFXFXFXHXAXyXHXFXFXFXFXFXFXFXFXFXFXFXSXPXl.L.PXSXJXXXQ *.HXHXSXFXFXFXFXHXyXSXFXFXFXFXFXFXFXFXFXFXFXSXLXtXu.PXvXY FXHXFXFXFXFXFXFXFXSXHXjXZXHXFX",
"Z.:X*X*X*X*XC.*X*X*X:XZ.A.:X*X*XC.:X:X].C.*X,X2.A.,X*X*X*X*X*X*X*X*X*X*X*X*X*X*X*X*X*X*X*X:X].Z.,X*X*X*XB.*X*X*X*X*X*X:X].C.:X*X*X*X*X*X*X,XV.N.,X*X*X*X*X*XC.:X*X*X*X:XC.].:X*X:XC.*X*X*X*XC.j.*X*XC.*X<X7.g.,X-XN.c.A.-X*X*X*X*X-Xh u !.!.!.!.!.!.^.S D +XNXmXMXMXMXNXeXjXjXrXtXtXtXtXrXaXoX^ ( ~ } aXrXtXtXtXtXrXsXjXyXrXrXeXqXqXqXeXeXqXqXqXqXeXtXtXjXyXyXHXSXFXFXFXFXFXFXFXFXFXFXFXHXAXyXHXFXFXFXFXFXFXFXFXFXFXFXSXPXl.L.PXJXXXQ *.HXFXSXFXFXFXFXFXHXyXSXFXFXFXFXFXFXFXFXFXFXFXSXLXtXu.PXvXY FXHXFXFXFXFXFXFXFXSXHXjXZXHXFX",
"Z.:X*X*X*X*XC.*X*X*X:XZ.A.:X*X*XC.:X:X].C.*X,X2.A.,X*X*X*X*X*X*X*X*X*X*X*X*X*X*X*X*X*X*X*X:X].Z.,X*X*X*XB.*X*X*X*X*X*X:X].C.:X*X*X*X*X*X*X,XV.N.,X*X*X*X*X*XC.:X*X*X*X:XC.].:X*X:XC.*X*X*X*XC.j.*X*XC.*X<X7.g.,X-XS.c.A.:X*X*X*X*X-Xn.4 N.+X!.!.!.!.^.S D +XNXmXMXMXMXNXeXjXjXrXtXtXtXtXrXaXoX^ ( ~ } aXrXtXtXtXtXrXsXjXyXrXrX8X7X7X7X8XqX7X7X7X7XeXtXtXjXyXyXHXSXFXFXFXFXFXFXFXFXFXFXFXHXAXyXHXFXFXFXFXFXFXFXFXFXFXFXSXPXl.L.IXXXQ *.HXFXSXFXFXFXFXFXFXHXyXSXFXFXFXFXFXFXFXFXFXFXFXSXLXtXu.PXvXY FXHXFXFXFXFXFXFXFXSXHXjXZXHXFX",
"C.:X*X*X*X*XC.*X*X*X:XZ.A.:X*X].C.:X*X].C.*X,X2.Z.:X*X*X*X*X*X*X*X*X*X*X*X*X*X*X*X*X*X*X*X:XA.Z.:X*X*X*XB.*X*X*X*X*X*X*X].C.:X*X*X*X*X*X*X,XV.g.,X*X*X*X*X*XC.*X*X*X*X:XC.].*X*X:XC.*X*X*X*XC.j.*X*XC.*X<X7.g.,X-XS.c.S.-X*X*X*X*X-XA.4 j +X!.!.!.!.^.S Z +XNXmXmXmXmXMXeXjXjXrXtXtXtXtXrXaXoX^ ( ~ } aXrXtXtXtXtXrXsXjXyXrXrXeXqXqXqXeXeXqXqXqXqXeXtXtXjXyXyXHXSXSXSXSXSXSXSXSXSXSXSXSXFXAXyXHXSXSXSXSXSXSXSXSXSXSXSXSXPXl.I.@XQ *.HXFXSXFXSXSXSXSXSXSXHXtXSXFXSXSXSXSXSXSXSXSXSXSXSXHXtXu.PXvXY SXFXSXSXSXSXSXSXSXSXHXsXCXHXSX",
"A.<X,X,X,X,XZ.,X,X,X<X].].<X,X:XZ.<X,X*XA.,X<X7.].<X,X,X,X,X,X,X,X,X,X,X,X,X,X,X,X,X,X,X,X<X*XA.<X,X,X,XB.,X,X,X,X,X,X,X:XZ.<X,X,X,X,X,X,X<XS.V.<X,X,X,X,X,XZ.<X,X,X,X<XA.:X,X,X<XZ.,X,X,X,XZ.~.,X,XZ.,X0X7.k.<X,X:Xb.D.<X,X,X,X,X,X0Xh u OXOXOXOX;X!.S Z OXUXNXNXNXNXNXeXjXjXrXtXtXtXtXrXaXoX^ ( ~ } aXrXtXtXtXtXrXsXjXyXrXrX8X7X7X7X8XqX7X7X7X7XeXtXtXjXyXsXPXLXLXLXLXLXLXLXLXLXLXLXLXLXHXjXLXLXLXLXLXLXLXLXLXLXLXLXHXIXL.| ` =.PXLXLXLXLXLXLXLXLXLXLXLXjXHXLXLXLXLXLXLXLXLXLXLXLXLXIXyXu.IXbXY LXLXLXLXLXLXLXLXLXLXPXjXSXLXLX",
"a.V.k.V.V.V.a.k.V.k.V.s.g.V.V.k.a.V.V.g.a.V.C.:.g.V.V.V.V.V.V.V.V.V.V.V.V.V.V.V.V.V.V.V.V.V.g.s.V.k.V.V.p.V.V.V.V.V.V.V.k.a.V.V.V.V.V.V.k.C.d.p.C.k.V.V.V.k.a.V.V.V.k.V.a.k.V.V.V.a.k.V.V.V.a.z.V.k.a.k.Z.<.p.C.k.C.w.w.C.V.V.V.V.V.l.j 4 d.~.j.j.j.j.S Z j.wX7X7X7X7XwXeXjXjXrXtXtXtXtXrXaXoX^ ( ~ } aXrXtXtXtXtXrXsXjXyXrXrXeXqXqXqXeXeXqXqXqXqXeXtXtXjXyXtXtXrXrXrXrXrXrXrXrXrXrXrXrXrX3X=XtXrXrXrXrXrXrXrXrXrXrXrX3XlXXXQ ( tXtXeXrXrXrXrXrXrXrXrXrXtXI.4XrXrXrXrXrXrXrXrXrXrXrXrXyXP.1.jX,XT rXrXrXrXrXrXrXrXrXrXtX=X2XtXrX",
"<.7.7.7.7.7.<.7.7.7.7.2.7.7.7.7.<.7.7.7.<.7.7.0 7.7.7.7.7.7.7.7.7.7.7.7.7.7.7.7.7.7.7.7.7.7.7.2.7.7.7.7.<.7.7.7.7.7.7.7.7.<.7.7.7.7.7.7.7.7.<.<.7.7.7.7.7.7.<.7.7.7.7.7.<.7.7.7.7.<.7.7.7.7.<.3.7.7.<.7.7.;.:.7.7.7.8.:.7.7.7.7.7.7.7.8.4 f r.r.r.r.r.S Z 3.z.y.y.y.y.z.eXjXjXrXtXtXtXtXrXaXoX^ ( ~ } aXrXtXtXtXtXrXsXjXyXrXrX8X7X7X7X8XqX7X7X7X7XeXtXtXjXsX4Xd.u.u.u.u.u.u.u.u.u.u.u.u.u.u.0.u.u.u.u.u.u.u.u.u.u.u.u.f.[ Q *.f.u.u.u.u.u.u.u.u.u.u.u.u.u.0.u.u.u.u.u.u.u.u.u.u.u.u.u.d.5.p f.p.R u.u.u.u.u.u.u.u.u.u.u.0.0.u.u.",
"].<X<X<X<X<XA.<X<X<X0X].:X<X<X,XA.<X<X,X].<X0X7.*X<X<X<X<X<X<X<X<X<X<X<X<X<X<X<X<X<X<X<X<X<X:X].<X<X<X<XD.<X<X<X<X<X<X<X,X].<X<X<X<X<X<X<X0XZ.S.0X<X<X<X<X<XA.<X<X<X<X<X].,X<X<X<XA.<X<X<X<XA.~.<X<XA.<XtXi.V.0X<X<X,XM.:X<X<X<X<X<X<X<Xh h 9X9X9X9X9X#.Z !.UXUXUXUXUXUXeXjXjXrXtXtXtXtXrXaXoX^ ( ~ } aXrXtXtXtXtXrXsXjXyXrXrXeXqXqXqXeXeXqXqXqXqXeXtXtXjXyXsXIXPXPXPXPXPXPXPXPXPXPXPXPXIXLXZXIXPXPXPXPXPXPXPXPXPXPXIX&X` ^ 3XIXPXPXPXPXPXPXPXPXPXPXPXPXIXjXPXIXPXPXPXPXPXPXPXPXPXPXPXIXjXd.IXbXY PXPXPXPXPXPXPXPXPXPXIXAXHXIXPX",
"A.,X:X,X*X*XV.*X*X*X*XZ.A.*X*X].C.*X*X].C.*X,X2.].*X:X:X*X*X*X*X*X*X*X*X*X*X*X*X*X*X*X*X*X*XA.].,X,X,X*XB.*X*X*X*X*X*X*X].C.*X*X*X*X*X*X*X:XV.V.,X,X*X*X*X].V.*X*X*X*X*XC.].*X*X*XV.].*X*X*XZ.~.:X:XV.*X<X7.g.,X*X*X*XM.S.-X*X*X*X*X].-Xj 5 l.!.!.!.!.$.Z ^.NXmXmXmXBXmXeXjXjXrXtXtXtXtXrXaXoX^ ( ~ } aXrXtXtXtXtXrXsXjXyXrXrX8X7X7X7X8XqX7X7X7X7XeXtXtXjXyXyXHXSXSXSXSXSXSXSXSXSXSXSXSXSXAXtXFXSXSXSXSXSXSXSXSXAXJXXXQ *.l.L.LXAXSXSXSXSXSXSXSXSXSXSXSXSXtXAXSXSXSXSXSXSXSXSXSXSXSXSXHXrXi.PXvXY SXSXSXSXSXSXSXSXSXSXFXsXjXFXSX",
"p.Z.C.s.*X:XC.*X*X*X:XZ.A.:X*X*XC.:X:X].C.*X<X<.p.:XV.V.:X*X*X*X*X*X*X*X*X*X*X*X*X*X*X*X*X:X].p.C.k.g.].B.*X*X*X*X*X*X:X].C.:X*X*X*X*X*X*X<Xs.q.*Xk.].:X*X*XC.:X*X*X*X:XC.].:X*X:XC.*X*X:X*Xp.z.C.V.Z.*X<X7.g.<X*X*X,XN.M.-X*X*X*X*X*X-XF.3 b.+X!.!.!.+X$.).DXmXMXMXMXNXeXjXjXrXtXtXtXtXrXaXoX^ ( ~ } aXrXtXtXtXtXrXsXjXyXrXrXqXqXqXqXeXeXqXqXqXqXeXtXtXjXyXyXHXSXFXFXFXFXFXFXFXFXFXFXFXHXAXyXHXFXFXFXFXFXFXFXSXJX@XQ *.IXS.L.PXSXFXFXFXFXFXFXFXFXFXFXFXHXyXSXFXFXFXFXFXFXFXFXFXFXFXSXLXtXu.PXvXY FXHXFXFXFXFXFXFXFXSXHXjXZXHXFX",
":.s.:.0.*X:XC.*X*X*X:XZ.A.:X*X*XC.:X:X].C.,XZ.> 7.s.<.V.:X*X*X*X*X*X*X*X*X*X*X*X*X*X*X*X*X<X7.:.a.a.p a.D.*X*X*X*X*X*X:X].C.:X*X*X*X*X*X,XC.p 7.p.:.7.,X*X*XC.:X*X*X*X:XC.].:X*X:XC.*X*X,X7.:.r.7.4.s.:X<X7.g.<X*X*X*X].b.*X*X*X*X*X*X*X].5 h +X!.!.!.;X$.Q.UXmXMXMXMXNXeXjXjXrXtXtXtXtXrXaXoX^ ( ~ } aXrXtXtXtXtXrXsXjXyXrXrX8X7X7X7X8XqX7X7X7X7XeXtXtXjXyXyXHXSXFXFXFXFXFXFXFXFXFXFXFXHXAXyXHXFXFXFXFXFXFXSXJX@XQ ' FXIXl.P.PXSXFXFXFXFXFXFXFXFXFXFXFXHXyXSXFXFXFXFXFXFXFXFXFXFXFXSXLXtXu.PXvXY FXHXFXFXFXFXFXFXFXSXHXjXZXHXFX",
"Z.<X<.7.].:XC.*X*X*X:XZ.A.:X*X*XC.:X:X].C.<Xp.> 0X0.:.s.:X*X*X*X*X*X*X*X*X*X*X*X*X*X*X*X:X].:.].<X<X7.].B.*X*X*X*X*X*X:X].C.:X*X*X*X*X*X<X7.7.I.g.0 p.,X*X*XC.:X*X*X*X:XC.].:X*X:XC.*X,XC.<.*Xy.7.<.7.<X<X7.g.<X*X*X*X*XM.S.-X*X*X*X*X*X-Xk 5 !.!.!.!.;X$.Q.UXmXMXMXMXNXeXjXjXrXtXtXtXtXrXaXoX^ ( ~ } aXrXtXtXtXtXrXsXjXyXrXrXqXqXqXqXeXeXqXqXqXqXeXtXtXjXyXyXHXSXFXFXFXFXFXFXFXFXFXFXFXHXAXyXHXFXFXFXFXFXSXJX@XQ ' SXFXPXl.L.PXSXFXFXFXFXFXFXFXFXFXFXFXHXyXSXFXFXFXFXFXFXFXFXFXFXFXSXLXtXu.PXvXY FXHXFXFXFXFXFXFXFXSXHXjXZXHXFX",
"g.,X,X7.7.<XV.*X*X*X:XZ.A.:X*X*XC.:X:X].C.<Xa.> <X7.p.<.*X*X*X*X*X*X*X*X*X*X*X*X*X*X*X*X*X*X:.V.<Xa.7.<XB.*X*X*X*X*X*X:X].C.:X*X*X*X*X*X<Xp.,.A.p.7.7.,X*X*XC.:X*X*X*X:XC.].:X*X:XC.*X,XA.:.V.~.k.a p.,X<X7.g.<X*X*X*X,XN.M.,X*X*X*X*X*X-Xn.3 M.+X!.!.;X$.(.DXmXMXMXMXNXeXjXjXrXtXtXtXtXrXaXoX^ ( ~ } aXrXtXtXtXtXrXsXjXyXrXrX8X7X7X7X8XqX7X7X7X7XeXtXtXjXyXyXHXSXFXFXFXFXFXFXFXFXFXFXFXHXAXyXHXFXFXFXFXSXJX@XQ ' SXHXAXPXl.L.PXSXFXFXFXFXFXFXFXFXFXFXFXHXyXSXFXFXFXFXFXFXFXFXFXFXFXSXLXtXu.PXvXY FXHXFXFXFXFXFXFXFXSXHXjXZXHXFX",
"a a.7.<.Z.,XC.*X*X*X:XZ.A.:X*X*XC.:X:X].C.,X*X0 7.V.:.p.,X*X*X*X*X*X*X*X*X*X*X*X*X*X*X*X*X<Xp.a k.p.k.,XB.*X*X*X*X*X*X:X].C.:X*X*X*X*X*X:X].a 4.a.<.p.,X*X*XC.:X*X*X*X:XC.].:X*X:XC.*X*X,Xp.a y.p.7.C.*X<X7.g.<X*X*X*X-XA.b.].*X*X*X*X*X-XD.4 j +X!.!.;X+.(.DXmXMXMXMXNXeXjXjXrXtXtXtXtXrXaXoX^ ( ~ } aXrXtXtXtXtXrXsXjXyXrXrXqXqXqXqXeXeXqXqXqXqXeXtXtXjXyXyXHXSXFXFXFXFXFXFXFXFXFXFXFXHXAXyXHXFXFXFXSXJX@XQ ' SXHXSXSXPXl.L.PXSXFXFXFXFXFXFXFXFXFXFXFXHXyXSXFXFXFXFXFXFXFXFXFXFXFXSXLXtXu.PXvXY FXHXFXFXFXFXFXFXFXSXHXjXZXHXFX",
"C.*X*X*X:X*XC.*X*X*X:XZ.A.:X*X].C.:X*X].C.*X<X7.Z.,X*X,X*X*X*X*X*X*X*X*X*X*X*X*X*X*X*X*X*X:X].Z.*X:X:X*XB.*X*X*X*X*X*X*X].C.:X*X*X*X*X*X*X,XS.s.<X*X,X*X*X*XC.:X*X*X*X:XC.].*X*X:XC.*X*X*X,XV.j.*X:XC.*X<X7.g.,X*X*X*X*X].c.M.-X*X*X*X*X*X-Xh h +X!.!.;X+.(.DXmXMXMXMXNXeXjXjXrXtXtXtXtXrXaXoX^ ( ~ } aXrXtXtXtXtXrXsXjXyXrXrX8X7X7X7X8XqX7X7X7X7XeXtXtXjXyXyXHXSXFXFXFXFXFXFXFXFXFXFXFXHXAXyXHXFXFXSXJX@XQ ' SXHXSXFXSXPXl.L.PXSXFXFXFXFXFXFXFXFXFXFXFXHXyXSXFXFXFXFXFXFXFXFXFXFXFXSXLXtXu.PXvXY FXHXFXFXFXFXFXFXFXSXHXjXZXHXFX",
"Z.,X:X*X*X,XC.*X:X:X,XA.].:X:X*XC.:X:X*XC.:X<X<.].,X:X*X:X:X:X*X:X:X:X:X:X*X:X:X*X*X:X:X*X,X].Z.,X:X*X:XB.:X*X:X:X:X:X:X].C.,X:X*X:X:X:X*X,XV.N.<X*X*X:X,X*XC.,X:X:X:X,XC.*X,X*X:XC.*X:X:X:XC.~.,X*XC.:X<X7.g.<X*X:X:X*X:XN.b.*X*X*X*X*X:X<Xj 4 l.+X!.;X+.(.UXmXMXMXMXNXeXjXjXrXtXtXtXtXrXaXoX^ ( ~ } aXrXtXtXtXtXrXsXjXyXrXrXqXqXqXqXqXeXqXqXqXqXeXtXtXjXyXyXHXSXFXFXFXFXFXFXFXFXFXFXFXHXAXyXHXFXSXJX@XQ ' DXHXSXFXFXSXPXl.L.PXSXFXFXFXFXFXFXFXFXFXFXFXHXyXSXFXFXFXFXFXFXFXFXFXFXFXSXLXtXu.PXvXY FXHXFXFXFXFXFXFXFXSXHXjXZXHXFX",
"Z.s.s.].Z.s.s.].C.s.V.a.k.].C.a.k.*XV.a.k.*Xk.s.k.a.C.].k.a.Z.].g.k.s.s.Z.].s.s.A.A.s.s.].Z.s.Z.s.g.].Z.8.k.].C.s.k.a.V.].k.a.V.].V.a.C.].k.s.p.s.Z.].g.s.Z.Z.g.V.s.s.A.Z.s.s.].A.a.s.].Z.k.C.r.k.].V.a.V.C.k.k.k.a.V.].V.a.8.].:X*X:X].s.k.b.3 8.j.z.s.+.$.;XwXNXMXMXNXeXjXjXrXtXtXtXtXrXaXoX^ ( ~ } aXrXtXtXtXtXrXsXjXyXrXrX8X7X7X7X8XqX7X7X7X7XeXtXtXjXyXyXHXSXFXFXFXFXFXFXFXFXFXFXFXHXAXyXHXSXJX@XQ ' DXJXSXFXFXFXSXPXl.L.PXSXFXFXFXFXFXFXFXFXFXFXFXHXyXSXFXFXFXFXFXFXFXFXFXFXFXSXLXtXu.PXvXY FXHXFXFXFXFXFXFXFXSXHXjXZXHXFX",
"Z.p.p.A.C.p.a.].V.p.s.p.s.].k.0.s.].g.0.k.].a.V.g.0.V.].a.p.V.].a.s.p.p.C.A.p.p.Z.Z.p.p.A.C.a.C.p.a.].V.8.a.].k.a.s.p.s.].k.0.g.].s.0.k.].s.a.q.p.V.].a.p.C.].p.s.p.p.Z.Z.p.p.Z.Z.p.a.].V.a.C.r.a.].V.p.s.*Xk.a.s.p.g.].s.q.8.V.,X*X:XA.a.k.s.5 j ^.z.s.+.$.P.7XNXmXMXNXeXjXjXrXtXtXtXtXrXaXoX^ ( ~ } aXrXtXtXtXtXrXsXjXyXrXrXqXqXqXqXqXeXqXqXqXqXeXtXtXjXyXyXHXSXFXFXFXFXFXFXFXFXFXFXFXHXAXyXFXJXhXQ ' DXJXSXFXFXFXFXSXPXl.L.PXSXFXFXFXFXFXFXFXFXFXFXFXHXyXSXFXFXFXFXFXFXFXFXFXFXFXSXLXtXu.PXvXY FXHXFXFXFXFXFXFXFXSXHXjXZXHXFX",
"Z.p.a.A.C.p.a.].V.a.s.p.s.].k.p.g.].k.p.k.].s.k.k.p.V.].s.p.C.].a.s.a.p.Z.A.a.p.Z.Z.p.a.A.C.a.C.p.a.].C.8.s.].k.a.s.p.g.].k.p.k.].g.p.k.].s.a.w.p.V.].a.p.C.A.a.s.a.p.Z.Z.p.a.A.Z.p.a.].C.a.C.r.s.].V.p.s.].k.a.s.p.k.].g.p.8.b.,X*X:XA.a.V.[.h h j.~.l.+.$.;X7XNXmXMXNXeXjXjXrXtXtXtXtXrXaXoX^ ( ~ } aXrXtXtXtXtXrXsXjXyXrXrX8X7X7X7X8XqX7X7X7X7XeXtXtXjXyXyXHXSXFXFXFXFXFXFXFXFXFXFXFXHXAXtXJXhX` ' DXJXSXFXFXFXFXFXSXPXl.L.PXSXFXFXFXFXFXFXFXFXFXFXFXHXyXSXFXFXFXFXFXFXFXFXFXFXFXSXLXtXu.PXvXY FXHXFXFXFXFXFXFXFXSXHXjXZXHXFX",
"Z.p.a.A.C.p.a.].V.a.s.p.s.].k.p.g.].k.p.k.].s.k.k.p.V.].s.p.C.].a.s.a.p.Z.A.a.p.Z.Z.p.a.A.C.a.C.p.a.].C.8.s.].k.a.s.p.s.].k.p.k.].g.p.k.].s.a.w.p.V.].a.p.C.A.a.s.p.p.Z.Z.p.a.A.Z.p.a.].C.a.C.r.s.].V.p.s.].k.a.s.p.k.].g.p.8.b.:X*X:XA.a.V.l.j 4 p [ i.E.$.iX7XNXmXMXNXeXjXjXrXtXtXtXtXrXaXoX^ ( ~ } aXrXtXtXtXtXrXsXjXyXrXrXqXqXqXqXqXeXqXqXqXqXeXtXtXjXyXyXHXSXFXFXFXFXFXFXFXFXFXFXFXHXAXkXhX` ' DXJXSXFXFXFXFXFXFXSXPXl.L.PXSXFXFXFXFXFXFXFXFXFXFXFXHXyXSXFXFXFXFXFXFXFXFXFXFXFXSXLXtXu.PXvXY FXHXFXFXFXFXFXFXFXSXHXjXZXHXFX",
"Z.p.a.A.C.p.a.].V.a.s.p.s.].k.p.g.].k.p.k.].s.k.k.p.V.].s.p.C.].a.s.a.p.Z.A.a.p.Z.Z.p.a.A.C.a.C.p.a.].C.8.s.].k.a.s.p.s.].k.p.k.].g.p.k.].s.a.w.p.V.].a.p.C.A.a.s.p.p.Z.Z.p.a.A.Z.p.a.].C.a.C.r.s.].V.p.s.].k.a.s.p.k.].g.p.d.b.,X*X,XA.a.V.l.f 4 8.y.:.r.#.^.wXNXMXMXNXeXjXjXrXtXtXtXtXrXaXoX^ ( ~ } aXrXtXtXtXtXrXsXjXyXrXrX8X7X8X7X8XqX7X8X8X7XeXtXtXjXyXyXHXFXHXHXHXHXHXHXHXHXHXHXHXSXJXOX` ' DXJXSXHXHXHXHXHXHXHXSXIXl.P.PXSXHXHXHXHXHXHXHXHXHXHXFXHXyXSXHXHXHXHXHXHXHXHXHXHXHXFXLXtXu.IXvXY FXHXHXHXHXHXHXHXHXFXHXjXZXHXFX",
"Z.p.a.A.C.p.a.].V.a.s.p.s.].k.p.g.].k.p.k.].s.k.k.p.V.].s.p.C.].a.s.a.p.Z.A.a.p.Z.Z.p.a.A.C.a.C.p.a.].C.8.s.].k.a.s.p.s.].k.p.k.].g.p.k.].s.a.w.p.V.].a.p.C.A.a.s.p.p.Z.Z.p.a.A.Z.p.a.].V.a.C.r.s.].V.p.s.].k.a.s.p.k.].g.p.d.b.*X*X*XZ.a.C.s.4.5 j ^.6.3.N +.eXmXBXBXmXeXjXjXrXtXtXtXtXrXaXoX^ ( ~ } aXrXtXtXtXtXrXsXjXyXrXrXqX8XqX8XqXeX8XqXqX8XeXtXtXjXyXyXFXAXSXSXSXSXSXSXSXSXSXSXAXJXhX` ' DXFXAXSXSXSXSXSXSXSXSXAXLXl.L.LXAXSXSXSXSXSXSXSXSXSXSXAXSXtXAXSXSXSXSXSXSXSXSXSXSXSXAXHXrXi.PXvXY AXSXSXSXSXSXSXSXSXAXFXsXjXSXAX",
"Z.p.a.].C.p.a.].V.a.s.p.s.].k.p.g.].k.p.k.].s.k.k.p.V.].s.p.C.].a.s.a.p.Z.A.a.p.Z.Z.p.a.A.C.a.C.p.a.].C.8.s.].k.a.s.p.s.].k.p.k.].g.p.k.].s.a.w.p.V.].a.p.C.].a.s.p.p.Z.Z.p.a.A.Z.p.a.].C.a.C.r.s.].V.p.s.].k.a.s.p.k.].g.p.a.8.C.C.C.V.a.V.V.p 2 h 3.> r.Z $.iXwXwXwXwXeXjXjXrXtXtXtXtXrXaXoX^ ( ~ } aXrXtXtXtXtXrXsXjXyXrXrX8X8X8X8XqXqX8X8X8X8XeXtXtXjXyXtXsXtXyXyXyXyXyXyXyXyXyXtXkXOX` ' eXaXtXyXyXyXyXyXyXyXyXyXtXjXd.f.jXtXyXyXyXyXyXyXyXyXyXyXyXyX3XtXyXyXyXyXyXyXyXyXyXyXyXyXjX=X5.jX0XT yXyXyXyXyXyXyXyXyXyXsX3XrXyXyX",
"Z.p.a.A.C.p.a.A.V.a.s.p.s.].k.p.s.].g.p.k.].s.k.k.p.V.].s.p.V.A.a.s.a.p.C.Z.a.p.Z.Z.p.a.Z.C.a.C.p.a.A.V.8.s.].k.a.s.p.s.].g.p.k.].s.p.k.].s.a.w.p.V.A.a.p.C.Z.a.s.p.p.Z.Z.p.a.Z.C.p.a.A.V.a.C.r.s.].V.p.s.].g.a.s.p.k.].s.p.a.b.:X:X,X].a.V.C.<.2 u 0 ;.<.D $.eXNXMXNXNXeXjXjXrXtXtXtXtXrXaXoX^ ( ~ } aXrXtXtXtXtXrXsXjXyXrXrXqX8X8X8XqXeX8X8X8X8XeXtXtXjXyXsXLXHXHXHXHXHXHXHXHXHXFXJXBX` ' wXJXSXHXHXHXHXHXHXHXHXHXHXFXIXl.P.IXFXHXHXHXHXHXHXHXHXHXHXHXHXyXFXHXHXHXHXHXHXHXHXHXHXHXHXLXtXu.IXbXY HXHXHXHXHXHXHXHXHXHXHXjXZXHXHX",
"Z.p.a.g.p.p.a.g.p.a.s.p.a.s.p.p.s.s.p.p.s.s.p.V.g.p.s.a.p.p.s.a.p.s.a.p.g.a.p.p.g.a.p.p.g.p.a.C.p.a.g.p.8.a.s.p.a.s.p.s.s.p.p.s.s.p.p.s.s.p.s.q.p.s.a.p.p.g.a.p.s.p.p.g.a.p.p.g.a.p.a.g.p.s.C.r.a.s.p.p.a.s.p.s.s.p.s.s.p.p.a.c.S.*X:XA.a.V.V.l.f 4 4.^.8.D $.qXNXmXmXNXeXjXjXrXtXtXtXtXrXaXoX^ ( ~ } aXrXtXtXtXtXrXsXjXyXrXrX8X8X8X8XqXeX8X8X8X8XeXtXtXjXyXyXHXSXFXFXFXFXFXFXFXSXJXhX` ' BXaXFXSXFXFXFXFXFXFXFXFXFXFXSXPXl.L.PXSXFXFXFXFXFXFXFXFXFXFXSXHXtXSXFXFXFXFXFXFXFXFXFXFXFXSXHXtXu.PXvXY SXFXSXFXFXFXFXFXFXSXHXjXCXHXSX",
"Z.p.a.s.p.p.a.s.p.a.s.p.a.s.p.p.s.s.p.p.s.s.p.V.g.p.s.a.p.p.s.a.p.s.a.p.s.p.p.p.s.p.p.a.s.p.a.C.p.a.s.p.8.a.s.p.a.s.p.s.s.p.p.s.s.p.p.s.a.p.s.q.p.s.a.p.p.s.a.p.g.p.p.s.p.p.p.s.p.p.a.s.p.s.C.r.a.s.p.p.a.s.p.s.s.p.s.s.p.p.s.N.b.*X:XA.a.V.V.C.N.4 j ^.8.V $.qXNXmXMXNXeXjXjXrXtXtXtXtXrXaXoX^ ( ~ } aXrXtXtXtXtXrXsXjXyXrXrXqX8X8X8XqXeX8X8X8X8XeXtXtXjXyXyXHXSXFXFXFXFXFXFXSXJXhX` ' BXFXtXHXSXFXFXFXFXFXFXFXFXFXFXSXPXl.L.PXSXFXFXFXFXFXFXFXFXFXFXFXHXyXSXFXFXFXFXFXFXFXFXFXFXFXSXLXtXu.PXvXY FXHXFXFXFXFXFXFXFXSXHXjXZXHXFX",
"Z.p.p.s.p.p.a.s.p.a.s.p.a.s.p.p.a.s.p.p.s.s.p.V.g.p.s.a.p.p.s.a.p.s.a.p.s.p.p.p.s.p.p.p.s.p.a.C.p.a.s.p.8.a.s.p.a.s.p.a.s.p.p.s.a.p.p.s.a.p.s.q.p.s.a.p.p.s.a.p.s.p.p.s.p.p.p.s.p.p.a.s.p.a.C.r.a.s.p.p.a.s.p.a.s.p.s.s.p.p.a.A.M.A.,XA.a.V.V.V.k.5 h ^.8.q $.wXNXmXMXNXeXjXjXrXtXtXtXtXrXaXoX^ ( ~ } aXrXtXtXtXtXrXsXjXyXrXrXqX8X8X8XqXeX8X8X8X8XeXtXtXjXyXyXHXSXFXFXFXFXFXSXJXhX` ` BXJXAXyXHXFXFXFXFXFXFXFXFXFXFXFXSXPXl.L.PXSXFXFXFXFXFXFXFXFXFXFXFXHXyXSXFXFXFXFXFXFXFXFXFXFXFXSXLXtXu.PXvXY FXHXFXFXFXFXFXFXFXSXHXjXZXHXFX",
"Z.a.a.k.a.a.a.k.p.s.g.p.s.g.a.p.s.s.a.p.s.s.p.k.k.p.g.s.a.a.g.a.p.k.a.a.k.a.a.a.k.a.a.a.k.a.s.C.p.a.k.a.8.s.g.p.s.g.p.s.s.p.a.s.s.a.a.s.s.a.s.w.a.g.a.a.a.k.a.a.k.a.a.k.a.a.a.k.a.p.a.k.p.s.C.r.s.g.p.a.s.s.p.s.s.p.s.s.a.a.s.].M.S.,X].a.s.a.a.h.h 5 z.8.q $.wXNXmXMXNXeXjXjXrXtXtXtXtXrXaXoX^ ( ~ } aXrXtXtXtXtXrXsXjXyXrXrX8X8X8X8XqXeX8X8X8X8XeXtXtXjXyXyXHXSXFXFXFXFXSXJXhX` ` hXJXSXAXyXHXFXFXFXFXFXFXFXFXFXFXFXSXPXl.L.PXSXFXFXFXFXFXFXFXFXFXFXFXHXyXSXFXFXFXFXFXFXFXFXFXFXFXSXLXtXu.PXvXY FXHXFXFXFXFXFXFXFXSXHXjXZXHXFX",
"Z.:X*X*X*X*XC.*X*X*X:XZ.A.:X*X].C.*X*X].C.*X,X7.Z.:X*X*X*X*X*X*X*X*X*X*X*X*X*X*X*X*X*X*X*X*XA.Z.:X*X*X*XB.*X*X*X*X*X*X*X].C.*X*X*X*X*X*X*X,XV.g.,X*X*X*X*X*XC.*X*X*X*X:XC.].*X*X*XC.*X*X*X*XC.j.*X*XC.*X<X7.g.,X*X*X*X*X*X*X*X,XM.N.,X*X*X*X*X*X-Xn.3 l.8.q $.MXMXMXMXNXeXjXjXrXtXtXtXtXrXaXoX^ ( ~ } aXrXtXtXtXtXrXsXjXyXrXrXqX8X8X8XqXeX8X8X8X8XeXtXtXjXyXyXHXSXFXFXFXSXJXBX` ` hXJXSXHXAXyXHXFXFXFXFXFXFXFXFXFXFXFXSXPXl.L.PXSXFXFXFXFXFXFXFXFXFXFXFXHXyXSXFXFXFXFXFXFXFXFXFXFXFXSXLXtXu.PXvXY FXHXFXFXFXFXFXFXFXSXHXjXZXHXFX",
"Z.:X*X*X*X*XC.*X*X*X,XZ.A.:X:X*XC.:X:X].C.:X<X2.A.:X*X*X*X*X*X*X*X*X*X*X*X*X*X*X*X*X*X*X*X:X].Z.:X*X*X*XB.*X*X*X*X*X*X:X].C.:X*X*X*X*X*X*X,XV.N.,X*X*X*X:X*XC.:X*X*X*X:XC.].:X*X:XC.*X:X*X*XC.~.:X*XC.*X<X7.g.,X*X*X*X*X*X*X*X,XS.b.*X*X*X*X*X*X-XF.4 b.8.q $.mXmXmXmXMXeXjXjXrXtXtXtXtXrXaXoX^ ( ~ } aXrXtXtXtXtXrXsXjXyXrXrX8X8X8X8XqXeX8X8X8X8XeXtXtXjXyXyXHXSXFXFXSXJXBX` ` hXJXSXFXHXAXyXHXFXFXFXFXFXFXFXFXFXFXFXSXPXl.L.PXSXFXFXFXFXFXFXFXFXFXFXFXHXyXSXFXFXFXFXFXFXFXFXFXFXFXSXLXtXu.PXvXY FXHXFXFXFXFXFXFXFXSXHXjXZXHXFX",
"C.,X<X:X,X<XZ.<X,X*X,XZ.A.:X*X*XC.:X*X].C.*X,X7.Z.<X<X,X,X*X*X*X*X*X*X*X*X*X*X*X*X*X*X*X*X:X].Z.,X<X,X,XB.*X*X*X*X*X*X:X].C.,X,X<X,X*X*X*X,XV.N.,X*X*X*X*X*XC.:X<X,X,X:XC.].:X*X:XC.*X*X*X*XC.j.*X*XC.*X<X7.g.<X<X*X<X,X,X*X*X*XA.b.S.,X*X*X*X*X-XA.4 j t.q $.NXNXNXNXNXuXjXjXrXtXtXtXtXrXaXoX^ ( ~ } aXrXtXtXtXtXrXsXjXyXrXrXqX8X8X8XqXeX8X8X8X8XeXtXtXjXyXyXHXSXFXSXJXBX` ` hXJXSXFXFXHXAXyXHXFXFXFXFXFXFXFXFXFXFXFXSXPXl.L.PXSXFXFXFXFXFXFXFXFXFXFXFXHXyXHXHXHXHXFXFXHXHXHXHXHXFXSXLXtXq.IXbXY FXHXFXFXFXFXFXFXFXSXHXjXZXHXFX",
"A.C.p s.6.:.a.p s.,X:XZ.A.:X*X*XC.:X:X].C.*X,X2.].p.7.s.k.0X*X*X*X*X*X*X*X*X*X*X*X*X*X*X*X:XA.A.V.p p.w.B.*X*X*X*X*X*X:X].Z.p.:.q.s.0X*X*X,XV.N.,X*X*X*X*X*XC.*Xa q.q.*XA.].:X*X:XC.*X*X*X*XC.j.*X*XC.*X<X7.k.V.,.*Xa 0.w.*X,X*X-XS.b.*X*X*X*X*X*X-Xu h 8.q $.1.l.OXx.OXl.ZXjXrXtXtXtXtXrXaXoX^ ( ~ } aXrXtXtXtXtXrXsXjXyXrXrX8X7X8X7XqXqX7X8X8X7XeXtXtXjXyXyXHXFXSXJXBX' ` hXJXSXFXFXFXHXAXyXHXFXFXFXFXFXFXFXFXFXFXFXSXPXl.L.PXSXFXFXFXFXFXFXFXFXFXFXFXHX0X}.vXnXnXHXFX}.nXvX}.bXHXKXvX0X`. XnXY FXHXFXFXFXFXFXFXFXSXHXjXZXHXFX",
"].q.0 V.:.7.= q.:.:X:XZ.A.:X*X*XC.:X:X].C.*X,X<.*X5.:.q.,.p.,X*X*X*X*X*X*X*X*X*X*X*X*X*X*X:XA.Z.].a.i :.4.Z.,X*X*X*X*X:X].C.C.a a ,.q.*X*X,XV.N.,X*X*X*X*X*XZ.k.> Z.,.5.p.:X*X*X:XC.*X*X*X*XC.j.*X*XC.*X<X7.V.a.p q.4.:.p 7.k.,X*X*Xb.S.,X*X*X*X*X-Xk h 8.q $.wX>.1.l.p u.AXjXrXtXtXtXtXrXaXoX^ ( ~ } aXrXtXtXtXtXrXsXjXyXrXrXqXqXqXqXqXeX8XqXqX8XeXtXtXjXyXyXHXSXJXBX' ` hXJXSXFXFXFXFXHXAXyXHXFXFXFXFXFXFXFXFXFXFXFXSXPXl.L.PXSXFXFXFXFXFXFXFXFXFXFXFXLXtXvX}. X}.KXAX.XbX}.nX}.HX X`. X`.}. XY SXHXFXFXFXFXFXFXFXSXHXjXZXHXFX",
"Z.A.0.9 7.k.* :Xa *X,XZ.A.:X*X*XC.:X:X].C.*X,X2.].Z.7.q.* Z.,X*X*X*X*X*X*X*X*X*X*X*X*X*X*X:X].C.0X0.p.= p <X*X*X*X*X*X:X].Z.*X:.:.- s.,X*X,XV.N.,X*X*X*X*X*XC.*Xq.:.9 > A.].:X*X:XC.*X*X*X*XC.j.*X*XC.*X<X7.g.,X4.,.k.7.- i <X*X*X,XM.N.,X*X*X*X*X-Xn.4 8.q $.OX0.z.wX> w.AXjXrXtXtXtXtXrXaXoX^ ( ~ } aXrXtXtXtXtXrXsXjXyXrXrX8X7X8X7X8XqX7X7X7X7XeXtXtXjXyXsXHXHXNX' ` hXJXSXFXFXFXFXFXHXAXyXHXFXFXFXFXFXFXFXFXFXFXFXSXPXl.L.PXSXFXFXFXFXFXFXFXFXFXHXSXvXyXnXvXAX XKXFXnX}. X}.}.vX X X X`. X XY SXHXFXFXFXFXFXFXFXSXHXjXZXHXFX",
"Z.Z.p.p a :.0 a ,.,X:XZ.A.:X*X*XC.:X:X].C.*X,X2.].k.,.0.> q.,X*X*X*X*X*X*X*X*X*X*X*X*X*X*X:XA.].w.> a.9 0 A.:X*X*X*X*X:X].C.s.4.9 9 4.,X*X,XV.N.,X*X*X*X*X*XC.A.a.a 9 i p.:X*X*X:XC.*X*X*X*XC.j.*X*XC.*X<X7.g.*X:.d.a :.0 i V.,X*X,XN.N.,X*X*X*X*X-XF.4 j q V > OX0.5.>.q.AXjXrXtXtXtXtXrXaXoX^ ( ~ } aXrXtXtXtXtXrXsXjXyXrXrXqXqXqXqXqXeXqXqXqXqXeXtXtXjXyXyXJXBX' ` hXJXSXFXFXFXFXFXFXHXAXyXHXFXFXFXFXFXFXFXFXFXFXFXSXPXl.L.PXSXFXFXFXFXFXFXFXFXFXHXSXnX{.`.bXvX XAXbXbX}.vX}.nXbX}.}. X.X X}.Y SXHXFXFXFXFXFXFXFXSXHXjXZXHXFX",
"Z.Z.4.Z.k.w.C.6.Z.,X:XZ.A.:X*X*XC.:X:X].C.*X,X7.].*XV.Z.Z.g.:X*X*X*X*X*X*X*X*X*X*X*X*X*X*X:XA.A.g.7.p.Z.p.Z.,X*X*X*X*X:X].Z.p.0.Z.Z.s.*X*X,XV.N.,X*X*X*X*X*XC.].7.s.Z.C.d.*X*X*X:XC.*X*X*X*XC.j.*X*XC.*X<X7.g.,Xk.:Xq.s.Z.V.V.,X*X,XN.M.,X*X*X*X*X-XD.u e q n | P.8Xl.xX;XjXjXrXtXtXtXtXrXaXoX^ ( ~ } aXrXtXtXtXtXrXsXjXyXrXrX8X7X7X7X8XqX7X7X7X7XeXtXtXjXyXkXDX' ` hXJXSXFXFXFXFXFXFXFXHXAXyXHXFXFXFXFXFXFXFXFXFXFXFXSXPXl.P.PXSXFXFXFXFXFXFXFXFXFXFXFXKX0X XvXSXZXbXZXnXvXbXnXHXHXnXnXyXt.bXbXY FXHXFXFXFXFXFXFXFXSXHXjXZXHXFX",
"C.,X0X,X,X<XC.0X,X*X,XZ.A.,X:X*XC.:X:X].C.:X<X<.A.,X,X,X,X,X*X*X*X*X*X*X*X*X*X*X*X*X*X*X*X:X].Z.<X0X<X,XB.,X*X*X*X*X*X:X].C.0X<X,X,X,X:X*X,XV.g.,X*X*X*X:X*XC.,X0X,X,X<XZ.].:X*X:XC.*X:X*X:XC.j.:X*XC.*X<X7.g.<X,X*X<X,X,X,X,X*X*X,XS.M.,X*X*X*X*X*X-Xh 5 e n (.UXNXUXNXuXjXjXrXtXtXtXtXrXaXoX^ ( ^ } aXrXtXtXtXtXrXsXjXyXrXrXqXqXqXqXqXeXqXqXqXqXeXtXtXjXsXiX' ` hXJXSXFXFXFXFXFXFXFXFXHXAXtXHXSXFXFXFXFXFXFXFXFXFXFXSXIXl.L.PXSXFXFXFXFXFXFXFXFXFXFXFXFXyXKXHXHXHXHXHXKXHXHXKXFXFXHXPXrXq.IXvXT FXHXFXFXFXFXFXFXFXSXHXsXCXHXFX",
"Z.*X].*X].].C.].*X*X*XZ.A.*X*X].Z.*X*X].Z.*X:Xi.A.*X].*X].].*X*X*X*X*X*X*X*X*X*X*X*X*X*X*X*X].Z.*X].].].B.*X*X*X*X*X*X*X].Z.*X].*X].].*X*X:XC.V.:X*X*X*X*X].C.*X].].].*XZ.].*X*X*XC.].*X*X*XC.~.*X].C.].,Xp.k.,X].*X].].*X].*X*X*X*XN.M.*X*X*X*X*X].-Xh 3 e n &.DXmXmXMXeXjXjXrXtXtXtXtXrXaXoX_ ) _ } aXrXtXtXtXtXrXsXjXyXrXrX8X7X7X7X8XqX7X7X7X7XeXtXtXjXkXXX` &XJXSXFXFXFXFXFXFXFXFXFXHXSXjXHXFXFXFXFXFXFXFXFXFXFXFXSXLX=X2XLXSXFXFXFXFXFXFXFXFXFXFXFXHXjXSXFXFXFXFXFXFXFXFXFXFXFXSXHXsXl.PXbX`.FXHXFXFXFXFXFXFXFXFXHXjXAXHXFX",
">X>X>X>X>X>X>X>X>X>X>X>X>X>X>X>X>X>X>X>X>X>X>X3X>X>X>X>X>X>X>X>X>X>X>X>X>X>X>X>X>X>X>X>X>X>X>X>X>X>X>X>X>X>X>X>X>X>X>X>X>X>X>X>X>X>X>X>X>X>X>X>X>X>X>X>X>X>X>X>X>X>X>X>X>X>X>X>X>X>X>X>X>X>X>X>X>X>X>X>X>X3X>X>X>X>X>X>X>X>X>X>X>X>X>XI.>X>X>X>X>X>X>XY.F.S.C.9X4X3X4X3X3XjXjXrXtXtXtXtXrXaXOX| | | Q.aXrXtXtXtXtXrXsXjXyXrXrXqXqXqXqXeXeXqXqXqXqXeXtXtXjXjX4X3XtX4X4X4X4X4X4X4X4X4X4X4X4X4XrX4X4X4X4X4X4X4X4X4X4X4X4X4X4XtXtX4X4X4X4X4X4X4X4X4X4X4X4X4X4XtX4X4X4X4X4X4X4X4X4X4X4X4X4X4XtXtX4X4XgX4X4X4X4X4X4X4X4X4X4X4XrXrX4X4X",
"jXjXjXjXjXjXjXjXjXjXjXjXjXjXjXjXjXjXjXjXjXjXCXjXjXjXjXjXjXjXjXjXjXjXjXjXjXjXjXjXjXjXjXjXjXjXjXjXjXjXjXjXjXjXjXjXjXjXjXjXjXjXjXjXjXjXjXjXjXjXjXjXjXjXjXjXjXjXjXjXjXjXjXjXjXjXjXjXjXjXjXjXjXjXjXjXjXjXjXjXCXjXjXjXjXjXjXjXjXjXjXjXjXjXCXCXjXjXjXjXjXCXjXDXDXDXAXkXjXjXjXjXjXjXjXrXtXtXtXrXrXtXtXaXaXaXaXrXtXrXrXtXtXrXsXjXyXrXrX8X7X7X7X8XqX7X7X7X7XeXtXtXjXjXjXjXjXjXjXjXjXjXjXjXjXjXjXjXjXjXjXjXjXjXjXjXjXjXjXjXjXjXjXjXjXjXjXjXjXjXjXjXjXjXjXjXjXjXjXjXjXjXjXjXjXjXjXjXjXjXjXjXjXjXjXjXjXjXjXjXjXjXjXjXjXjXjXjXjXjXjXjXjXjXjXjX",
"sXsXsXsXsXsXsXsXsXsXsXyXyXyXyXyXyXyXyXyXyXyXyXyXyXyXyXyXyXyXyXyXyXyXyXyXyXyXyXyXyXyXyXyXyXsXsXsXjXjXjXsXsXsXsXsXsXsXsXsXsXsXsXsXsXsXsXsXsXsXsXsXsXsXsXsXsXsXsXsXsXsXsXsXsXsXsXsXsXsXsXsXsXsXsXsXsXsXsXsXsXsXsXsXsXsXsXsXsXsXsXsXsXsXsXsXsXsXsXsXsXsXsXsXsXsXyXyXsXsXsXsXjXjXjXrXtXtXrXtXtX4XtX4XtX3XtXyX4XtXtXtXtXrXsXjXyXrXrXeXeXeXeXeXeXeXeXeXeXeXtXtXjXjXsXsXsXsXsXsXsXsXsXsXsXsXsXsXsXsXsXsXsXsXsXsXsXsXsXsXsXsXsXsXsXsXsXsXsXsXsXsXsXsXsXsXsXsXsXsXsXsXsXsXsXsXsXsXsXsXsXsXsXsXsXsXsXsXsXsXsXsXsXsXsXsXsXsXsXsXsXsXsXsXsXsX",
"rXrXrXrXrXrXrXrXrXrX4XpXpXpXpXpXpXpXpXpXpXpXpXpXpXpXpXpXpXpXpXpXpXpXpXpXpXpXpXpXpXpXpXpXpX5XrX4XsXjXtX4XrXrXrXrXrXrXrXrXrXrXrXrXrXrXrXrXrXrXrXrXrXrXrXrXrXrXrXrXrXrXrXrXrXrXrXrXrXrXrXrXrXrXrXrXrXrXrXrXrXrXrXrXrXrXrXrXrXrXrXrXrXrXrXrXrXrXrXrXrXrXrXrXrXrXrXrXrXrXrXrXtXjXjXrXtXtXrXyX,.9 l.jXl.> q.f.> 9.yXrXtXrXsXjXyXrXtXtXtXtXtXtXtXtXtXtXtXtXrXtXjXjXrXrXrXtXtXtXtXtXtXtXtXtXtXtXtXtXtXtXtXtXtXtXtXtXtXtXtXrXrXtXtXtXtXtXtXtXtXtXtXtXtXtXtXtXtXtXtXtXtXtXtXtXtXtXtXtXtXtXtXrXrXrXrXrXrXrXrXrXrXrXrXrXrXrXrXrXrXrXrXrXrXrX",
"tXtXtXtXtXtXtXtXrXtXqX).$X$X$X$X$X$X$X$X$X$X$X$X$X$X$X$X$X$X$X$X$X$X$X$X$X$X$X$X$X$X$X$X).7XtXrXsXjXtXrXtX=XI.I.I.I.I.I.I.I.I.I.I.I.I.I.I.I.I.I.I.I.I.I.I.I.I.I.I.I.I.I.I.I.I.I.I.I.I.I.I.I.I.I.I.I.I.I.I.I.I.I.I.I.I.I.I.I.I.I.I.I.I.I.I.I.I.I.I.I.I.I.I.I.I.I.I.=XrXtXtXjXjXrXtXrXyXP.a K.a CXa K.,.> I.a =XtXrXrXsXjXyXrXtXrXtXtXrXtXtXeXtXtXrXtXrXtXjXjXtXtXrX2X2X2X2X2X2X2X2X2X2X2X2X2X2X2X2X2X2X2X2X2X2X2X2X4XtX3X2X2X2X2X2X2X2X2X2X2X2X2X2X2X2X2X2X2X2X2X2X2X2X2X2X2X2X2X2XrXtXtXtXtXtXtXtXtXtXtXtXtXtXtXtXtXtXtXtXtXtXtX",
"tXtXtXtXtXtXtXtXrXpX$XN m m m m m m m m m m m m m m m m m m m m m m m m m m m m m m m m N ).pXrXsXjXtXrXtXI.2X4X4X4X4X4X4X4X4X4X4X4X4X4X4X4X4X4X4X4X4X4X4X4X4X4X4X4X4X3X3X4X3X3X3X3X4X3X3X3X3X3X4X4X4X4X4X4X4X4X4X4X4X4X4X4X4X4X4X4X4X4X4X4X4X4X4X4X4X4X4X4X4X4X3XI.rXrXtXjXjXrXtXrXyXS.,.4Xp ZXa 4X,.= sXa L.yXrXrXsXjXyXrXtXtXpX(.+XpX+X(.qX(.7XtXrXtXjXjXtXtX4XP.=X=X=X=X=X=X=X=X=X=X=X=X=X=X=X=X=X=X=X=X=X=XP.2XtXI.I.=X=X=X=X=X=X=X=X=X=X=X=X=X=X=X=X=X=X=X=X=X=X=X=X=X=X=XP.4XtXrXtXtXtXtXtXtXtXtXtXtXtXtXtXtXtXtXtXtXtXtX",
"tXtXtXtXtXtXtXtXrXpX%Xm l l l l l l l l l l l l l l l l l l l l l l l l l l l l l l l l m $XpXrXsXjXtXrXtXI.3XtXtXtXtXtXtXtXtXtXtXtXtXtXtXtXtXtXtXtXtXtXtXtXtXtXtXtXtXyXtXtXjXyXsXyXtXyXtXyXtXsXtXtXtXtXtXtXtXtXtXtXtXtXtXtXtXtXtXtXtXtXtXtXtXtXtXtXtXtXtXtXtXtXrXI.rXrXtXjXjXrXtXrXtX>Xa q.a L.,.q.s p w.p 2XtXrXrXsXjXyXrXtXeXtX).+XpX).).+X).7XpXrXtXjXjXtXtX4XI.tXtXyXyXtXyXyXtXyXyXtXtXtXtXtXtXyXyXtXtXtXyX=X2XtX=X3XtXtXyXyXyXtXyXtXtXyXyXtXyXyXtXtXtXtXtXtXtXyXtXtXtXtXtXI.4XtXrXtXtXtXtXtXtXtXtXtXtXtXtXtXtXtXtXtXtXtXtX",
"tXtXtXtXtXtXtXtXrXpX%XN l x x c x x x x x x c x x c x x x x x x c x c x x x x x x x x l m ).pXrXsXjXtXrXtXI.3XtXrXrXrXrXrXrXrXrXrXrXrXrXrXrXrXrXrXrXrXrXrXrXrXrXrXrXyXK.=XyXw.S.f.P.4XK.I.P.>Xf.yXrXrXrXrXrXrXrXrXrXrXrXrXrXrXrXrXrXrXrXrXrXrXrXrXrXrXrXrXrXrXtX4XI.rXrXtXjXjXrXtXtXrXyXf.a P.w.=Xa f.>Xp f.yXrXtXrXsXjXyXrXtX+X7X+X+XpX+X&.7X).+XpXrXtXjXjXtXtX4XI.tXtX2X>XtX2X>XtX>X=XrXrX4XtX4X4X3X2XtX4X4XtX=X2XtXI.3XtXtX=X2X3X3X=XrXtX>X=XtX>X2X4X4X4XrXtXtX3X2XrXtX4XrXrXI.4XtXrXtXtXtXtXtXtXtXtXtXtXtXtXtXtXtXtXtXtXtXtX",
"tXtXtXtXtXtXtXtXrXpX%XN l c M c M m M m c M m c M M c M M c x M c M m M M c c m M m c l m ).pXrXsXjXtXrXtXI.3XtXrXtXtXtXtXtXtXtXtXtXtXtXtXtXtXtXtXtXtXtXtXtXtXtXtX4XjX4.f.CX4.f.s d 2X9.f.9.9.K.yXrXrXrXtXtXtXtXtXtXtXtXtXtXtXtXtXtXtXtXtXtXtXtXtXtXtXtXtXtXtXtX4XI.rXrXtXjXjXrXtXtXtXrXsXjXyXyXtXjXyXtXjXyXrXtXtXrXsXjXyXrXtXtXpX7X8XeX+X).tX7XqXtXrXtXjXjXtXtX4XI.tXtX4.4.S.4.4.S.,.f.4X>Xd yX9.w.9.4.f.w.2XtX=X2XtXI.3XyXf.9.f.,.q.,.q.P.s K.f.4.f.q.yXq.tXs K.d.9.a I.e.2XtXI.4XtXrXtXtXtXtXtXtXtXtXtXtXtXtXtXtXtXtXtXtXtXtX",
"tXtXtXtXtXtXtXtXrXpX%XN l c m x x M x m c M M M M M M c x M x m x M M M M c x M x M l l m ).pXrXsXjXtXrXtXI.3XtXrXtXtXtXtXtXtXtXtXtXtXtXtXtXtXtXtXtXtXtXtXtXtXtXtX4XjX9.l.jXq.S.w.s q.e.K.- w.CX4XtXtXtXtXtXtXtXtXtXtXtXtXtXtXtXtXtXtXtXtXtXtXtXtXtXtXtXtXtXtXtX4XI.rXrXtXjXjXrXtXtXtXtX4X4X4XyXtXtXyXrX4XrXtXtXtXrXsXjXyXrXtXrXrXpXtXtXtXpXrXpXtXrXrXtXjXjXtXtX4XI.tX4X9.w.w.w.w.e.s f.yX3Xi P.s f.w.=Xs w.sXtX=X2XtXI.3XsXq.q.4Xq.w.>Xf.w.s S.4.3XjXs 9.s =Xs f.S.f.s ,.w.2XtXI.4XtXrXtXtXtXtXtXtXtXtXtXtXtXtXtXtXtXtXtXtXtXtX",
"tXtXtXtXtXtXtXtXrXpX%XN l x c m c M c M x M m c M x M c x M x x M M m x M x x M x M x l m ).pXrXsXjXtXrXtXI.3XtXrXtXtXtXtXtXtXtXtXtXtXtXtXtXtXtXtXtXtXtXtXtXtXtXtX4XjX9.K.SXq.K.9.P.i 9.S.s ,.>X4X3X4X3XtXtXtXtXtXtXtXtXtXtXtXtXtXtXtXtXtXtXtXtXtXtXtXtXtXtXtXtX4XI.rXrXtXjXjXrXtXtXtXtXtX4XjXf.P.>XS.rXtXrXtXtXtXrXsXjXyXrXtXrXtX8XeXtXeX8XtX7XeXtXrXtXjXjXtXtX4XI.tXtXs w.3Xa a I.9.4Xf.f.9.4.4.f.w.I.s w.sXtX=X2XtXI.3XtXsXw.9.w.q.>Xd.w.q.rX4.3XjX4.P.9.w.i s f.w.f.4.i rXtXI.4XtXrXtXtXtXtXtXtXtXtXtXtXtXtXtXtXtXtXtXtXtXtX",
"tXtXtXtXtXtXtXtXrXpX%XN l x M M c M x m c M c M M M c M M c x M M M c l M m M M x M x l m ).pXrXsXjXtXrXtXI.3XtXrXtXtXtXtXtXtXtXtXtXtXtXtXtXtXtXtXtXtXtXtXtXtXtXtX4XjXq.d f.s w.q.3Xw.s K.f.S.4.w.e.f.q.rXtXrXtXtXtXtXtXtXtXtXtXtXtXtXtXtXtXtXtXtXtXtXtXtXtXtXtX4XI.rXrXtXjXjXrXtXtXtXtXrXtX2Xa w.i s a tXrXrXtXtXrXsXjXyXrXrXtXrX).(.pX).(.7X).).5XrXtXjXjXtXtX4XI.tX4Xq.sX3Xw.S.w.,.d.>XP.w.9.f.f.9.,.K.q.=XyX=X2XtXI.3XyXS.9.w.4.q.s q.I.s S.f.,.S.q.tXw.9.P.f.s q.f.=Xd 4XtXI.4XtXrXtXtXtXtXtXtXtXtXtXtXtXtXtXtXtXtXtXtXtXtX",
"tXtXtXtXtXtXtXtXrXpX%XN l x c x x x x x x x x x x c x x x x x c x x x x x c x x x x x l m ).pXrXsXjXtXrXtXI.3XtXrXrXrXrXrXrXrXrXrXrXrXrXrXrXrXrXrXrXrXrXrXrXrXrXrXrXtX4X=X>X3X3XrXrXtXrXrX4XtX3X4X4X4X4XrXrXrXrXrXrXrXrXrXrXrXrXrXrXrXrXrXrXrXrXrXrXrXrXrXrXrXtX4XI.rXrXtXjXjXrXtXtXtX4XsXd.p = d.p f.p tXrXrXtXtXrXsXjXyXrXtXqXeXtX).tX).+X+XeX).pXrXtXjXjXtXtX4XI.tXrX4X4XrX4XrX4X2X>XtXtX4XtXrX4X3X3XtX4X4XtX=X2XtXI.3XtX2X>XtX3X4X=XrXtX>X>XtX>X2XrXrX4X4XyXtX3X3X4XtXtXrXrXI.4XtXrXtXtXtXtXtXtXtXtXtXtXtXtXtXtXtXtXtXtXtXtX",
"tXtXtXtXtXtXtXtXrXpX%Xm l l l l l l l l l l l l l l l l l l l l l l l l l l l l l l l l m $XpXrXsXjXtXrXtXI.3XtXtXtXtXtXtXtXtXtXtXtXtXtXtXtXtXtXtXtXtXtXtXtXtXtXtXtXtXtXyXyXtXtXtXtXtXtXtXtXtXtXtXtXtXtXtXtXtXtXtXtXtXtXtXtXtXtXtXtXtXtXtXtXtXtXtXtXtXtXtXtXtXtXrXI.rXrXtXjXjXrXtXtXtX4XjXp 2X9.w.i ,.a rXtXrXtXtXrXsXjXyXrXtX+X7X(.+XrX).).+X(.+XtXrXtXjXjXtXtX4XI.tXtXtXtXtXtXtXtXyXyXtXtXtXtXtXtXtXyXtXtXtXyX=X2XtX=X3XtXtXyXtXyXtXyXtXtXyXyXtXyXyXtXtXtXtXtXtXyXtXtXtXtXtXtXI.4XtXrXtXtXtXtXtXtXtXtXtXtXtXtXtXtXtXtXtXtXtXtX",
"tXtXtXtXtXtXtXtXrXpX$XN m m m m m m m m m m m m m m m m m m m m m m m m m m m m m m m m N ).pXrXsXjXtXrXtXI.2X4X4X4X4X4X4X4X4X4X4X4X4X4X4X4X4X4X4X4X4X4X4X4X4X4X4X4X4X4X3X3X3X4X4X4X4X4X4X4X4X4X4X4X4X4X4X4X4X4X4X4X4X4X4X4X4X4X4X4X4X4X4X4X4X4X4X4X4X4X4X4X4X4X3XI.rXrXtXjXjXrXtXtXtX4XjX4.,.9 w.i l.> 2XtXrXtXtXrXsXjXyXrXrXpXeX).+XqX7X).8X).+XtXrXtXjXjXtXtX4XP.=X=X=X=X=X=X=X=X=X=X=X=X=X=X=X=X=X=X=X=X=X=XP.2XtXI.I.=X=X=X=X=X=X=X=X=X=X=X=X=X=X=X=X=X=X=X=X=X=X=X=X=X=X=XP.4XtXrXtXtXtXtXtXtXtXtXtXtXtXtXtXtXtXtXtXtXtXtX",
"tXtXtXtXtXtXtXtXrXtXqX).$X$X$X$X$X$X$X$X$X$X$X$X$X$X$X$X$X$X$X$X$X$X$X$X$X$X$X$X$X$X$X$X).7XtXrXsXjXtXrXtX=XI.I.I.I.I.I.I.I.I.I.I.I.I.I.I.I.I.I.I.I.I.I.I.I.I.I.I.I.I.I.I.I.I.I.I.I.I.I.I.I.I.I.I.I.I.I.I.I.I.I.I.I.I.I.I.I.I.I.I.I.I.I.I.I.I.I.I.I.I.I.I.I.I.I.I.=XrXtXtXjXjXrXtXtXtXrXtX4Xq.w.2Xq.,.K.yXrXtXtXtXrXsXjXyXrXtXrXtXpXpXtXtXpXtXpXpXtXtXtXjXjXtXtXrX3X2X2X2X2X2X2X2X2X2X2X2X2X2X2X2X2X2X2X2X2X2X2X2X4XtX3X2X2X2X2X2X2X2X2X2X2X2X2X2X2X2X2X2X2X2X2X2X2X2X2X2X2X2X2X3XrXtXtXtXtXtXtXtXtXtXtXtXtXtXtXtXtXtXtXtXtXtXtX",
"rXrXrXrXrXrXrXrXrXrX4XpXpXpXpXpXpXpXpXpXpXpXpXpXpXpXpXpXpXpXpXpXpXpXpXpXpXpXpXpXpXpXpXpXpX5XrX4XsXjXtX4XrXrXrXrXrXrXrXrXrXrXrXrXrXrXrXrXrXrXrXrXrXrXrXrXrXrXrXrXrXrXrXrXrXrXrXrXrXrXrXrXrXrXrXrXrXrXrXrXrXrXrXrXrXrXrXrXrXrXrXrXrXrXrXrXrXrXrXrXrXrXrXrXrXrXrXrXrXrXrXrXtXjXjXrXrXrXrXrXrXtXjXjXtXjXjXyX4XrXrXrXrX4XsXjXtX4XrXrXrXrXrXrXrXrXrXrXrXrXrXrXjXjXrXrXrXtXtXtXtXtXtXtXtXtXtXtXtXtXtXtXtXtXtXtXtXtXtXtXtXrXrXtXtXtXtXtXtXtXtXtXtXtXtXtXtXtXtXtXtXtXtXtXtXtXtXtXtXtXtXtXtXrXrXrXrXrXrXrXrXrXrXrXrXrXrXrXrXrXrXrXrXrXrXrX",
"sXsXsXsXsXsXsXsXsXsXsXyXyXyXyXyXyXyXyXyXyXyXyXyXyXyXyXyXyXyXyXyXyXyXyXyXyXyXyXyXyXyXyXyXyXsXsXsXjXjXjXsXsXsXsXsXsXsXsXsXsXsXsXsXsXsXsXsXsXsXsXsXsXsXsXsXsXsXsXsXsXsXsXsXsXsXsXsXsXsXsXsXsXsXsXsXsXsXsXsXsXsXsXsXsXsXsXsXsXsXsXsXsXsXsXsXsXsXsXsXsXsXsXsXsXsXsXsXsXsXsXsXjXjXjXsXsXsXsXsXsXsXyXyXsXyXyXyXsXsXsXsXsXsXjXjXjXsXsXsXsXsXsXsXsXsXsXsXsXsXsXsXjXjXsXsXsXsXsXsXsXsXsXsXsXsXsXsXsXsXsXsXsXsXsXsXsXsXsXsXsXsXsXsXsXsXsXsXsXsXsXsXsXsXsXsXsXsXsXsXsXsXsXsXsXsXsXsXsXsXsXsXsXsXsXsXsXsXsXsXsXsXsXsXsXsXsXsXsXsXsXsXsXsXsXsX",
"CXCXCXCXCXCXCXCXCXCXCXCXCXCXCXCXCXCXCXCXCXCXCXCXCXCXCXCXCXCXCXCXCXCXCXCXCXCXCXCXCXCXCXCXCXCXCXCXjXjXCXCXCXCXCXCXCXCXCXCXCXCXCXCXCXCXCXCXCXCXCXCXCXCXCXCXCXCXCXCXCXCXCXCXCXCXCXCXCXCXCXCXCXCXCXCXCXCXCXCXCXCXCXCXCXCXCXCXCXCXCXCXCXCXCXCXCXCXCXCXCXCXCXCXCXCXCXCXCXCXCXCXCXjXjXCXCXCXCXCXCXCXCXCXCXCXCXCXCXCXCXCXCXCXjXjXjXCXCXCXCXCXCXCXCXCXCXCXCXCXCXCXjXjXCXCXCXCXCXCXCXCXCXCXCXCXCXCXCXCXCXCXCXCXCXCXCXCXCXCXCXCXCXCXCXCXCXCXCXCXCXCXCXCXCXCXCXCXCXCXCXCXCXCXCXCXCXCXCXCXCXCXCXCXCXCXCXCXCXCXCXCXCXCXCXCXCXCXCXCXCXCXCXCXCXCX",
"=X=X=X=X=X=X=X=X=X=X=X=X=X=X=X=X=X=X=X=X=X=X=X=X=X=X=X=X=X=X=X=X=X=X=X=X=X=X=X=X=X=X=X=X=X=X=X=X>X>X>X=X=X=X=X=X=X=X=X=X=X=X=X=X=X=X=X=X=X=X=X=X=X=X=X=X=X=X=X=X=X=X=X=X=X=X=X=X=X=X=X=X=X=X=X=X=X=X=X=X=X=X=X=X=X=X=X=X=X=X=X=X=X=X=X=X=X=X=X=X=X=X=X=X=X=X=X=X=X=X=X=X>X>X>X=X=X=X=X=X=X=X=X=X=X=X=X=X=X=X=X=X>X=XtXCX3X=X>X=X=X=X=X=X=X=X=X=X=X=X=X>X>X>X=X=X=X=X=X=X=X=X=X=X=X=X=X=X=X=X=X=X=X=X=X=X=X=X=X=X=X=X=X=X=X=X=X=X=X=X=X=X=X=X=X=X=X=X=X=X=X=X=X=X=X=X=X=X=X=X=X=X=X=X=X=X=X=X=X=X=X=X=X=X=X=X=X=X=X=X=X=X=X=X=X=X",
"L.L.L.L.L.L.L.L.L.L.L.L.L.L.L.L.L.L.L.L.L.L.L.L.L.L.L.L.L.L.L.L.L.L.L.L.L.L.L.L.L.L.L.L.L.L.L.L.L.L.L.L.L.L.L.L.L.L.L.L.L.L.L.L.L.L.L.L.L.L.L.L.L.L.L.L.L.L.L.L.L.L.L.L.L.L.L.L.L.L.L.L.L.L.L.L.L.L.L.L.L.L.L.L.L.L.L.L.L.L.L.L.L.L.L.L.L.L.L.L.L.L.L.L.L.L.L.L.L.L.L.L.L.L.L.L.L.L.L.L.L.L.L.L.L.L.L.L.L.L.L.L.L.K.4XZX>XK.L.L.L.L.L.L.L.L.L.L.L.L.L.L.L.L.L.L.L.L.L.L.L.L.L.L.L.L.L.L.L.L.L.L.L.L.L.L.L.L.L.L.L.L.L.L.L.L.L.L.L.L.L.L.L.L.L.L.L.L.L.L.L.L.L.L.L.L.L.L.L.L.L.L.L.L.L.L.L.L.L.L.L.L.L.L.L.L.L.L.L.L.L.L.L.L.L.L.",
"P.P.P.P.P.P.P.P.P.P.P.P.P.P.P.P.P.P.P.P.P.P.P.P.P.P.P.P.P.P.P.P.P.P.P.P.P.P.P.P.P.P.P.P.P.P.P.P.P.P.P.P.P.P.P.P.P.P.P.P.P.P.P.P.P.P.P.P.P.P.P.P.P.P.P.P.P.P.P.P.P.P.P.P.P.P.P.P.P.P.P.P.P.P.P.P.P.P.P.P.P.P.P.P.P.P.P.P.P.P.P.P.P.P.P.P.P.P.P.P.P.P.P.P.P.P.P.P.P.P.P.P.P.P.P.P.P.P.P.P.P.P.P.P.P.P.P.P.P.P.P.P.P.L.4XZX2XL.P.I.L.=XI.P.P.P.P.P.P.P.P.P.P.P.P.P.P.P.P.P.P.P.P.P.P.P.P.P.P.P.P.P.P.P.P.P.P.P.P.P.P.P.P.P.P.P.P.P.P.P.P.P.P.P.P.P.P.P.P.P.P.P.P.P.P.P.P.P.P.P.P.P.P.P.P.P.P.P.P.P.P.P.P.P.P.P.P.P.P.P.P.P.P.P.P.P.",
"P.P.P.P.P.P.P.P.P.P.P.P.P.P.P.P.P.P.P.P.P.P.P.P.P.P.P.P.P.P.P.P.P.P.P.P.P.P.P.P.P.P.P.P.P.P.P.P.P.P.P.P.P.P.P.P.P.P.P.P.P.P.P.P.P.P.P.P.P.P.P.P.P.P.P.P.P.P.P.P.P.P.P.P.P.P.P.P.P.P.P.P.P.P.P.P.P.P.P.P.P.P.P.P.P.P.P.P.P.P.P.P.P.P.P.P.P.P.P.P.P.P.P.P.P.P.P.P.P.P.P.P.P.P.P.P.P.P.P.P.P.P.P.P.P.P.P.P.P.P.P.P.P.L.4XZX>XL.=Xs a s L.I.L.I.P.L.=XP.K.I.K.P.P.L.I.I.L.P.P.P.P.P.P.P.P.P.P.P.P.P.P.P.P.P.P.P.P.P.P.P.P.P.P.P.P.P.P.P.P.P.P.P.P.P.P.P.P.P.P.P.P.P.P.P.P.P.P.P.P.P.P.P.P.P.P.P.P.P.P.P.P.P.P.P.P.P.P.P.P.P.P.P.P.P.",
"P.P.P.P.P.P.P.P.P.P.P.P.P.P.P.P.P.P.P.P.P.P.P.P.P.P.P.P.P.P.P.P.P.P.P.P.P.P.P.P.P.P.P.P.P.P.P.P.P.P.P.P.P.P.P.P.P.P.P.P.P.P.P.P.P.P.P.P.P.P.P.P.P.P.P.P.P.P.P.P.P.P.P.P.P.P.P.P.P.P.P.P.P.P.P.P.P.P.P.P.P.P.P.P.P.P.P.P.P.P.P.P.P.P.P.P.P.P.P.P.P.P.P.P.P.P.P.P.P.P.P.P.P.P.P.P.P.P.P.P.P.P.P.P.P.P.P.P.P.P.P.P.P.L.4XZX>XL.I.a P.4.9.q.s f.9.s w.s 9.4.s f.4.,.w.d w.I.P.P.P.P.P.P.P.P.P.P.P.P.P.P.P.P.P.P.P.P.P.P.P.P.P.P.P.P.P.P.P.P.P.P.P.P.P.P.P.P.P.P.P.P.P.P.P.P.P.P.P.P.P.P.P.P.P.P.P.P.P.P.P.P.P.P.P.P.P.P.P.P.P.P.P.P.",
"P.P.P.P.P.P.P.P.P.P.P.P.P.P.P.P.P.P.P.P.P.P.P.P.P.P.P.P.P.P.P.P.P.P.P.P.P.P.P.P.P.P.P.P.P.P.P.P.P.P.P.P.P.P.P.P.P.P.P.P.P.P.P.P.P.P.P.P.P.P.P.P.P.P.P.P.P.P.P.P.P.P.P.P.P.P.P.P.P.P.P.P.P.P.P.P.P.P.P.P.P.P.P.P.P.P.P.P.P.P.P.P.P.P.P.P.P.P.P.P.P.P.P.P.P.P.P.P.P.P.P.P.P.P.P.P.P.P.P.P.P.P.P.P.P.P.P.P.P.P.P.P.P.L.4XZX>XL.I.s P.f.d d s i d s d s f.,.9.q.i s d s =XL.P.P.P.P.P.P.P.P.P.P.P.P.P.P.P.P.P.P.P.P.P.P.P.P.P.P.P.P.P.P.P.P.P.P.P.P.P.P.P.P.P.P.P.P.P.P.P.P.P.P.P.P.P.P.P.P.P.P.P.P.P.P.P.P.P.P.P.P.P.P.P.P.P.P.P.P.",
"P.P.P.P.P.P.P.P.P.P.P.P.P.P.P.P.P.P.P.P.P.P.P.P.P.P.P.P.P.P.P.P.P.P.P.P.P.P.P.P.P.P.P.P.P.P.P.P.P.P.P.P.P.P.P.P.P.P.P.P.P.P.P.P.P.P.P.P.P.P.P.P.P.P.P.P.P.P.P.P.P.P.P.P.P.P.P.P.P.P.P.P.P.P.P.P.P.P.P.P.P.P.P.P.P.P.P.P.P.P.P.P.P.P.P.P.P.P.P.P.P.P.P.P.P.P.P.P.P.P.P.P.P.P.P.P.P.P.P.P.P.P.P.P.P.P.P.P.P.P.P.P.P.L.4XZX>XL.I.d l.s 4.d q.w.i q.f.f.i f.,.i d f.9.4.=XL.P.P.P.P.P.P.P.P.P.P.P.P.P.P.P.P.P.P.P.P.P.P.P.P.P.P.P.P.P.P.P.P.P.P.P.P.P.P.P.P.P.P.P.P.P.P.P.P.P.P.P.P.P.P.P.P.P.P.P.P.P.P.P.P.P.P.P.P.P.P.P.P.P.P.P.P.",
"P.P.P.P.P.P.P.P.P.P.P.P.P.P.P.P.P.P.P.P.P.P.P.P.P.P.P.P.P.P.P.P.P.P.P.P.P.P.P.P.P.P.P.P.P.P.P.P.P.P.P.P.P.P.P.P.P.P.P.P.P.P.P.P.P.P.P.P.P.P.P.P.P.P.P.P.P.P.P.P.P.P.P.P.P.P.P.P.P.P.P.P.P.P.P.P.P.P.P.P.P.P.P.P.P.P.P.P.P.P.P.P.P.P.P.P.P.P.P.P.P.P.P.P.P.P.P.P.P.P.P.P.P.P.P.P.P.P.P.P.P.P.P.P.P.P.P.P.P.P.P.P.P.L.4XZX2XL.=X4.a 9.=Xw.s f.w.,.d.,.9.q.s f.9.4.w.w.=XL.P.P.P.P.P.P.P.P.P.P.P.P.P.P.P.P.P.P.P.P.P.P.P.P.P.P.P.P.P.P.P.P.P.P.P.P.P.P.P.P.P.P.P.P.P.P.P.P.P.P.P.P.P.P.P.P.P.P.P.P.P.P.P.P.P.P.P.P.P.P.P.P.P.P.P.P.",
"P.P.P.P.P.P.P.P.P.P.P.P.P.P.P.P.P.P.P.P.P.P.P.P.P.P.P.P.P.P.P.P.P.P.P.P.P.P.P.P.P.P.P.P.P.P.P.P.P.P.P.P.P.P.P.P.P.P.P.P.P.P.P.P.P.P.P.P.P.P.P.P.P.P.P.P.P.P.P.P.P.P.P.P.P.P.P.P.P.P.P.P.P.P.P.P.P.P.P.P.P.P.P.P.P.P.P.P.P.P.P.P.P.P.P.P.P.P.P.P.P.P.P.P.P.P.P.P.P.P.P.P.P.P.P.P.P.P.P.P.P.P.P.P.P.P.P.P.P.P.P.P.P.L.4XZX>XL.P.=X=X=XP.I.=XP.=X=XI.=X=XI.=XI.=XI.I.I.P.P.P.P.P.P.P.P.P.P.P.P.P.P.P.P.P.P.P.P.P.P.P.P.P.P.P.P.P.P.P.P.P.P.P.P.P.P.P.P.P.P.P.P.P.P.P.P.P.P.P.P.P.P.P.P.P.P.P.P.P.P.P.P.P.P.P.P.P.P.P.P.P.P.P.P.P.P.",
"P.P.P.P.P.P.P.P.P.P.P.P.P.L.L.L.L.L.L.L.L.L.L.L.L.L.L.L.L.L.L.L.L.L.L.L.L.L.L.L.L.L.L.L.L.L.L.L.L.L.L.L.L.L.L.L.L.L.L.L.L.L.L.L.L.L.L.L.L.L.L.L.L.L.L.L.L.L.L.L.L.L.L.L.L.L.L.L.L.L.L.L.P.P.P.P.P.P.P.P.P.P.P.P.P.P.P.P.P.P.P.P.P.P.P.P.P.P.P.P.P.P.P.P.P.P.P.P.P.P.P.P.P.P.P.P.P.P.P.P.P.P.P.P.P.P.P.P.P.P.P.P.P.L.4XZX2XL.P.P.P.P.P.P.P.P.P.P.P.P.P.P.P.P.P.P.P.P.P.P.P.P.P.P.P.P.P.P.P.P.P.P.P.P.P.P.P.P.P.P.P.P.P.P.P.P.P.P.P.P.P.P.P.P.P.P.P.P.P.P.P.P.P.P.P.P.P.P.P.P.P.P.P.P.P.P.P.P.P.P.P.P.P.P.P.P.P.P.P.P.P.P.P.P.P.P.",
"rXrXrXrXrXrXtXrX4X4XtXjX=X1.0.0.0.0.0.0.0.0.0.0.0.0.0.0.0.0.0.0.0.0.0.0.0.0.0.0.0.0.0.0.0.0.0.0.0.0.0.0.0.0.0.0.0.0.0.0.0.0.0.0.0.0.0.0.0.0.0.0.0.0.0.0.0.0.0.0.0.0.0.0.0.0.0.0.0.0.0.1.=XjXtX4X4X4X4X4X4X4X4X4X4X4X4X4X4X4X4X4X4X4X4X4X4X4X4X4X4X4X4X4X4X4X4X4X4X4X4X4X4X4X4X4X4X4X4X4X4X4X4X4X4X4X4X4X4X4X4X4X4X4XyXjXtX4X4X4X4X4X4X4X4X4X4X4X4X4X4X4X4X4X4X4X4X4X4X4X4X4X4X4X4X4X4X4X4X4X4X4X4X4X4X4X4X4X4X4X4X4X4X4X4X4X4X4X4X4X4X4X4X4X4X4X4X4X4X4X4X4X4X4X4X4X4X4X4X4X4X4X4X4X4X4X4X4X4X4X4X4X4X4X4X4X4X4X4X4X4X4X4X4X4X4X",
"6X6X6X6X6X6X6X6XtXrXtXAX=X2.1.1.1.1.1.1.1.1.1.1.1.1.1.1.1.1.1.1.1.1.1.1.1.1.1.1.1.1.1.1.1.1.1.1.1.1.1.1.1.1.1.1.1.1.1.1.1.1.1.1.1.1.1.1.1.1.1.1.1.1.1.1.1.1.1.1.1.1.1.1.1.1.1.1.1.1.1.2.=XAXtXrXtXtXtXtXtXtXtXtXtXtXtXtXtXtXtXtXtXtXtXtXtXtXtXtXtXtXtXtXtXtXtXtXtXtXtXtXtXtXtXtXtXtXtXtXtXtXtXtXtXtXtXtXtXtXtXtXtXrXsXjXyXrXtXtXtXtXtXtXtXtXtXtXtXtXtXtXtXtXtXtXtXtXtXtXtXtXtXtXtXtXtXtXtXtXtXtXtXtXtXtXtXtXtXtXtXtXtXtXtXtXtXtXtXtXtXtXtXtXtXtXtXtXtXtXtXtXtXtXtXtXtXtXtXtXtXtXtXtXtXtXtXtXtXtXtXtXtXtXtXtXtXtXtXtXtXtXtXtXtXtX",
"y y y y y y y y yX4XtXZX=X2.6.2.>.>.>.>.>.>.>.>.>.>.>.>.>.>.>.>.>.>.>.>.>.>.>.>.>.>.>.>.>.>.>.>.>.>.>.>.>.>.>.>.>.>.>.>.>.>.>.>.>.>.>.>.>.>.>.>.>.>.>.>.>.>.>.>.>.>.>.>.>.>.>.>.>.2.6.2.=XZXtXrXtXrXrXtXrXrXrXrXrXrXtXrXtXjXjXjXjXjXjXjXjXjXjXjXjXjXjXjXjXjXjXjXjXjXjXjXjXjXjXjXjXjXjXjXjXjXjXyXjXjXjXjXjXjXjXyXrXrXsXjXyXrXtXrXrXtX4X4X4XtXrXtXrXrXtXtXrXtXrXrXrXrXrXrXrXrXrXrXrXrXtXrXrXrXrXtXrXrXrXrXrXrXrXrXrXrXrXrXrXrXrXrXrXrXrXtXrX4X4X4XtXtXrXtXrXrXrXrXrXtXrXtXtXrXtXrXrXrXrXrXrXrXrXrXrXrXtXrX4XtXrXrXrXrXtXrXrXtXrXtX",
". . . . . . o y yX4XtXAX=X2.6.>.>.5.1.1.1.1.1.1.1.1.1.1.1.1.1.1.1.1.1.1.1.1.1.1.1.1.1.1.1.1.1.6.1.6.5.1.1.1.1.1.1.6.1.1.1.1.1.1.1.1.1.1.1.1.1.1.1.1.1.1.1.1.1.1.1.1.1.1.1.1.1.5.>.2.6.2.=XZXtXrXtXtXtXrXyXsXrXtXsXyXtXrXtXjXjXjXjXjXjXjXjXjXjXjXCXjXjXjXjXjXjXjXjXjXjXjXjXjXjXjXjXjXjXjXjXjXjXyXjXjXjXCXjXjXjXyXrXrXsXjXyXrXtXtXtXrXjXjXyXrX4X4XtXtX=X3XrX4XrXtXtXtXtXtXtXtXtXtXtXtXrXyXtXyXyX4X4XrXrX4XrXrX4XrXtXtXtXtXtXtXtXtXtXtXtXtXtXsXjXjX3X4XrXrX4XrXrX4XrX4XrX3X3XrXrXtXtXtXtXtXtXtXtXtXtXtXrXyXjX4XtXrXtXrXrX4XrX4XrX3X",
". . . . . . o y yX4XtXAX=X2.6.2.>.5.1.1.1.1.1.1.1.1.1.1.1.1.1.1.1.1.1.1.1.1.1.1.1.1.1.1.1.5.1.>.1.>.>.1.1.1.1.1.1.>.1.5.1.1.1.1.1.1.1.1.1.1.1.1.1.1.1.1.1.1.1.1.1.1.1.1.1.1.1.5.>.2.6.2.=XZXtXrXtX2XrXtXP.l.tX3Xl.K.tXrXtXjXjXSXAXjXjXSXjXjXjXjXtXAXSXSXjXjXAXjXjXjXjXjXjXjXjXjXjXjXjXjXjXjXjXyXjXjXCX3XjXjXjXyXrXrXsXjXyXrXtXtXrXtX,.p f.sXsXjX=XtXI.3XjXjXtXrXtXtXtXtXtXtXtXtXtX4XsXf.I.f.f.ZXjXtXtXjXyXtXjXyXrXtXtXtXtXtXtXtXtXtXrXtXrX,.i ,.p 2XjXtXjXyXyXjXyXyXAX9.f.AXrXrXtXtXtXtXtXtXtXtXtXrXyXS.q.jXI.yX=XyXyXjXtXyXSX,.",
". . . . . . o y yX4XtXAX=X2.6.2.>.5.1.1.1.1.1.1.1.1.1.1.1.1.1.1.1.1.1.1.1.1.1.1.1.1.1.1.1.0.p = p > :.9 p a > >.1.9 i 0.1.1.1.1.1.1.1.1.1.1.1.1.1.1.1.1.1.1.1.1.1.1.1.1.1.1.1.5.>.2.6.2.=XZXtXrXrXp 4X4X> s 4.4.i f.rXtXtXjXtX,.9.CXyX4.jXjXAXjX,.P.p 4.yX4Xf.HXAXjXZXSXsX4XAXjXjXjXjXjXjXjXjXyXjXZXL.@ f.AXjXyXrXrXsXjXyXrXtXtXtXrX9 K.> =Xs f.i i d.>Xq.a >XtXrXtXtXtXtXtXtXtXtX4XjX4.,.s I.,.a L.=Xa K.P.a K.yXrXtXtXtXtXtXtXtXtXtXrXtX=X> I.p i q.=Xs f.S.a P.q.9.,.9 ,.3XtXrXtXtXtXtXtXtXtXtX4XjX,.> 3X- ,.- q.f.a >Xw.,.a ",
". . . . . . o y yX4XtXAX=X2.6.2.>.5.1.1.1.1.1.1.1.1.1.1.1.1.1.1.1.1.1.1.1.1.1.1.1.1.1.1.1.0.a > p > >.= > 9 - 0.0.>.p 0.1.1.1.1.1.1.1.1.1.1.1.1.1.1.1.1.1.1.1.1.1.1.1.1.1.1.1.5.>.2.6.2.=XZXtXrXrXi 3X3Xi w.a ,.4.3XtXrXtXCX4X2Xa P.d.* jXAXf.p s q.d.9.f.f.w.f.a tX=X,.s - 3XZXjXjXjXjXjXjXjXyXjXCXs - d sXjXyXrXrXsXjXyXrXtXtXrXtX> > q.tX9.i p f.,.4.,.d.s jX4XtXtXtXtXtXtXtXtX4XjXq.O l.2X> f.a a a > 9 a > tXrXtXtXtXtXtXtXtXtXtXrXtXtXa tXp d.a 9.9 rX> a > > l.4.,.,.w.jX4XtXtXtXtXtXtXtXrXtX2Xi i f.p P.i 2XL.p p p 4Xs ",
". . . . . . o y yX4XtXAX=X2.6.2.>.5.1.1.1.1.1.1.1.1.1.1.1.1.1.1.1.1.1.1.1.1.1.1.1.1.1.1.1.0.p > 2.> i > > 9 > :.1.= >.6.1.1.1.1.1.1.1.1.1.1.1.1.1.1.1.1.1.1.1.1.1.1.1.1.1.1.1.5.>.2.6.2.=XZXtXtX4Xp sXtX= ,.tX,.9 f.tXrXtXjXAXjXs l.q.,.jX4Xp K.a d.> i =X9.f.,.l.,.s =Xl.,.AXjXjXjXjXjXjXjXjXyXjXjX>X4X>XyXjXyXrXrXsXjXyXrXtXtXtX4Xp 4.,.9.p i p K.4.,.q.I.p jX4XtXtXtXtXtXtXtXtX4XjX4.s a l.,.3Xp i ,.w.= ,.d.tXrXtXtXtXtXtXtXtXtXtXrXtXrXi 4Xp 3X,.,.9.jX- 4.f.I.a i K.q.q.jX4XtXtXtXtXtXtXtX4XjXd.9 p ,.a 3Xp I.p p > s HXs ",
". . . . . . o y yX4XtXAX=X2.6.2.>.5.1.1.1.1.1.1.1.1.1.1.1.1.1.1.1.1.1.1.1.1.1.1.1.1.1.1.1.5.>.1.5.p p 1.1.:.>.>.,.i :.6.1.1.1.1.1.1.1.1.1.1.1.1.1.1.1.1.1.1.1.1.1.1.1.1.1.1.1.5.>.2.6.2.=XZXtXrXtX> q.S.i jXZXs l.AX4XrXtXjXjXs =Xq.9 * L.4Xa tXa q.f.f.i q.S.4.3Xa a jXL.,.HXjXjXjXjXjXjXjXjXyXjXAXd X i jXjXyXrXrXsXjXyXrXtXtXtXrX,.4X,.,.a ,.q.s ,.K.,.i K.yXrXtXtXtXtXtXtXtXtX4XjXq.S.d.,.q.=X4.l.p f.f.a f.tXrXtXtXtXtXtXtXtXtXtXrXtXrX,.4X,.>X9.q.q.ZXq.a f.4.s ,.K.d.d.jX4XtXtXtXtXtXtXtX4XsX4.I.jX,.s 9.,.,.a a w.,.s ,.",
". . . . . . o y yX4XtXAX=X2.6.2.>.5.1.1.1.1.1.1.1.1.1.1.1.1.1.1.1.1.1.1.1.1.1.1.1.1.1.1.1.1.5.1.1.0.0.1.1.0.5.6.5.0.6.1.1.1.1.1.1.1.1.1.1.1.1.1.1.1.1.1.1.1.1.1.1.1.1.1.1.1.1.5.>.2.6.2.=XZXtXrXtXd.,.l.K.3XtXL.=XtXrXrXrXAXl.= ,.P.sX,.tXAX9.p 4.l.9 ,.,.S.ZX,.i 2Xf.i l.a I.ZXjXjXjXjXjXjXjXyXjXZX4X> >XAXjXyXrXrXsXjXyXrXtXtXtXtXtXtXtXtX3XtXyX4XtXtXtX4XyXrXtXtXtXtXtXtXtXtXtXtXrXtXtXyXtXtXtXtXyX3X3XyX2X3XtXrXtXtXtXtXtXtXtXtXtXtXtXtXtXtXtXtXtXtXtXrXyX2X3X3X4XyXtXtXtXrXtXtXtXtXtXtXtXtXtXrXtXtX4XtXtX4XtX4XrX3XyXtX3XtX",
". . . . . . o y yX4XtXAX=X2.6.2.>.6.5.5.5.5.5.5.5.5.5.5.5.5.5.5.5.5.5.5.5.5.5.5.5.5.5.5.5.5.5.5.5.1.1.5.5.1.1.5.5.1.1.5.5.5.5.5.5.5.5.5.5.5.5.5.5.5.5.5.5.5.5.5.5.5.5.5.5.5.5.6.>.2.6.2.=XZXtXrXrXjXCXsXyXtXrXyXtXrXtXrXtXjXjXjXyXjXCXZXjXjXZXjXZXjXjXjXAXjXjXCXjXZXZXjXjXjXjXjXjXjXjXjXjXjXjXyXjXjXjXjXjXjXjXyXrXrXsXjXyXrXtXtXtXtXrXrXrXrXtXrXrXtXtXrXrXtXrXtXtXtXtXtXtXtXtXtXtXtXtXrXrXrXtXrXtXrXrXtXtXrXtXtXrXtXtXtXtXtXtXtXtXtXtXtXtXtXrXtXrXtXrXrXrXtXrXtXtXtXtXrXtXrXrXtXtXtXtXtXtXtXtXtXtXtXtXrXrXrXrXtXrXtXtXtXrXrXtXrX",
"o o o o o o o y yX4XtXAX=X2.6.>.>.1.1.1.1.1.1.1.1.1.1.1.1.1.1.1.1.1.1.1.1.1.1.1.1.1.1.1.1.1.1.1.1.1.1.1.1.1.1.1.1.1.1.1.1.1.1.1.1.1.1.1.1.1.1.1.1.1.1.1.1.1.1.1.1.1.1.1.1.1.1.1.>.2.6.2.=XZXtXrXtX4X4XrXrXtXtXrXrXtXtXrXtXjXjXjXjXjXjXjXjXjXjXjXjXjXjXjXjXjXjXjXjXjXjXjXjXjXjXjXjXjXjXjXjXjXjXyXjXjXjXjXjXjXjXyXrXrXsXjXyXrXtXtXtXtXtXtXtXtXtXtXtXtXtXtXtXtXtXtXtXtXtXtXtXtXtXtXtXtXtXtXtXtXtXtXtXtXtXtXtXtXtXtXtXtXtXtXtXtXtXtXtXtXtXtXtXtXtXtXtXtXtXtXtXtXtXtXtXtXtXtXtXtXtXtXtXtXtXtXtXtXtXtXtXtXtXtXtXtXtXtXtXtXtXtXtXtXtXtX",
"y y y y y y y g yX4XtXAX=X2.6.1.>.>.>.>.>.>.>.>.>.>.>.>.>.>.>.>.>.>.>.>.>.>.>.>.>.>.>.>.>.>.>.>.>.>.>.>.>.>.>.>.>.>.>.>.>.>.>.>.>.>.>.>.>.>.>.>.>.>.>.>.>.>.>.>.>.>.>.>.>.>.>.>.>.1.6.2.=XZXtXrXtXtXtXtXtXtXtXtXtXtXtXrXtXjXjXjXjXjXjXjXjXjXjXjXjXjXjXjXjXjXjXjXjXjXjXjXjXjXjXjXjXjXjXjXjXjXjXyXjXjXjXjXjXjXjXyXrXrXsXjXyXrXtXtXtXtXtXtXtXtXtXtXtXtXtXtXtXtXtXtXtXtXtXtXtXtXtXtXtXtXtXtXtXtXtXtXtXtXtXtXtXtXtXtXtXtXtXtXtXtXtXtXtXtXtXtXtXtXtXtXtXrXrXrXrXrXrXrXrXrXtXtXtXtXtXtXtXtXtXtXtXtXtXtXtXtXtXtXtXtXtXtXtXtXtXtXtXtXtXtX",
"yXyXyXyXyXyXyXyXrXrXtXAX=X2.5.1.5.5.5.5.5.5.5.5.5.5.5.5.5.5.5.5.5.5.5.5.5.5.5.5.5.5.5.5.5.5.5.5.5.5.5.5.5.5.5.5.5.5.5.5.5.5.5.5.5.5.5.5.5.5.5.5.5.5.5.5.5.5.5.5.1.5.5.5.5.5.5.5.5.1.5.2.=XZXtXrXtXtXtXtXtXtXtXtXtXtXtXtXtXrXrXrXrXrXrXrXrXrXrXrXrXrXrXrXrXrXrXrXrXrXrXrXrXrXrXrXrXrXrXrXrXrXrXrXrXrXrXrXrXrXrXrXtXrXsXjXyXrXtXtXtXtXtXtXtXtXtXtXtXtXtXtXtXtXtXtXtXtXtXtXtXtXtXtXtXtXtXtXtXtXtXtXtXtXtXtXtXtXtXtXtXtXtXtXtXtXtXtXtXtXtXtXtXtXtXrXrXtXgXgXtXtXtXtXgXgXrXrXtXtXtXtXtXtXtXtXtXtXtXtXtXtXtXtXtXtXtXtXtXtXtXtXtXtXtXtX",
"4X4X4X4X4X4X4X4XtXrXtXAX=X2.5.1.1.1.1.1.1.5.5.1.1.1.1.1.1.1.1.1.1.1.1.1.1.1.1.1.1.1.1.1.1.1.1.1.1.1.1.1.5.1.1.1.1.1.1.1.1.1.1.1.1.1.1.1.1.1.1.1.1.1.1.5.1.1.1.1.0.1.1.1.1.1.1.1.1.1.5.2.=XZXtXrXtXtXtXtXtXtXtXrXtXtXtXrXtXtXtXtXtXtXtXtXtXtXtXtXtXtXtXtXtXtXtXtXtXtXtXtXtXtXtXtXtXtXrXtXtXrXtXtXtXtXtXtXtXtXtXtXtXrXsXjXyXrXtXtXtXtXtXtXtXtXtXtXtXtXtXtXtXtXtXtXtXtXtXtXtXtXtXtXtXtXtXtXtXtXtXtXtXtXtXtXtXtXtXtXtXtXtXtXtXtXtXtXtXtXtXtXtXtXrXtXgXrX{.`.E E E E `.{.tXgXrXrXtXtXtXtXtXtXtXtXtXtXtXtXtXtXtXtXtXtXtXtXtXtXtXtXtXtX",
"tXtXrXtXtXtXtXtXtXrXtXAX=X2.5.1.1.1.1.1.5.1.1.1.5.1.1.1.1.5.1.1.1.1.1.1.1.1.1.1.1.1.1.1.1.1.1.1.1.1.5.0.1.0.5.1.1.1.1.1.1.1.1.1.1.1.1.1.1.1.1.1.1.0.1.2.1.5.5.1.:.5.1.1.1.1.1.1.1.1.5.2.=XZXtXrXtXtXtXtXtXtXrXtXrX2X4XrXtXrXtXrXrXtXrXtXtXtXtXtXtXtXtXtXtXtXtXtXtXtXtXtXtXtXtXtXtXrXyX4XrXyXrXtXtXtXtXtXtXtXtXtXtXrXsXjXyXrXtXtXtXtXtXtXtXrXrXrXrXrXrXtXtXtXtXtXtXtXtXtXtXtXtXtXtXtXtXtXtXtXrXrXrXrXrXrXtXtXtXtXtXtXtXtXtXtXtXtXtXtXtXtXtXrXtX0X`.T P P P P P P P P E {.tXtXrXtXtXtXtXtXtXtXtXtXtXtXtXtXtXtXtXrXrXrXrXrXrXtXtXtX",
"tX3XyXrXtXtXtXtXtXrXtXAX=X2.5.1.1.1.1.0.= * > 0.1.1.1.1.0.1.1.5.1.1.1.1.1.1.1.1.1.1.1.1.1.1.1.1.1.5.1.- * = 5.1.1.1.1.1.1.1.1.1.1.1.1.1.1.1.1.1.0.p * - >.1.1.1.>.0.1.1.5.1.1.1.1.1.5.2.=XZXtXrXtXtXtXtXtXrXtX3X> a K.sX3XyX3XtXyX3XtXrXtXtXtXtXtXtXtXtXtXtXtXtXtXtXtXtXtXtXtXtXrXsXf.i p S.yXrXtXtXtXtXtXtXtXtXtXrXsXjXyXrXtXtXtXtXtXtXrXrXtXaXaXkXyXrXrXrXtXtXtXtXtXtXtXtXtXtXtXtXtXtXtXrXrXaXaXaXaXtXrXrXtXtXtXtXtXtXtXtXtXtXtXtXtXtXrXgX{.T P P E `.}.0X0X}.`.Y P P E tXtXrXtXtXtXtXtXtXtXtXtXtXtXtXtXrXrXtXyXgXgXgXtXrXrXtX",
"i i f.sX4XtXtXtXtXrXtXAX=X2.5.1.1.1.1.i.- p i.- - :.- = a - * p 0.1.1.1.1.1.1.1.1.1.1.1.1.1.1.1.1.0.> = u.- p 0.1.1.1.1.1.1.1.1.1.1.1.1.1.1.1.1.1.* >.1.1.p - i > > * - 1.5.1.1.1.1.5.2.=XZXtXrXtXtXtXtXtXrXyX=Xi yXI.> d.f.i d.q.i i tXrXtXtXtXtXtXtXtXtXtXtXtXtXtXtXtXtXtXtXrXtX4X> 3XK.i sXrXtXtXtXtXtXtXtXtXtXrXsXjXyXrXtXtXtXtXrXrXaXtX;XoX^.z.;XaXaXrXrXtXtXtXtXtXtXtXtXtXtXtXtXrXrXaXtXOXoXoXoXiXaXaXrXrXtXtXtXtXtXtXtXtXtXtXtXrXgX'.U P E  XjXkXjXjXjXjXkXsX.XT P R =XyXrXtXtXtXtXtXtXtXtXtXtXtXrXtXgX4XD.D.B.D.3XgXtXrX",
",.K.a jX4XtXtXtXtXrXtXAX=X2.5.1.1.1.1.i.- * p * >.> * - + :.> > i.1.1.1.1.1.1.1.1.1.1.1.1.1.1.1.1.0.= i s.> > i.1.1.1.1.1.1.1.1.1.1.1.1.1.1.1.6.>.* 0.* > :.* - = - a = p 0.1.1.1.1.5.2.=XZXtXrXtXtXtXtXtXrXtX2X- ,.w.i jX= s = i rX9 4XtXtXtXtXtXtXtXtXtXtXtXtXtXtXtXtXtXtXtXrXtX=Xi jXrX9 tXtXrXtXtXtXtXtXtXtXtXrXsXjXyXrXtXtXtXrXtXaXOX| ) ~ ] % % b z.aXtXrXtXtXtXtXtXtXtXtXtXtXrXtXaXoX| ) _ _ _ ) | oXaXtXrXtXtXtXtXtXtXtXtXtXrXtX{.U P `.jXjXjXjXjXjXjXjXjXjXSXbXR $ W <XtXrXtXtXtXtXtXtXtXtXtXrXtX4Xm.L r 7 7 7 L v.:XgX",
"4.L.a jX4XtXtXtXtXrXtXAX=X2.5.1.1.1.1.i.- a u.* 1.9 * a = > = > 0.1.1.1.1.1.1.1.1.1.1.1.1.1.1.1.1.0.p * 1.* a 0.1.1.1.1.1.1.1.1.1.1.1.1.1.1.1.1.0.* p 9 * * * * = - :.= p 0.1.1.1.1.5.2.=XZXtXrXtXtXtXtXtXrXyXI.i SXl.a ZX9 ,.l.i l.> 4XtXtXtXtXtXtXtXtXtXtXtXtXtXtXtXtXtXtXtXtXrXyXi f.d.a jX4XtXtXtXtXtXtXtXtXtXrXsXjXyXrXtXtXrXtXrX} ^ _ { | } [ < % % [ 3XtXrXtXtXtXtXtXtXtXtXrXtXeX| ^ _ { | } | { _ % [ rXtXrXtXtXtXtXtXtXtXrXtX0XT P `.jXjXjXjXjXjXjXjXjXjXAXd.K.jXW $ K gXrXtXtXtXtXtXtXtXtXrXyX:XL 7 7 L L m.L r 7 r B.",
"f.=Xd.sXrXtXtXtXtXrXtXAX=X2.5.1.1.1.1.0.i >.0.> 2.5.> > >.> + 9 0.1.1.1.1.1.1.1.1.1.1.1.1.1.1.1.1.1.6.9 + * 0.1.1.1.1.1.1.1.1.1.1.1.1.1.1.1.1.1.6.>.- - p > > p p p >.p >.0.1.1.1.1.5.2.=XZXtXrXtXtXtXtXtXrXtX2Xq.yXI.w.jXL.s f.l.a > rXtXtXtXtXtXtXtXtXtXtXtXtXtXtXtXtXtXtXtXtXrXyXI.a * K.yXrXtXtXtXtXtXtXtXtXtXrXsXjXyXrXtXrXrXtX| _ ( oXuXjXkXAXgXz.< % b tXtXrXtXtXtXtXtXtXrXtXrX| _ { oXyXjXAXkXDXoX% % [ tXtXrXtXtXtXtXtXtXrXgX`.P E jXjXjXjXjXjXjXjXjXjXAXK.O i FX,XH H [.gXrXtXtXtXtXtXtXrXtX:XL 7 L ].jXZXDXCXpXm.r 7 ",
"yXtXsXrXtXtXtXtXtXrXtXAX=X2.5.1.1.1.1.1.0.6.1.0.5.1.0.0.1.u.> > 0.1.1.1.1.1.1.1.1.1.1.1.1.1.1.1.1.1.1.0.1.> 1.5.1.1.1.1.1.1.1.1.1.1.1.1.1.1.1.1.1.6.0.0.0.0.0.0.0.0.5.0.6.1.1.1.1.1.5.2.=XZXtXrXtXtXtXtXtXtXrXtXsXrXtXsX4XyXjXtXyXjXp 3XtXtXtXtXtXtXtXtXtXtXtXtXtXtXtXtXtXtXtXtXtXrXtXZXf.f.yXrXtXtXtXtXtXtXtXtXtXrXsXjXyXrXtXrXaXQ._ { OXGXZXyX* 9.SXGXeX< % [ aXrXtXtXtXtXtXtXrXaXy._ { wXGXjXjXjXjXw.5XiX< % 3.aXrXtXtXtXtXtXrXtX0XT U 0XjXjXjXjXjXjXjXjXjXAXI.O > jXjXAXt.$ K gXrXrXtXtXtXtXrXtXtXL 7 L sXDXjXjXjXjXjXDXD.r ",
"rXrX4XtXtXtXtXtXtXrXtXAX=X2.5.1.1.1.1.1.1.1.1.1.1.1.1.1.1.1.1.1.5.1.1.1.1.1.1.1.1.1.1.1.1.1.1.1.1.1.1.1.1.0.1.1.1.1.1.1.1.1.1.1.1.1.1.1.1.1.1.1.1.1.1.1.1.1.1.1.1.1.1.1.1.1.1.1.1.1.5.2.=XZXtXrXtXtXtXtXtXtXtXrX4XtXrXeXrXeX3XrXrX4X3XrXtXtXtXtXtXtXtXtXtXtXtXtXtXtXtXtXtXtXtXtXrXrXeX3XyXyXrXtXtXtXtXtXtXtXtXtXtXrXsXjXyXrXrXtXiX{ ^ OXGXgXCXtXO 4.SXyXGX;X% % OXaXrXtXtXtXtXrXtXiX( ) OXGXgXjXjXAXf.X q.JXl.% % ;XtXrXtXtXtXtXrXgX'.P E jXjXjXjXjXjXjXjXjXAX4X@ @ tXZXjXjXrXH H ,XtXrXtXtXtXtXrXgXB.7 L sXjXjXjXjXjXjXjXjXDXm.",
"4XrXtXtXtXtXtXtXtXrXtXAX=X2.5.1.1.1.1.1.1.1.1.0.0.0.0.0.5.1.1.5.1.1.1.1.1.1.1.1.1.1.1.1.1.1.1.1.1.5.0.0.0.0.6.1.1.1.1.1.1.1.1.1.1.1.1.1.1.1.1.1.1.1.1.5.0.0.0.0.0.5.1.1.1.1.1.1.1.1.5.2.=XZXtXrXtXtXtXtXtXtXtXtXrXrXtXaXaXaXpXaXtXrXtXtXtXtXtXtXtXtXtXtXtXtXtXtXtXtXtXtXtXtXtXrXtXaXpXaXpXpXtXrXrXtXtXtXtXtXtXtXtXrXsXjXyXrXrXaXoX_ | kXjXjXZX3XO 9.SXjXjXGX[ % [ aXrXtXtXtXtXrXaXQ._ } AXjXjXjXjXtX@ = jXjXAX[ % y.kXrXtXtXtXtXrXgX`.P }.kXjXjXjXjXjXjXjXCX4X@ @ 3XAXjXjXjXAXK $ h.gXrXtXtXtXrXrXyXL 7 D.DXjXjXjXjXjXjXjXjXCXaX",
"sXrX4XtXtXtXtXtXtXrXtXAX=X2.5.1.1.1.1.1.1.0.5.>.;.b b ;.2.0.5.1.1.1.1.1.1.1.1.1.1.1.1.1.1.1.1.5.0.2.;.b b b >.5.0.1.1.1.1.1.1.1.1.1.1.1.1.1.1.1.1.1.0.1.;.b , b ;.1.0.1.1.1.1.1.1.1.5.2.=XZXtXrXtXtXtXtXtXtXtXrXtXpXqXXX@.@.@.+XrXpXrXrXtXtXtXtXtXtXtXtXtXtXtXtXtXtXtXtXtXrXrXaXrX+XQ.@.@.XXqXpXtXrXtXtXtXtXtXtXtXrXsXjXyXrXrXaX} _ oXAXjXjXZX3Xi S.AXjXjXAXj.% [ aXrXtXtXtXtXrXaX| / oXZXjXjXjXAXf.O K.AXyXGXy.% [ aXrXtXtXtXtXrXtXE P 0XjXjXjXjXjXjXjXjXjXyXs K.AXjXjXjXjXAXJ $ t.kXrXtXtXtXrXtX3XL r pXjXjXjXjXjXjXjXjXjXsXCX",
"g tXyX4XtXtXtXtXtXrXtXAX=X2.5.1.1.1.1.1.0.;., ; ; ; ; ; : , 2.0.1.1.1.1.1.1.1.1.1.1.1.1.1.1.0.2., : ; ; ; ; ; , ;.0.1.1.1.1.1.1.1.1.1.1.1.1.1.1.5.5.;.: ; ; ; ; ; : , 1.0.1.1.1.1.1.5.2.=XZXtXrXtXtXtXtXtXtXrXaXeX@.X.....B ....o.Q.tXtXrXtXtXtXtXtXtXtXtXtXtXtXtXtXtXtXrXtXaXXXo.....B ....X.@.qXaXrXtXtXtXtXtXtXrXsXjXyXrXrXaX| _ OXkXjXjXjXjXCXjXjXjXjXZXiX% < tXrXrXtXtXtXrXaX| ^ wXkXjXjXjXjXjX3XjXjXjXAXOX% b aXrXtXtXtXtXtXtXT U sXjXjXjXjXjXjXjXjXjXCXAXCXjXjXjXjXjXAXt.$ K kXrXtXtXtXrXtX1Xr L jXjXjXjXjXjXAX4.@ @ @ gX",
"o @ =XyX4XtXtXtXtXrXtXAX=X2.5.1.1.1.1.5., ; ; : , [ b , : ; : ;.0.1.1.1.1.1.1.1.1.1.1.1.1.0.;.: ; : , b [ b : ; ; , 5.1.1.1.1.1.1.1.1.1.1.1.1.5.1., ; ; < b [ b , ; ; : :.0.1.1.1.1.5.2.=XZXtXrXtXtXtXtXtXrXaX+Xo.....o.&.&.&.o.....%.eXtXrXtXtXtXtXtXtXtXtXtXtXtXtXtXrXtXrX%.....o.%.&.&.%.....X.+XaXrXtXtXtXtXtXrXsXjXyXrXrXaX| _ OXkXjXjXjXjXjXjXjXjXjXZXiX% < tXrXrXtXtXtXrXaX| ^ 7XkXjXjXjXjXjXCXjXjXjXAXOX% b aXrXtXtXtXtXtXtXT U sXjXjXjXjXjXjXjXjXjXjXjXjXjXjXjXjXjXAXt.$ K kXrXtXtXtXrXtX1Xr L jXjXjXjXjXjXZXe.i s s jX",
"@ X @ 3XtXrXtXtXtXrXtXAX=X2.5.1.1.1.0., ; : ;.0.u.u.u.u.1., ; : ;.0.1.1.1.1.1.1.1.1.1.1.0.>.: ; , 1.i.u.u.u.0.;.: ; , 0.1.1.1.1.1.1.1.1.1.1.1.1., ; : ;.0.u.u.u.u.1.:   & >.0.1.1.1.5.2.=XZXtXrXtXtXtXtXrXtX7XX...o.@XkXlXlXlXkX$Xo...%.tXtXrXtXtXtXtXtXtXtXtXtXtXtXrXrXtX%...X.#XjXlXlXlXlXwX%...X.+XaXrXtXtXtXtXrXsXjXyXrXrXaX} _ Q.AXjXjXjXjXjXjXjXjXjXAXj.% [ aXrXtXtXtXtXrXaX| _ oXAXjXjXjXjXjXjXjXjXjXAXz.% [ aXrXtXtXtXtXrXtXE P  XjXjXjXjXjXjXjXjXjXjXjXjXjXjXjXjXjXAXt.$ t.kXrXtXtXtXrXtX1XL r 1XCXjXjXjXjXjXZXAXAXAXAX",
"yX@ X i sX4XtXtXtXrXtXAX=X2.5.1.1.0.;.; : >.u.i.0.0.0.0.i.u.b ; : 1.5.1.1.1.1.1.1.1.1.1.1.< ; , i.i.0.0.0.0.0.u.2.: ; ;.0.1.1.1.1.1.1.1.1.1.0.b ; < 1.u.0.0.0.i.,.:.i.:   & 0.1.1.1.5.2.=XZXtXrXtXtXtXtXrXaX%...%.yXlXjXjXjXjXjXlXwXo...&.aXrXtXtXtXtXtXtXtXtXtXtXtXrXpXQ...X.@XlXjXjXjXjXjXkXkX%...o.rXtXrXtXtXtXrXsXjXyXrXrXaXoX_ | kXjXjXjXjXjXjXjXjXjXAX[ % y.kX4XtXtXtXtXrXaXoX_ | AXjXjXjXjXjXjXjXjXjXZX[ % z.kXrXtXtXtXtXrXgX`.P .XkXjXjXjXjXjXjXjXjXjXjXjXjXjXjXjXjXZXK $ B.gXrXtXtXtXtXrXyXL 7 F.DXsXjXjXjXjXjXjXjXjX3X",
"SXI.X X S.sX4XtXtXrXtXAX=X2.5.1.1.5., ; ;.u.0.0.0.0.0.0.0.0.i., ; b 0.1.1.1.1.1.1.1.1.0.;.; , 0.i.0.0.0.0.0.0.0.u.;.; : 1.1.1.1.1.1.1.1.1.5.2.: ; >.u.0.0.0.i.i.+ X 0.6.&   p 0.1.1.5.2.=XZXtXrXtXtXtXrXaX@X..X.wXlXgXjXjXjXjXjXDXJX%X....;XaXrXtXtXtXtXtXtXtXtXtXrXtXeXo...#XlXgXjXjXjXjXjXjXjXjXo...Q.pXrXtXtXtXrXsXjXyXrXrXtXeX{ ^ oXGXjXjXjXjXjXjXjXFXJ.% % ;XyXrXtXtXtXtXrXtXiX{ ^ OXGXjXjXjXjXjXjXjXHXj.% % iXtXrXtXtXtXtXrXgX{.P E jXjXjXjXjXjXjXjXjXjXjXjXjXjXjXjXjX0XH H ,XtXrXtXtXtXtXrXgXD.7 L aXZXjXjXjXjXjXjXjXSXK ",
"jXSXi X d jX4XtXtXrXtXAX=X2.5.1.5.>.: : 0.0.0.0.0.0.0.0.0.0.u.>.; < 1.1.1.1.1.1.1.1.1.0., ; ;.u.0.0.0.0.0.i.u.u.u.i.< : ;.0.1.1.1.1.1.1.1.0.;.; , u.0.0.0.0.u.= X p i.u.,   : 0.1.1.5.2.=XZXtXrXtXtXtXrXpX@...&.lXgXjXjXjXjXAXjXe.s lX{ z y.kXrXtXtXtXtXtXtXtXtXtXrXaX@X..o.jXjXjXjXjXjXjXjXjXjXlX#X..%.aXrXrXtXtXrXsXjXyXrXtXrXaXoX~ ( OXjXjXjXjXjXjXjXOX< % 3.aXrXtXtXtXtXtXtXrXaXQ._ { OXjXjXjXjXjXjXjXoX% % y.aXrXtXtXtXtXtXrXtXrXT P  XjXjXjXjXjXjXjXjXjXjXjXjXjXjXsXAXK $ K kXrXtXtXtXtXtXrXrXtXL 7 L aXjXjXjXjXjXjXjX8.1 ",
"jXSXe.X - sX4XtXtXrXtXAX=X2.5.1.0.;.; , i.0.0.0.0.0.0.u.u.0.0.1.: : 2.5.1.1.1.1.1.1.5.1.: : 1.i.0.0.0.0.i.,.i = * 0., # , 0.1.1.1.1.1.1.1.0., ; ;.u.0.0.0.i.0.O - u.0.u.;.  & 5.1.1.5.2.=XZXtXrXtXtXtXrXaX%...%XlXjXjXjXjXZXe.@ O - kXy.z  .kXrXtXtXtXtXtXtXtXtXtXrXpX@...&.lXjXjXjXjXjXjXjXjXjXkXwX..X.eXtXrXtXtXrXsXjXyXrXtXtXrXaXy./ ^ OXkXjXjXjXjXiX% % [ tXtXrXtXtXtXtXtXtXrXrXaX} _ ) iXjXjXjXjXjX;X% % [ tXrXrXtXtXtXtXtXtXrXgX`.P Y jXjXjXjXjXjXjXjXjXjXjXjXjXsXAX{.H H [.yXrXtXtXtXtXtXtXrXtX3XL 7 L sXjXjXjXjXZX8.1 $ ",
"jXAXU.X @ yXrXtXtXrXtXAX=X2.5.1.0.b ; b u.0.0.0.0.i.0.p >.u.u.0.< ; >.0.1.1.1.1.1.1.5.2.: : 0.0.0.0.0.0.u.- X O O 9.,   , 0.1.1.1.1.1.1.1.0., ; ;.u.0.0.0.0.i.5.0.i.0.i.1.# # 1.5.1.5.2.=XZXtXrXtXtXrXtXtXo...wXkXjXjXjXjXAXw.- f.jXGX~.z n kXrXtXtXtXtXtXtXtXtXtXeXaX@.B #XlXjXjXjXjXjXCXCXAXjXjXgXX...qXtXrXtXtXrXsXjXyXrXtXtXrXrXaXy.| 4XtXtXtXtXtXtX[ [ rXtXrXtXtXtXtXtXtXtXtXrXtXaX} | rXtXtXtXtXtXtX[ [ tXtXrXtXtXtXtXtXtXtXrXtXrXY P `.jXjXjXjXjXjXjXjXjXjXjXjXAX0XW $ K kXrXtXtXtXtXtXtXtXtXrXtX3XL m.yXtXtXtXtXyXA.q p.",
"jXAXK.X @ yXrXtXtXrXtXAX=X2.5.1.0.;.; b u.0.0.0.0.i.1.X X O i u.< ; >.0.1.1.1.1.1.1.5.2.: : 0.i.0.0.0.0.i.1.>.0.u.u.,   , 0.1.1.1.1.1.1.1.0., ; ;.u.0.0.0.0.0.i.0.0.0.i.2.# & 1.5.1.5.2.=XZXtXrXtXtXtXrXtXo...&XkXjXjXjXjXjXCXZXAXjXAX^.z n kXrXtXtXtXtXtXtXtXtXtXeXaX@...(.lXjXjXjXjXAXe.- =XSXjXuXX.X.qXtXrXtXtXrXsXjXyXrXtXtXtXrXtXtXrXtXrXrXrXrXrXtXrXtXtXrXtXtXtXtXtXtXtXtXtXtXrXtXtXrXtXrXrXrXrXrXtX4XtXtXrXtXtXtXtXtXtXtXtXtXrXtX0XT P E sXjXjXjXjXjXjXjXjXjXjX,XW $ K rXtXrXtXtXtXtXtXtXtXtXtXrXtXtXtXtXrXrXrXrXrXtX4XyX",
"jXSX9.X i sX4XtXtXrXtXAX=X2.5.1.0.;.; , i.0.0.0.0.0.0.>.> O 9 0.: : 1.5.1.1.1.1.1.1.5.1.: ; >.u.0.0.0.0.0.i.u.i.0.u.:   , 0.1.1.1.1.1.1.1.0., ; , u.0.0.0.0.0.0.0.0.0.u.;.  & 0.1.1.5.2.=XZXtXrXtXtXtXrXaX%...#XlXjXjXjXjXjXjXjXjXjXGX} z | kXrXtXtXtXtXtXtXtXtXtXrXpXQ...%.lXjXjXjXjXZXl.@ O 9.lX@X..o.tXtXrXtXtXrXsXjXyXrXtXtXtXtXrXrXtXrXtXtXtXtXtXrXtXrXrXtXtXtXtXtXtXtXtXtXtXtXtXrXrXtXrXtXtXtXtXtXrXtXrXrXtXtXtXtXtXtXtXtXtXtXtXrXgX{.T P E jXjXjXjXjXjXjXjXjX,XH $ K <XtXrXtXtXtXtXtXtXtXtXtXtXtXrXtXtXrXtXtXtXtXtXrXtXrX",
"jXjX@ X q.jX4XtXtXrXtXAX=X2.5.1.5.1.: : 2.i.0.0.0.0.0.u.u.0.u.,   : 0.1.1.1.1.1.1.1.1.0., ; b u.0.0.0.0.0.0.0.0.i.2.# # >.6.1.1.1.1.1.1.1.0.>.; : 0.0.0.0.0.0.0.0.0.0.u.:   , 0.1.1.5.2.=XZXtXrXtXtXtXrXpXQ...%.lXjXjXjXjXjXjXjXjXjXyXv z ~.aXrXtXtXtXtXtXtXtXtXtXrXaX7X..X.uXkXjXjXjXjXAXyXi = lX&...@.aXeXtXtXtXrXsXjXyXrXtXtXtXtXtXtXrXtXtXtXtXtXtXtXrXrXtXtXtXtXtXtXtXtXtXtXtXtXtXtXtXrXtXtXtXtXtXtXtXrXrXtXtXtXtXtXtXtXtXtXtXtXtXtXrXtX0XE '.gXtXyXsXjXsXsXtXtXtXK K tXtXrXtXtXtXtXtXtXtXtXtXtXtXtXtXrXrXtXtXtXtXtXtXtXrXtX",
"LX9.X O >XtXrXtXtXrXtXAX=X2.5.1.1.0., ; , i.i.0.0.0.0.0.0.u.2.#   > 0.1.1.1.1.1.1.1.1.0.>.: : 2.u.0.0.0.0.0.0.i.u.:   : 0.1.1.1.1.1.1.1.1.1.5., ; b u.0.0.0.0.0.0.0.d.;.  # >.0.1.1.5.2.=XZXtXrXtXtXtXrXtXqXX...#XlXjXjXjXjXjXjXjXKX| z v eXtXrXtXtXtXtXtXtXtXtXtXrXrXaX%...%.lXjXjXjXjXjXZXjXlXOX....+XaXrXtXtXtXrXsXjXyXrXtXtXtXtXtXtXtXtXtXtXtXtXtXtXtXtXtXtXtXtXtXtXtXtXtXtXtXtXtXtXtXtXtXtXtXtXtXtXtXtXtXtXtXtXtXtXtXtXtXtXtXtXtXtXtXrXtXtXrXtXrXrXrXrXrXrXrXrXtXrXtXtXrXtXtXtXtXtXtXtXtXtXtXtXtXtXtXtXtXtXtXtXtXtXtXtXtXtX",
"9.X X q.jX4XtXtXtXrXtXAX=X2.5.1.1.5.1.: ; , 0.i.0.0.0.0.i.>.&   : 0.1.1.1.1.1.1.1.1.1.1.0., ; : 2.i.0.0.0.0.i.6.:   # >.0.1.1.1.1.1.1.1.1.1.0.>.: ; [ 0.0.0.0.0.0.0.;.#   , 0.1.1.1.5.2.=XZXtXrXtXtXtXtXrXpXQ...X.#XjXjXjXjXjXjXjXy.z z ~.aXrXtXtXtXtXtXtXtXtXtXtXtXrXaX+XX...&.jXjXjXjXjXjXjXoXl z @.aXrXtXtXtXtXrXsXjXyXrXtXtXtXtXtXtXtXtXtXtXtXtXtXtXtXtXtXtXtXtXtXtXtXtXtXtXtXtXtXtXtXtXrXrXtXtXrXrXrXtXtXrXtXtXtXtXtXtXtXtXtXtXtXtXtXtXrXtXtXrXtXtXtXtXtXtXtXrXrXtXrXrXtXtXtXtXtXtXtXtXtXtXtXtXtXtXtXtXrXtXtXrXrXtXtXrXrXtX",
"X X d sX4XtXtXtXtXrXtXAX=X2.5.1.1.1.0.>.: ; b 0.0.0.0.0.0.&   & 2.5.1.1.1.1.1.1.1.1.1.1.1.5., ; : 6.0.0.0.0.i.,   # p 0.1.1.1.1.1.1.1.1.1.1.1.0.;.: ; ;.0.0.0.0.0.1.#   : 5.1.1.1.1.5.2.=XZXtXrXtXtXtXtXtXrXaX@.....wXkXjXjXjXkXOXz z } aXrXtXtXtXtXtXtXtXtXtXtXtXtXtXrXaXXXX.B Q.kXjXjXjXjXtXv z { 4XtXrXtXtXtXtXrXsXjXyXrXtXtXtXtXtXtXtXtXtXtXtXtXtXtXtXtXtXtXtXtXtXtXtXtXtXtXtXtXtXtXtXrXtXtXrXtXtXtXtXrXrXtXtXtXtXtXtXtXtXtXtXtXtXtXtXtXtXrXrXtXtXrXrXtXtXrXtXtXtXrXtXrXtXtXtXtXtXtXtXtXtXtXtXtXtXtXtXrXrXtXrXtXtXrXrXtXtXrX",
"d d sXtXrXtXtXtXtXrXtXAX=X2.5.1.1.1.1.0.>., 2.5.1.5.5.1.0., : 2.0.1.1.1.1.1.1.1.1.1.1.1.1.5.5., ;.0.1.5.5.1.5.2.: p 0.1.1.1.1.1.1.1.1.1.1.1.1.1.0.;., 1.1.1.5.5.1.0., : 5.5.1.1.1.1.5.2.=XZXtXrXtXtXtXtXtXrXrXpX@.@.pXrXtXtXtXrXtX .y.aXrXrXtXtXtXtXtXtXtXtXtXtXtXtXtXtXrXpXXX%.qXtXtXtXtXrXaXy. .rXtXrXtXtXtXtXtXrXsXjXyXrXtXtXtXtXtXtXtXtXtXtXtXtXtXtXtXtXtXtXtXtXtXtXtXtXtXtXtXtXtXtXrXtX4X3XyXrXtX=X2XtXtXtXtXtXtXtXtXtXtXtXtXtXtXtXtXtXtXrXtX2X3XyXyXrXtXtX4X=X4XtX3XyXrXtXtXtXtXtXtXtXtXtXtXtXtXtXrXtXyXrXyX3XrXtXtXtX3XyX",
"yXsXrXrXtXtXtXtXtXrXtXAX=X2.5.1.1.1.1.1.5.0.5.1.1.1.1.1.1.5.0.5.1.1.1.1.1.1.1.1.1.1.1.1.1.1.1.0.5.1.1.1.1.1.1.5.0.0.1.1.1.1.1.1.1.1.1.1.1.1.1.1.1.0.5.5.1.1.1.1.1.1.5.0.1.1.1.1.1.1.5.2.=XZXtXrXtXtXtXtXtXtXrXrXaXtXtXtXrXrXrXrXtXtXaXrXrXtXtXtXtXtXtXtXtXtXtXtXtXtXtXtXtXrXaXaXtXrXrXrXrXtXtXtXaXtXrXtXtXtXtXtXtXrXsXjXyXrXtXtXtXtXtXtXtXtXtXtXtXtXtXtXtXtXtXtXtXtXtXtXtXtXtXtXtXtXtXrXrX3Xa i L.CX,.p f.ZXs ,.jX4XtXtXtXtXtXtXtXtXtXtXtXtXrXtX=Xa p =Xi 4.jXtXp s K.,.9 l.yXrXtXtXtXtXtXtXtXtXtXtXtXrXtX4X> d.=X> ,.tXtXs 9 K.",
"rX4XrXtXtXtXtXtXtXrXtXAX=X2.5.1.1.1.1.1.1.1.1.1.1.1.1.1.1.1.1.1.1.1.1.1.1.1.1.1.1.1.1.1.1.1.1.1.1.1.1.1.1.1.1.1.1.1.1.1.1.1.1.1.1.1.1.1.1.1.1.1.1.1.1.1.1.1.1.1.1.1.1.1.1.1.1.1.1.1.5.2.=XZXtXrXtXtXtXtXtXtXtXrXrXrXrXtXtXtXtXtXrXrXrXrXtXtXtXtXtXtXtXtXtXtXtXtXtXtXtXtXtXtXrXrXrXtXtXtXtXtXtXrXrXrXtXtXtXtXtXtXtXrXsXjXyXrXtXtXtXtXtXtXrXrXtXrXrXtXtXtXrXrXtXtXtXtXtXtXtXtXtXtXtXtXrXtXAXf.4.S.a SXi a 2X>X> 4.jX4XtXtXtXtXtXtXtXtXtXtXtXrXtXjX3XjX,.d.9.,.jXtX> 9.f.s =Xp jX4XtXtXtXtXtXtXtXtXtXtXtXrXtXrXa w.4.f.,.S.K.,.S.s ",
"tXrXrXrXrXrXtXtXtXrXtXAX=X2.5.1.1.1.1.1.1.1.1.1.1.1.1.1.1.1.1.1.1.1.1.1.1.1.1.1.1.1.1.1.1.1.1.1.1.1.1.1.1.1.1.1.1.1.1.1.1.1.1.1.1.1.1.1.1.1.1.1.1.1.1.1.1.1.1.1.1.1.1.1.1.1.1.1.1.1.5.2.=XZXtXrXtXtXtXtXtXrXrXrXrXrXrXrXrXtXrXrXtXrXrXtXrXtXtXtXtXtXtXtXtXtXtXtXtXtXtXtXtXtXtXrXrXrXtXtXrXrXrXrXrXtXtXtXtXtXtXtXtXrXsXjXyXrXtXtXtXtXtXrXrXtXrXtXyXrXtXrXtXtXrXtXtXtXtXtXtXtXtXtXtXrXtX=X,.S.s i ,.AX>Xf.i a ,.,.jX4XtXtXtXtXtXtXtXtXtXtXrXyXL.,.tX=Xp jXl.,.ZXyX>Xq.p ,.p p jX4XtXtXtXtXtXtXtXtXtXtXtXtX4XjXw.q.4.=X4.S.K.9.>Xa ",
"rXtXyXtXsXtXrXtXtXrXtXAX=X2.5.1.1.1.0.1.5.6.1.6.6.1.6.6.1.1.5.1.5.5.1.1.1.1.1.1.1.1.1.1.1.1.1.1.1.1.5.1.1.0.5.1.0.5.1.1.1.1.1.1.1.1.1.1.1.1.5.0.1.1.5.0.1.5.0.1.1.1.1.0.5.6.0.1.1.1.5.2.=XZXtXrXtXtXtXtXrXyXtXtXyXtXtXsXtXrXtXtXrXtXtXrXtXtXrXrXtXtXtXtXtXtXtXtXtXtXtXtXtXtXrXtXyXrXtXrXyXtXtXsXyXtXrXtXtXtXtXtXtXrXsXjXyXrXtXtXtXtXrXtXtX3XtX3X=XyXrXrXtX4XtXrXtXtXtXtXtXtXtXtXtXrXtX3XS.4XK.i q.f.=XK.9 a > = jX4XtXtXtXtXtXtXtXtXtXtXrXtX2XK.=X> d.sXd.,.>Xf.>Xd.s >Xp q.sX4XtXtXtXtXtXtXtXtXtXtXtXtX4XjX9.q.d.,.s q.f.a 4.4.",
"sXI.f.rXS.3XtXrXtXrXtXAX=X2.5.1.5.1.:.1.2.>.0.>.>.0.>.>.6.1.1.1.1.1.0.0.1.1.1.1.1.1.1.1.1.1.1.1.1.1.1.1.0.>.2.0.>.1.5.1.1.1.1.1.1.1.1.1.1.6.1.:.1.5.1.>.0.1.>.6.1.1.0.p >.>.:.5.1.1.5.2.=XZXtXrXtXtXtXrXyXP.3XrXK.rX4XS.=XtXrX3XtX4X3XtX3XtXsXtXrXtXtXtXtXtXtXtXtXtXtXtXtXrXtX>XL.tXrXyXI.3X>XK.I.4XtXrXtXtXtXtXtXrXsXjXyXrXtXtXtXtXrXsX,.9 yXp 9 S.tXjX,.p jX4XtXtXtXtXtXtXtXtXtXtXrXtXsXtX4.w.=Xd.f.a L.AX=Xl.sXrXtXtXtXtXtXtXtXtXtXtXtXrXtXjXK.a ,.L.=Xl.L.f.q.s 2Xq.9.rXtXrXtXtXtXtXtXtXtXtXtXtXtXtXrXyXK.S.tXs f.f.K.f.s 3X",
"4X9.4.s a p =XtXrXrXtXAX=X2.5.1.5.= > :.* * p * - p * - >.6.- 0.p > >.>.1.1.1.1.1.1.1.1.1.1.1.1.i.* > u.p * = p * = 1.1.1.1.1.1.1.1.1.1.5.2.- > 1.6.= * p = * p 0.1.2.* i * - = 0.1.5.2.=XZXtXrXtXtX4XjXq.p ,.d.i 9.,.p l.ZXp s SXf.4.SXs S.L.>XtXrXtXtXtXtXtXtXtXtXtXtXrXrXtXq.p 9.jXf.i ,.w.,.- P.yXrXtXtXtXtXtXrXsXjXyXrXtXtXtXtXtXtXf.a l.,.K.s CX=Xi ,.jX4XtXtXtXtXtXtXtXtXtXtXtXrXrXrXjXsXtXyXyXjXtX4XtXyXrXtXtXtXtXtXtXtXtXtXtXtXtXtXtX4XyXjXjXtXtXtXtXyXsXjXtXsXjXtXrXtXtXtXtXtXtXtXtXtXtXtXtXtXtXrXyXyXtXjXsXyXyXsXjXtX",
"p > 9.s f.p I.yXrXrXtXAX=X2.5.0.:.+ > > > :.+ p p + :.> > i.* a = = > + >.6.1.1.1.1.1.1.1.1.1.0.:.* > u.- :.> + >.= a 0.1.1.1.1.1.1.1.1.0.9 + 9 5.:.- 1.+ = >.- u.> * + p - p - 0.1.5.2.=XZXtXrXtXtX4XjXq.p s 4X4Xa a p I.=X9 4.SXd.p I.i f.> p jX4XtXtXtXtXtXtXtXtXtXtXtXrXrX4X9.,.ZXa P.,.S.yXa tXrXrXtXtXtXtXtXrXsXjXyXrXtXtXtXtXrXtX3Xs f.9.=Xa SXp ,.a sX4XtXtXtXtXtXtXtXtXtXtXtXtXtXtX4X4XtXyXtXyXtXrXrXrXtXtXtXtXtXtXtXtXtXtXtXtXtXtXtXtXrX4X4XrX4XyXtXyXyX4XrX4X4XrXtXtXtXtXtXtXtXtXtXtXtXtXtXtXtXtXrX4XrX4X4XrXrX4X4XrX",
"w.K.4.s a p =XtXrXrXtXAX=X2.1.0.i - p O p :.O :.a O >.9 > i.+ = * 9 :.> 0.1.1.1.1.1.1.1.1.1.5.2.* = = u.= >.> + 5.= p 0.1.1.1.1.1.1.1.1.0.= > = p 2.= 0.+ > 2.- i.* 5.= i * - = 6.1.5.2.=XZXtXrXtXtXrXyXd.i a jX4.d.jXL.9 i ,.a CXf.= 4.= rX,.=XyXrXtXtXtXtXtXtXtXtXtXtXtXrXyX>Xp 4.AXf.a = P.9.q.jX4XtXtXtXtXtXtXrXsXjXyXrXtXtXtXtXrXtX>Xi >Xp ,.,.d.4.9 - yXrXrXtXtXtXtXtXtXtXtXtXtXtXtXtXrXsX>Xd.4Xf.=XyXrXtXtXtXtXtXtXtXtXtXtXtXtXtXtXtXtXtXtXtXrXtXjXw.3XS.S.tXtXtXtXtXtXtXtXtXtXtXtXtXtXtXtXtXtXtXtXtXtXtXsXtXsXtXtXsXtXrX",
"a a ,.a f.i f.sXrXrXtXAX=X2.5.0.:.- > - = = - = = - = - a 0.* i.p - + p 1.1.1.1.1.1.1.1.1.1.6.>.> + + p > - = - = - >.6.1.1.1.1.1.1.1.1.0.i = > = p - = - - = > u.- > * 9 * p * 1.1.5.2.=XZXtXrXtXtX4XsXa w.a p 9 L.S.f.i ,.9 - jXd.,.HXa a i >XtXrXtXtXtXtXtXtXtXtXtXtXrXtX3XK.d.i w.3Xq.p >Xi 2XtXrXtXtXtXtXtXtXrXsXjXyXrXtXtXtXtXtXtX4Xf.sXf.9.=Xf.ZX4XK.yXrXtXtXtXtXtXtXtXtXtXtXtXtXtXrXtX3Xq.,.,.a p K.yXrXtXtXtXtXtXtXtXtXtXtXtXtXtXtXtXtXtXrXtX4XK.i d.9 s 9.sX4XtXtXtXtXtXtXtXtXtXtXtXtXtXtXtXtXtXrXtX>XS.>XS.rXrXl.=XtX",
"w.9.I.f.s d.tXrXtXrXtXAX=X2.5.1.0.p > 6.i > 0.9 > 0.> 9 0.1.p 1.>.p > > 2.5.1.1.1.1.1.1.1.1.1.5.i.2.>.p 1.> p 5.> p 0.1.1.1.1.1.1.1.1.1.1.6.> i :.:.:.= 1.a > 1.6.>.> 9 2.> = :.0.1.5.2.=XZXtXrXtXtXrXtX>X,.l.d.,.q.f.,.I.AX3XL.jXI.S.tXl.d.,.f.yXrXtXtXtXtXtXtXtXtXtXtXrXtXrXq.,.=Xf.P.4.I.3Xf.yXrXtXtXtXtXtXtXtXrXsXjXyXrXtXtXtXtXtXrXtXsXrXsXjXtXsX4XtXyXrXtXtXtXtXtXtXtXtXtXtXtXtXtXrXtX>Xp 9 ,.,.q.p K.yXrXtXtXtXtXtXtXtXtXtXtXtXtXtXtXtXtXtX4XsX,.p > d.s 9.4.jX4XtXtXtXtXtXtXtXtXtXtXtXtXtXtXtXtXtXrXtX> p > p q.4.i L.tX",
"jXjXtXsXCXjXrXtXtXrXtXAX=X2.5.1.1.0.i.1.0.0.1.0.0.1.0.0.1.1.0.1.6.0.i.0.5.1.1.1.1.1.1.1.1.1.1.1.1.5.6.0.5.0.0.1.i.0.1.1.1.1.1.1.1.1.1.1.1.1.0.0.0.0.0.i.1.0.i.1.1.5.0.0.5.0.i.0.1.1.5.2.=XZXtXrXtXtXtXrXtXjXsXjXjXjXsXjXtX4XtXyX4XtXyXrXyXjXjXsXrXtXtXtXtXtXtXtXtXtXtXtXtXtXtXjXjXtXsXtXjXtXtXsXrXtXtXtXtXtXtXtXtXrXsXjXyXrXtXtXtXtXtXtXrX4XtX4X4XrX4XtXrXrXtXtXtXtXtXtXtXtXtXtXtXtXtXtXrXjXd.9.3X,.,.a p S.yXrXtXtXtXtXtXtXtXtXtXtXtXtXtXtXtXtXrXtX3Xi CXa d.9 ,.4.sXrXtXtXtXtXtXtXtXtXtXtXtXtXtXtXtXtXtXtX4Xp >Xa =X,.K.s L.tX",
"4X4XrX4X4X4XtXtXtXrXtXAX=X2.5.1.1.1.1.1.1.1.1.1.1.1.1.1.1.1.1.1.1.1.1.1.1.1.1.1.1.1.1.1.1.1.1.1.1.1.1.1.1.1.1.1.1.1.1.1.1.1.1.1.1.1.1.1.1.1.1.1.1.1.1.1.1.1.1.1.1.1.1.1.1.1.1.1.1.1.5.2.=XZXtXrXtXtXtXtXrX4XrX4X4X4X4X4XrXtXrXrXtXrXrXtXrX4X4X4XtXtXtXtXtXtXtXtXtXtXtXtXtXtXtX4X4XrXrXrX4XrXrX4XtXtXtXtXtXtXtXtXtXrXsXjXyXrXtXtXtXtXtXtXtXtXtXtXtXtXtXtXtXtXtXtXtXtXtXtXtXtXtXtXtXtXtXtXrXyXP.p s s ,.q.a w.jX4XtXtXtXtXtXtXtXtXtXtXtXtXtXtXtXtXrXrXyXp 4.> w.p w.p sX4XtXtXtXtXtXtXtXtXtXtXtXtXtXtXtXtXrXtX4Xi I.a K.a >Xa a jX",
"tXtXtXtXtXtXtXtXtXrXtXAX=X1.6.5.5.5.5.5.5.5.5.5.5.5.5.5.5.5.5.5.5.5.5.5.5.5.5.5.5.5.5.5.5.5.5.5.5.5.5.5.5.5.5.5.5.5.5.5.5.5.5.5.5.5.5.5.5.5.5.5.5.5.5.5.5.5.5.5.5.5.5.5.5.5.5.5.5.5.6.1.=XZXtXrXtXtXtXtXtXtXtXtXtXtXtXtXtXtXtXtXtXtXtXtXtXtXtXtXtXtXtXtXtXtXtXtXtXtXtXtXtXtXtXtXtXtXtXtXtXtXtXtXtXtXtXtXtXtXtXtXtXrXsXjXyXrXtXtXtXtXtXtXtXtXtXtXtXtXtXtXtXtXtXtXtXtXtXtXtXtXtXtXtXtXtXtXtXrXyXf.q.I.K.,.d.tXrXtXtXtXtXtXtXtXtXtXtXtXtXtXtXtXtXtXtXrXyX=Xq.l.2X9.9.3XtXrXtXtXtXtXtXtXtXtXtXtXtXtXtXtXtXtXtXtXrXS.3XK.2XP.S.9.2XtX",
"rXrXrXrXrXrXrXrXrX4XtXAX=X>.1.2.2.2.2.2.2.2.2.2.2.2.2.2.2.2.2.2.2.2.2.2.2.2.2.2.2.2.2.2.2.2.2.2.2.2.2.2.2.2.2.2.2.2.2.2.2.2.2.2.2.2.2.2.2.2.2.2.2.2.2.2.2.2.2.2.2.2.2.2.2.2.2.2.2.2.1.>.=XAXtXrXrXrXrXrXrXrXrXrXrXrXrXrXrXrXrXrXrXrXrXrXrXrXrXrXrXrXrXrXrXrXrXrXrXrXrXrXrXrXrXrXrXrXrXrXrXrXrXrXrXrXrXrXrXrXrXrXrX4XsXjXtX4XrXrXrXrXrXrXrXrXrXrXrXrXrXrXrXrXrXrXrXrXrXrXrXrXrXrXrXrXrXrXrXrX4XsXjXtXyXjXsXrXrXrXrXrXrXrXrXrXrXrXrXrXrXrXrXrXrXrXrXrX4XtXjXyXtXjXjXtXrXrXrXrXrXrXrXrXrXrXrXrXrXrXrXrXrXrXrXrXrXyXtXyXtXyXyXjXtXrX",
"jXjXjXjXjXjXjXjXjXjXjXjXyX>X2X2X2X2X2X2X2X2X2X2X2X2X2X2X2X2X2X2X2X2X2X2X2X2X2X2X2X2X2X2X2X2X2X2X2X2X2X2X2X2X2X2X2X2X2X2X2X2X2X2X2X2X2X2X2X2X2X2X2X2X2X2X2X2X2X2X2X2X2X2X2X2X2X2X2X2X2X>XyXjXjXjXjXjXjXjXjXjXjXjXjXjXjXjXjXjXjXjXjXjXjXjXjXjXjXjXjXjXjXjXjXjXjXjXjXjXjXjXjXjXjXjXjXjXjXjXjXjXjXjXjXjXjXjXjXjXjXjXjXjXjXjXjXjXjXjXjXjXjXjXjXjXjXjXjXjXjXjXjXjXjXjXjXjXjXjXjXjXjXjXjXjXjXjXjXjXjXsXyXsXsXyXsXjXjXjXjXjXjXjXjXjXjXjXjXjXjXjXjXjXjXjXjXjXjXsXyXsXsXyXyXsXjXjXjXjXjXjXjXjXjXjXjXjXjXjXjXjXjXjXjXjXjXsXjXsXjXsXsXyXsXjX",
"jXjXjXjXjXjXjXjXjXjXjXjXjXZXZXZXZXZXZXZXZXZXZXZXZXZXZXZXZXZXZXZXZXZXZXZXZXZXZXZXZXZXZXZXZXZXZXZXZXZXZXZXZXZXZXZXZXZXZXZXZXZXZXZXZXZXZXZXZXZXZXZXZXZXZXZXZXZXZXZXZXZXZXZXZXZXZXZXZXZXZXZXjXjXjXjXjXjXjXjXjXjXjXjXjXjXjXjXjXjXjXjXjXjXjXjXjXjXjXjXjXjXjXjXjXjXjXjXjXjXjXjXjXjXjXjXjXjXjXjXjXjXjXjXjXjXjXjXjXjXjXjXjXjXjXjXjXjXjXjXjXjXjXjXjXjXjXjXjXjXjXjXjXjXjXjXjXjXjXjXjXjXjXjXjXjXjXjXjXjXjXjXjXjXjXjXjXjXjXjXjXjXjXjXjXjXjXjXjXjXjXjXjXjXjXjXjXjXjXjXjXjXjXjXjXjXjXjXjXjXjXjXjXjXjXjXjXjXjXjXjXjXjXjXjXjXjXjXjXjXjXjXjXjXjXjX",
"tXtXtXtXtXtXtXtXtXtXtXtXtXtXtXtXtXtXtXtXtXtXtXtXtXtXtXtXtXtXtXtXtXtXtXtXtXtXtXtXtXtXtXtXtXtXtXtXtXtXtXtXtXtXtXtXtXtXtXtXtXtXtXtXtXtXtXtXtXtXtXtXtXtXtXtXtXtXtXtXtXtXtXtXtXtXtXtXtXtXtXtXtXtXtXtXtXtXtXtXtXtXtXtXtXtXtXtXtXtXtXtXtXtXtXtXtXtXtXtXtXtXtXtXtXtXtXtXtXtXtXtXtXtXtXtXtXtXtXtXtXtXtXtXtXtXtXtXtXtXtXtXtXtXtXtXtXtXtXtXtXtXtXtXtXtXtXtXtXtXtXtXtXtXtXtXtXtXtXtXtXtXtXtXtXtXtXtXtXtXtXtXtXtXtXtXtXtXtXtXtXtXtXtXtXtXtXtXtXtXtXtXtXtXtXtXtXtXtXtXtXtXtXtXtXtXtXtXtXtXtXtXtXtXtXtXtXtXtXtXtXtXtXtXtXtXtXtXtXtXtXtXtXtXtXtX",
"rXrXrXrXrXrXrXrXrXrXrXrXrXrXrXrXrXrXrXrXrXrXrXrXrXrXrXrXrXrXrXrXrXrXrXrXrXrXrXrXrXrXrXrXrXrXrXrXrXrXrXrXrXrXrXrXrXrXrXrXrXrXrXrXrXrXrXrXrXrXrXrXrXrXrXrXrXrXrXrXrXrXrXrXrXrXrXrXrXrXrXrXrXrXrXrXrXrXrXrXrXrXrXrXrXrXrXrXrXrXrXrXrXrXrXrXrXrXrXrXrXrXrXrXrXrXrXrXrXrXrXrXrXrXrXrXrXrXrXrXrXrXrXrXrXrXrXrXrXrXrXrXrXrXrXrXrXrXrXrXrXrXrXrXrXrXrXrXrXrXrXrXrXrXrXrXrXrXrXrXrXrXrXrXrXrXrXrXrXrXrXrXrXrXrXrXrXrXrXrXrXrXrXrXrXrXrXrXrXrXrXrXrXrXrXrXrXrXrXrXrXrXrXrXrXrXrXrXrXrXrXrXrXrXrXrXrXrXrXrXrXrXrXrXrXrXrXrXrXrXrXrXrXrXrXrX",
"tXtXtXtXtXtXtXtXtXtXtXtXtXtXtXtXtXtXtXtXtXtXtXtXtXtXtXtXtXtXtXtXtXtXtXtXtXtXtXtXtXtXtXtXtXtXtXtXtXtXtXtXtXtXtXtXtXtXtXtXtXtXtXtXtXtXtXtXtXtXtXtXtXtXtXtXtXtXtXtXtXtXtXtXtXtXtXtXtXtXtXtXtXtXtXtXtXtXtXtXtXtXtXtXtXtXtXtXtXtXtXtXtXtXtXtXtXtXtXtXtXtXtXtXtXtXtXtXtXtXtXtXtXtXtXtXtXtXtXtXtXtXtXtXtXtXtXtXtXtXtXtXtXtXtXtXtXtXtXtXtXtXtXtXtXtXtXtXtXtXtXtXtXtXtXtXtXtXtXtXtXtXtXtXtXtXtXtXtXtXtXtXtXtXtXtXtXtXtXtXtXtXtXtXtXtXtXtXtXtXtXtXtXtXtXtXtXtXtXtXtXtXtXtXtXtXtXtXtXtXtXtXtXtXtXtXtXtXtXtXtXtXtXtXtXtXtXtXtXtXtXtXtXtXtXtX",
"tXtXtXtXtXtXtXtXtXtXtXtXtXtXtXtXtXtXtXtXtXtXtXtXtXtXtXtXtXtXtXtXtXtXtXtXtXtXtXtXtXtXtXtXtXtXtXtXtXtXtXtXtXtXtXtXtXtXtXtXtXtXtXtXtXtXtXtXtXtXtXtXtXtXtXtXtXtXtXtXtXtXtXtXtXtXtXtXtXtXtXtXtXtXtXtXtXtXtXtXtXtXtXtXtXtXtXtXtXtXtXtXtXtXtXtXtXtXtXtXtXtXtXtXtXtXtXtXtXtXtXtXtXtXtXtXtXtXtXtXtXtXtXtXtXtXtXtXtXtXtXtXtXtXtXtXtXtXtXtXtXtXtXtXtXtXtXtXtXtXtXtXtXtXtXtXtXtXtXtXtXtXtXtXtXtXtXtXtXtXtXtXtXtXtXtXtXtXtXtXtXtXtXtXtXtXtXtXtXtXtXtXtXtXtXtXtXtXtXtXtXtXtXtXtXtXtXtXtXtXtXtXtXtXtXtXtXtXtXtXtXtXtXtXtXtXtXtXtXtXtXtXtXtXtXtX",
"tXtXtXtXtXtXtXtXtXtXtXtXtXtXtXtXtXtXtXtXtXtXtXtXtXtXtXtXtXtXtXtXtXtXtXtXtXtXtXtXtXtXtXtXtXtXtXtXtXtXtXtXtXtXtXtXtXtXtXtXtXtXtXtXtXtXtXtXtXtXtXtXtXtXtXtXtXtXtXtXtXtXtXtXtXtXtXtXtXtXtXtXtXtXtXtXtXtXtXtXtXtXtXtXtXtXtXtXtXtXtXtXtXtXtXtXtXtXtXtXtXtXtXtXtXtXtXtXtXtXtXtXtXtXtXtXtXtXtXtXtXtXtXtXtXtXtXtXtXtXtXtXtXtXtXtXtXtXtXtXtXtXtXtXtXtXtXtXtXtXtXtXtXtXtXtXtXtXtXtXtXtXtXtXtXtXtXtXtXtXtXtXtXtXtXtXtXtXtXtXtXtXtXtXtXtXtXtXtXtXtXtXtXtXtXtXtXtXtXtXtXtXtXtXtXtXtXtXtXtXtXtXtXtXtXtXtXtXtXtXtXtXtXtXtXtXtXtXtXtXtXtXtXtXtXtX",
"tXtXtXtXtXtXtXtXtXtXtXtXtXtXtXtXtXtXtXtXtXtXtXtXtXtXtXtXtXtXtXtXtXtXtXtXtXtXtXtXtXtXtXtXtXtXtXtXtXtXtXtXtXtXtXtXtXtXtXtXtXtXtXtXtXtXtXtXtXtXtXtXtXtXtXtXtXtXtXtXtXtXtXtXtXtXtXtXtXtXtXtXtXtXtXtXtXtXtXtXtXtXtXtXtXtXtXtXtXtXtXtXtXtXtXtXtXtXtXtXtXtXtXtXtXtXtXtXtXtXtXtXtXtXtXtXtXtXtXtXtXtXtXtXtXtXtXtXtXtXtXtXtXtXtXtXtXtXtXtXtXtXtXtXtXtXtXtXtXtXtXtXtXtXtXtXtXtXtXtXtXtXtXtXtXtXtXtXtXtXtXtXtXtXtXtXtXtXtXtXtXtXtXtXtXtXtXtXtXtXtXtXtXtXtXtXtXtXtXtXtXtXtXtXtXtXtXtXtXtXtXtXtXtXtXtXtXtXtXtXtXtXtXtXtXtXtXtXtXtXtXtXtXtXtXtX",
"tXtXtXtXtXtXtXtXtXtXtXtXtXtXtXtXtXtXtXtXtXtXtXtXtXtXtXtXtXtXtXtXtXtXtXtXtXtXtXtXtXtXtXtXtXtXtXtXtXtXtXtXtXtXtXtXtXtXtXtXtXtXtXtXtXtXtXtXtXtXtXtXtXtXtXtXtXtXtXtXtXtXtXtXtXtXtXtXtXtXtXtXtXtXtXtXtXtXtXtXtXtXtXtXtXtXtXtXtXtXtXtXtXtXtXtXtXtXtXtXtXtXtXtXtXtXtXtXtXtXtXtXtXtXtXtXtXtXtXtXtXtXtXtXtXtXtXtXtXtXtXtXtXtXtXtXtXtXtXtXtXtXtXtXtXtXtXtXtXtXtXtXtXtXtXtXtXtXtXtXtXtXtXtXtXtXtXtXtXtXtXtXtXtXtXtXtXtXtXtXtXtXtXtXtXtXtXtXtXtXtXtXtXtXtXtXtXtXtXtXtXtXtXtXtXtXtXtXtXtXtXtXtXtXtXtXtXtXtXtXtXtXtXtXtXtXtXtXtXtXtXtXtXtXtXtX",
"tXtXtXtXtXtXtXtXtXtXtXtXtXtXtXtXtXtXtXtXtXtXtXtXtXtXtXtXtXtXtXtXtXtXtXtXtXtXtXtXtXtXtXtXtXtXtXtXtXtXtXtXtXtXtXtXtXtXtXtXtXtXtXtXtXtXtXtXtXtXtXtXtXtXtXtXtXtXtXtXtXtXtXtXtXtXtXtXtXtXtXtXtXtXtXtXtXtXtXtXtXtXtXtXtXtXtXtXtXtXtXtXtXtXtXtXtXtXtXtXtXtXtXtXtXtXtXtXtXtXtXtXtXtXtXtXtXtXtXtXtXtXtXtXtXtXtXtXtXtXtXtXtXtXtXtXtXtXtXtXtXtXtXtXtXtXtXtXtXtXtXtXtXtXtXtXtXtXtXtXtXtXtXtXtXtXtXtXtXtXtXtXtXtXtXtXtXtXtXtXtXtXtXtXtXtXtXtXtXtXtXtXtXtXtXtXtXtXtXtXtXtXtXtXtXtXtXtXtXtXtXtXtXtXtXtXtXtXtXtXtXtXtXtXtXtXtXtXtXtXtXtXtXtXtXtX",
"tXtXtXtXtXtXtXtXtXtXtXtXtXtXtXtXtXtXtXtXtXtXtXtXtXtXtXtXtXtXtXtXtXtXtXtXtXtXtXtXtXtXtXtXtXtXtXtXtXtXtXtXtXtXtXtXtXtXtXtXtXtXtXtXtXtXtXtXtXtXtXtXtXtXtXtXtXtXtXtXtXtXtXtXtXtXtXtXtXtXtXtXtXtXtXtXtXtXtXtXtXtXtXtXtXtXtXtXtXtXtXtXtXtXtXtXtXtXtXtXtXtXtXtXtXtXtXtXtXtXtXtXtXtXtXtXtXtXtXtXtXtXtXtXtXtXtXtXtXtXtXtXtXtXtXtXtXtXtXtXtXtXtXtXtXtXtXtXtXtXtXtXtXtXtXtXtXtXtXtXtXtXtXtXtXtXtXtXtXtXtXtXtXtXtXtXtXtXtXtXtXtXtXtXtXtXtXtXtXtXtXtXtXtXtXtXtXtXtXtXtXtXtXtXtXtXtXtXtXtXtXtXtXtXtXtXtXtXtXtXtXtXtXtXtXtXtXtXtXtXtXtXtXtXtXtX",
"tXtXtXtXtXtXtXtXtXtXtXtXtXtXtXtXtXtXtXtXtXtXtXtXtXtXtXtXtXtXtXtXtXtXtXtXtXtXtXtXtXtXtXtXtXtXtXtXtXtXtXtXtXtXtXtXtXtXtXtXtXtXtXtXtXtXtXtXtXtXtXtXtXtXtXtXtXtXtXtXtXtXtXtXtXtXtXtXtXtXtXtXtXtXtXtXtXtXtXtXtXtXtXtXtXtXtXtXtXtXtXtXtXtXtXtXtXtXtXtXtXtXtXtXtXtXtXtXtXtXtXtXtXtXtXtXtXtXtXtXtXtXtXtXtXtXtXtXtXtXtXtXtXtXtXtXtXtXtXtXtXtXtXtXtXtXtXtXtXtXtXtXtXtXtXtXtXtXtXtXtXtXtXtXtXtXtXtXtXtXtXtXtXtXtXtXtXtXtXtXtXtXtXtXtXtXtXtXtXtXtXtXtXtXtXtXtXtXtXtXtXtXtXtXtXtXtXtXtXtXtXtXtXtXtXtXtXtXtXtXtXtXtXtXtXtXtXtXtXtXtXtXtXtXtXtX"
};
