/* XPM */
static char *sc_deesser_stereo[] = {
/* columns rows colors chars-per-pixel */
"256 256 256 2 ",
"   c #292B2F",
".  c #5A3623",
"X  c #595801",
"o  c #4D4A15",
"O  c #676700",
"+  c #53502E",
"@  c #544F31",
"#  c #6D6536",
"$  c #353A4E",
"%  c #6F0F72",
"&  c #1A5662",
"*  c #535250",
"=  c #625C45",
"-  c #726D58",
";  c #78745B",
":  c #6B674F",
">  c #4A4C62",
",  c #565769",
"<  c #7C7864",
"1  c #6E6E76",
"2  c #5C666F",
"3  c #3E4000",
"4  c #A4702F",
"5  c #DA711B",
"6  c #D5772D",
"7  c #E2731F",
"8  c #BF3670",
"9  c #917949",
"0  c #827D69",
"q  c #8E7B72",
"w  c #AF6D62",
"e  c #CC6961",
"r  c #C03D74",
"t  c #5B8865",
"y  c #A29A26",
"u  c #DD8437",
"i  c #88846B",
"p  c #8B8775",
"a  c #928D79",
"s  c #97937B",
"d  c #918D6E",
"f  c #AF8D76",
"g  c #A89859",
"h  c #D38C4F",
"j  c #D19570",
"k  c #D9A06E",
"l  c #11549B",
"z  c #034B89",
"x  c #185AA9",
"c  c #195FB0",
"v  c #2567B7",
"b  c #21689E",
"n  c #7B7C81",
"m  c #6473A8",
"M  c #3373DC",
"N  c #2E6CC7",
"B  c #3775EA",
"V  c #0575D3",
"C  c #6C73D4",
"Z  c #5876EA",
"A  c #486DF6",
"S  c #4B73F8",
"D  c #5476F3",
"F  c #506EE9",
"G  c #6577E7",
"H  c #556DD8",
"J  c #6E2085",
"K  c #9A7894",
"L  c #8E7494",
"P  c #9A6B9F",
"I  c #C8678E",
"U  c #C136D3",
"Y  c #C244D2",
"T  c #C856D4",
"R  c #CC6AD7",
"E  c #D364E1",
"W  c #D25DE2",
"Q  c #954FBC",
"!  c #009CAC",
"~  c #178DAE",
"^  c #2791A8",
"/  c #2891A8",
"(  c #2590A7",
")  c #3B9AAC",
"_  c #3798A8",
"`  c #2590AA",
"'  c #0EA6B4",
"]  c #2FAEB9",
"[  c #369197",
"{  c #4D8EAC",
"}  c #6F93B2",
"|  c #59B4BF",
" . c #4BA9B5",
".. c #7AB2BB",
"X. c #6DAAB7",
"o. c #688B8F",
"O. c #0587EC",
"+. c #3092EB",
"@. c #718BD2",
"#. c #53B5C2",
"$. c #48B6C2",
"%. c #4F85F6",
"&. c #718BEA",
"*. c #79A4EA",
"=. c #63A6D5",
"-. c #6DC6CB",
";. c #958D85",
":. c #959389",
">. c #9A9786",
",. c #9E9C95",
"<. c #9A9494",
"1. c #8B8B8E",
"2. c #A29C8A",
"3. c #A09E97",
"4. c #A29E99",
"5. c #A59698",
"6. c #B69C9A",
"7. c #B4908C",
"8. c #A6A28D",
"9. c #A4A29C",
"0. c #ABA797",
"q. c #B2AC9C",
"w. c #B6AF99",
"e. c #9596AF",
"r. c #A89BA0",
"t. c #A798A4",
"y. c #AE93AF",
"u. c #9CA7AC",
"i. c #83B7B7",
"p. c #85B8BA",
"a. c #8FA9B7",
"s. c #AAA8A4",
"d. c #B2A4A4",
"f. c #B6A9A9",
"g. c #BAADAC",
"h. c #B7A8A5",
"j. c #B8B5A8",
"k. c #BBACB2",
"l. c #BEB1B3",
"z. c #BBBAB5",
"x. c #A8ADB7",
"c. c #9BA290",
"v. c #C59D95",
"b. c #CE948A",
"n. c #C7A49A",
"m. c #D1B195",
"M. c #C996B1",
"N. c #C6A9A8",
"B. c #C6B6AC",
"V. c #C1B3B6",
"C. c #C4B6B9",
"Z. c #CAB6B9",
"A. c #C6B9BC",
"S. c #CBBBBD",
"D. c #C6BAB2",
"F. c #D4B8BA",
"G. c #D2B1AB",
"H. c #E5B097",
"J. c #B9C8BC",
"K. c #C4C2B6",
"L. c #C6C4B9",
"P. c #C8C6BB",
"I. c #CBC9BE",
"U. c #CDC8B2",
"Y. c #D9C7BB",
"T. c #D2CCB3",
"R. c #E6CAB6",
"E. c #CDC49D",
"W. c #8E91D0",
"Q. c #AC99CC",
"!. c #95ADD1",
"~. c #B4BBC2",
"^. c #BBBBC2",
"/. c #B7B7C6",
"(. c #A9AAD7",
"). c #B0B2D0",
"_. c #90ABE7",
"`. c #A8BCE5",
"'. c #8895E4",
"]. c #CE93D6",
"[. c #CCA7C8",
"{. c #CBBEC1",
"}. c #C3BCC5",
"|. c #CFB4D0",
" X c #D2B1E1",
".X c #E2B6E3",
"XX c #D398E1",
"oX c #8FCBCF",
"OX c #A3C3C5",
"+X c #B7C5C7",
"@X c #B9C6D7",
"#X c #B3D4D8",
"$X c #AEC1E9",
"%X c #BBDAE2",
"&X c #B7C9EA",
"*X c #AED8E3",
"=X c #CFC2C6",
"-X c #CECCC3",
";X c #CEC4C9",
":X c #C6C4C7",
">X c #D1C3C7",
",X c #D1CCC6",
"<X c #D1C5C9",
"1X c #D4CACC",
"2X c #DBCAC8",
"3X c #D2D0C7",
"4X c #D5D3CB",
"5X c #D8D6CF",
"6X c #D9D8C5",
"7X c #C6CCD6",
"8X c #CACED5",
"9X c #C9C9D9",
"0X c #D8CBD4",
"qX c #CED1D4",
"wX c #C6D6D8",
"eX c #D5D5D2",
"rX c #D9D7D0",
"tX c #DBD9D2",
"yX c #DEDDDA",
"uX c #D5D7D7",
"iX c #CAD2CC",
"pX c #E3DACC",
"aX c #E4DDD5",
"sX c #E0DFD9",
"dX c #EADBD8",
"fX c #EED7D1",
"gX c #DDE1D6",
"hX c #C7E0DF",
"jX c #E4E3DD",
"kX c #E9E4DA",
"lX c #F3E6DF",
"zX c #F5E6DA",
"xX c #E7E0CC",
"cX c #C5DBE4",
"vX c #D0D0E4",
"bX c #E7D0E6",
"nX c #CAE2E4",
"mX c #D3E3E3",
"MX c #D8E6EB",
"NX c #DAE8E8",
"BX c #D6EEF1",
"VX c #E7E6E0",
"CX c #EAE6E3",
"ZX c #E3EAE5",
"AX c #EBEAE4",
"SX c #EFEEE9",
"DX c #E6EAE9",
"FX c #F0EFEA",
"GX c #F2EBE4",
"HX c #F2F1EC",
"JX c #FCF3ED",
"KX c #F5F7E9",
"LX c #F5F5F1",
"PX c #FAFAF5",
"IX c #FAF9F6",
"UX c #ECF1EC",
/* pixels */
"tXtXtXtXtXtXtXtXtXtXtXtXtXtXtXtXtXtXtXtXtXtXtXtXtXtXtXtXtXtXtXtXtXtXtXtXtXtXtXtXtXtXtXtXtXtXtXtXtXtXtXtXtXtXtXtXtXtXtXtXtXtXtXtXtXtXtXtXtXtXtXtXtXtXtXtXtXtXtXtXtXtXtXtXtXtXtXtXtXtXtXtXtXtXtXtXtXtXtXtXtXtXtXtXtXtXtXtXtXtXtXtXtXtXtXtXtXtXtXtXtXtXtXtXtXtXtXtXtXtXtXtXtXtXtXtXtXtXtXtXtXtXtXtXtXtXtXtXtXtXtXtXtXtXtXtXtXtXtXtXtXtXtXtXtXtXtXtXtXtXtXtXtXtXtXtXtXtXtXtXtXtXtXtXtXtXtXtXtXtXtXtXtXtXtXtXtXtXtXtXtXtXtXtXtXtXtXtXtXtXtXtXtXtXtXtXtXtXtXtXtXtXtXtXtXtXtXtXtXtXtXtXtXtXtXtXtXtXtXtXtXrXrXrXrXrXrXtXrXrXrXrXtXrXrXrX",
"tXtXtXtXtXtXtXtXtXtXtXtXtXtXtXtXtXtXtXtXtXtXtXtXtXtXtXtXtXtXtXtXtXtXtXtXtXtXtXtXtXtXtXtXtXtXtXtXtXtXtXtXtXtXtXtXtXtXtXtXtXtXtXtXtXtXtXtXtXtXtXtXtXtXtXtXtXtXtXtXtXtXtXtXtXtXtXtXtXtXtXtXtXtXtXtXtXtXtXtXtXtXtXtXtXtXtXtXtXtXtXtXtXtXtXtXtXtXtXtXtXtXtXtXtXtXtXtXtXtXtXtXtXtXtXtXtXtXtXtXtXtXtXtXtXtXtXtXtXtXtXtXtXtXtXtXtXtXtXtXtXtXtXtXtXtXtXtXtXtXtXtXtXtXtXtXtXtXtXtXtXtXtXtXtXtXtXtXtXtXtXtXtXtXtXtXtXtXtXtXtXtXtXtXtXtXtXtXtXtXtXtXtXtXtXtXtXtXtXtXtXtXtXtXtXtXtXtXtXtXtXtXtXtXtXtXtXtXtXtXtXtXtXyXtXtXtXtXtXaXyXtXrXtXyXaX",
"tXtXtXtXtXtXtXtXtXtXtXtXtXtXtXtXtXtXtXtXtXtXtXtXtXtXtXtXtXtXtXtXtXtXtXtXtXtXtXtXtXtXtXtXtXtXtXtXtXtXtXtXtXtXtXtXtXtXtXtXtXtXtXtXtXtXtXtXtXtXtXtXtXtXtXtXtXtXtXtXtXtXtXtXtXtXtXtXtXtXtXtXtXtXtXtXtXtXtXtXtXtXtXtXtXtXtXtXtXtXtXtXtXtXtXtXtXtXtXtXtXtXtXtXtXtXtXtXtXtXtXtXtXtXtXtXtXtXtXtXtXtXtXtXtXtXtXtXtXtXtXtXtXtXtXtXtXtXtXtXtXtXtXtXtXtXtXtXtXtXtXtXtXtXtXtXtXtXtXtXtXtXtXtXtXtXtXtXtXtXtXtXtXtXtXtXtXtXtXtXtXtXtXtXtXtXtXtXtXtXtXtXtXtXtXtXtXtXtXtXtXtXtXtXtXtXtXtXtXtXtXtXtXtXtXtXtXtXtXrXtXtX^.^.4X:X^.rX;X~.^.rXtX4X^.z.",
"tXtXtXtXtXtXtXtXtXtXtXtXtXtXtXtXtXtXtXtXtXtXtXtXtXtXtXtXtXtXtXtXtXtXtXtXtXtXtXtXtXtXtXtXtXtXtXtXtXtXtXtXtXtXtXtXtXtXtXtXtXtXtXtXtXtXtXtXtXtXtXtXtXtXtXtXtXtXtXtXtXtXtXtXtXtXtXtXtXtXtXtXtXtXtXtXtXtXtXtXtXtXtXtXtXtXtXtXtXtXtXtXtXtXtXtXtXtXtXtXtXtXtXtXtXtXtXtXtXtXtXtXtXtXtXtXtXtXtXtXtXtXtXtXtXtXtXtXtXtXtXtXtXtXtXtXtXtXtXtXtXtXtXtXtXtXtXtXtXtXtXtXtXtXtXtXtXtXtXtXtXtXtXtXtXtXtXtXtXtXtXtXtXtXtXtXtXtXtXtXtXtXtXtXtXtXtXtXtXtXtXtXtXtXtXtXtXtXtXtXtXtXtXtXtXtXtXtXtXtXtXtXtXtXtXtXtXtXtXrXyXx.u.x.:Xx.e.aXu.u.x.e.tX^.e.~.",
"tXtXtXtXtXtXtXtXtXtXtXtXtXtXtXtXtXtXtXtXtXtXtXtXtXtXtXtXtXtXtXtXtXtXtXtXtXtXtXtXtXtXtXtXtXtXtXtXtXtXtXtXtXtXtXtXtXtXtXtXtXtXtXtXtXtXtXtXtXtXtXtXtXtXtXtXtXtXtXtXtXtXtXtXtXtXtXtXtXtXtXtXtXtXtXtXtXtXtXtXtXtXtXtXtXtXtXtXtXtXtXtXtXtXtXtXtXtXtXtXtXtXtXtXtXtXtXtXtXtXtXtXtXtXtXtXtXtXtXtXtXtXtXtXtXtXtXtXtXtXtXtXtXtXtXtXtXtXtXtXtXtXtXtXtXtXtXtXtXtXtXtXtXtXtXtXtXtXtXtXtXtXtXtXtXtXtXtXtXtXtXtXtXtXtXtXtXtXtXtXtXtXtXtXtXtXtXtXtXtXtXtXtXtXtXtXtXtXtXtXtXtXtXtXtXtXtXtXtXtXtXtXtXtXtXtXtXtXtXrXaXu.x.tXkXz.x.kXu.:XkXe.^.:Xe.^.",
"tXtXtXtXtXtXtXtXtXtXtXtXtXtXtXtXtXtXtXtXtXtXtXtXtXtXtXtXtXtXtXtXtXtXtXtXtXtXtXtXtXtXtXtXtXtXtXtXtXtXtXtXtXtXtXtXtXtXtXtXtXtXtXtXtXtXtXtXtXtXtXtXtXtXtXtXtXtXtXtXtXtXtXtXtXtXtXtXtXtXtXtXtXtXtXtXtXtXtXtXtXtXtXtXtXtXtXtXtXtXtXtXtXtXtXtXtXtXtXtXtXtXtXtXtXtXtXtXtXtXtXtXtXtXtXtXtXtXtXtXtXtXtXtXtXtXtXtXtXtXtXtXtXtXtXtXtXtXtXtXtXtXtXtXtXtXtXtXtXtXtXtXtXtXtXtXtXtXtXtXtXtXtXtXtXtXtXtXtXtXtXtXtXtXtXtXtXtXtXtXtXtXtXtXtXtXtXtXtXtXtXtXtXtXtXtXtXtXtXtXtXtXtXtXtXtXtXtXtXtXtXtXtXtXtXtXtXtXtXrXtXrXx.e.1Xz.x.kXu.^.kXx.z.:Xe.x.",
"tXtXtXtXtXtXtXtXtXtXtXtXtXtXtXtXtXtXtXtXtXtXtXtXtXtXtXtXtXtXtXtXtXtXtXtXtXtXtXtXtXtXtXtXtXtXtXtXtXtXtXtXtXtXtXtXtXtXtXtXtXtXtXtXtXtXtXtXtXtXtXtXtXtXtXtXtXtXtXtXtXtXtXtXtXtXtXtXtXtXtXtXtXtXtXtXtXtXtXtXtXtXtXtXtXtXtXtXtXtXtXtXtXtXtXtXtXtXtXtXtXtXtXtXtXtXtXtXtXtXtXtXtXtXtXtXtXtXtXtXtXtXtXtXtXtXtXtXtXtXtXtXtXtXtXtXtXtXtXtXtXtXtXtXtXtXtXtXtXtXtXtXtXtXtXtXtXtXtXtXtXtXtXtXtXtXtXtXtXtXtXtXtXtXtXtXtXtXtXtXtXtXtXtXtXtXtXtXtXtXtXtXtXtXtXtXtXtXtXtXtXtXtXtXtXtXtXtXtXtXtXtXtXtXtXtXtXtXtXtXrX,XtXe.z.~.x.kXe.^.,Xe.,X^.u.tX",
"tXtXtXtXtXtXtXtXtXtXtXtXtXtXtXtXtXtXtXtXtXtXtXtXtXtXtXtXtXtXtXtXtXtXtXtXtXtXtXtXtXtXtXtXtXtXtXtXtXtXtXtXtXtXtXtXtXtXtXtXtXtXtXtXtXtXtXtXtXtXtXtXtXtXtXtXtXtXtXtXtXtXtXtXtXtXtXtXtXtXtXtXtXtXtXtXtXtXtXtXtXtXtXtXtXtXtXtXtXtXtXtXtXtXtXtXtXtXtXtXtXtXtXtXtXtXtXtXtXtXtXtXtXtXtXtXtXtXtXtXtXtXtXtXtXtXtXtXtXtXtXtXtXtXtXtXtXtXtXtXtXtXtXtXtXtXtXtXtXtXtXtXtXtXtXtXtXtXtXtXtXtXtXtXtXtXtXtXtXtXtXtXtXtXtXtXtXtXtXtXtXtXtXtXtXtXtXtXtXtXtXtXtXtXtXtXtXtXtXtXtXtXtXtXtXtXtXtXtXtXtXtXtXtXtXtXtXtXtXrXtXx.e.x.4Xx.e.tXx.e.e.^.aX:Xe.e.",
"tXtXtXtXtXtXtXtXtXtXtXtXtXtXtXtXtXtXtXtXtXtXtXtXtXtXtXtXtXtXtXtXtXtXtXtXtXtXtXtXtXtXtXtXtXtXtXtXtXtXtXtXtXtXtXtXtXtXtXtXtXtXtXtXtXtXtXtXtXtXtXtXtXtXtXtXtXtXtXtXtXtXtXtXtXtXtXtXtXtXtXtXtXtXtXtXtXtXtXtXtXtXtXtXtXtXtXtXtXtXtXtXtXtXtXtXtXtXtXtXtXtXtXtXtXtXtXtXtXtXtXtXtXtXtXtXtXtXtXtXtXtXtXtXtXrXrXrXrXrXrXrXrXrXrXrXrXrXrXrXrXrXrXrXrXrXrXrXrXrXrXrXrXrXrXrXrXrXrXrXrXrXrXrXrXrXrXrXrXrXrXrXrXrXrXrXrXrXrXrXrXrXrXrXrXrXrXrXrXrXrXrXrXrXrXrXrXrXrXrXrXrXrXrXrXrXrXrXrXrXrXrXrXrXrXrXrXrXrXrXrXtXtXtXtXrXtXrXtXtXtXtXrXtXtXrX",
"tXtXtXtXtXtXtXtXtXtXtXtXtXtXtXtXtXtXtXtXtXtXtXtXtXtXtXtXtXtXtXtXtXtXtXtXtXtXtXtXtXtXtXtXtXtXtXtXtXtXtXtXtXtXtXtXtXtXtXtXtXtXtXtXtXtXtXtXtXtXtXtXtXtXtXtXtXtXtXtXtXtXtXtXtXtXtXtXtXtXtXtXtXtXtXtXtXtXtXtXtXtXtXtXtXtXtXtXtXtXtXtXtXtXtXtXtXtXtXtXtXtXtXtXtXtXtXtXtXtXtXtXtXtXtXtXtXtXtXtXtXtXtXrXtXtXtXtXtXtXtXtXtXtXtXtXtXtXtXtXtXtXtXtXtXtXtXtXtXtXtXtXtXtXtXtXtXtXtXtXtXtXtXtXtXtXtXtXtXtXtXtXtXtXtXtXtXtXtXtXtXtXtXtXtXtXtXtXtXtXtXtXtXtXtXtXtXtXtXtXtXtXtXtXtXtXtXtXtXtXtXtXtXtXtXtXtXtXtXtXtXtXtXtXtXtXtXtXtXtXtXtXtXtXtXtX",
"tXtXtXtXtXtXtXtXtXtXtXtXtXtXtXtXtXtXtXtXtXtXtXtXtXtXtXtXtXtXtXtXtXtXtXtXtXtXtXtXtXtXtXtXtXtXtXtXtXtXtXtXtXtXtXtXtXtXtXtXtXtXtXtXtXtXtXtXtXtXtXtXtXtXtXtXtXtXtXtXtXtXtXtXtXtXtXtXtXtXtXtXtXtXtXtXtXtXtXtXtXtXtXtXtXtXtXtXtXtXtXtXtXtXtXtXtXtXtXtXtXtXtXtXtXtXtXtXtXtXtXtXtXtXtXtXtXtXtXtXtXtXtXrXsXjXjXjXjXjXjXjXjXjXjXjXjXjXjXjXjXjXjXjXjXjXjXjXjXjXjXjXjXjXjXjXjXjXjXjXjXjXjXjXjXjXjXjXjXjXjXjXjXjXjXjXjXjXjXjXjXjXjXjXjXjXjXjXjXjXjXjXjXjXjXjXjXjXjXjXjXjXjXjXjXjXjXjXjXjXjXjXjXjXjXjXjXjXjXjXjXjXjXjXjXjXjXjXjXjXjXjXjXjXjXjX",
"tXtXtXtXtXtXtXtXtXtXtXtXtXtXtXtXtXtXtXtXtXtXtXtXtXtXtXtXtXtXtXtXtXtXtXtXtXtXtXtXtXtXtXtXtXtXtXtXtXtXtXtXtXtXtXtXtXtXtXtXtXtXtXtXtXtXtXtXtXtXtXtXtXtXtXtXtXtXtXtXtXtXtXtXtXtXtXtXtXtXtXtXtXtXtXtXtXtXtXtXtXtXtXtXtXtXtXtXtXtXtXtXtXtXtXtXtXtXtXtXtXtXtXtXtXtXtXtXtXtXtXtXtXtXtXtXtXtXtXtXtXtXrXsXjXjXjXjXjXjXjXjXjXjXjXjXjXjXjXjXjXjXjXjXjXjXjXjXjXjXjXjXjXjXjXjXjXjXjXjXjXjXjXjXjXjXjXjXjXjXjXjXjXjXjXjXjXjXjXjXjXjXjXjXjXjXjXjXjXjXjXjXjXjXjXjXjXjXjXjXjXjXjXjXjXjXjXjXjXjXjXjXjXjXjXjXjXjXjXjXjXjXjXjXjXjXjXjXjXjXjXjXjXjXjXjX",
"tXtXtXtXtXtXtXtXtXtXtXtXtXtXtXtXtXtXtXtXtXtXtXtXtXtXtXtXtXtXtXtXtXtXtXtXtXtXtXtXtXtXtXtXtXtXtXtXtXtXtXtXtXtXtXtXtXtXtXtXtXtXtXtXtXtXtXtXtXtXtXtXtXtXtXtXtXtXtXtXtXtXtXtXtXtXtXtXtXtXtXtXtXtXtXtXtXtXtXtXtXtXtXtXtXtXtXtXtXtXtXtXtXtXtXtXtXtXtXtXtXtXtXtXtXtXtXtXtXtXtXtXtXtXtXtXtXtXtXtXtXrXsXjXjXjXjXjXjXjXjXjXjXjXjXjXjXjXjXjXjXjXjXjXjXjXjXjXjXjXjXjXjXjXjXjXjXjXjXjXjXjXjXjXjXjXjXjXjXCXSXCXjXjXjXjXVXjXjXjXjXjXjXjXjXjXjXjXjXjXjXjXjXjXjXjXjXjXjXjXjXjXjXjXjXjXjXjXjXjXjXjXjXjXjXjXjXjXjXjXjXjXjXjXjXjXjXjXjXjXjXjXjXjXjXjX",
"tXtXtXtXtXtXtXtXtXtXtXtXtXtXtXtXtXtXtXtXtXtXtXtXtXtXtXtXtXtXtXtXtXtXtXtXtXtXtXtXtXtXtXtXtXtXtXtXtXtXtXtXtXtXtXtXtXtXtXtXtXtXtXtXtXtXtXtXtXtXtXtXtXtXtXtXtXtXtXtXtXtXtXtXtXtXtXtXtXtXtXtXtXtXtXtXtXtXtXtXtXtXtXtXtXtXtXtXtXtXtXtXtXtXtXtXtXtXtXtXtXtXtXtXtXtXtXtXtXtXtXtXtXtXtXtXtXtXtXtXrXsXjXjXjXjXjXjXjXjXkXjXjXjXjXjXjXjXjXjXjXjXjXjXjXjXjXjXjXjXjXjXjXjXjXjXjXjXjXjXjXjXjXjXjXjXjXjXVX,Xq.I.jXAXSX3X0.CXSXAXjXAXSXjXtXAXjXVXAXSXjXVXAXAXVXSXjXVXSXCXjXSXAXjXtXAXjXjXjXjXjXjXjXjXjXjXjXjXjXjXjXjXjXjXjXjXjXjXjXjXjXjXjXjXjXjX",
"tXtXtXtXtXtXtXtXtXtXtXtXtXtXtXtXtXtXtXtXtXtXtXtXtXtXtXtXtXtXtXtXtXtXtXtXtXtXtXtXtXtXtXtXtXtXtXtXtXtXtXtXtXtXtXtXtXtXtXtXtXtXtXtXtXtXtXtXtXtXtXtXtXtXtXtXtXtXtXtXtXtXtXtXtXtXtXtXtXtXtXtXtXtXtXtXtXtXtXtXtXtXtXtXtXtXtXtXtXtXtXtXtXtXtXtXtXtXtXtXtXtXtXtXtXtXtXtXtXtXtXtXtXtXtXtXtXtXtXrXsXjXjXjXjXjXjXjXkXyXoXuXjXjXjXjXjXjXjXjXjXjXjXjXjXjXjXjXjXjXjXjXjXjXjXjXjXjXjXjXjXjXjXjXjXjXjXVXrXd j.D.VXj.P.3Xs CXj.P.SXL.j.q.i ,XCX4XK.j.sX5XK.P.5Xq.yXtXq.I.jXj.3Xz.0 -XVXjXjXjXjXjXjXjXjXjXjXjXjXjXjXjXjXjXjXjXjXjXjXjXjXjXjXjXjXjX",
"tXtXtXtXtXtXtXtXtXtXtXtXtXtXtXtXtXtXtXtXtXtXtXtXtXtXtXtXtXtXtXtXtXtXtXtXtXtXtXtXtXtXtXtXtXtXtXtXtXtXtXtXtXtXtXtXtXtXtXtXtXtXtXtXtXtXtXtXtXtXtXtXtXtXtXtXtXtXtXtXtXtXtXtXtXtXtXtXtXtXtXtXtXtXtXtXtXtXtXtXtXtXtXtXtXtXtXtXtXtXtXtXtXtXtXtXtXtXtXtXtXtXtXtXtXtXtXtXtXtXtXtXtXtXtXtXtXtXrXsXjXjXjXjXjXjXjXjXyX..wXkXjXjXjXjXjXjXjXjXjXjXjXjXjXjXjXjXjXjXjXjXjXjXjXjXjXjXjXjXjXjXjXjXjXjXjXjXyXd D.LXq.>.s 0.0.0.2.a h.s K.0.d 4XSXq.p 0.8.q.i I.s 8.s s 8.5X8.2.s 8.d 4XjXjXjXjXjXjXjXjXjXjXjXjXjXjXjXjXjXjXjXjXjXjXjXjXjXjXjXjXjXjX",
"tXtXtXtXtXtXtXtXtXtXtXtXtXtXtXtXtXtXtXtXtXtXtXtXtXtXtXtXtXtXtXtXtXtXtXtXtXtXtXtXtXtXtXtXtXtXtXtXtXtXtXtXtXtXtXtXtXtXtXtXtXtXtXtXtXtXtXtXtXtXtXtXtXtXtXtXtXtXtXtXtXtXtXtXtXtXtXtXtXtXtXtXtXtXtXtXtXtXtXtXtXtXtXtXtXtXtXtXtXtXtXtXtXtXtXtXtXtXtXtXtXtXtXtXtXtXtXtXtXtXtXtXtXtXtXtXtXrXsXjXjXjXjXjXjXjXjXkXwX-.gXkXjXjXjXjXjXjXjXjXjXjXjXjXjXjXjXjXjXjXjXjXjXjXjXjXjXjXjXjXjXjXjXjXjXjXjXjXCXsX>.8.a >.8.0.8.i 2.8.a j.PXL.0.HXAXj.j.LXs 0.D.4X; 0.8.K.2.-Xi 8.2.q.q.HXjXjXjXjXjXjXjXjXjXjXjXjXjXjXjXjXjXjXjXjXjXjXjXjXjXjXjXjXjXjX",
"tXtXtXtXtXtXtXtXtXtXtXtXtXtXtXtXtXtXtXtXtXtXtXtXtXtXtXtXtXtXtXtXtXtXtXtXtXtXtXtXtXtXtXtXtXtXtXtXtXtXtXtXtXtXtXtXtXtXtXtXtXtXtXtXtXtXtXtXtXtXtXtXtXtXtXtXtXtXtXtXtXtXtXtXtXtXtXtXtXtXtXtXtXtXtXtXtXtXtXtXtXtXtXtXtXtXtXtXtXtXtXtXtXtXtXtXtXtXtXtXtXtXtXtXtXtXtXtXtXtXtXtXtXtXtXtXrXsXjXjXjXjXjXjXjXjXjXjXlXwX..yXjXjXjXjXjXjXjXjXjXjXjXjXjXjXjXjXjXjXjXjXjXjXjXjXjXjXjXjXjXjXjXjXjXjXjXjXtX,X-Xs 2.0.tXL.>.2.q.yXj.s rXz.a yXSXj.s D.>.0.j.yXd -X4X5Xj.a >.j.tXK.a yXjXjXjXjXjXjXjXjXjXjXjXjXjXjXjXjXjXjXjXjXjXjXjXjXjXjXjXjXjXjX",
"tXtXtXtXtXtXtXtXtXtXtXtXtXtXtXtXtXtXtXtXtXtXtXtXtXtXtXtXtXtXtXtXtXtXtXtXtXtXtXtXtXtXtXtXtXtXtXtXtXtXtXtXtXtXtXtXtXtXtXtXtXtXtXtXtXtXtXtXtXtXtXtXtXtXtXtXtXtXtXtXtXtXtXtXtXtXtXtXtXtXtXtXtXtXtXtXtXtXtXtXtXtXtXtXtXtXtXtXtXtXtXtXtXtXtXtXtXtXtXtXtXtXtXtXtXtXtXtXtXtXtXtXtXtXtXrXsXjXjXjXjXjXjXjXjXjXjXjXjXkXyXgXjXjXjXjXjXjXjXjXjXjXjXjXjXjXjXjXjXjXjXjXjXjXjXjXjXjXjXjXjXjXjXjXjXjXjXjXyX0.>.,XjX8.8.I.D.tX2.8.yXj.2.5X0.D.HXj.a 8.5XP.P.SXK.>.z.j.>.-XtX2.0.tX0.D.CXjXjXjXjXjXjXjXjXjXjXjXjXjXjXjXjXjXjXjXjXjXjXjXjXjXjXjXjXjX",
"tXtXtXtXtXtXtXtXtXtXtXtXtXtXtXtXtXtXtXtXtXtXtXtXtXtXtXtXtXtXtXtXtXtXtXtXtXtXtXtXtXtXtXtXtXtXtXtXtXtXtXtXtXtXtXtXtXtXtXtXtXtXtXtXtXtXtXtXtXtXtXtXtXtXtXtXtXtXtXtXtXtXtXtXtXtXtXtXtXtXtXtXtXtXtXtXtXtXtXtXtXtXtXtXtXtXtXtXtXtXtXtXtXtXtXtXtXtXtXtXtXtXtXtXtXtXtXtXtXtXtXtXtXtXrXsXjXjXjXjXjXjXjXjXjXjXjXjXjXjXkXjXjXjXjXjXjXjXjXjXjXjXjXjXjXjXjXjXjXjXjXjXjXjXjXjXjXjXjXjXjXjXjXjXjXjXjXjXjXAXSXVXjXSXAXVXCXjXSXAXjXAXSXVXAXVXSXq.q.IXjXVXCXjXAXSXCXAXSXVXjXSXAXjXAXCXjXjXjXjXjXjXjXjXjXjXjXjXjXjXjXjXjXjXjXjXjXjXjXjXjXjXjXjXjXjX",
"rXrXrXrXrXrXrXrXrXrXrXrXrXrXrXrXrXrXrXrXrXrXrXrXrXrXrXrXrXrXrXrXrXrXrXrXrXrXrXrXrXrXrXrXrXrXrXrXrXrXrXrXrXrXrXrXrXrXrXrXrXrXrXrXrXrXrXrXrXrXrXrXrXrXrXrXrXrXrXrXrXrXrXrXrXrXrXrXrXrXrXrXrXrXrXrXrXrXrXrXrXrXrXrXrXrXrXrXrXrXrXrXrXrXrXrXrXrXrXrXrXrXrXrXrXrXrXrXrXrXrXrXrXrXsXjXjXjXjXjXjXjXjXjXjXjXjXjXjXjXjXjXjXjXjXjXjXjXjXjXjXjXjXjXjXjXjXjXjXjXjXjXjXjXjXjXjXjXjXjXjXjXjXjXjXjXjXjXjXjXjXjXjXjXjXjXjXjXjXjXjXjXjXjXjXjXCXI.P.VXjXjXjXjXjXjXjXjXjXjXjXjXjXjXjXjXjXjXjXjXjXjXjXjXjXjXjXjXjXjXjXjXjXjXjXjXjXjXjXjXjXjXjXjXjXjX",
"yXyXyXyXyXyXyXyXyXyXyXyXyXyXyXyXyXyXyXyXyXyXyXyXyXyXyXyXyXyXyXyXyXyXyXyXyXyXyXyXyXyXyXyXyXyXyXyXyXyXyXyXyXyXyXyXyXyXyXyXyXyXyXyXyXyXyXyXyXyXyXyXyXyXyXyXyXyXyXyXyXyXyXyXyXyXyXyXyXyXyXyXyXyXyXyXyXyXyXyXyXyXyXyXyXyXyXyXyXyXyXyXyXyXyXyXyXyXyXyXyXyXyXyXyXyXyXyXyXyXyXyXyXsXjXjXjXjXjXjXjXjXjXjXjXjXjXjXjXjXjXjXjXjXjXjXjXjXjXjXjXjXjXjXjXjXjXjXjXjXjXjXjXjXjXjXjXjXjXjXjXjXjXjXjXjXjXjXjXjXjXjXjXjXjXjXjXjXjXjXjXjXjXjXjXjXjXVXVXjXjXjXjXjXjXjXjXjXjXjXjXjXjXjXjXjXjXjXjXjXjXjXjXjXjXjXjXjXjXjXjXjXjXjXjXjXjXjXjXjXjXjXjXjXjXjX",
"VXVXVXVXVXVXVXVXVXVXVXVXVXVXVXVXVXVXVXVXVXVXVXVXVXVXVXVXVXVXVXVXVXVXVXVXVXVXVXVXVXVXVXVXVXVXVXVXVXVXVXVXVXVXVXVXVXVXVXVXVXVXVXVXVXVXVXVXVXVXVXVXVXVXVXVXVXVXVXVXVXVXVXVXVXVXVXVXVXVXVXVXVXVXVXVXVXVXVXVXVXVXVXVXVXVXVXVXVXVXVXVXVXVXVXVXVXVXVXVXVXVXVXVXVXVXVXVXVXVXVXVXVXjXjXjXjXjXjXjXjXjXjXjXjXjXjXjXjXjXjXjXjXjXjXjXjXjXjXjXjXjXjXjXjXjXjXjXjXjXjXjXjXjXVXVXVXVXVXVXVXVXVXVXVXVXVXVXVXVXVXVXVXVXVXVXVXVXVXVXVXVXVXVXVXVXVXjXjXVXVXVXVXVXVXVXVXVXVXVXVXVXVXVXVXVXVXVXVXVXVXVXVXVXVXVXVXVXVXVXVXVXVXVXVXVXVXVXVXVXVXVXVXVXVXVX",
"4X4X4X4X4X4X4X4X4X4X4X4X4X4X4X4X4X4X4X4X4X4X4X4X4X4X4X4X4X4X4X4X4X4X4X4X4X4X4X4X4X4X4X4X4X4X4X4X4X4X4X4X4X4X4X4X4X4X4X4X4X4X4X4X4X4X4X4X4X4X4X4X4X4X4X4X4X4X4X4X4X4X4X4X4X4X4X4X4X4X4X4X4X4X4X4X4X4X4X4X4X4X4X4X4X4X4X4X4X4X4X4X4X4X4X4X4X4X4X4X4X4X4X4X4X4X4X4X4X4X4X4X4XjXjXyXyXyXyXyXyXyXyXyXyXyXyXyXyXyXyXyXyXyXjXjXsXyXyXyXyXyXyXyXyXyXyXyXyXyXyXyXjXjX4X4X4X4X4X4X4X4X4X4X4X4X4X4X4X4X4X4X4X4X4X4X4X4X4X4X4X4X4X4X4X4X4X4X4X4X4X4X4X4X4X4X4X4X4X4X4X4X4X4X4X4X4X4X4X4X4X4X4X4X4X4X4X4X4X4X4X4X4X4X4X4X4X4X4X4X4X4X4X4X4X4X",
"L.L.L.L.L.L.L.L.L.L.L.L.L.L.L.L.L.L.L.L.L.L.L.L.L.L.L.L.L.L.L.L.L.L.L.L.L.L.L.L.L.L.L.L.L.L.L.L.L.L.L.L.L.L.L.L.L.L.L.L.L.L.L.L.L.L.L.L.L.L.L.L.L.L.L.L.L.L.L.L.L.L.L.L.L.L.L.L.L.L.L.L.L.L.L.L.L.L.L.L.L.L.L.L.L.L.L.L.L.L.L.L.L.L.L.L.L.L.L.L.L.L.L.L.L.L.L.L.L.L.L.K.I.jXjXrXrXrXrXrXrXtXtXtXtXtXtXtXrXrXrXrXrX5XsXjXtX5XrXrX5X5XrXrXrX5XrXrXrXrXrXrXjXjXL.L.L.K.K.L.K.K.L.K.K.K.L.K.L.K.L.L.K.K.K.K.K.K.K.L.K.K.L.L.K.L.K.L.L.L.L.L.L.L.L.L.L.L.L.L.L.L.L.L.L.L.L.L.L.L.L.L.L.L.L.L.L.L.L.L.L.L.L.L.L.L.L.L.L.L.L.L.L.L.L.L.",
"P.P.P.P.P.P.P.P.P.P.P.P.P.P.P.P.P.P.P.P.P.P.P.P.P.P.P.P.P.P.P.P.P.P.P.P.P.P.P.P.P.P.P.P.P.P.P.P.P.P.P.P.P.P.P.P.P.P.P.P.P.P.P.P.P.P.P.P.P.P.P.P.P.P.P.P.P.P.P.P.P.P.P.P.P.P.P.P.P.P.P.P.P.P.P.P.P.P.P.P.P.P.P.P.P.P.P.P.P.P.P.P.P.P.P.P.P.P.P.P.P.P.P.P.P.P.P.P.P.P.P.P.-XjXjXrXtXtXtXrXtX,XD.P.K.L.D.I.tXrXtXtXtXrXsXjXyXrXrXtXjXyXrXrXrXtXtXrXrXrXtXtXjXjXP.P.I.-X-XI.-X-XI.-X-X-XP.-XP.-XI.I.-X-X-X-X-X-XI.I.-X-XI.I.-XP.-XI.P.P.P.P.P.P.P.P.P.P.P.P.P.P.P.P.P.P.P.P.P.P.P.P.P.P.P.P.P.P.P.P.P.P.P.P.P.P.P.P.P.P.P.P.P.P.P.P.",
"P.P.P.P.P.P.P.P.P.P.P.P.P.P.P.P.P.P.P.P.P.P.P.P.P.P.P.P.P.P.P.P.P.P.P.P.P.P.P.P.P.P.P.P.P.P.P.P.P.P.P.P.P.P.P.P.P.P.P.P.P.P.P.P.P.P.P.P.P.P.P.P.P.P.P.P.P.P.P.P.P.P.P.P.P.P.P.P.P.P.P.P.P.P.P.P.P.P.P.P.P.P.P.P.P.P.P.P.P.P.P.P.P.P.P.P.P.P.P.P.P.P.P.P.P.P.P.P.P.P.P.L.I.jXjXrXtXtXtXrXyXL.K.q.2.q.,Xz.yXrXtXtXtXrXsXjXyX5XyX4Xj.K.tXsXsXK.-XsXsXtXrXtXjXjXP.I.z.a s D.2.d q.2.a 8.L.8.-Xq.j.j.a 8.>.d 2.s 0.K.s s D.j.>.-X0.D.I.P.P.P.P.P.P.P.P.P.P.P.P.P.P.P.P.P.P.P.P.P.P.P.P.P.P.P.P.P.P.P.P.P.P.P.P.P.P.P.P.P.P.P.P.P.P.P.",
"P.P.P.P.P.P.P.P.P.P.P.P.P.P.P.P.P.P.P.P.P.P.P.P.P.P.P.P.P.P.P.P.P.P.P.P.P.P.P.P.P.P.P.P.P.P.P.P.P.P.P.P.P.P.P.P.P.P.P.P.P.P.P.P.P.P.P.P.P.P.P.P.P.P.P.P.P.P.P.P.P.P.P.P.P.P.P.P.P.P.P.P.P.P.P.P.P.P.P.P.P.P.P.P.P.P.P.P.P.P.P.P.P.P.P.P.P.P.P.P.P.P.P.P.P.P.P.P.P.P.P.L.I.jXjXrXtXtXtXrXtXI.0.j.rXq.j.L.tXrXtXtXtXrXsXjXtXtX,Xi >.j.5Xj.-X,X,XI.j.4XtXtXjXjXP.-Xq.>.0.>.s j.P.d D.s 8.a ,X2.2.a j.D.D.d K.s q.s q.j.s q.: j.>.j.I.P.P.P.P.P.P.P.P.P.P.P.P.P.P.P.P.P.P.P.P.P.P.P.P.P.P.P.P.P.P.P.P.P.P.P.P.P.P.P.P.P.P.P.P.P.P.P.",
"P.P.P.P.P.P.P.P.P.P.P.P.P.P.P.P.P.P.P.P.P.P.P.P.P.P.P.P.P.P.P.P.P.P.P.P.P.P.P.P.P.P.P.P.P.P.P.P.P.P.P.P.P.P.P.P.P.P.P.P.P.P.P.P.P.P.P.P.P.P.P.P.P.P.P.P.P.P.P.P.P.P.P.P.P.P.P.P.P.P.P.P.P.P.P.P.P.P.P.P.P.P.P.P.P.P.P.P.P.P.P.P.P.P.P.P.P.P.P.P.P.P.P.P.P.P.P.P.P.P.P.L.I.jXjXrXtXtXtXrXyXI.>.4XCX-X0.P.tXrXtXtXtXrXsXjXtXjX2.8.rXK.3X2.a >.q.< a >.jX5XjXjXP.-Xj.i i z.d d j.s -Xj.s s ,X0.s 2.3XP.L.s I.8.q.s I.-Xs 0.>.s 2.j.I.P.P.P.P.P.P.P.P.P.P.P.P.P.P.P.P.P.P.P.P.P.P.P.P.P.P.P.P.P.P.P.P.P.P.P.P.P.P.P.P.P.P.P.P.P.P.P.",
"P.P.P.P.P.P.P.P.P.P.P.P.P.P.P.P.P.P.P.P.P.P.P.P.P.P.P.P.P.P.P.P.P.P.P.P.P.P.P.P.P.P.P.P.P.P.P.P.P.P.P.P.P.P.P.P.P.P.P.P.P.P.P.P.P.P.P.P.P.P.P.P.P.P.P.P.P.P.P.P.P.P.P.P.P.P.P.P.P.P.P.P.P.P.P.P.P.P.P.P.P.P.P.P.P.P.P.P.P.P.P.P.P.P.P.P.P.P.P.P.P.P.P.P.P.P.P.P.P.P.P.L.I.jXjXrXtXtXtXrXtXI.q.0.P.2.2.K.tXrXtXtXtXrXsXjXtXjX>.q.4X; h.>.0 a 0.>.rXi sXrXjXjXP.-Xq.>.>.q.s z.P.d I.>.8.s I.>.8.a L.P.K.a P.2.q.a j.j.s 0.0.8.- D.I.P.P.P.P.P.P.P.P.P.P.P.P.P.P.P.P.P.P.P.P.P.P.P.P.P.P.P.P.P.P.P.P.P.P.P.P.P.P.P.P.P.P.P.P.P.P.P.",
"P.P.P.P.P.P.P.P.P.P.P.P.P.P.P.P.P.P.P.P.P.P.P.P.P.P.P.P.P.P.P.P.P.P.P.P.P.P.P.P.P.P.P.P.P.P.P.P.P.P.P.P.P.P.P.P.P.P.P.P.P.P.P.P.P.P.P.P.P.P.P.P.P.P.P.P.P.P.P.P.P.P.P.P.P.P.P.P.P.P.P.P.P.P.P.P.P.P.P.P.P.P.P.P.P.P.P.P.P.P.P.P.P.P.P.P.P.P.P.P.P.P.P.P.P.P.P.P.P.P.P.L.I.jXjXrXtXtXtXrXyXL.P.z.0.0.; 0.sX5XtXtXtXrXsXjXtXyXL.0 h.p i p p p 0.s ,Xi sXrXjXjXP.-Xj.0.z.2.>.d q.s d >.I.0.d >.I.0.d 0.L.2.L.s 0.j.a a j.j.q.I.i D.I.P.P.P.P.P.P.P.P.P.P.P.P.P.P.P.P.P.P.P.P.P.P.P.P.P.P.P.P.P.P.P.P.P.P.P.P.P.P.P.P.P.P.P.P.P.P.P.",
"P.P.P.P.P.P.P.P.P.P.P.P.P.P.P.P.P.P.P.P.P.P.P.P.P.P.P.P.P.P.L.P.P.P.P.P.P.P.P.P.P.P.P.P.P.P.P.P.P.P.P.P.P.P.P.P.P.P.P.P.P.P.P.P.P.P.P.P.P.P.P.P.P.P.P.P.P.P.P.P.P.P.P.P.P.P.P.P.P.P.P.P.P.P.P.P.P.P.P.P.P.P.P.P.P.P.P.P.P.P.P.P.P.P.P.P.P.P.P.P.P.P.P.P.P.P.P.P.P.P.P.L.I.jXjXrXtXtXtXrXtX,Xz.P.P.P.j.K.tXrXtXtXtXrXsXjXyX5XyXP.8.z.,Xq.L.P.-XP.5XK.tXtXjXjXP.P.I.I.I.I.I.P.P.I.P.-XP.I.P.I.P.-XP.P.P.I.P.I.P.I.I.P.I.P.I.P.-XP.P.P.P.P.P.P.P.P.P.P.P.P.P.P.P.P.P.P.P.P.P.P.P.P.P.P.P.P.P.P.P.P.P.P.P.P.P.P.P.P.P.P.P.P.P.P.P.P.",
"L.L.L.L.L.L.P.L.L.L.L.L.L.L.L.L.P.L.L.L.L.L.L.I.L.L.L.L.L.P.I.L.P.L.L.L.L.L.L.L.L.L.L.L.L.L.L.L.L.L.L.L.L.L.L.L.L.L.L.L.P.L.L.L.L.L.L.L.L.L.L.L.L.L.L.L.P.L.L.L.L.L.L.L.L.L.L.L.L.P.L.L.L.L.P.L.L.L.P.L.L.I.P.L.L.L.L.L.L.L.L.L.L.L.L.L.L.L.L.L.L.L.L.L.L.P.L.L.L.P.L.I.,XjXjXrXtXtXtXtXrXtXtXrXrXrXyXtXrXtXtXtXtXrXsXjXyXrXrXyXjXsXtXjXyXyXtXyXtXyXrXtXjXjXP.L.L.L.L.L.L.L.L.L.L.L.L.L.L.L.L.L.L.L.L.L.L.L.L.L.L.L.L.L.L.P.P.L.L.L.L.L.L.L.L.L.L.L.L.L.L.P.L.L.L.L.L.L.L.L.L.L.L.L.L.L.P.I.P.L.L.L.L.L.L.L.L.L.L.L.L.L.L.L.L.L.",
"jXVXjXjXjXVXjXjXVXjXVXjXjXVXVXjXaXVXVXjXjXVXCX3XjXjXjXjXkXuX#XgXgXgXjXjXjXjXjXjXjXjXjXjXjXVXjXjXVXjXjXjXjXjXjXjXjXjXVXjXtXjXVXjXjXjXjXjXjXVXjXjXVXjXjXCXgXgXjXVXjXjXjXVXjXjXVXjXVXjXjXVXjXVXjXjXVXjXjXjXAX4XyXCXjXjXjXjXjXjXjXjXjXjXjXjXjXjXjXjXjXjXjXVXjXjXjXjXgXgXjX#X+XkXjXrXtXtXtXtXtXrXtXtXtXtXtXrXtXtXtXtXtXrXsXjXyXrXtXrX5X5XrX5XrXrXrXrXrXrXrXtXjXyXtXCXjXjXjXjXjXjXjXjXjXjXjXjXVXjXjXVXjXjXjXjXjXjXjXjXjXjXjXjXAXrXtXCXjXjXjXjXjXjXjXjXjXjXjXjXVXjXjXVXjXjXjXjXjXjXjXjXjXjXjXCXjX1X.XjXVXjXjXjXjXjXjXjXjXjXjXVXjXjXVXjX",
"jXLXHXHXHXHXyXHXHXHXLXjXVXHXHXAXY.LXHXAXsXHXIX9.sXGXkXdXzX+X] mXnXmXNXZXDXSXHXHXHXHXHXHXHXHXCXjXLXHXHXHXHXHXHXHXHXHXHXAXT.jXHXHXHXHXHXHXHXHXVXjXLXHXHXJXcXmXkXHXHXHXHXHXsXAXHXHXHXyXSXHXHXHXyXHXHXHXyXHXPXf.3XPXHXHXHXHXHXHXHXHXHXHXHXHXHXHXHXHXHXHXHXHXAXtXDXNXmXnXNX| ..GXjXrXtXtXtXtXtXrXyXjXjXjXsXrXtXtXtXtXtXrXsXjXyXrXtX5X5X5X5X5X5X5X5X5X5XrXrXtXjXyXsXLXHXHXHXHXHXHXHXHXHXHXHXHXHXSXyXHXHXHXHXHXHXHXHXHXHXHXHXFXPXz.L.PXFXHXHXHXHXHXHXHXHXHXHXHXHXyXFXHXHXHXHXHXHXHXHXHXHXHXHXLXyX5.W AXHXHXHXHXHXHXHXHXHXHXHXLXjXCXHXHX",
"sXHXSXFXSXFXtXSXFXSXHXjXjXHXHXCXY.HXFXAXsXHXLX9.aXCXkXdXzX+X .mXhXmXNXZXZXSXFXFXFXFXFXFXSXHXVXjXHXSXFXFXFXFXFXFXFXSXHXAXT.jXHXSXFXFXFXFXSXHXjXjXHXSXSXJXcXmXaXHXSXFXSXHXyXAXHXSXHXyXSXFXSXFXtXSXFXSXtXSXPXj.,XLXSXFXFXFXFXFXFXFXFXFXFXFXFXFXFXFXFXFXSXFXAXtXZXNXmXhXmX| i.lXjXrXtXtXtXtXtXrXyXjXjXjXsXrXtXtXtXtXtXrXsXjXyXrXtXyXyXyXyXyXyXyXyXyXyXtXrXtXjXyXyXHXSXFXFXFXFXFXFXFXFXFXFXSXFXAXyXHXSXFXFXFXFXFXFXFXFXFXFXSXPXz.L.IXSXFXFXFXFXFXSXSXSXSXHXSXFXyXSXHXSXFXHXFXHXSXSXHXSXHXSXHXtXr.E CXHXSXFXFXFXFXFXFXFXFXSXHXjXVXHXSX",
"sXHXSXFXFXHXtXSXFXSXHXjXjXHXHXCXY.HXFXAXsXHXLX9.aXCXkXdXzX+X .mXnXmXNXZXZXSXFXFXFXFXFXFXFXHXVXjXHXSXFXFXFXFXFXFXFXFXHXAXT.jXHXSXFXFXFXFXFXHXjXjXHXSXSXJXcXmXaXHXFXFXSXHXyXAXHXSXHXyXSXHXFXFXtXFXFXSXtXSXPXj.,XLXSXFXFXFXFXFXFXFXFXFXFXFXFXFXFXFXFXFXFXHXAXtXZXNXmXnXmX| i.lXjXrXtXtXtXtXtXrXyXjXjXjXsXrXtXtXtXtXtXrXsXjXtXtX4XU.U.U.U.U.U.U.U.U.U.I.tXtXjXyXyXHXSXFXFXFXFXFXFXFXFXFXFXFXHXAXyXHXFXFXFXFXFXFXFXFXFXFXFXSXPXz.L.PXSXFXFXFXFXFXFX.XXX.XbXHXHXtXSXFXHXSXFXbXbXKXHXSXKX.XAXGX[.s.E AXHXFXFXFXFXFXFXFXFXFXSXHXjXVXHXFX",
"sXHXSXFXFXHXtXSXFXSXHXjXjXHXHXCXY.HXFXAXsXHXLX9.aXCXkXdXzX+X .mXnXmXNXZXZXSXFXFXFXFXFXFXFXHXVXjXHXSXFXFXFXFXFXFXFXFXHXAXT.jXHXSXFXFXFXFXFXHXjXjXHXSXSXJXcXmXaXHXFXFXSXHXyXAXHXSXHXyXSXHXFXFXtXFXFXSXtXSXPXj.,XLXSXFXFXFXFXFXFXFXFXFXFXFXFXFXFXFXFXFXFXHXAXtXZXNXmXnXmX| i.lXjXrXtXtXtXtXtXrXyXjXjXjXsXrXtXtXtXtXtXrXsXjXtXtXY.y 4 y 4 y g 4 y y 4 m.yX5XjXyXyXHXSXFXFXFXFXFXFXFXFXFXFXFXHXAXyXHXFXFXFXFXFXFXFXFXFXFXFXSXPXz.L.PXSXFXFXFXFXFXHXCX.XbX]..XbX].bXXX.XXXbX.XXX.XbXXXbX.X.XXX].s.E AXHXFXFXFXFXFXFXFXFXFXSXHXjXVXHXFX",
"sXHXSXFXFXHXtXSXFXSXHXjXjXHXHXCXY.HXFXAXsXHXLX9.aXCXkXdXzX+X .mXnXmXNXZXZXSXFXFXFXFXFXFXFXHXVXjXHXSXFXFXFXFXFXFXFXFXHXAXT.jXHXSXFXFXFXFXFXHXjXjXHXSXSXJXcXmXaXHXFXFXSXHXyXAXHXSXHXyXSXHXFXFXtXFXFXSXtXSXPXj.,XLXSXFXFXFXFXFXFXFXFXFXFXFXFXFXFXFXFXFXFXHXAXtXZXNXmXnXmX| i.lXjXrXtXtXtXtXtXrXtXjXjXjXyXrXtXtXtXtXtXrXsXjXtXtX-Xc.c.c.c.8.9.c.c.c.>.z.yXrXjXyXyXHXSXFXFXFXFXFXFXFXFXFXFXFXHXAXyXHXFXFXFXFXFXFXFXFXFXFXFXSXPXz.L.PXSXFXFXFXFXFXHXbX.XbXbX.X.X|..XXX.X.XbX.XbX.X.XCX.X.XXXGX].s.E AXHXFXFXFXFXFXFXFXFXFXSXHXjXVXHXFX",
"sXHXSXFXFXHXtXSXFXSXHXjXjXHXHXCXY.HXFXAXsXHXLX9.aXCXkXdXzX+X .mXnXmXNXZXZXSXFXFXFXFXFXFXFXHXVXjXHXSXFXFXFXFXFXFXFXFXHXAXT.jXHXSXFXFXFXFXFXHXjXjXHXSXSXJXcXmXaXHXFXFXSXHXyXAXHXSXHXyXSXHXFXFXtXFXFXSXtXSXPXj.,XLXSXFXFXFXFXFXFXFXFXFXFXFXFXFXFXFXFXFXFXHXAXtXZXNXmXnXmX| i.lXjXrXtXtXtXtXrXaXOX)  .) p.aXrXtXtXtXtXrXsXjXtXtXqX%.%.%.%.%.*.%.%.%.%.`.pXrXjXyXyXHXSXFXFXFXFXFXFXFXFXFXFXFXHXAXyXHXFXFXFXFXFXFXFXFXFXFXFXSXPXz.L.PXSXFXFXFXFXFXHXbX.XbXbX.X.X|.bXXXbX.XXXbXbX.XbXXX.X.X X.X].s.E AXHXFXFXFXFXFXFXFXFXFXSXHXjXVXHXFX",
"sXHXSXFXFXHXtXSXFXSXHXjXjXHXHXCXY.HXFXAXsXHXLX9.aXCXkXdXzX+X .mXnXmXNXZXZXSXFXFXFXFXFXFXFXHXVXjXHXSXFXFXFXFXFXFXFXFXHXAXT.jXHXSXFXFXFXFXFXHXjXjXHXSXSXJXcXmXaXHXFXFXSXHXyXAXHXSXHXyXSXHXFXFXtXFXFXSXtXSXPXj.,XLXSXFXFXFXFXFXFXFXFXFXFXFXFXFXFXFXFXFXFXHXAXtXZXNXmXnXmX| i.lXjXrXtXtXtXtXrXaXOX( _ ( ..aXrXtXtXtXtXrXsXjXtXtX8X*.*.*.*.'._.*.*.*.*.`.pXrXjXyXyXHXSXFXFXFXFXFXFXFXFXFXFXFXHXAXyXHXFXFXFXFXFXFXFXFXFXFXFXSXPXz.L.PXSXFXFXFXFXFXFXSXSXSXSXSXFXtXFXbXCXbXSXSXSXSXFXbXFXSXSXCXtXr.E AXHXFXFXFXFXFXFXFXFXFXSXHXjXVXHXFX",
"sXHXSXFXFXHXtXSXFXSXHXjXjXHXHXCXY.HXFXAXsXHXLX9.aXCXkXdXzX+X .mXnXmXNXZXZXSXFXFXFXFXFXFXFXHXVXjXHXSXFXFXFXFXFXFXFXFXHXAXT.jXHXSXFXFXFXFXFXHXjXjXHXSXSXJXcXmXaXHXFXFXSXHXyXAXHXSXHXyXSXHXFXFXtXFXFXSXtXSXPXj.,XLXSXFXFXFXFXFXFXFXFXFXFXFXFXFXFXFXFXFXFXHXAXtXZXNXmXnXmX| i.lXjXrXtXtXtXtXrXaXOX/ ) / ..aXrXtXtXtXtXrXsXjXtXtXqX%.%.%.%.%.*.%.%.%.%.`.pXrXjXyXyXHXSXFXFXFXFXFXFXFXFXFXFXFXHXAXyXHXFXFXFXFXFXFXFXFXFXFXFXSXPXz.L.PXSXFXFXFXFXFXFXHXHXHXHXHXHXyXSXHXHXHXHXHXHXHXFXHXFXHXHXLXtXr.E AXHXFXFXFXFXFXFXFXFXFXSXHXjXVXHXFX",
"sXHXSXFXFXHXtXSXFXSXHXjXjXHXHXCXY.HXFXAXsXHXLX9.aXCXkXdXzX+X .mXnXmXNXZXZXSXFXFXFXFXFXFXFXHXVXjXHXSXFXFXFXFXFXFXFXFXHXAXT.jXHXSXFXFXFXFXFXHXjXjXHXSXSXJXcXmXaXHXFXFXSXHXyXAXHXSXHXyXSXHXFXFXtXFXFXSXtXSXPXj.,XLXSXFXFXFXFXFXFXFXFXFXFXFXFXFXFXFXFXFXFXHXAXtXZXNXmXnXmX| i.lXjXrXtXtXtXtXrXaXOX/ ) ^ ..aXrXtXtXtXtXrXsXjXtXtX8X*.*.*.*.*._.*.*.*.*.`.pXrXjXyXyXHXSXFXFXFXFXFXFXFXFXFXFXFXHXAXyXHXFXFXFXFXFXFXFXFXFXFXFXSXPXz.L.PXSXFXFXFXFXFXFXFXFXFXFXFXHXyXSXFXFXFXFXFXFXFXFXFXFXFXSXLXtXr.E AXHXFXFXFXFXFXFXFXFXFXSXHXjXVXHXFX",
"sXHXSXFXFXHXtXSXFXSXHXjXjXHXHXCXY.HXFXAXsXHXLX9.aXCXkXdXzX+X .mXnXmXNXZXZXSXFXFXFXFXFXFXFXHXVXjXHXSXFXFXFXFXFXFXFXFXHXAXT.jXHXSXFXFXFXFXFXHXjXjXHXSXSXJXcXmXaXHXFXFXSXHXyXAXHXSXHXyXSXHXFXFXtXFXFXSXtXSXPXj.,XLXSXFXFXFXFXFXFXFXFXFXFXFXFXFXFXFXFXFXFXHXAXtXZXNXmXnXmX| i.lXjXrXtXtXtXtXrXaXOX/ ) ^ ..aXrXtXtXtXtXrXsXjXtXtXqX%.%.%.%.%.*.%.%.%.%.`.pXrXjXyXyXHXSXFXFXFXFXFXFXFXFXFXFXFXHXAXyXHXFXFXFXFXFXFXFXFXFXFXFXSXPXz.L.PXSXFXFXFXFXFXFXFXFXFXFXFXHXyXSXFXFXFXFXFXFXFXFXFXFXFXSXLXtXr.E AXHXFXFXFXFXFXFXFXFXFXSXHXjXVXHXFX",
"sXHXSXFXFXHXtXSXFXSXHXjXjXHXHXCXY.HXFXAXsXHXLX9.aXCXkXdXzX+X .mXnXmXNXZXZXSXFXFXFXFXFXFXFXHXVXjXHXSXFXFXFXFXFXFXFXFXHXAXT.jXHXSXFXFXFXFXFXHXjXjXHXSXSXJXcXmXaXHXFXFXSXHXyXAXHXSXHXyXSXHXFXFXtXFXFXSXtXSXPXj.,XLXSXFXFXFXFXFXFXFXFXFXFXFXFXFXFXFXFXFXFXHXAXtXZXNXmXnXmX| i.lXjXrXtXtXtXtXrXaXOX/ ) ^ ..aXrXtXtXtXtXrXsXjXtXtX8X*.*.*.*.*._.*.*.*.*.`.pXrXjXyXyXHXSXFXFXFXFXFXFXFXFXFXFXFXHXAXyXHXFXFXFXFXFXFXFXFXFXFXFXSXPXz.L.PXSXFXFXFXFXFXFXFXFXFXFXFXHXyXSXFXFXFXFXFXFXFXFXFXFXFXSXLXtXr.E AXHXFXFXFXFXFXFXFXFXFXSXHXjXVXHXFX",
"sXHXSXFXFXHXtXSXFXSXHXjXjXHXHXCXY.HXFXAXsXHXLX9.aXCXkXdXzX+X .mXnXmXNXZXZXSXFXFXFXFXFXFXFXHXVXjXHXSXFXFXFXFXFXFXFXFXFXkXT.tXSXFXFXFXFXFXFXHXjXjXHXSXSXJXcXmXaXHXFXFXSXHXyXAXHXSXHXyXSXHXFXFXtXFXFXSXtXSXPXj.,XLXSXFXFXFXFXFXFXFXFXFXFXFXFXFXFXFXFXFXFXHXAXtXZXNXmXnXmX| i.lXjXrXtXtXtXtXrXaXOX/ ) ^ ..aXrXtXtXtXtXrXsXjXtXtXqX%.%.%.%.%.*.%.%.%.%.`.pXrXjXyXyXHXSXFXFXFXFXFXFXFXFXFXFXFXHXAXyXHXFXFXFXFXFXFXFXFXFXFXFXSXPXz.L.PXSXFXFXFXFXFXFXFXFXFXFXFXHXyXSXFXFXFXFXFXFXFXFXFXFXFXSXLXtXr.E AXHXFXFXFXFXFXFXFXFXFXSXHXjXVXHXFX",
"sXHXSXFXSXFXtXSXFXSXHXjXjXHXHXCXY.HXFXAXyXHXHX9.aXCXkXdXfX+X .mXhXmXNXNXZXSXFXSXSXFXFXFXSXHXjXjXHXSXFXFXFXFXFXSXFXSXpX>.= a pXAXFXSXFXFXSXHXjXjXHXSXSXJXcXmXaXHXSXFXSXHXyXAXHXSXHXtXSXFXSXFXtXSXFXSXtXSXPXj.,XLXSXFXFXFXFXFXFXFXFXFXFXFXFXFXFXFXFXFXSXFXAXrXZXNXmXhXmX| i.lXjXrXtXtXtXtXrXaXOX/ ) ^ ..aXrXtXtXtXtXrXsXjXtXtX8X*.*.*.*._._.*.*.*.*.`.pXrXjXyXyXHXSXFXFXFXFXFXFXFXFXFXFXFXHXAXyXHXFXFXFXFXFXFXFXFXFXFXFXSXPXz.L.PXSXFXFXFXFXFXFXFXFXFXFXFXHXyXSXFXFXFXFXFXFXFXFXFXFXFXSXLXtXr.E AXHXFXFXFXFXFXFXFXFXFXSXHXjXVXHXFX",
"jXLXHXHXHXHXyXHXHXHXLXjXCXHXHXAX2XLXHXAXsXHXIX9.sXGXkXdXzX+X .mXnXmXNXZXDXSXHXHXHXHXHXHXHXHXCXjXLXHXHXHXHXHXHXHXHXSX0.o # o 8.AXHXHXHXHXHXLXVXjXLXHXHXJXnXmXkXHXHXHXHXLXsXSXHXHXHXyXSXHXHXHXyXHXHXFXyXFXPXj.4XIXHXHXHXHXHXHXHXHXHXHXHXHXHXHXHXHXHXHXHXHXSXuXDXNXmXnXNX#.i.lXjXrXtXtXtXtXrXaXOX/ ) ^ ..aXrXtXtXtXtXrXsXjXtXtXqX%.B %.B %.*.B %.%.B `.pXrXjXyXyXHXSXFXFXFXFXFXFXFXFXFXFXFXHXAXyXHXSXFXFXFXFXFXFXFXFXFXFXSXPXz.L.IXSXFXFXFXFXFXFXFXFXFXFXSXHXtXSXFXFXFXFXFXFXFXFXFXFXFXSXHXtXr.E CXHXFXFXFXFXFXFXFXFXFXSXHXjXVXHXSX",
"U.6X6X6X6X6XU.6X6X6X6XU.T.6X6XT.B.6X6XT.U.6X6X2.U.Y.T.T.R.u. .J.J.J.I.I.I.6X6X6X6X6X6X6X6X6XT.U.6X6X6X6X6X6X6X6X6XT.< # g # : T.6X6X6X6X6X6XT.T.6X6X6XpX+XJ.U.6X6X6X6X6XU.T.6X6X6XU.T.6X6X6XU.6X6XY.U.Y.pX8.B.6X6X6X6X6X6X6X6X6X6X6X6X6X6X6X6X6X6X6X6X6XT.K.-XI.J.J.I. .p.lXjXrXtXtXtXtXrXaXOX/ ) ^ ..aXrXtXtXtXtXrXsXjXtXtXeX@X@X@X@X@X@X@X@X@X@X7XtXtXjXyXsXLXHXHXHXHXHXHXHXHXHXHXHXHXHXSXsXHXHXHXHXHXHXHXHXHXHXHXHXFXPXz.P.PXHXHXHXHXHXHXHXHXHXHXHXHXHXyXFXHXHXHXHXHXHXHXHXHXHXHXHXLXyXr.E SXHXHXHXHXHXHXHXHXHXHXHXLXjXCXHXHX",
"5XjXjXjXjXjX4XjXjXjXjXrXtXjXjXaXF.jXjXsX5XjXCX3.4XaXpX5XfXx. .wXwXwXuXuXyXjXjXjXjXjXjXjXjXjXtX5XjXjXjXjXjXjXjXjXjXjXw.o + o f jXjXjXjXjXjXjXtXtXjXjXjXkX#XwX5XjXjXjXjXjX5XsXjXjXjX4XjXjXjXjX4XjXjXjX4XjXSXs.P.AXjXjXjXjXjXjXjXjXjXjXjXjXjXjXjXjXjXjXjXjXyX3XyXuXwXwXwX| i.lXjXrXtXtXtXtXrXaXOX/ ) ^ ..aXrXtXtXtXtXrXsXjXyXrXtXqX8X8X8XeXeX8X8X8X8XrXtXtXjXyXyXCXjXjXjXjXjXjXjXjXjXjXjXjXVXjXrXVXjXjXjXjXjXjXjXjXjXjXjXjXFXj.z.FXjXjXjXjXjXjXjXjXjXjXjXjXVX5XjXjXjXjXjXjXjXjXjXjXjXjXjXAX4X5.E sXjXjXjXjXjXjXjXjXjXjXjXCXtXsXVXjX",
"rXjXjXjXjXjX5XjXjXjXjXtXyXjXjXaXF.VXjXsXrXjXCX3.4XaXpX5XfXx. .wXwXwXuXuXyXjXjXjXjXjXjXjXjXjXyXtXjXjXjXjXjXjXjXjXjXZXk 4 ; 4 k VXjXjXjXjXjXjXtXtXjXjXjXkX#XwXtXjXjXjXjXjX5XsXjXjXjX5XjXjXjXjX5XjXjXjX5XjXSXs.P.AXjXjXjXjXjXjXjXjXjXjXjXjXjXjXjXjXjXjXjXjXyX4XuXuXwXwXwX| i.lXjXrXtXtXtXtXrXaXOX/ ) ^ ..aXrXtXtXtXtXrXsXjXyXrXrXqXqXqXqXqXeXqXqXqXqXeXtXtXjXyXyXjXjXjXjXjXjXjXjXjXjXjXjXjXjXsX5XjXjXjXjXjXjXjXjXjXjXjXjXsXAXj.z.AXjXjXjXjXjXjXjXjXjXjXjXjXjX5XjXjXjXjXjXjXjXjXjXjXjXjXjXVX3X5.E sXjXjXjXjXjXjXjXjXjXjXjXjXrXtXjXjX",
"jXLXHXHXHXHXyXHXHXHXLXjXCXLXHXAX2XLXHXAXjXHXIX9.sXGXlXdXzX+X .mXnXmXNXZXDXFXHXHXHXHXHXHXHXLXCXjXLXHXHXHXHXHXHXHXHXGXu h E.h u GXLXHXHXHXHXLXVXjXLXHXHXJXnXmXkXHXHXHXHXLXsXSXHXHXHXyXFXHXHXHXyXHXHXHXyXHXPXj.4XPXHXHXHXHXHXHXHXHXHXHXHXHXHXHXHXHXHXHXHXHXSXtXDXNXmXnXNX#.i.lXjXrXtXtXtXtXrXaXOX/ ) ^ ..aXrXtXtXtXtXrXsXjXyXrXrX8X7X7X7X8XqX7X7X7X7XeXtXtXjXyXsXLXHXHXHXHXHXHXHXHXHXHXHXHXHXSXsXLXHXHXHXHXHXHXHXHXHXHXHXHXPXz.P.PXHXHXHXHXHXHXHXHXHXHXHXHXHXyXHXHXHXHXHXHXHXHXHXHXHXHXHXIXgXr.E SXHXHXHXHXHXHXHXHXHXHXHXLXjXAXLXHX",
"sXHXSXSXSXFXtXSXFXSXHXjXjXHXHXCXY.HXFXAXyXFXLX9.aXCXkXdXfX+X .mXhXmXNXNXZXSXFXSXSXSXSXSXSXHXVXjXHXSXSXSXSXSXSXSXLXR.5 k n.j 5 R.LXSXSXSXSXHXjXjXHXSXSXJXcXmXaXFXSXSXSXHXyXAXHXSXHXyXSXFXSXFXtXSXFXSXtXSXPXj.,XLXSXSXSXSXSXSXSXSXSXSXSXSXSXSXSXSXSXSXSXFXAXrXZXNXmXhXmX| i.lXjXrXtXtXtXtXrXaXOX/ ) ^ ..aXrXtXtXtXtXrXsXjXyXrXrXqXqXqXqXqXeXqXqXqXqXeXtXtXjXyXyXHXSXSXSXSXSXSXSXSXSXSXSXSXFXAXyXHXSXSXSXSXSXSXSXSXSXSXSXSXPXz.L.IXSXSXSXSXSXSXSXSXSXSXSXSXHXtXSXFXSXSXSXSXSXSXSXSXSXSXSXHXtXr.E CXHXSXSXSXSXSXSXSXSXSXSXHXjXVXHXSX",
"sXHXSXFXFXHXtXSXFXSXHXjXjXHXHXCXY.HXFXAXsXHXLX9.aXCXkXdXzX+X .mXnXmXNXZXZXSXFXFXFXFXFXFXFXHXVXjXHXSXFXFXFXFXFXFXLXh u m.j m.6 k LXFXFXFXFXHXjXjXHXSXSXJXcXmXaXHXFXFXSXHXyXAXHXSXHXyXSXHXFXFXtXFXFXSXtXSXPXj.,XLXSXFXFXFXFXFXFXFXFXFXFXFXFXFXFXFXFXFXFXHXAXtXZXNXmXnXmX| i.lXjXrXtXtXtXtXrXaXOX/ ) ^ ..aXrXtXtXtXtXrXsXjXyXrXrX8X7X7X7X8XqX7X7X7X7XeXtXtXjXyXyXHXSXFXFXFXFXFXFXFXFXFXFXFXHXAXyXHXFXFXFXFXFXFXFXFXFXFXFXSXPXz.L.PXSXFXFXFXFXFXFXFXFXFXFXFXHXyXSXFXFXFXFXFXFXFXFXFXFXFXSXLXtXr.E AXHXFXFXFXFXFXFXFXFXFXSXHXjXVXHXFX",
"sXHXSXFXFXHXtXSXFXSXHXjXjXHXHXCXY.HXFXAXsXHXLX9.aXCXkXdXzX+X .mXnXmXNXZXZXSXFXFXFXFXFXFXFXHXVXjXHXSXFXFXFXFXFXLXfX5 k T.j m.h 6 CXHXFXFXFXHXjXjXHXSXSXJXcXmXaXHXFXFXSXHXyXAXHXSXHXyXSXHXFXFXtXFXFXSXtXSXPXj.,XLXSXFXFXFXFXFXFXFXFXFXFXFXFXFXFXFXFXFXFXHXAXtXZXNXmXnXmX| i.lXjXrXtXtXtXtXrXaXOX/ ) ^ ..aXrXtXtXtXtXrXsXjXyXrXrXqXqXqXqXqXeXqXqXqXqXeXtXtXjXyXyXHXSXFXFXFXFXFXFXFXFXFXFXFXHXAXyXHXFXFXFXFXFXFXFXFXFXFXFXSXPXz.L.PXSXFXFXFXFXFXFXFXFXFXFXFXHXyXSXFXFXFXFXFXFXFXFXFXFXFXSXLXtXr.E AXHXFXFXFXFXFXFXFXFXFXSXHXjXVXHXFX",
"sXHXSXFXFXHXtXSXFXSXHXjXjXHXHXCXY.HXFXAXsXHXLX9.aXCXkXdXzX+X .mXnXmXNXZXZXSXFXFXFXFXFXFXFXHXVXjXHXSXFXFXFXFXSXLXk 5 T.T.j m.m.5 R.LXSXFXFXHXjXjXHXSXSXJXcXmXaXHXFXFXSXHXyXAXHXSXHXyXSXHXFXFXtXFXFXSXtXSXPXj.,XLXSXFXFXFXFXFXFXFXFXFXFXFXFXFXFXFXFXFXFXHXAXtXZXNXmXnXmX| i.lXjXrXtXtXtXtXrXaXOX/ ) ^ ..aXrXtXtXtXtXrXsXjXyXrXrX8X7X7X7X8XqX7X7X7X7XeXtXtXjXyXyXHXSXFXFXFXFXFXFXFXFXFXFXFXHXAXyXHXFXFXFXFXFXFXFXFXFXFXFXSXPXz.L.PXSXFXFXFXFXFXFXFXFXFXFXFXHXyXSXFXFXFXFXFXFXFXFXFXFXFXSXLXtXr.E AXHXFXFXFXFXFXFXFXFXFXSXHXjXVXHXFX",
"sXHXSXFXFXHXtXSXFXSXHXjXjXHXHXCXY.HXFXAXsXHXLX9.aXCXkXdXzX+X .mXnXmXNXZXZXSXFXFXFXFXFXFXFXHXVXjXHXSXFXFXFXSXLXpX7 h jXm.m.m.m.u h HXFXFXFXHXjXjXHXSXSXJXcXmXaXHXFXFXSXHXyXAXHXSXHXyXSXHXFXFXtXFXFXSXtXSXPXj.,XLXSXFXFXFXFXFXFXFXFXFXFXFXFXFXFXFXFXFXFXHXAXtXZXNXmXnXmX| i.lXjXrXtXtXtXtXrXaXOX/ ) ^ ..aXrXtXtXtXtXrXsXjXyXrXrXqXqXqXqXqXeXqXqXqXqXeXtXtXjXyXyXHXSXFXFXFXFXFXFXFXFXFXFXFXHXAXyXHXFXFXFXFXFXFXFXFXFXFXFXSXPXz.L.PXSXFXFXFXFXFXFXFXFXFXFXFXHXyXSXFXFXFXFXFXFXFXFXFXFXFXSXLXtXr.E AXHXFXFXFXFXFXFXFXFXFXSXHXjXVXHXFX",
"sXHXSXFXFXHXtXSXFXSXHXjXjXHXHXCXY.HXFXAXsXHXLX9.aXCXkXdXzX+X .mXnXmXNXZXZXSXFXFXFXFXFXFXFXHXVXjXHXSXFXFXSXHXSXh 5 E.kXm.m.m.G.m.5 R.LXSXFXHXjXjXHXSXSXJXcXmXaXHXFXFXSXHXyXAXHXSXHXyXSXHXFXFXtXFXFXSXtXSXPXj.,XLXSXFXFXFXFXFXFXFXFXFXFXFXFXFXFXFXFXFXFXHXAXtXZXNXmXnXmX| i.lXjXrXtXtXtXtXrXaXOX/ ) ^ ..aXrXtXtXtXtXrXsXjXyXrXrX8X7X8X7X8XqX7X8X7X7XeXtXtXjXyXyXHXFXFXFXFXFXFXFXFXSXHXHXHXHXAXyXHXFXFXFXFXFXFXFXFXFXFXFXFXPXz.L.PXSXFXFXFXFXFXFXFXHXFXSXHXHXyXSXFXFXFXFXFXFXFXFXHXHXSXSXLXtXr.E AXHXFXFXFXFXFXFXSXFXFXHXHXjXVXHXFX",
"sXHXSXFXFXHXtXSXFXSXHXjXjXHXHXCXY.HXFXAXsXHXLX9.aXCXkXdXzX+X .mXnXmXNXZXZXSXFXFXFXFXFXFXFXHXVXjXHXSXFXSXLXSXk 5 g 6Xm.m.E.m.m.Y.u h HXFXSXHXjXjXHXSXSXJXcXmXaXHXFXFXSXHXyXAXHXSXHXyXSXHXFXFXtXFXFXSXtXSXPXj.,XLXSXFXFXFXFXFXFXFXFXFXFXFXFXFXFXFXFXFXFXHXAXtXZXNXmXnXmX| i.lXjXrXtXtXtXtXrXaXOX/ ) ^ ..aXrXtXtXtXtXrXsXjXyXrXrXqX8XqX8XqXeX8XqXqX8XeXtXtXjXyXsXHXSXHXHXFXFXFXFXSXHXCXAXSXSXSXyXHXFXFXFXFXFXFXFXSXHXHXHXjXPXz.L.PXSXFXFXFXFXFXFXSXjXFXHXjXSXyXSXFXFXFXFXFXFXFXHXSXCXHXHXLXtXr.E AXHXFXFXFXFXFXFXHXFXSXVXLXjXVXHXFX",
"sXHXSXFXFXHXtXSXFXSXHXjXjXHXHXCXY.HXFXAXsXHXLX9.aXCXkXdXzX+X .mXnXmXNXZXZXSXFXFXFXFXFXFXFXHXjXsXHXSXLXLXpXh 5 g m.R.m.m.U.G.E.Y.k 5 H.IXSXHXjXjXHXSXSXJXcXmXaXHXFXFXSXHXyXAXHXSXHXyXSXHXFXFXtXFXFXSXtXSXPXj.,XLXSXFXFXFXFXFXFXFXFXFXFXFXFXFXFXFXFXFXFXHXAXtXZXNXmXnXmX| i.lXjXrXtXtXtXtXrXaXOX/ ) ^ ..aXrXtXtXtXtXrXsXjXyXrXrX8X8X8X7XqXqX7X8X8X8XeXtXtXjXyXjXjXjXAXSXHXFXFXSXHXrX0.5X8.0.AXyXHXFXFXFXFXFXFXSXHXVX>.K.>.P.K.L.PXSXFXFXFXFXSXHXjXq.j.L.q.CXyXSXFXFXFXFXFXFXSXHXI.>.5X3X>.jX5.E AXHXFXFXFXFXSXLX0.j.rX>.I.VXjXHXFX",
"sXHXSXFXFXHXtXSXFXSXHXjXjXHXHXCXY.HXFXAXsXFXLX9.aXCXkXdXzX+X .mXnXmXNXZXZXSXFXFXFXFXSXSXFXHXAXZXIXHXpXk 6 6 y w.G.T.m.T.U.Y.Y.G.G.h 5 R.LXFXjXjXHXFXSXJXcXmXaXHXFXFXSXHXyXAXHXSXHXyXSXHXFXFXtXFXFXSXtXSXPXj.,XLXSXFXFXFXFXFXFXFXFXFXFXFXFXFXFXFXFXFXFXHXAXtXZXNXmXnXmX| i.lXjXrXtXtXtXtXrXaXOX/ ) ^ ..aXrXtXtXtXtXrXsXjXyXrXrXqX8X8X8XqXeX8X8X8X8XeXtXtXjXyXjX4X2.>.8.FXFXFXFXPXq.0.D.K.j.-XjXHXFXFXFXFXFXSXHXPXK.>.K.a K.K.L.PXSXFXFXFXFXFXIXLXj.8.>.j.SXyXSXFXFXFXFXFXFXHXLXIXP.j.j.0.gX5.E AXHXFXFXFXSXLXPXD.q.PX,Xq.AXjXHXFX",
"sXHXSXFXFXHXtXSXFXSXHXjXjXHXHXCXY.LXFXAXjXLXLX9.aXCXkXdXzX+X .mXhXmXNXZXZXAXFXFXHXLXLXLXHXGXpXH.k h 6 6 h g m.m.m.G.E.6XE.6XpXm.m.T.h 6 E.pXpXVXHXSXSXJXcXmXaXHXFXFXSXHXyXAXHXSXHXyXSXHXFXFXtXFXFXSXtXSXPXj.,XLXSXFXFXFXFXFXFXFXFXFXFXFXFXFXFXFXFXFXFXHXAXtXZXNXmXnXmX| i.lXjXrXtXtXtXtXrXaXOX/ ) ^ ..aXrXtXtXtXtXrXsXjXyXrXrX8X8X8X8XqXeX8X8X8X8XeXtXtXjXtXjX,Xp -X0.jXHXHXjXD.>.K.0 -Xj.I.jXHXFXFXFXFXSXHX4Xj.a p 0.8.j.K.L.PXSXFXFXFXFXHXD.tXVXs >.j.j.CXAXFXFXFXFXSXHXjXz.jXj.D.p a 5Xr.E AXHXFXFXSXHX-X-XtXj.LX0.VXjXVXHXFX",
"yXHXSXSXSXSXtXSXSXSXHXjXjXHXFXzXR.FXLXkXY.fXHXs.VXGXkXaXfX+X .hXhXmXNXZXUXLXLXSXpXR.H.H.k u 6 6 6 h k g g T.R.m.m.m.Y.jXU.gXkXG.m.T.T.u 5 g E.jXLXIXLXUX%XnXaXHXSXSXSXHXtXCXFXSXFXtXAXFXSXFXtXSXFXSXtXSXPXj.,XLXSXFXFXFXFXFXFXFXFXFXFXFXFXFXFXFXFXFXSXFXAXrXZXNXmXhXmX| i.lXjXrXtXtXtXtXrXaXOX/ ) ^ ..aXrXtXtXtXtXrXsXjXyXrXrXqX8X8X8XqXeX8X8X8X8XeXtXtXjXyXjX3Xs 3Xq.jXHXFXAXsXK.8.j.8.8.jXyXHXSXSXSXSXSXHXjXtXsX8.0.0.j.z.L.IXSXSXSXSXSXSXsX-Xq.0.j.2.-XjXAXFXSXSXSXSXFXVXjX2.a 3X3X8.tXr.E CXHXSXSXSXHXsXjX4XD.j.i 4XjXjXHXSX",
"kXJXKXKXKXKXxXKXKXKXJXkXlXGX2Xq 0 2XR.h 7 6 u h R.kXCXCXGX+X .BXnXmXmXtXR.H.k h 6 7 5 5 6 6 6 4 g g g e j b.e e e e j b.j b.H.b.b.b.m.m.6 5 y g k E.J.a.m } #XUXLXIXIXIXZXHXIXLXIXVXLXLXLXLXgXLXLXLXyXLXIXj.eXIXHXLXLXLXLXLXHXHXHXHXHXHXHXHXHXHXHXHXHXLXSXuXDXNXNXnXNX#.i.lXjXrXtXtXtXtXrXaXOX/ ) ^ ..aXrXtXtXtXtXrXsXjXyXrXrX8X8X8X8XqXeX8X8X8X8XeXtXtXjXyXsXLXSXHXFXHXHXHXLXIXLXsXLXCXAXHXjXLXHXHXHXHXHXHXLXIXIXLXLXtXPXK.:XPXHXHXHXHXHXHXIXHXtXHXHXjXIXsXHXLXHXHXHXHXHXLXIXCXyXAXIXIXgXr.E FXHXHXHXHXHXLXIXHXHXAXsXCXVXAXLXHX",
"@XvXvXvXvXvX@XvXvXvXMX9XvXaX- . 4 = 6 6 k k h 6 7 u h k H.8.[ b.j h h 6 6 6 6 4 4 y y g g g g f j m.R.R.R.H.b.H.k k H.H.j b.H.j e e e e e 6 7 6 6 9 ; & l & 2 f k k m.m.m.m.E.m.E.m.T.T.T.R.U.R.R.pXT.pXxX0.B.xXpXaXaXaXaXaXkXkXkXkXkXkXkXkXkXkXkXkXkXkXxX3XgXtXeXiXeX| i.lXjXrXtXtXtXtXrXaXOX/ ) ^ ..aXrXtXtXtXtXrXsXjXyXrXrX8X8X8X8XqXeX8X8X8X8XeXtXtXjXyXtXjXsXsXjXsXsXsXyXyXyXjXyXjXjXtX,XjXyXsXsXsXsXsXyXyXyXsXsXjXAXh.j.VXyXsXsXsXsXsXyXjXjXsXsXjXsX-XyXsXsXsXsXsXsXyXyXjXjXjXyXjX-X<.E tXjXsXsXsXsXyXyXsXsXjXjXjX3X5XjXyX",
"S A S S S S S S S S A S S H . e e . m H %.@.{ { n g w 6 6 9 [ 4 9 9 q 1 o.{ { { { { { {  .} =.=.@.@.=.=.=.} } } } X...a.} e.e.;.f f f f f f w 6 6 e 2 z O.V $ < 9 # # # # 9 9 9 9 9 9 9 9 9 9 9 9 9 9 9 9 9 9 9 9 9 9 9 9 9 9 9 9 9 9 9 9 9 9 9 9 9 9 9 9 9 9 9 9 i i [ i.GXgXrXtXtXtXtXrXaXOX/ ) ^ ..aXrXtXtXtXtXrXsXjXyXrXrXqX8X8X8XqXeX8X8X8X8XeXtXtXjXjX-X@ + + + + + + + + + + + + + + + + + + + + + + + + + + + + @ + + @ + + + + + + + + + + + + + + + + + + + + + + + + + + + @ + @ Y @ + + + + + + + + + + + + + + + + ",
").9X X X X X). X X X`.(.).).- . 9 @ W.&.G D A A Z &.).<X2Xx.) @X@X@X@X@X7X9X9X9Xf.}.9X}.}.k.x./.k.x.x.x.u.e.!.!.a.!.!.=.@.@.=.@.{ @.} } e.e.x.l.m.e 9 & l & { $X/.9X9X9X/.9X9X/././.9X9X9X9X/.9X9X9X/.9XvXe./.9X9X9X9X9X9X9X9X9X9X9X9X9X9X9X9X9X9X9X9X9X7X/.@X@X).).@X .i.lXjXrXtXtXtXtXrXaXOX/ ) ^ ..aXrXtXtXtXtXrXsXjXyXrXrX8X8X8X8XqXeX8X8X8X8XeXtXtXjXyXyXAXVXCXCXCXCXCXCXCXCXCXCXCXCXjX5XAXCXCXCXCXCXCXCXCXCXCXCXjXHXj.D.HXVXCXCXCXCXCXCXCXCXCXCXCXAX5XVXCXCXCXCXCXCXCXCXCXCXCXVXSX4X5.E jXAXCXCXCXCXCXCXCXCXCXVXAXtXsXAXCX",
"pXzXzXzXzXzXpXzXzXzXzXfXfXzXR.q 4 h GXAXyXDXvXW.&.G F C Q.a. .qX7X7X8X0XuXF.0XaXn.F.jX2XG.F.F.0XG.G.G.G.F.G.2XfXF.dXdXaXD.<XyX{.d.).!.e.@.=.@.@._.).q.q @ 1 !.vX/.9X9X9X/.}.9X}./.^.9X9X9X9X}.9X9X9X}.9XvXt./.vX9X9X9X9X9X9X9X9X9X9X9X9X9X9X9X9X9X9X9X9X9X/.7X@X@X@X@X .i.lXjXrXtXtXtXtXrXaXOX/ ) ^ ..aXrXtXtXtXtXrXsXjXyXrXrXqX8X8X8XqXeX8X8X8X8XeXtXtXjXyXsXLXHXHXHXHXHXHXHXHXHXHXHXHXHXSXsXHXHXHXHXHXHXHXHXHXHXHXHXFXPXz.P.PXHXHXHXHXHXHXHXHXHXHXHXHXHXsXFXHXHXHXHXHXHXHXHXHXHXHXHXLXyXr.E SXHXHXHXHXHXHXHXHXHXHXHXLXjXCXHXHX",
"2XdXdXdXdXdX2XdXdXdXdX2XpXdXdXH.7 R.LXCXsXHXPX0.kXCX).'.G H ` !.x.qXeXqXqXN.F.0Xv.F.yX2XG.G.G.1XG.G.G.N.1XF.<X0X1X0XyX0XD.{.0X2Xv.F.2XG.N.V.d.e.!.=.*.=.<.w 6 j t./.vX9X/./.}.}././.:X9X9X9X^.9X9X9X^.9XvXu./.vX9X9X9X9X9X9X9X9X9X9X9X9X9X9X9X9X9X9X9X9X9X/.7X@X@X@X@X .i.lXjXrXtXtXtXtXrXaXOX/ ) ^ ..aXrXtXtXtXtXrXsXjXyXrXrX8X8X8X7XqXqX7X8X8X8XeXtXtXjXyXyXHXSXFXFXFXFXFXFXFXFXFXFXSXFXAXyXHXSXFXFXFXFXFXFXFXFXFXFXSXPXz.L.IXSXFXFXFXFXFXFXFXFXFXFXSXHXtXSXFXFXFXFXFXFXFXFXFXFXFXSXHXtXr.E CXHXSXFXFXFXFXFXFXFXFXSXHXjXVXHXSX",
"2XlXdXdXdXdX2XdXdXdXlXpXpXdXCXh h HXHXAXsXFXLX9.2XGXzXzX0X!.~ B F @.).8XtXn.F.aXv.G.1X>XG.G.G.<XG.{.F.N.0X2X{.{.0X0XyX0XD.{.<X2XZ.{.0XZ.N.V.N.v.2X0X@X!.@.=.L 6 6 b.9XvX/./.}.}.x././.9X9X9X/.9X9X9X/.9XvXu./.vX9X9X9X9X9X9X9X9X9X9X9X9X9X9X9X9X9X9X9X9X9X/.@X@X@X@X@X .i.lXjXrXtXtXtXtXrXaXOX/ ) ^ ..aXrXtXtXtXtXrXsXjXyXrXrXqX8XqX8XqXeX8XqXqX8XeXtXtXjXyXyXHXSXFXFXFXFXFXFXFXFXFXFXFXHXAXyXHXFXFXFXFXFXFXFXFXFXFXFXSXPXz.L.PXSXFXFXFXFXFXFXFXFXFXFXFXHXyXSXFXFXFXFXFXFXFXFXFXFXFXSXLXtXr.E AXHXFXFXFXFXFXFXFXFXFXSXHXjXVXHXFX",
"2XlXdXdXdXdX2XdXdXdXlXpXpXGXR.5 H.IXFXAXsXHXLX3.m.kXkXaXzX+X_ x.@.F B F &.e.k.<Xv.n.H.Y.m.m.G.2XG.rXF.m.2XdXF.{.0XaXdX2XB.{.{.pXn.{.<XZ.y.6.b.v.n.G.dXfX6.t.@.@.w 6 6 n.k./.}.I y.:X^.}.qXuX:XqX;X8X:XqXyXs.^.uXqXqXqXqXqXqXqXqXqXqXqXqXqXqXqXqXqXqXqXuX8X+X7X@X@X@X@X .i.lXjXrXtXtXtXtXrXaXOX/ ) ^ ..aXrXtXtXtXtXrXsXjXyXrXrX8X7X8X7X8XqX7X8X7X7XeXtXtXjXyXyXHXSXFXFXFXFXFXFXFXFXFXFXFXHXAXyXHXFXFXFXFXFXFXFXFXFXFXFXSXPXz.L.PXSXFXFXFXFXFXFXFXFXFXFXFXHXyXSXFXFXFXFXFXFXFXFXFXFXFXSXLXtXr.E AXHXFXFXFXFXFXFXFXFXFXSXHXjXVXHXFX",
"2XlXdXdXdXdX2XdXdXdXlXpXpXGXk 6 Y.LXFXAXsXHXLX3.m.dXkXdXfXz.[ N.w.A.`.'.%.S A F G C @.'.W.e.W.Q.e.Q.Q.y.Q.(.Q.Q.).).).).y.Q.Q.).w y.Q.Q.C C P y.y.y.).).e.y.y.Q.m m w w K Q.Q.C W.Q.Q.Q.(.(.Q.(.(.(.Q.(.).e.Q.(.(.(.(.(.(.(.(.(.(.(.(.(.(.(.(.(.(.(.(.(.(.!.(.!.!.!.!.) i.lXjXrXtXtXtXtXrXaXOX/ ) ^ ..aXrXtXtXtXtXrXsXjXyXrXrXqXqXqXqXqXeXqXqXqXqXeXtXtXjXyXyXHXSXFXFXFXFXFXFXFXFXFXFXFXHXAXyXHXFXFXFXFXFXFXFXFXFXFXFXSXPXz.L.PXSXFXFXFXFXFXFXFXFXFXFXFXHXyXSXFXFXFXFXFXFXFXFXFXFXFXSXLXtXr.E AXHXFXFXFXFXFXFXFXFXFXSXHXjXVXHXFX",
"2XlXdXdXdXdX2XdXdXdXlX2XaXfX6 k 2XHXFXAXsXFXLX2.m.dXCXdXzXs.[ h.q.D.T.xXaXf.Q._.Z G G Z D D D D S A A S A A A A A A A A S S A A S A A A D S S A A S A A S S A A D S S S A A S S S A A A A A A A A A A A A S A A A A A A A A A A A A A A A A A A A A A A A A A A B B A V ..lXgXrXtXtXtXtXrXaXOX/ ) ^ ..aXrXtXtXtXtXrXsXjXyXrXrX8X7X7X7X8XqX7X7X7X7XeXtXtXjXyXyXHXSXFXFXFXFXFXFXFXFXFXFXFXHXAXyXHXFXFXFXFXFXFXFXFXFXFXFXSXPXz.L.PXSXFXFXFXFXFXFXFXFXFXFXFXHXyXSXFXFXFXFXFXFXFXFXFXFXFXSXLXtXr.E AXHXFXFXFXFXFXFXFXFXFXSXHXjXVXHXFX",
"2XlXdXdXzXdX2XdXdXdXlX2XdXH.6 fX2XHXFXAXyXpXGX2.e.aXfXpXfXs._ x.@.j.N.U.U.G.H.R.G N.H.G.S.;XV.N.}.)./.k.)./.).).).9X`.@Xt.y.).).Z (./.(.D S W.k.x.y.y.k.e.e.y.y.F W.9X(.@.e.w e C *.).(.`.`.).(.P `.`.&X&Xa.(.&X&X&X&X&X&X&X&X&X&X&X&X&X&X&X&X&X&X&X&X&X&X`.$X$X$X`.$X$.i.lXjXrXtXtXtXtXrXaXOX/ ) ^ ..aXrXtXtXtXtXrXsXjXyXrXrXqXqXqXqXqXeXqXqXqXqXeXtXtXjXyXyXHXSXFXFXFXFXFXFXFXFXFXFXFXHXAXyXHXFXFXFXFXFXFXFXFXFXFXFXSXPXz.L.PXSXFXFXFXFXFXFXFXFXFXFXFXHXyXSXFXFXFXFXFXFXFXFXFXFXFXSXLXtXr.E AXHXFXFXFXFXFXFXFXFXFXSXHXjXVXHXFX",
"2XdXdXsX'.0X2XdXdXdXlXpXpXu h DXY.HXFXAXtXH.fXf H 1XH.m.2Xx.[ e.Z h.h.B.G.D.F.G.Z x.G.H.F.sX5XR.2X<XY.G.>X2X}.'.1XaXtXpXe.W.R.;XZ }./.&.S S W.k.S.m.m.N.@.Z y.N.A e.R.'.C W.} 6 7 j :X@XqX:XL.$X&.qXiXNXUXu.iXNXNXNXNXNXNXNXNXNXNXNXNXNXNXNXNXNXNXNXNXDXNXwXmXnXnX%XnX| i.lXjXrXtXtXtXtXrXaXOX/ ) ^ ..aXrXtXtXtXtXrXsXjXyXrXrX8X7X7X7X8XqX7X7X7X7XeXtXtXjXyXyXHXSXFXFXFXFXFXFXFXFXFXFXFXHXAXyXHXFXFXFXFXFXFXFXFXFXFXFXSXPXz.L.PXSXFXFXFXFXFXFXFXFXFXFXFXHXyXSXFXFXFXFXFXFXFXFXFXFXFXSXLXtXr.E AXHXFXFXFXFXFXFXFXFXFXSXHXjXVXHXFX",
"2XdXzX|.F ).pXdXdXdXdXaXH.7 C vXR.HXFXAXtXe G.P F V.m.m.R.s.b m H h.w.N.G.P.Y.G.D ).G.G.}.N.G.pX(.).n.v.;X2X).D }.1X1Xv.P D e.k.D &.D S H C &.G ).<XB.@.D S K t.S e.Y.&.C @.G Z L 5 h l.7X/.z.(.%.@X+X7XMXe.+XvXMXMXMXMXMXMXMXMXMXMXMXMXMXMXMXMXMXMXMXMXmX#XnXcX%X%XcX#.i.lXjXrXtXtXtXtXrXaXOX/ ) ^ ..aXrXtXtXtXtXrXsXjXyXrXrXqXqXqXqXqXeXqXqXqXqXeXtXtXjXyXyXHXSXFXFXFXFXFXFXFXFXFXFXFXHXAXyXHXFXFXFXFXFXFXFXFXFXFXFXSXPXz.L.PXSXFXFXFXFXFXFXFXFXFXFXFXHXyXSXFXFXFXFXFXFXFXFXFXFXFXSXLXtXr.E AXHXFXFXFXFXFXFXFXFXFXSXHXjXVXHXSX",
"pXzXzX).H W.pXdXdXdXdXaXh 6 D vXR.HXFXAXuXG y.&.A k.H.n.R.e.~ S H f.n.N.P.v.N.B.D (.G.y.&.W.e.xX&.'.@.e.2X{.W.A /.<X2XW.F D F y.D A D S C K &.G ).&.x.G S S P e.A W.F.&.Z @.C G &.m 6 7 n.@Xz.!.%./.^.@X8Xe.@XwXwXmXMXMXMXMXMXMXMXMXMXMXMXMXMXMXMXMXMXMXmXwXnXcX%X%XcX#.i.lXjXrXtXtXtXtXrXaXOX/ ) ^ ..aXrXtXtXtXtXrXsXjXyXrXrX8X7X7X7X8XqX7X7X7X7XeXtXtXjXyXyXHXSXFXFXFXFXFXFXFXFXFXFXFXHXAXyXHXFXFXFXFXFXFXFXFXFXFXFXSXPXz.L.PXSXFXFXFXFXFXFXFXFXFXFXFXHXyXSXFXFXFXFXFXFXFXFXFXFXFXSXLXtXr.E AXHXFXFXFXFXFXFXFXFXFXSXHXjXVXHXHX",
"Q.).zX(.C @.R.dXdXdXCXR.5 K S 9X2XHXFXAXeXZ e.G A W.W.v.H.} ~ F H d.x.N.D.C W.=XA _.R.y.Z &.@.Y.&.A S &.).Q.A A ).G.Q.&.S D F P Z S S H K (.G D (.Z W.G S S D @.Z @.m.@.Z G F &.Q.G Z q 5 j z._.D @X^.+X7Xe.@X8X7XwXvXMXMXMXMXMXMXMXMXMXMXMXMXMXMXMXMXMXmXwXnXcX%X%XcX#.i.lXjXrXtXtXtXtXrXaXOX/ ) ^ ..aXrXtXtXtXtXrXsXjXyXrXrXqXqXqXqXeXeXqXqXqXqXeXtXtXjXyXyXHXSXFXFXFXFXFXFXFXFXFXFXFXHXAXyXHXFXFXFXFXFXFXFXFXFXFXFXSXPXz.L.PXSXFXFXFXFXFXFXFXFXFXFXFXHXyXSXFXFXFXFXFXFXFXFXFXFXFXSXLXtXr.E AXHXFXFXFXFXFXFXFXFXFXSXHXjXVXHXFX",
"@.&.JX(.W.C /.dXdXdXCXk u '.A 9XR.LXFXAXeXD W.Z G F Z W.v.} / %.F @.Z h.D.D &.;XA '.G.e.D Z '.S.&.A D A &.W.Z G _.K F S D D D C F H P w b.(.D S P Z W.Z S D Z C W.G e.Z S Z F &.(.Z Z S L 5 u W.S d.k./.7Xe.@X@X7X8X^.uXMXMXMXMXMXMXMXMXMXMXMXMXMXMXMXMXmXwXnXcX%X%XcX#.i.lXjXrXtXtXtXtXrXaXOX/ ) ^ ..aXrXtXtXtXtXrXsXjXyXrXrX8X7X7X7X8XqX7X7X7X7XeXtXtXjXyXyXHXSXFXFXFXFXFXFXFXFXFXFXFXHXAXyXHXFXFXFXFXFXFXFXFXFXFXFXSXPXz.L.PXSXFXFXFXFXFXFXFXFXFXFXFXHXyXSXFXFXFXFXFXFXFXFXFXFXFXSXLXtXr.E AXHXFXFXFXFXFXFXFXFXFXSXHXjXCXHX3X",
"W.C G.G W.W.H (.zXlXfX6 k _.F _.y.G.SXpX1XD Z D @.G Z F y.} ) %.B F Z x./.D &.!.A &.@.W.S S C N.G S D D D Z !.'.A D D D S D W.D A W.H.G.1X).A D S S G D D S S A Q.G A D S C F &.Q.A C C S L 7 6 m H x.@Xk.w `.&./.:X/.8XMXMXMXMXMXMXMXMXMXMXMXMXMXMXMXMXmXwXnXcX%X%XcX| i.lXjXrXtXtXtXtXrXaXOX/ ) ^ ..aXrXtXtXtXtXrXsXjXyXrXrXqXqXqXqXeXeXqXqXqXqXeXtXtXjXyXyXHXSXSXSXSXSXSXSXSXSXSXSXSXFXAXyXHXSXSXSXSXSXSXSXSXSXSXSXSXPXz.L.IXSXSXSXSXSXSXSXSXSXSXSXSXHXtXSXFXSXSXSXSXSXSXSXSXSXSXSXHXtXr.E CXHXSXSXSXSXSXSXSXSXSXSXHXjXVX4X4X",
"C H P G Q.C F '.zXvXb.6 zX'.G G A &.dXR.;XD F F '.W.G F Q.} ) %.F F F G &.Z &.&.A S D @.D S m b.G C F D P F (.(.A C '.S D S (.%.A '.1X;X>X/.S S S F H e.&.S Z C n.@.S D A '.G &./.A @.C S H w 6 7 L !.:XQ.m `.%.^.:X^.8XvXvXmXMXMXMXMXMXMXMXMXMXMXMXMXMXMXwXnXnXcX%XcX#.i.lXjXrXtXtXtXtXrXaXOX/ ) ^ ..aXrXtXtXtXtXrXsXjXyXrXrX8X7X7X7X8XqX7X7X7X7XeXtXtXjXyXsXLXHXHXHXHXHXHXHXHXHXHXHXHXHXSXsXLXHXHXHXHXHXHXHXHXHXHXHXHXPXz.P.PXHXHXHXHXHXHXHXHXHXHXHXHXHXyXHXHXHXHXHXHXHXHXHXHXHXHXHXIXgXr.E SXHXHXHXHXHXHXHXHXHXHXHXLXjX-XrXHX",
"C Z F W.G.C F '.fXQ.4 h tX&.@.S S D G.k k.D G P P F.W.F P m ) &.Z F S S S F G G S S Z G S S C K C K D D f.y.z.Q.B @.W.D Z S x.C A W.Z.C.S.k.F C C C e e &.Z w e Z.K F Z F W.&.@.V.A W.K S S F C K 7 h ^.W.F W.S W.!.).+X/./.+XwXwXwXwXwXwXwXwXwXwXwXwXwXwX+X#X#X#X#X#X .i.lXjXrXtXtXtXtXrXaXOX/ ) ^ ..aXrXtXtXtXtXrXsXjXyXrXrXqXqXqXqXeXeXqXqXqXqXeXtXtXjXyXyXjXsXsXsXsXsXsXsXsXsXsXsXsXjXyX4XjXsXsXsXsXsXsXsXsXsXsXsXyXAXj.z.CXyXsXsXsXsXsXsXsXsXsXsXsXjX4XsXsXsXsXsXsXsXsXsXsXsXsXsXjX-X5.E tXjXsXsXsXsXsXsXsXsXsXsXjX3XI.sXjX",
"G Q.F W.G.C F @.dXb.7 6 F.&.f.Q.F %.y.w d.&.}.f b.I.y.H C H  .&.%.Z %.S G W.Z S F D D A &.'.S H &.A.P D /.>XY.).&.!.W.G &.P N.7.7.;XS.{.=XC.D P e }.Z.F.'.&.e e 8Xb.H e.G !.K 7.{.D W.v.S D W.F S L 5 u W.S W.A %.%.&././././.cXmXmXmXmXmXmXmXmXmXmXmXmXwX@XcX%X#X#X%X .i.lXjXrXtXtXtXtXrXaXOX/ ) ^ ..aXrXtXtXtXtXrXsXjXyXrXrX8X7X7X7X8XqX7X7X7X7XeXtXtXjXyXyXAXVXCXCXCXCXCXCXCXCXCXCXCXCXjXtXAXCXCXCXCXCXCXCXCXCXCXCXVXHXj.D.HXVXCXCXCXCXCXCXCXCXCXCXCXAXrXVXCXCXCXCXCXCXCXCXCXCXCXCXSX4X5.E sXAXCXCXCXCXCXCXCXCXCXCX,XI.VXAXCX",
"G Z.G Q.R.W.F @.fXu w F ).&.6.m.F D &.m 7.&.2X<.A.>XG.K G H  .&.@.Z @.F Q.Y.P S Z D &.S ).2X(.A '.Y.Q.Z {.>X;X>X=X2X'.G x.f.F.<X>X>X>X>X<X{.Z W.e {.;X1X/./.N.G.<X;X(.6.G _.b.v.<XC Q.N.F '.N.e C S m 6 6 C *.S D D S (.:X/.+XmXmXMXMXMXMXMXMXMXMXMXMXMXmXwXnXnXcX%XcX#.i.lXjXrXtXtXtXtXrXaXOX/ ) ^ ..aXrXtXtXtXtXrXsXjXyXrXrXeXqXqXqXeXeXqXqXqXqXeXtXtXjXyXsXHXHXHXHXHXHXHXHXHXHXHXHXHXHXSXyXHXHXHXHXHXHXHXHXHXHXHXHXFXPXz.P.PXFXHXHXHXHXHXHXHXHXHXHXHXHXyXFXHXHXHXHXHXHXHXHXHXHXHXHXLXyXr.E AXHXHXHXHXHXHXHXHXHXHX4X5XjXCXHXHX",
"G F./.Z.F.W.F &.H.7 C S _.&.6.n.L C D C P &.1X5.C.S.S.}.C H  .@.@.Z W.D Q.2XQ.A C P &.&.>X>X}.A (.2X(.Z =X>X=X=X=X2X(.W.B.}.;X=X=X=X=X=X=X{.C (.>X=X=X>X~.^.S.<X=X=X>XG.W.).Y.Z.>X6.Z.V.F y.D.G.C W.S m 7 6 e.B S S S !.:X/./.wXvXmXwXMXMXMXMXMXMXMXMXMXmXwXnXcX%X%XcX#.i.lXjXrXtXtXtXtXrXaXOX/ ) ^ ..aXrXtXtXtXtXrXsXjXyXrXrX8X7X7X7X8XqX7X7X7X7XeXtXtXjXyXyXHXSXFXFXFXFXFXFXFXFXFXFXFXHXAXyXHXSXFXFXFXFXFXFXFXFXFXFXSXPXz.L.IXSXFXFXFXFXFXFXFXFXFXFXSXHXtXSXFXFXFXFXFXFXFXFXFXFXFXSXHXtXr.E CXHXFXFXFXFXFXSXFXHX4X3XHXjXVXHXSX",
"C F.F.F.F.W.F C 6 w C H %.@.v.n.6 C S D S &.2X5.Z.S.Z.Z.Z.u. .@.@.%.Q.L k.;X>X!.W.j '.&.>X>X}.W./.2X).&.=X=X=X=X=X=X>X=Xg.A.>X=X=X=X=X=X=X>Xw N.1X=X=X<X~.^.Z.=X=X=X=X=XZ.=X{.Z.>XN.S.}.Z y.N.Z.6.f.D P e h 5 m S S A W.).).+X7X8XwX7XmXMXMXMXMXMXMXMXMXmXwXnXcX%X%XcX#.i.lXjXrXtXtXtXtXrXaXOX/ ) ^ ..aXrXtXtXtXtXrXsXjXyXrXrXeXqXqXqXeXeXqXqXqXqXeXtXtXjXyXyXHXSXFXFXFXFXFXFXFXFXFXFXFXHXAXyXHXFXFXFXFXFXFXFXFXFXFXFXSXPXz.L.PXSXFXFXFXFXFXFXFXFXFXFXFXHXyXSXFXFXFXFXFXFXFXFXFXFXFXSXLXtXr.E AXHXFXFXFXFXFXFXHX4X4XHXHXjXVXHXFX",
"y.F.Z.Z.F.Q.F K 5 e.w w S @.n.N.e C D G A W.2X<.Z.S.S.Z.F.u.) ).!.Z ).e N.;X>X>X;X2X'.&.>X;X{.S.<X=X=X=X=X=X=X=X=X=X>X{.g.A.>X=X=X=X=X=X=X<XS.A.>X=X=X<X~.^.Z.=X=X=X=X<XC.{.>X=X>XC.>X}.Z y.n.N.n.n.Z W.F.y.w 7 L S S W.&.@././.7X7X7XmXMXMXMXMXMXMXMXMXmXwXnXcX%X%XcX#.i.lXjXrXtXtXtXtXrXaXOX/ ) ^ ..aXrXtXtXtXtXrXsXjXyXrXrX8X7X7X7X8XqX7X7X7X7XeXtXtXjXyXyXHXSXFXFXFXFXFXFXFXFXFXFXFXHXAXyXHXFXFXFXFXFXFXFXFXFXFXFXSXPXz.L.PXSXFXFXFXFXFXFXFXFXFXFXFXHXyXSXFXFXFXFXFXFXFXFXFXFXFXSXLXtXr.E AXHXFXFXFXFXFXHX4X4XHXFXHXjXVXHXFX",
"N.F.F.F.F.C.W.6 h 9Xb.w S W.G.{.N.Q.W.&.C m.1X5.Z.S.S.Z.F.u.) ^.~.&.).w V.;X=X=X=X2X'.&.2X;X{.A.>X=X=X>X=X=X=X=X=X=X>X{.g.A.>X=X=X=X=X=X=X>XS.A.>X=X=X<X~.^.Z.=X=X=X=X>XC.{.>X=X>XC.=X{.e.f.v.n.v.n.W.).2Xy.A w 5 7.*.C Z F F !.:X@X+XmXMXMXMXMXMXMXMXMXmXwXnXnX%X%XcX#.i.lXjXrXtXtXtXtXrXaXOX/ ) ^ ..aXrXtXtXtXtXrXsXjXyXrXrXeXqXqXqXeXeXqXqXqXqXeXtXtXjXyXyXHXSXFXFXFXFXFXFXFXFXFXFXFXHXAXyXHXFXFXFXFXFXFXFXFXFXFXFXSXPXz.L.PXSXFXFXFXFXFXFXFXFXFXFXFXHXyXSXFXFXFXFXFXFXFXFXFXFXFXSXLXtXr.E AXHXFXFXFXFXHX5X4XHXFXSXHXjXVXHXFX",
"N.F.F.F.F.{.j 5 m.1X>Xk.H y.F.{.N.>XY.(.).<X<X5.Z.S.S.Z.F.u.) ~.~.~.^.:X:X=X=X=X=X>X/.).>X>X{.A.<X=X=X=X=X=X=X=X=X=X>X{.g.A.>X=X=X=X=X=X=X>XS.A.<X=X=X<X~.^.Z.=X=X=X=X>XC.{.>X=X>XC.=X=Xn.Z.v.v.n.v.N.>X1X6.m y.j 7 7.S F Z A '.+X/./.wXMXMXMXBXMXMXNXMXmXwXcXcX%X%XcX#.i.lXjXrXtXtXtXtXrXaXOX/ ) ^ ..aXrXtXtXtXtXrXsXjXyXrXrX8X7X7X7X8XqX7X7X7X7XeXtXtXjXyXyXHXSXFXFXFXFXFXFXFXFXFXFXFXHXAXyXHXFXFXFXFXFXFXFXFXFXFXFXSXPXz.L.PXSXFXFXFXFXFXFXFXFXFXFXFXHXyXSXFXFXFXFXFXFXFXFXFXFXFXSXLXtXr.E AXHXFXFXFXHX5X3XHXHXFXSXHXjXVXHXFX",
"N.F.F.F.F.F.6 h ;X=X<XZ.b.n.Z.{.N.<X=X>XZ.=X<X5.Z.S.S.Z.F.u.) ~.~.~.^.}.:X=X=X=X=X=X>X>X=X>X{.A.<X=X=X=X=X=X=X=X=X=X>X{.g.A.>X=X=X=X=X=X=X>XS.A.<X=X=X<X~.^.Z.=X=X=X=X>XC.{.>X=X>XC.=X=Xn.S.N.v.n.v.N.;X1X6.4 m._.w 7 L D Q C G W.:X/.}.vXvXMXvXvXXXvXMXvX7XvX X%XQ.cX#.i.lXjXrXtXtXtXtXrXaXOX/ ) ^ ..aXrXtXtXtXtXrXsXjXyXrXrXqXqXqXqXeXeXqXqXqXqXeXtXtXjXyXyXHXSXFXFXFXFXFXFXFXFXFXFXFXHXAXyXHXFXFXFXFXFXFXFXFXFXFXFXSXPXz.L.PXSXFXFXFXFXFXFXFXFXFXFXFXHXyXSXFXFXFXFXFXFXFXFXFXFXFXSXLXtXr.E AXHXFXFXHX5X,XFXHXFXFXSXHXjXVXHXFX",
"N.F.F.F.{.j 5 m.;X=X>XA.=XN.Z.{.N.<X>X{.C.>X<X5.Z.S.S.Z.F.u.) ~.~.~.^.}.:X=X=X=X=X=X=X=X=X>X{.A.<X=X=X=X=X=X=X=X=X=X>X{.g.A.>X=X=X=X=X=X=X>XS.A.<X=X=X<X~.^.Z.=X=X=X=X>XC.{.>X=X>XC.=X=XZ.=XV.n.n.v.N.=X1Xr.f.<X{.:Xh 5 5.C @.C W.Q.R ).].].XX XvXXXXXvXXX]. X].].Q.cX#.i.lXjXrXtXtXtXtXrXaXOX/ ) ^ ..aXrXtXtXtXtXrXsXjXyXrXrX8X7X7X7X8XqX7X7X7X7XeXtXtXjXyXyXHXSXFXFXFXFXFXFXFXFXFXFXFXHXAXyXHXFXFXFXFXFXFXFXFXFXFXFXSXPXz.L.PXSXFXFXFXFXFXFXFXFXFXFXFXHXyXSXFXFXFXFXFXFXFXFXFXFXFXSXLXtXr.E AXHXFXHX5X,XFXHXFXFXFXSXHXjXVXHXSX",
"N.F.F.F.F.6 h ;X=X=X<XA.{.N.Z.{.N.<X>X{.C.>X<X5.Z.S.S.Z.F.u.) ~.~.~.^.}.:X=X=X=X=X=X=X=X=X>X{.A.<X=X=X=X=X=X=X=X=X=X>X{.g.A.>X=X=X=X=X=X=X>XS.A.<X=X=X<X~.^.Z.=X=X=X=X>XC.{.>X=X>XC.=X=X;X;XV.N.n.n.6.N.<X5.l.>X>X>X;Xh 5 I '.C G Q.C (.]. XvX X X XvXXX9X). X].@X(.9X#.i.lXjXrXtXtXtXtXrXaXOX/ ) ^ ..aXrXtXtXtXtXrXsXjXyXrXrXqXqXqXqXeXeXqXqXqXqXeXtXtXjXyXyXHXSXFXFXFXFXFXFXFXFXFXFXFXHXAXyXHXFXFXFXFXFXFXFXFXFXFXFXSXPXz.L.PXSXFXFXFXFXFXFXFXFXFXFXFXHXyXSXFXFXFXFXFXFXFXFXFXFXFXSXLXtXr.E CXHXHXtX3XHXHXSXSXSXSXSXHXyXCXJXJX",
"N.F.F.{.j 5 n.;X=X=X<XA.{.N.Z.{.N.<X>X{.C.>X<X5.Z.S.S.Z.F.u.) ~.~.~.^.}.:X=X=X=X=X=X=X=X=X>X{.A.<X=X=X=X=X=X=X=X=X=X>X{.g.A.>X=X=X=X=X=X=X>XS.A.<X=X=X<X~.^.Z.=X=X=X=X>XC.{.>X=X>XC.=X=X=X=XC.=Xn.n.6.n.F.f h.N.=X=X=X;Xh e y.G F C G &.].[.vXXXvXvXvXvX X].vX X].Q.cX#.i.lXjXrXtXtXtXtXrXaXOX/ ) ^ ..aXrXtXtXtXtXrXsXjXyXrXrX8X7X7X7X8XqX7X7X7X7XeXtXtXjXyXyXHXSXFXFXFXFXFXFXFXFXFXFXFXHXAXyXHXFXFXFXFXFXFXFXFXFXFXFXSXPXz.L.PXSXFXFXFXFXFXFXFXFXFXFXFXHXyXSXFXFXFXFXFXFXFXFXFXFXFXSXLXtXr.E CXHXrX{.0X0XVXSXFXHXJXJXPXlXVXNX%X",
"N.F.F.G.6 j }.=X=X=X>XA.{.N.S.{.N.<X=X{.C.=X<X5.Z.{.Z.Z.F.u.) ~.~.~.^.}.}.=X=X=X=X=X=X=X=X>X{.A.>X=X=X=X=X=X=X=X=X=X>X{.g.A.>X=X=X=X=X=X=X>XS.A.>X=X=X>X/.^.Z.=X=X=X=X>XC.{.>X=X>XC.{.=X=X=XC.;XN.N.v.v.N.7.h.N.{.=X=X;X=Xh 5 C B A A S C /.mXMXMXMXMXMXmXwXnXnX%X%XcX#.i.lXjXrXtXtXtXtXrXaXOX/ ) ^ ..aXrXtXtXtXtXrXsXjXyXrXrXqXqXqXqXeXeXqXqXqXqXeXtXtXjXyXyXHXSXFXFXFXFXFXFXFXFXFXFXFXHXAXyXHXFXFXFXFXFXFXFXFXFXFXFXSXPXz.L.PXSXFXFXFXFXFXFXFXFXFXFXFXHXyXSXFXFXFXFXFXFXFXFXFXFXFXSXLXtXr.E SXtXC.<., , k.CXHXNXhXoX-.] ] ' ! ",
"B.F.F.j 7 F.A.-X,X-X,XS.L.n.=X=XN.,X,X=XA.,X1X<.A.I.S.Z.F.u.) +X+X+X+X:X:X-X,X,X,X,X,X,X-X,XP.A.,X-X,X,X,X,X,X,X,X,X,X=Xj.A.,X-X,X,X,X,X-X,XP.S.,X-X-X,X~.^.A.,X-X,X-X,XA.=X,X-X,XD.=X,X,X,XD.-X=X=Xn.n.n.f h.n.=X,X,X>X,XP.u 6 H &.*.B S ).NXBXBXBXBXBXNXwXnXnXhX%XnX| i.lXjXrXtXtXtXtXrXaXOX/ ) ^ ..aXrXtXtXtXtXrXsXjXyXrXrX8X7X7X7X8XqX7X7X7X7XeXtXtXjXyXyXHXSXFXFXFXFXFXFXFXFXFXFXFXHXAXyXHXFXFXFXFXFXFXFXFXFXFXFXSXPXz.L.PXSXFXFXFXFXFXFXFXFXFXFXFXHXyXSXFXFXFXFXFXFXFXFXFXFXFXSXLXtXr.E 1X,Xk.> M v , X.] ' ! ! ' ] $.-.#X",
"M.[.M.e b.|.M.[.[.[.[.[.[.M.[.[.M.[.[.[.[.[.[.y.M.[.[.M.M.y.{ Q.Q.Q./.[.[.[.[.[.[.[.[.[.[.[.[.[.[.[.[.[.[.[.[.[.[.[.[.[.y.[.[.[.[.[.[.[.[.[.[.[.[.[.[.[.Q.Q.M.[.[.[.[.[.M.[.[.[.[.M.[.[.[.[.M.[.[.[.M.M.M.K y.M.[.[.[.[.[.[.M.6 w Q.Q.F G Q.9XvXvXvXvXvX9X|.9X X X). X=.p.lXjXrXtXtXtXtXrXaXOX/ ) ^ ..aXrXtXtXtXtXrXsXjXyXrXrXqXqXqXqXqXeXqXqXqXqXeXtXtXjXyXyXHXFXHXHXHXHXHXHXHXHXHXHXHXHXSXyXHXFXHXHXHXHXHXHXHXHXHXHXSXPXz.P.PXSXHXHXHXHXHXHXHXHXHXHXFXHXyXSXHXHXHXHXHXHXHXHXHXHXHXFXLXtX5.W 2XZX1.l %.S $ { $.-.*XnXDXlXGXJXJX",
"Y Y Y Y Y Y Y Y Y Y Y Y Y Y Y Y Y Y Y Y Y Y Y Y Y Y Y Y Y Y Y Y Y Y Y Y Y Y Y Y Y Y Y Y Y Y Y Y Y Y Y Y Y Y Y Y Y Y Y Y Y Y Y Y Y Y Y Y Y Y Y Y Y Y Y Y Y Y Y Y Y Y Y Y Y Y Y Y Y Y Y Y Y Y Y Y Y Y Y Y Y Y Y Y Y Y Y Y Y Y Y Y Y Y Y Y Y Y Y Y Y Y Y Y Y Y Y Y Y Y Y Q p.lXjXrXtXtXtXtXrXaXOX/ ) ^ ..aXrXtXtXtXtXrXsXjXyXrXrX8X7X7X7X8XqX7X7X7X7XeXtXtXjXyXyXHXSXSXSXSXSXSXSXSXSXSXSXSXSXAXtXFXSXSXSXSXSXSXSXSXSXSXSXAXIXz.L.LXAXSXSXSXSXSXSXSXSXSXSXSXSXtXAXSXSXSXSXSXSXSXSXSXSXSXSXHXjXd.T oX' ` > l & L dXJXJXJXFXHXyXjXSXAX",
"K w 6 w K K K K K K K K q K K K K K K K K K K L K K K K K L m L L L L K K K K K K K K K K K K K K K K K K K K K K K K K K K K K K K K K K K K K K K K K L L K K K K K K K K K K K K K K K K K K K K K K K L q K K K K K K K K K e 6 w C D P K L 1.1.L 1.L L 1.1.L o.1.{ p.lXjXrXtXtXtXtXrXaXOX/ ) ^ ..aXrXtXtXtXtXrXsXjXyXrXrXqXqXqXqXqXeXqXqXqXqXeXtXtXjXsX5X9.9.9.9.9.9.9.9.9.9.9.9.9.9.3.<.9.9.9.9.9.9.9.9.9.9.9.9.9.9.p ;.9.9.9.9.9.9.9.9.9.9.9.9.9.9.<.9.9.9.9.9.9.9.9.9.9.9.9.9.3.B.p.~ ! ] } <.1 L t.3.9.9.9.9.9.,.,.9.9.",
"B.h u >X,X,XA.,X,XP.N.n.v.D.,X=XN.1X,X=XA.,X1X5.S.>XS.S.F.u.) +X+X+X+X:X:X-X,X,X,X,X,X,X,X,X=XS.1X,X,X,X,X,X,X,X,X,X,X=Xj.S.,X,X,X,X,X,X,X,XP.L.,X,X,X2X~.^.S.,X,X,X,X,XA.=X,X,X,XA.-X,X,X,XA.,X,X,XA.,X4X6.7.n.n.D.>X,X,X,X,X>XS.h u @.B '.wXwXBXBXBXBXNXwXBXnXnX%XnX#.i.lXjXrXtXtXtXtXrXaXOX/ ) ^ ..aXrXtXtXtXtXrXsXjXyXrXrX8X7X7X7X8XqX7X7X7X7XeXtXtXjXyXsXLXHXHXHXHXHXHXHXHXHXHXHXHXHXSXsXHXHXHXHXHXHXHXHXHXHXHXHXFXPXz.P.PXFXHXHXHXHXHXHXHXHXHXHXHXHXsXFXHXHXHXHXHXHXHXHXHXHXFXJXuX .! / #XJXJXSXSXAXFXHXHXHXHXHXHXjXCXHXHX",
"j 5 m.;X{.=XC.=X;XB.v.v.v.{.;X{.N.<X=X{.C.=X<X5.C.S.Z.Z.F.u.) ~.~.~.^.}.}.{.=X=X=X=X=X=X=X>X{.A.>X=X=X=X=X=X=X=X=X=X=X{.g.A.>X=X=X=X=X=X=X>XS.A.>X=X=X>X/.^.Z.=X=X=X=X>XC.{.=X=X>XC.{.=X=X=XC.=X=X=XC.=X1X6.7.N.n.v.Z.;X=X=X=X=X|.[.6 w G A (.:X XMXvXMXmXwXvXcX X).cX#.i.lXjXrXtXtXtXtXrXaXOX/ ) ^ ..aXrXtXtXtXtXrXsXjXyXrXrXqXqXqXqXqXeXqXqXqXqXeXtXtXjXyXyXHXSXSXSXSXSXSXSXSXSXSXSXSXFXAXyXHXSXSXSXSXSXSXSXSXSXSXSXSXPXz.L.IXSXSXSXSXSXSXSXSXSXSXSXSXHXtXSXFXSXSXSXSXSXSXFXSXSXJX#X' ! X.W JXFXSXFXHXHXFXSXFXSXSXSXHXjXVXHXSX",
"6 h ;X=X=X=XC.=X<XN.v.v.V.>X;X{.N.<X>X{.C.>X<X5.Z.S.S.Z.F.u.) ~.~.~.^.}.:X=X=X=X=X=X=X=X=X>X{.A.<X=X=X=X=X=X=X=X=X=X>X{.g.A.>X=X=X=X=X=X=X>XS.A.<X=X=X<X~.^.Z.=X=X=X=X>XC.{.>X=X>XC.=X=X=X=XC.=X=X=XC.=X1X6.7.Z.N.v.B.<X=X=X=X=X{.[.M.6 I A !.[.].vX].MXmX|.]. X].Q.9X#.i.lXjXrXtXtXtXtXrXaXOX/ ) ^ ..aXrXtXtXtXtXrXsXjXyXrXrX8X7X8X7X8XqX7X8X8X7XeXtXtXjXyXyXHXSXFXFXFXFXFXFXFXFXFXFXFXHXAXyXHXFXFXFXFXFXFXFXFXFXFXFXSXPXz.L.PXSXFXFXFXFXFXFXFXFXFXFXFXHXyXSXFXFXFXFXFXFXFXSXFXJXoX! ] OX6.E CXHXFXFXFXFXFXFXFXFXFXSXHXjXVXHXFX",
"6 G.;X=X;X>XC.=X<XN.n.n.{.>X=X{.N.<X>X{.C.>X<X5.Z.S.S.Z.F.u.) ~.~.~.^.}.:X=X=X=X=X=X=X=X=X>X{.A.<X=X=X=X=X=X=X=X=X=X>X{.g.A.>X=X=X=X=X=X=X>XS.A.<X=X=X<X~.^.Z.=X=X=X=X>XC.{.>X=X>XC.=X=X=X=XC.=X=X=XC.=X1X5.7.{.B.v.n.S.=X=X=X{.,X[.[.b.e C D Q.].mX XMXvX].XX X].Q.9X#.i.lXjXrXtXtXtXtXrXaXOX/ ) ^ ..aXrXtXtXtXtXrXsXjXyXrXrXqX8XqX8XqXeX8XqXqX8XeXtXtXjXyXyXHXSXFXFXFXFXFXFXFXFXFXFXFXHXAXyXHXFXFXFXFXFXFXFXFXFXFXFXSXPXz.L.PXSXFXFXFXFXFXFXFXFXFXFXFXHXyXSXFXFXFXFXFXFXSXHXJX-.! #.HXkXr.E AXHXFXFXFXFXFXFXFXFXFXSXHXjXVXHXFX",
"k 8X=X=XZ.Z.A.=X;XN.N.N.S.>X=X{.N.<X>X{.C.>X<X5.Z.S.S.Z.F.u.) ~.~.~.^.}.:X=X=X=X=X=X=X=X=X>X{.A.<X=X=X=X=X=X=X=X=X=X>X{.g.A.>X=X=X=X=X=X=X>XS.A.<X=X=X<X~.^.Z.=X=X=X=X>XC.{.>X=X>XC.=X=X=X=XC.=X=X=XC.=X1X5.6.<XZ.N.n.N.;X=X{.[.[.].|.Q.I e F W.R vX XMXvX|. X X X). X#.i.lXjXrXtXtXtXtXrXaXOX/ ) ^ ..aXrXtXtXtXtXrXsXjXyXrXrX8X8X8X7XqXqX7X8X8X8XeXtXtXjXyXyXHXSXFXFXFXFXFXFXFXFXFXFXFXHXAXyXHXFXFXFXFXFXFXFXFXFXFXFXSXPXz.L.PXSXFXFXFXFXFXFXFXFXFXFXFXHXyXSXFXFXFXFXFXSXHXSX#.! oXJXLXtXr.E AXHXFXFXFXFXFXFXFXFXFXSXHXjXVXHXFX",
"Z.<X=X=Xn.N.N.Z.;XN.G.N.{.>X=X{.N.<X>X{.C.>X<X5.Z.S.S.Z.F.u.) ~.~.~.^.}.:X=X=X=X=X=X=X=X=X>X{.A.<X=X=X=X=X=X=X=X=X=X>X{.g.A.>X=X=X=X=X=X=X>XS.A.<X=X=X<X~.^.Z.=X=X=X=X>XC.{.>X=X>XC.=X=X=X=XC.=X=X=XC.=X1X5.h.1XS.S.S.n.=X=X=X,X[.].[.W.Q 6 L %.M.uXvXMXmX[. X9X].(.cX#.i.lXjXrXtXtXtXtXrXaXOX/ ) ^ ..aXrXtXtXtXtXrXsXjXyXrXrXqX8X8X8XqXeX8X8X8X8XeXtXtXjXyXyXHXSXFXFXFXFXFXFXFXFXFXFXFXHXAXyXHXFXFXFXFXFXFXFXFXFXFXFXSXPXz.L.PXSXFXFXFXFXFXFXFXFXFXFXFXHXyXSXFXFXFXFXSXHXSX$.! oXJXSXHXtXr.E AXHXFXFXFXFXFXFXFXFXFXSXHXjXVXHXFX",
"}.>X;XS.n.N.6.N.;XN.Z.N.{.>X=X{.N.<X>X{.C.>X<X5.Z.S.S.Z.F.u.) ~.~.~.^.}.:X=X=X=X=X=X=X=X=X>X{.A.<X=X=X=X=X=X=X=X=X=X>X{.g.A.>X=X=X=X=X=X=X>XS.A.<X=X=X<X~.^.Z.=X=X=X=X>XC.{.>X=X>XC.=X=X=X=XC.=X=X=XC.=X1X5.k.1X=X=X=Xn.{.=X=X=X=X-X2X!.&.k 5 C F 9XBXMXmXwXnXnXhX%XcX#.i.lXjXrXtXtXtXtXrXaXOX/ ) ^ ..aXrXtXtXtXtXrXsXjXyXrXrX8X8X8X8XqXeX8X8X8X8XeXtXtXjXyXyXHXSXFXFXFXFXFXFXFXFXFXFXFXHXAXyXHXFXFXFXFXFXFXFXFXFXFXFXSXPXz.L.PXSXFXFXFXFXFXFXFXFXFXFXFXHXyXSXFXFXFXSXHXHX$.! oXJXSXSXLXtXr.E AXHXFXFXFXFXFXFXFXFXFXSXHXjXVXHXFX",
"C.>X;XZ.N.N.7.N.Z.n.>XA.S.>X=X{.N.<X>X{.C.>X<X5.Z.S.S.Z.F.u.) ~.~.~.^.}.:X=X=X=X=X=X=X=X=X>X{.A.<X=X=X=X=X=X=X=X=X=X>X{.g.A.>X=X=X=X=X=X=X>XS.A.<X=X=X<X~.^.Z.=X=X=X=X>XC.{.>X=X>XC.=X=X=X=XC.=X=X=XC.=X1X5.k.1X=X=X=XN.S.;X=X=X=X=X=X{.;XN.7 w B `.NXMXmX7XnXcX%X%XcX#.i.lXjXrXtXtXtXtXrXaXOX/ ) ^ ..aXrXtXtXtXtXrXsXjXyXrXrXqX8X8X8XqXeX8X8X8X8XeXtXtXjXyXyXHXSXFXFXFXFXFXFXFXFXFXFXFXHXAXyXHXFXFXFXFXFXFXFXFXFXFXFXSXPXz.L.PXSXFXFXFXFXFXFXFXFXFXFXFXHXyXSXFXFXSXHXHX#.! oXJXSXFXSXLXtXr.E AXHXFXFXFXFXFXFXFXFXFXSXHXjXVXHXFX",
"C.>X;XB.N.N.7.n.N.N.<XA.S.>X=X{.N.<X>X{.C.>X<X5.Z.S.S.Z.F.u.) ~.~.~.^.}.:X=X=X=X=X=X=X=X=X>X{.A.<X=X=X=X=X=X=X=X=X=X>X{.g.A.>X=X=X=X=X=X=X>XS.A.<X=X=X<X~.^.Z.=X=X=X=X>XC.{.>X=X>XC.=X=X=X=XC.=X=X=XC.=X1X5.k.1X=X=X=XN.n.Z.;X=X=X=X=X>X>X;Xb.7 m _.ZXMXmXwXnXcX%X%XcX#.i.lXjXrXtXtXtXtXrXaXOX/ ) ^ ..aXrXtXtXtXtXrXsXjXyXrXrXqX8X8X8XqXeX8X8X8X8XeXtXtXjXyXyXHXSXFXFXFXFXFXFXFXFXFXFXFXHXAXyXHXFXFXFXFXFXFXFXFXFXFXFXSXPXz.L.PXSXFXFXFXFXFXFXFXFXFXFXFXHXyXSXHXSXHXHX#.! oXJXSXFXFXSXLXtXr.E AXHXFXFXFXFXFXFXFXFXFXSXHXjXVXHXFX",
"A.>X;XB.N.N.7.n.N.=X<XA.S.>X=X{.N.<X>X{.C.>X<X5.Z.S.S.Z.F.u.) ~.~.~.^.}.:X=X=X=X=X=X=X=X=X>X{.A.<X=X=X=X=X=X=X=X=X=X>X{.g.A.>X=X=X=X=X=X=X>XS.A.<X=X=X<X~.^.Z.=X=X=X=X>XC.{.>X=X>XC.=X=X=X=XC.=X=X=XC.=X1X5.k.1X=X=X;XN.v.N.=X=X=X=X=X=X=X>X}.6 w _.DXMXmXwXnXcX%X%XcX#.i.lXjXrXtXtXtXtXrXaXOX/ ) ^ ..aXrXtXtXtXtXrXsXjXyXrXrX8X8X8X8XqXeX8X8X8X8XeXtXtXjXyXyXHXSXFXFXFXFXFXFXFXFXFXFXFXHXAXyXHXFXFXFXFXFXFXFXFXFXFXFXSXPXz.L.PXSXFXFXFXFXFXFXFXFXFXFXFXHXyXSXSXFXHX#.! oXJXSXFXFXFXSXLXtXr.E AXHXFXFXFXFXFXFXFXFXFXSXHXjXVXHXFX",
"A.>X;XN.B.N.7.v.N.;X>XA.S.>X=X{.N.<X>X{.C.>X<X5.Z.S.S.Z.F.u.) ~.~.~.^.}.:X=X=X=X=X=X=X=X=X>X{.A.<X=X=X=X=X=X=X=X=X=X>X{.g.A.>X=X=X=X=X=X=X>XS.A.<X=X=X<X~.^.Z.=X=X=X=X>XC.{.>X=X>XC.=X=X=X=XC.=X=X=XC.=X1X5.k.1X=X=X;XN.N.n.N.S.;X=X=X=X=X=X;Xv.5 h.BXMXmXwXnXcX%X%XcX#.i.lXjXrXtXtXtXtXrXaXOX/ ) ^ ..aXrXtXtXtXtXrXsXjXyXrXrXqX8X8X8XqXeX8X8X8X8XeXtXtXjXyXyXHXSXFXFXFXFXFXFXFXFXFXFXFXHXAXyXHXFXFXFXFXFXFXFXFXFXFXFXSXPXz.L.PXSXFXFXFXFXFXFXFXFXFXFXFXHXyXSXSXJX#.! oXJXSXSXFXFXFXSXLXtXr.E AXHXFXFXFXFXFXFXFXFXFXSXHXjXVXHXFX",
"A.>X<XN.Z.N.6.N.B.;X>XA.S.>X=X{.N.<X>X{.C.>X<X5.Z.S.S.Z.F.u.) ~.~.~.^.}.:X=X=X=X=X=X=X=X=X>X{.A.<X=X=X=X=X=X=X=X=X=X>X{.g.A.>X=X=X=X=X=X=X>XS.A.<X=X=X<X~.^.Z.=X=X=X=X>XC.{.>X=X>XC.=X=X=X=XC.=X=X=XC.=X1X5.k.1X=X=X=X=X=XB.v.Z.<X=X=X=X=X=X2X(.w u MXMXmXwXnXcX%X%XcX#.i.lXjXrXtXtXtXtXrXaXOX/ ) ^ ..aXrXtXtXtXtXrXsXjXyXrXrX8X8X8X8XqXeX8X8X8X8XeXtXtXjXyXyXHXSXFXFXFXFXFXFXFXFXFXFXFXHXAXyXHXFXFXFXFXFXFXFXFXFXFXFXSXPXz.L.PXSXFXFXFXFXFXFXFXFXFXFXFXHXtXSXJX-.! oXJXSXSXFXFXFXFXSXLXtXr.E AXHXFXFXFXFXFXFXFXFXFXSXHXjXVXHXFX",
"C.<X=Xn.Z.B.n.{.=X=X>XA.S.>X=X{.N.<X>X{.C.>X<X5.Z.S.S.Z.F.u.) ~.~.~.^.}.:X=X=X=X=X=X=X=X=X>X{.A.<X=X=X=X=X=X=X=X=X=X>X{.g.A.>X=X=X=X=X=X=X>XS.A.<X=X=X<X~.^.Z.=X=X=X=X>XC.{.>X=X>XC.=X=X=X=XC.=X=X=XC.=X1X5.k.1X=X=X=X=X=X=Xn.B.<X=X=X=X=X=X2X_.m 7 U.BXmXwXnXcX%X%XcX#.i.lXjXrXtXtXtXtXrXaXOX/ ) ^ ..aXrXtXtXtXtXrXsXjXyXrXrXqX8X8X8XqXeX8X8X8X8XeXtXtXjXyXyXHXSXFXFXFXFXFXFXFXFXFXFXFXHXAXyXHXFXFXFXFXFXFXFXFXFXFXFXSXPXz.L.PXSXFXFXFXFXFXFXFXFXFXFXFXHXtXJX-.! oXJXSXSXFXFXFXFXFXSXLXtXr.E AXHXFXFXFXFXFXFXFXFXFXSXHXjXVXHXFX",
"A.<XS.n.;XZ.N.=X=X=X>XA.S.>X=X{.N.<X=X{.C.=X<X5.Z.S.Z.Z.F.u.) ~.~.~.^.}.:X=X=X=X=X=X=X=X=X>X{.A.>X=X=X=X=X=X=X=X=X=X>X{.g.A.>X=X=X=X=X=X=X>XS.A.>X=X=X<X~.^.Z.=X=X=X=X>XC.{.>X=X>XC.=X=X=X=XC.=X=X=XC.=X1X5.k.<X=X=X=X=X=X<XB.N.;X=X=X=X=X=X2X(.S 6 h BXmXwXnXcX%X%XcX#.i.lXjXrXtXtXtXtXrXaXOX/ ) ^ ..aXrXtXtXtXtXrXsXjXyXrXrX8X7X8X7XqXqX7X8X8X8XeXtXtXjXyXyXHXSXFXFXFXFXFXFXFXFXFXFXFXHXAXyXHXSXFXFXFXFXFXFXFXFXFXFXSXPXz.L.IXSXFXFXFXFXFXFXFXFXFXFXSXHXdX-.! oXJXSXSXFXFXFXFXFXFXSXHXtXr.E CXHXFXFXFXFXFXFXFXFXFXSXHXjXVXHXSX",
"N.G.Z.N.<XS.N.=X>X=X<XA.{.<X>X{.N.<X>X{.A.>X<X5.Z.{.S.Z.F.u.) ~.~.~.^.}.:X=X>X>X>X>X>X>X>X<X{.A.<X=X>X>X>X>X>X>X>X>X<X=Xg.A.<X=X>X>X>X>X>X<XS.A.<X=X=X<X~.^.Z.>X>X>X=X<XC.{.>X=X<XC.=X>X>X>XC.>X>X=XC.=X1X5.k.1X=X>X>X>X>X<XB.N.<X>X>X>X>X=X2X).F L 7 3XMXwXnXcXcX%XcX#.i.lXjXrXtXtXtXtXrXaXOX/ ) ^ ..aXrXtXtXtXtXrXsXjXyXrXrXqXqXqX8XqXeX8XqXqX8XeXtXtXjXyXsXHXHXHXHXHXHXHXHXHXHXHXHXHXHXSXyXHXHXHXHXHXHXHXHXHXHXHXHXSXPXz.P.PXFXHXHXHXHXHXHXHXHXHXHXHXJX| ! oXJXSXHXHXHXHXHXHXHXHXHXLXyXr.E AXHXHXHXHXHXHXHXHXHXHXHXHXjXCXHXHX",
"6.7.n.n.C.V.g.C.C.C.C.l.V.C.C.V.h.A.C.V.l.C.A.;.g.V.N.N.N.u.) x.x.x.x.k.l.V.C.C.C.C.C.C.C.C.V.l.C.C.C.C.C.C.C.C.C.C.C.V.q.l.C.C.C.C.C.C.C.C.V.l.C.C.C.Z.x.x.V.C.C.C.C.C.l.V.C.C.C.l.C.C.C.C.l.C.C.C.l.V.S.5.d.A.C.C.C.C.C.C.N.7.n.V.C.C.C.C.C.N.y.G 6 k cX+X#X#X#XOX#X .i.lXjXrXtXtXtXtXrXaXOX/ ) ^ ..aXrXtXtXtXtXrXsXjXyXrXrX8X7X8X7X8XqX7X8X7X7XeXtXtXjXyXtXsXtXyXyXyXyXyXyXyXyXyXyXyXyXtX4XyXtXyXyXyXyXyXyXyXyXyXyXtXjXf.j.jXtXyXyXyXyXyXyXyXyXtXtXdX-.! -.kXtXtXyXyXyXyXyXyXyXyXtXjX-X<.E rXyXtXyXyXyXyXyXyXyXyXtXyX4XrXyXtX",
"n.n.v.B.;X=XC.=X=X=X>XA.S.=X=X{.N.;X=X{.C.=X<X5.C.S.Z.Z.F.u.) ~.~.~.^.}.}.=X=X=X=X=X=X=X=X=XS.A.>X=X=X=X=X=X=X=X=X=X=X{.g.A.=X=X=X=X=X=X=X=XS.A.>X=X=X>X~.^.Z.=X=X=X=X>XC.{.=X=X=XC.{.=X=X=XC.=X=X=XC.=X1X5.k.<X=X=X=X=X=X=XS.v.v.B.;X=X=X=X=X>X/.S q u uXwXnXcX%X%XcX| i.lXjXrXtXtXtXtXrXaXOX/ ) ^ ..aXrXtXtXtXtXrXsXjXyXrXrXqXqXqXqXqXeXqXqXqXqXeXtXtXjXyXyXHXSXSXSXSXSXSXSXSXSXSXSXSXSXAXyXHXSXSXSXSXSXSXSXSXSXSXSXAXIXz.L.IXAXSXSXSXSXSXSXSXSXSXJX-.! -.JXSXSXSXSXSXSXSXSXSXSXSXSXHXtX5.E CXSXSXSXSXSXSXSXSXSXSXSXHXsXjXFXSX",
"n.n.n.Z.<X=XC.=X=X=X<XA.S.>X>X{.N.<X>X{.C.>X<X5.Z.{.S.Z.F.u.) ~.~.~.^.}.:X=X=X=X=X=X=X=X=X>X{.A.<X=X=X=X=X=X=X=X=X=X>X=Xg.A.>X=X=X=X=X=X=X<XS.A.<X=X=X<X~.^.Z.=X=X=X=X<XC.{.>X=X>XC.=X>X=X=XC.=X=X=XC.=X1X5.k.1X=X=X=X=X=X=X=XN.v.Z.<X=X=X=X=X>X}.D C 7 m.cXnXcX%X%XcX#.i.lXjXrXtXtXtXtXrXaXOX/ ) ^ ..aXrXtXtXtXtXrXsXjXyXrXrX8X7X7X7X8XqX7X7X7X7XeXtXtXjXyXyXHXFXFXFXFXFXFXFXFXFXFXFXFXHXAXyXHXFXFXFXFXFXFXFXFXFXFXFXSXPXz.P.PXSXFXFXFXFXFXFXSXSXJX-.! oXdXSXHXFXFXFXFXFXFXFXFXFXFXFXLXtXr.E AXHXFXFXFXFXFXFXFXFXFXFXHXjXVXHXFX",
"n.N.B.S.=X=XC.=X=X=X<XA.S.>X=X{.N.<X>X{.C.=X<X5.Z.S.S.Z.F.u.) ~.~.~.^.}.:X=X=X=X=X=X=X=X=X>X{.A.<X=X=X=X=X=X=X=X=X=X>X{.g.A.>X=X=X=X=X=X=X>XS.A.<X=X=X<X~.^.Z.=X=X=X=X>XC.{.>X=X>XC.=X=X=X=XC.=X=X=XC.=X1X5.k.1X=X=X=X=X=X=X;XZ.v.n.Z.=X=X=X=X>X}.D D 6 h %XnXcX%X%XcX#.i.lXjXrXtXtXtXtXrXaXOX/ ) ^ ..aXrXtXtXtXtXrXsXjXyXrXrXqXqXqXqXqXeXqXqXqXqXeXtXtXjXyXyXHXSXFXFXFXFXFXFXFXFXFXFXFXHXAXyXHXSXFXFXFXFXFXFXFXFXFXFXSXPXz.L.PXSXFXFXFXFXFXSXSXJX-.! -.JXtXSXFXFXFXFXFXFXFXFXFXFXFXSXLXtXr.E AXHXFXFXFXFXFXFXFXFXFXSXHXjXVXHXFX",
"v.S.{.=X=X=XC.=X=X=X<XA.S.>X=X{.N.<X>X{.C.>X<X5.Z.S.S.Z.F.u.) ~.~.~.^.}.:X=X=X=X=X=X=X=X=X>X{.A.<X=X=X=X=X=X=X=X=X=X>X{.g.A.>X=X=X=X=X=X=X>XS.A.<X=X=X<X~.^.Z.=X=X=X=X>XC.{.>X=X>XC.=X=X=X=XC.=X=X=XC.=X1X5.k.1X=X=X=X=X=X=X;XS.n.v.v.S.;X=X=X>X=XG S L 7 :XnXcX%X%XcX#.i.lXjXrXtXtXtXtXrXaXOX/ ) ^ ..aXrXtXtXtXtXrXsXjXyXrXrX8X7X7X7X8XqX7X7X7X7XeXtXtXjXyXyXHXSXFXFXFXFXFXFXFXFXFXFXFXHXAXyXHXFXFXFXFXFXFXFXFXFXFXFXSXPXz.L.PXSXFXFXFXFXSXSXJX-.! -.JXHXtXSXFXFXFXFXFXFXFXFXFXFXFXSXLXtXr.E AXHXFXFXFXFXFXFXFXFXFXSXHXjXVXHXFX",
"v.{.;X=X=X=XC.=X=X=X<XA.S.>X=X{.N.<X>X{.C.>X<X5.Z.S.S.Z.F.u.) ~.~.~.^.}.:X=X=X=X=X=X=X=X=X>X{.A.<X=X=X=X=X=X=X=X=X=X>X{.g.A.>X=X=X=X=X=X=X>XS.A.<X=X=X<X~.^.Z.=X=X=X=X>XC.{.>X=X>XC.=X=X=X=XC.=X=X=XC.=X1X5.k.1X=X=X=X=X=X=X=X{.n.v.v.Z.<X=X=X=X>X&.A @.7 m.BXcX%X%XcX#.i.lXjXrXtXtXtXtXrXaXOX/ ) ^ ..aXrXtXtXtXtXrXsXjXyXrXrXqXqXqXqXeXeXqXqXqXqXeXtXtXjXyXyXHXSXFXFXFXFXFXFXFXFXFXFXFXHXAXyXHXFXFXFXFXFXFXFXFXFXFXFXSXPXz.L.PXSXFXFXFXSXSXJX-.! -.HXFXHXyXSXFXFXFXFXFXFXFXFXFXFXFXSXLXtXr.E AXHXFXFXFXFXFXFXFXFXFXSXHXjXVXHXFX",
"v.>X=X=X=X=XC.=X=X=X<XA.S.>X=X{.N.<X>X{.C.>X<X5.Z.S.S.Z.F.u.) ~.~.~.^.}.:X=X=X=X=X=X=X=X=X>X{.A.<X=X=X=X=X=X=X=X=X=X>X{.g.A.>X=X=X=X=X=X=X>XS.A.<X=X=X<X~.^.Z.=X=X=X=X>XC.{.>X=X>XC.=X=X=X=XC.=X=X=XC.=X1X5.k.1X=X=X=X=X=X=X=X=XZ.n.v.B.<X=X=X=X>X&.A &.h h nXcX%X%XcX#.i.lXjXrXtXtXtXtXrXaXOX/ ) ^ ..aXrXtXtXtXtXrXsXjXyXrXrX8X7X7X7X8XqX7X7X7X7XeXtXtXjXyXyXHXSXFXFXFXFXFXFXFXFXFXFXFXHXAXyXHXFXFXFXFXFXFXFXFXFXFXFXSXPXz.L.PXSXFXFXSXSXJX-.! -.HXHXSXHXyXSXFXFXFXFXFXFXFXFXFXFXFXSXLXtXr.E AXHXFXFXFXFXFXFXFXFXFXSXHXjXVXHXFX",
"v.>X=X=X=X=XC.=X=X=X<XA.S.>X=X{.N.<X>X{.C.>X<X5.Z.S.S.Z.F.u.) ~.~.~.^.}.:X=X=X=X=X=X=X=X=X>X{.A.<X=X=X=X=X=X=X=X=X=X>X{.g.A.>X=X=X=X=X=X=X>XS.A.<X=X=X<X~.^.Z.=X=X=X=X>XC.{.>X=X>XC.=X=X=X=XC.=X=X=XC.=X1X5.k.1X=X=X=X=X=X=X=X=X<XB.v.B.;X=X=X=X>X&.A *.H.6 wXnX%X%XcX#.i.lXjXrXtXtXtXtXrXaXOX/ ) ^ ..aXrXtXtXtXtXrXsXjXyXrXrXqXqXqXqXeXeXqXqXqXqXeXtXtXjXyXyXHXSXFXFXFXFXFXFXFXFXFXFXFXHXAXyXHXFXFXFXFXFXFXFXFXFXFXFXSXPXz.L.PXSXFXSXSXJX-.! -.HXHXSXFXHXyXSXFXFXFXFXFXFXFXFXFXFXFXSXLXtXr.E AXHXFXFXFXFXFXFXFXFXFXSXHXjXVXHXFX",
"N.<X=X=X=X=XC.=X=X=X<XA.S.>X=X{.N.<X>X{.C.>X<X5.Z.S.S.Z.F.u.) ~.~.~.^.}.:X=X=X=X=X=X=X=X=X>X{.A.<X=X=X=X=X=X=X=X=X=X>X{.g.A.>X=X=X=X=X=X=X>XS.A.<X=X=X<X~.^.Z.=X=X=X=X>XC.{.>X=X>XC.=X=X=X=XC.=X=X=XC.=X1X5.k.1X=X=X=X=X=X=X=X=X=X=XN.N.<X=X=X=X>X/.D &.R.6 U.nX%X%XcX#.i.lXjXrXtXtXtXtXrXaXOX/ ) ^ ..aXrXtXtXtXtXrXsXjXyXrXrX8X7X7X7X8XqX7X7X7X7XeXtXtXjXyXyXHXSXFXFXFXFXFXFXFXFXFXFXFXHXAXyXHXFXFXFXFXFXFXFXFXFXFXFXSXPXz.L.PXSXSXSXJX-.! -.HXHXSXFXFXHXyXSXFXFXFXFXFXFXFXFXFXFXFXSXLXtXr.E AXHXFXFXFXFXFXFXFXFXFXSXHXjXVXHXFX",
"C.<X=X=X=X=XC.=X=X=X<XA.S.>X=X{.N.<X>X{.C.>X<X5.Z.S.S.Z.F.u.) ~.~.~.^.}.:X=X=X=X=X=X=X=X=X>X{.A.<X=X=X=X=X=X=X=X=X=X>X{.g.A.>X=X=X=X=X=X=X>XS.A.<X=X=X<X~.^.Z.=X=X=X=X>XC.{.>X=X>XC.=X=X=X=XC.=X=X=XC.=X1X5.k.1X=X=X=X=X=X=X=X=X=X<XS.n.;X=X=X=X=X>XG F (.6 j nX%X%XcX#.i.lXjXrXtXtXtXtXrXaXOX/ ) ^ ..aXrXtXtXtXtXrXsXjXyXrXrXqXqXqXqXeXeXqXqXqXqXeXtXtXjXyXyXHXSXFXFXFXFXFXFXFXFXFXFXFXHXAXyXHXFXFXFXFXFXFXFXFXFXFXFXSXPXz.L.PXSXSXJXoX! #.HXHXSXFXFXFXHXyXSXFXFXFXFXFXFXFXFXFXFXFXSXLXtXr.E AXHXFXFXFXFXFXFXFXFXFXSXHXjXVXHXFX",
"A.>X=X=X=X=XC.=X=X=X<XA.S.>X=X{.N.<X>X{.C.>X<X5.Z.S.S.Z.F.u.) ~.~.~.^.}.:X=X=X=X=X=X=X=X=X>X{.A.<X=X=X=X=X=X=X=X=X=X>X{.g.A.>X=X=X=X=X=X=X>XS.A.<X=X=X<X~.^.Z.=X=X=X=X>XC.{.>X=X>XC.=X=X=X=XC.=X=X=XC.=X1X5.k.1X=X=X=X=X=X=X=X=X=X=X=Xn.Z.=X=X=X=X>X&.A %.h h cX%X%XcX#.i.lXjXrXtXtXtXtXrXaXOX/ ) ^ ..aXrXtXtXtXtXrXsXjXyXrXrX8X7X7X7X8XqX7X7X7X7XeXtXtXjXyXyXHXSXFXFXFXFXFXFXFXFXFXFXFXHXAXyXHXFXFXFXFXFXFXFXFXFXFXFXSXPXz.L.IXSXJXoX! | HXHXSXFXFXFXFXHXyXSXFXFXFXFXFXFXFXFXFXFXFXSXLXtXr.E AXHXFXFXFXFXFXFXFXFXFXSXHXjXVXHXFX",
"A.>X=X=X=X=XC.=X=X=X<XA.S.>X=X{.N.<X>X{.C.>X<X5.Z.S.S.Z.F.u.) ~.~.~.^.}.:X=X=X=X=X=X=X=X=X>X{.A.<X=X=X=X=X=X=X=X=X=X>X{.g.A.>X=X=X=X=X=X=X>XS.A.<X=X=X<X~.^.Z.=X=X=X=X>XC.{.>X=X>XC.=X=X=X=XC.=X=X=XC.=X1X5.k.1X=X=X=X=X=X=X=X=X=X=X<XN.n.{.;X=X=X>X&.A %.v.6 iX%X%XcX#.i.lXjXrXtXtXtXtXrXaXOX/ ) ^ ..aXrXtXtXtXtXrXsXjXyXrXrXeXqXqXqXeXeXqXqXqXqXeXtXtXjXyXyXHXSXFXFXFXFXFXFXFXFXFXFXFXHXAXyXHXFXFXFXFXFXFXFXFXFXFXFXSXPXz.L.IXJXoX! | HXFXSXFXFXFXFXFXHXyXSXFXFXFXFXFXFXFXFXFXFXFXSXLXtXr.E AXHXFXFXFXFXFXFXFXFXFXSXHXjXVXHXFX",
"A.>X=X=X=X=XC.=X=X=X<XA.S.>X=X{.N.<X>X{.C.>X<X5.Z.S.S.Z.F.u.) ~.~.~.^.}.:X=X=X=X=X=X=X=X=X>X{.A.<X=X=X=X=X=X=X=X=X=X>X{.g.A.>X=X=X=X=X=X=X>XS.A.<X=X=X<X~.^.Z.=X=X=X=X>XC.{.>X=X>XC.=X=X=X=XC.=X=X=XC.=X1X5.k.1X=X=X=X=X=X=X=X=X=X=X<XN.v.S.;X=X=X>X&.A D D.6 B.cX%XcX#.i.lXjXrXtXtXtXtXrXaXOX/ ) ^ ..aXrXtXtXtXtXrXsXjXyXrXrX8X7X7X7X8XqX7X7X7X7XeXtXtXjXyXyXHXSXFXFXFXFXFXFXFXFXFXFXFXHXAXyXHXFXFXFXFXFXFXFXFXFXFXFXSXPXz.L.PXoX! #.HXFXSXFXFXFXFXFXFXHXyXSXFXFXFXFXFXFXFXFXFXFXFXSXLXtXr.E AXHXFXFXFXFXFXFXFXFXFXSXHXjXVXHXFX",
"C.>X=X=X=X=XC.=X=X=X>XA.S.>X=X{.N.<X=X{.C.=X<X5.C.S.Z.Z.F.u.) ~.~.~.^.}.}.=X=X=X=X=X=X=X=X>XS.A.>X=X=X=X=X=X=X=X=X=X=X{.g.A.>X=X=X=X=X=X=X>XS.A.>X=X=X>X~.^.Z.=X=X=X=X>XC.{.=X=X>XC.=X=X=X=XC.=X=X=XC.=X1X5.k.<X=X=X=X=X=X=X=X=X=X=X;XN.v.S.;X=X=X>X&.A D 8Xu j cX%XcX| i.lXjXrXtXtXtXtXrXaXOX/ ) ^ ..aXrXtXtXtXtXrXsXjXyXrXrXeXqXqXqXeXeXqXqXqXqXeXtXtXjXyXyXHXSXSXSXSXSXSXSXSXSXSXSXSXFXAXyXHXSXSXSXSXSXSXSXSXSXSXSXSXPXz.I.*X! #.HXFXSXFXSXSXSXSXSXSXHXtXSXFXSXSXSXSXSXSXSXSXSXSXSXHXtXr.E CXHXSXSXSXSXSXSXSXSXSXSXHXsXVXHXSX",
"S.1X<X<X<X<XA.<X<X<X1X{.{.1X<X>XN.1X<X=XS.<X1X5.S.>XS.S.F.u.) +X~.^.+X:X:X;X<X<X<X<X<X<X<X1X=XS.1X<X<X<X<X<X<X<X<X<X1X>XB.{.1X<X<X<X<X<X<X1X{.{.1X<X<X2X/.^.S.<X<X<X<X1XA.>X<X<X1XA.<X<X<X<XA.<X<X<XA.<X0X4.l.1X<X<X<X<X<X<X<X<X<X<X1XG.v.{.1X<X<X<X;XZ A vXk h nX%XnX#.i.lXjXrXtXtXtXtXrXaXOX/ ) ^ ..aXrXtXtXtXtXrXsXjXyXrXrX8X7X7X7X8XqX7X7X7X7XeXtXtXjXyXsXIXLXLXLXLXLXLXLXLXLXLXLXLXLXHXjXIXLXLXLXLXLXLXLXLXLXLXLXHXPXL.X.' -.PXLXLXLXLXLXLXLXLXLXLXLXjXHXLXLXLXLXLXLXLXLXLXLXLXLXPXjXr.E FXLXLXLXLXLXLXLXLXLXLXLXIXjXSXIXLX",
"f.V.l.V.V.V.f.l.V.l.V.g.k.V.V.l.6.C.V.l.f.V.C.;.f.V.N.g.N.u._ x.x.x.x.k.k.l.V.V.V.V.V.V.V.V.k.g.V.l.V.V.V.V.V.V.V.V.V.l.q.g.V.V.V.V.V.V.V.V.k.g.V.V.l.C.x.x.g.V.V.V.l.V.f.l.V.V.V.f.l.V.V.V.f.V.V.l.f.l.A.<.d.C.l.V.V.V.V.V.V.V.V.V.V.h.7.N.V.V.V.V.V.Z A +Xm.6 +XOX+X .i.lXjXrXtXtXtXtXrXaXOX/ ) ^ ..aXrXtXtXtXtXrXsXjXyXrXrXeXqXqXqXeXeXqXqXqXqXeXtXtXjXyXtXtXrXrXrXrXrXrXrXrXrXrXrXrXrX4X-XtXrXrXrXrXrXrXrXrXrXrXrX4XkXoX!  .tXtXeXrXrXrXrXrXrXrXrXrXtXI.5XrXrXrXrXrXrXrXrXrXrXrXrXyXP.<.W 4XrXrXrXrXrXrXrXrXrXrXrXtX-X3XtXrX",
"<.5.5.5.5.5.<.5.5.5.5.<.5.5.5.5.;.5.5.5.<.5.5.q <.5.5.5.7.1.[ <.<.<.<.<.<.5.5.5.5.5.5.5.5.5.5.<.5.5.5.5.5.5.5.5.5.5.5.5.;.<.5.5.5.5.5.5.5.5.5.5.5.5.5.5.<.<.5.5.5.5.5.5.<.5.5.5.5.<.5.5.5.5.<.5.5.5.<.5.5.;.;.5.5.5.5.5.5.5.5.5.5.5.5.7.f f 5.5.5.5.5.Z A e.f 6 :.a.a._ p.lXjXrXtXtXtXtXrXaXOX/ ) ^ ..aXrXtXtXtXtXrXsXjXyXrXrX8X7X7X7X8XqX7X7X7X7XeXtXtXjXsX5Xf.s.s.s.s.s.s.s.s.s.s.s.s.s.s.9.s.s.s.s.s.s.s.s.s.s.s.s.g.o.! | j.s.s.s.s.s.s.s.s.s.s.s.s.s.9.s.s.s.s.s.s.s.s.s.s.s.s.s.f.9.q T s.s.s.s.s.s.s.s.s.s.s.s.s.9.9.s.s.",
"{.1X1X1X1X1XS.1X1X1X1X{.>X1X1X>XN.0X1X<X{.1X0X5.S.>X{.S.F.x. .+X+X+X:X:X;X1X1X1X1X1X1X1X1X1X>X{.1X1X1X1X1X1X1X1X1X1X1X<XB.{.1X1X1X1X1X1X1X1X=X{.1X1X1X2X^.}.{.1X1X1X1X1X{.<X1X1X1XS.1X1X1X1XS.1X1X1XS.1XtXr.V.0X1X1X1X1X1X1X1X1X1X1X1X<XN.n.F.0X1X1X1X&.A cXkX6 B.nXnX#.i.lXjXrXtXtXtXtXrXaXOX/ ) ^ ..aXrXtXtXtXtXrXsXjXyXrXrXeXqXqXqXeXeXqXqXqXqXeXtXtXjXyXsXPXPXPXPXPXPXPXPXPXPXPXPXPXPXLXVXPXPXPXPXPXPXPXPXPXPXIXPX*X' / 4XPXIXPXPXPXPXPXPXPXPXPXPXPXPXjXIXPXPXPXPXPXPXPXPXPXPXPXPXPXjXr.E LXPXPXPXPXPXPXPXPXPXPXPXPXAXHXPXPX",
"S.<X>X<X=X=XV.=X=X=X=XA.A.=X=XS.N.;X=X{.C.=X>X5.S.S.S.Z.F.u.) ~.~.~.^.^.}.{.=X=X=X=X=X=X=X=XS.{.<X<X<X=X=X=X=X=X=X=X=X{.g.C.=X=X=X=X=X=X=X=X{.{.>X<X=X>X~.^.C.=X=X=X=X=XC.{.=X=X=XV.{.=X=X=XA.=X>X>XV.=X1X5.k.<X=X=X=X=X=X=X=X=X=X=X=X;XN.v.B.=X=X=X=X&.A @XZX6 f %XwX| i.lXjXrXtXtXtXtXrXaXOX/ ) ^ ..aXrXtXtXtXtXrXsXjXyXrXrX8X7X7X7X8XqX7X7X7X7XeXtXtXjXyXyXHXSXSXSXSXSXSXSXSXSXSXSXSXSXAXtXFXSXSXSXSXSXSXSXSXAXJX#X! #.z.L.LXAXSXSXSXSXSXSXSXSXSXSXSXSXtXAXSXSXSXSXSXSXSXSXSXSXSXSXHXtX5.E CXSXSXSXSXSXSXSXSXSXSXSXFXsXjXFXSX",
"d.C.C.g.=X>XC.=X=X=X<XA.S.>X=X{.N.<X>X{.C.=X1X<.d.S.N.N.F.u.) ~.~.~.^.}.:X=X=X=X=X=X=X=X=X>X{.d.C.l.g.{.>X=X=X=X=X=X>X{.g.A.>X=X=X=X=X=X=X<XV.h.=Xl.{.<X~.^.Z.=X=X=X=X>XC.{.>X=X>XC.=X=X>X=Xd.S.C.V.A.=X1X5.k.1X=X=X=X=X=X=X=X=X=X=X=X;XN.v.B.<X=X=X>X&.A @XUXj h %XcX| i.lXjXrXtXtXtXtXrXaXOX/ ) ^ ..aXrXtXtXtXtXrXsXjXyXrXrXqXqXqXqXeXeXqXqXqXqXeXtXtXjXyXyXHXSXFXFXFXFXFXFXFXFXFXFXFXHXAXyXHXFXFXFXFXFXFXFXSXJX*X! $.PXD.L.PXSXFXFXFXFXFXFXFXFXFXFXFXHXyXSXFXFXFXFXFXFXFXFXFXFXFXSXLXtXr.E AXHXFXFXFXFXFXFXFXFXFXSXHXjXVXHXFX",
";.g.;.9.=X>XC.=X=X=X<XA.S.>X=X{.N.<X>X{.C.<XA.< 5.h.;.N.F.u.) ~.~.~.^.}.:X=X=X=X=X=X=X=X=X1X5.;.f.f.p f.1X=X=X=X=X=X>X{.g.A.>X=X=X=X=X=X<XV.;.6.d.;.5.1X~.^.Z.=X=X=X=X>XC.{.>X=X>XC.=X=X<X5.;.d.5.2.g.>X1X5.k.1X=X=X=X=X=X=X=X=X=X=X=X;XZ.n.N.;X=X=X>X&.A `.UXm.6 %XcX| i.lXjXrXtXtXtXtXrXaXOX/ ) ^ ..aXrXtXtXtXtXrXsXjXyXrXrX8X7X7X7X8XqX7X7X7X7XeXtXtXjXyXyXHXSXFXFXFXFXFXFXFXFXFXFXFXHXAXyXHXFXFXFXFXFXFXSXJX*X! $.FXPXz.L.PXSXFXFXFXFXFXFXFXFXFXFXFXHXyXSXFXFXFXFXFXFXFXFXFXFXFXSXLXtXr.E AXHXFXFXFXFXFXFXFXFXFXSXHXjXVXHXFX",
"A.1X>.5.{.>XC.=X=X=X<XA.S.>X=X{.N.<X>X{.C.1Xd.0 1X6.a h.F.u.) ~.~.~.^.}.:X=X=X=X=X=X=X=X>X{.;.{.1X1X5.{.>X=X=X=X=X=X>X{.g.A.>X=X=X=X=X=X1X5.d.1Xg.q d.1X~.^.Z.=X=X=X=X>XC.{.>X=X>XC.=X<XC.:.=XC.5.>.5.1X1X5.k.1X=X=X=X=X=X=X=X=X=X=X=X=X<XZ.N.<X=X=X>X&.A *.UXm.6 +XnX| i.lXjXrXtXtXtXtXrXaXOX/ ) ^ ..aXrXtXtXtXtXrXsXjXyXrXrXqXqXqXqXeXeXqXqXqXqXeXtXtXjXyXyXHXSXFXFXFXFXFXFXFXFXFXFXFXHXAXyXHXFXFXFXFXFXSXJX*X! ] SXFXIXz.L.PXSXFXFXFXFXFXFXFXFXFXFXFXHXyXSXFXFXFXFXFXFXFXFXFXFXFXSXLXtXr.E AXHXFXFXFXFXFXFXFXFXFXSXHXjXVXHXFX",
"k.<X<X5.6.1XV.=X=X=X<XA.S.>X=X{.N.<X>X{.C.1Xh.< >X5.6.;.F.u.) ~.~.~.^.}.:X=X=X=X=X=X=X=X=X=X;.V.1Xf.5.1X=X=X=X=X=X=X>X{.g.A.>X=X=X=X=X=X1X6.5.<X6.5.5.1X~.^.Z.=X=X=X=X>XC.{.>X=X>XC.=X<XS.;.V.<Xl.a d.<X1X5.k.1X=X=X=X=X=X=X=X=X=X=X=X=X<XZ.n.Z.;X=X>X&.A *.DXT.6 z.nX| i.lXjXrXtXtXtXtXrXaXOX/ ) ^ ..aXrXtXtXtXtXrXsXjXyXrXrX8X7X7X7X8XqX7X7X7X7XeXtXtXjXyXyXHXSXFXFXFXFXFXFXFXFXFXFXFXHXAXyXHXFXFXFXFXSXJX*X! ] SXHXAXPXz.L.PXSXFXFXFXFXFXFXFXFXFXFXFXHXyXSXFXFXFXFXFXFXFXFXFXFXFXSXLXtXr.E AXHXFXFXFXFXFXFXFXFXFXSXHXjXVXHXFX",
"a f.6.<.A.<XC.=X=X=X<XA.S.>X=X{.N.<X>X{.C.<X=Xq 2.N.;.6.F.u.) ~.~.~.^.}.:X=X=X=X=X=X=X=X=X1Xd.a l.d.l.<X=X=X=X=X=X=X>X{.g.A.>X=X=X=X=X=X>X{.;.5.f.:.d.1X~.^.Z.=X=X=X=X>XC.{.>X=X>XC.=X=X<Xd.a l.d.5.C.=X1X5.k.1X=X=X=X=X=X=X=X=X=X=X=X=X;XS.v.N.<X=X>X&.F '.DXrX6 w.nX| i.lXjXrXtXtXtXtXrXaXOX/ ) ^ ..aXrXtXtXtXtXrXsXjXyXrXrXqXqXqXqXeXeXqXqXqXqXeXtXtXjXyXyXHXSXFXFXFXFXFXFXFXFXFXFXFXHXAXyXHXFXFXFXSXJX*X! ] SXHXSXSXPXz.L.PXSXFXFXFXFXFXFXFXFXFXFXFXHXyXSXFXFXFXFXFXFXFXFXFXFXFXSXLXtXr.E AXHXFXFXFXFXFXFXFXFXFXSXHXjXVXHXFX",
"C.=X=X=X>X=XC.=X=X=X>XA.S.>X=X{.N.<X=X{.C.=X1X5.V.{.S.Z.F.u.) ~.~.~.^.}.:X=X=X=X=X=X=X=X=X>X{.A.=X>X>X=X=X=X=X=X=X=X=X{.g.A.>X=X=X=X=X=X=X<X{.C.<X=X<X<X~.^.Z.=X=X=X=X>XC.{.=X=X>XC.=X=X=X<XV.=X{.>XC.=X1X5.k.<X=X=X=X=X=X=X=X=X=X=X=X=X;XS.v.N.;X=X>X&.F '.ZXmX6 8.nX| i.lXjXrXtXtXtXtXrXaXOX/ ) ^ ..aXrXtXtXtXtXrXsXjXyXrXrX8X7X7X7X8XqX7X7X7X7XeXtXtXjXyXyXHXSXFXFXFXFXFXFXFXFXFXFXFXHXAXyXHXFXFXSXJX*X! ] SXHXSXFXSXPXz.L.PXSXFXFXFXFXFXFXFXFXFXFXFXHXyXSXFXFXFXFXFXFXFXFXFXFXFXSXLXtXr.E AXHXFXFXFXFXFXFXFXFXFXSXHXjXVXHXFX",
"A.<X>X=X=X<XC.=X>X>X<XA.{.>X<X{.N.<X>X=XC.>X1X<.Z.{.S.Z.F.u.) ~.~.~.^.:X:X=X>X>X=X=X>X>X=X<X{.A.<X>X=X>X>X>X=X>X>X>X<X=Xg.A.<X>X=X>X>X>X=X<XS.S.<X>X=X<X/.^.Z.<X>X>X>X<XC.=X<X=X>XC.=X>X>X>XC.>X<X=XC.>X1X5.k.1X=X>X>X=X>X>X>X=X=X=X=X=X<X=Xn.N.<X;X2X&.D '.ZXNXh f nX| i.lXjXrXtXtXtXtXrXaXOX/ ) ^ ..aXrXtXtXtXtXrXsXjXyXrXrXqXqXqXqXqXeXqXqXqXqXeXtXtXjXyXyXHXSXFXFXFXFXFXFXFXFXFXFXFXHXAXyXHXFXSXJX*X! ] ZXHXSXFXFXSXPXz.L.PXSXFXFXFXFXFXFXFXFXFXFXFXHXyXSXFXFXFXFXFXFXFXFXFXFXFXSXLXtXr.E AXHXFXFXFXFXFXFXFXFXFXSXHXjXVXHXFX",
"A.g.g.{.A.g.g.{.C.g.V.f.l.{.C.h.h.=XV.f.l.=Xl.f.l.h.V.Z.N.<.) z.x.x.x.s.z.A.g.g.S.S.g.g.{.A.g.A.g.l.{.A.f.l.{.C.g.l.g.l.g.V.f.V.{.V.f.C.{.l.C.l.f.A.{.V.s.z.S.k.V.g.g.S.A.g.g.{.S.f.g.{.A.l.C.f.l.{.V.f.V.C.l.l.l.f.V.{.V.f.l.{.>X=X>X{.g.g.7.7.h.k.B.@.D &.L.wXj g nX| i.lXjXrXtXtXtXtXrXaXOX/ ) ^ ..aXrXtXtXtXtXrXsXjXyXrXrX8X7X7X7X8XqX7X7X7X7XeXtXtXjXyXyXHXSXFXFXFXFXFXFXFXFXFXFXFXHXAXyXHXSXJX*X! ] ZXJXSXFXFXFXSXPXz.L.PXSXFXFXFXFXFXFXFXFXFXFXFXHXyXSXFXFXFXFXFXFXFXFXFXFXFXSXLXtXr.E AXHXFXFXFXFXFXFXFXFXFXSXHXjXVXHXFX",
"A.d.d.S.C.d.f.{.V.d.g.d.g.{.l.6.h.=Xk.9.l.{.f.V.g.6.N.V.n.1.) x.u.s.s.s.z.A.d.d.A.A.d.d.A.C.f.C.d.f.{.V.d.f.{.l.h.g.d.f.g.l.6.l.{.g.9.l.{.f.V.g.d.V.{.f.4.z.S.d.g.d.d.A.A.d.d.A.A.d.f.{.V.f.C.d.f.{.V.d.g.=Xl.f.g.d.k.{.g.d.f.S.>X=X>XS.f.l.g.6.q.l.B.@.Z &.z.wXm.4 cX#.i.lXjXrXtXtXtXtXrXaXOX/ ) ^ ..aXrXtXtXtXtXrXsXjXyXrXrXqXqXqXqXqXeXqXqXqXqXeXtXtXjXyXyXHXSXFXFXFXFXFXFXFXFXFXFXFXHXAXyXUXJXnX! ] ZXJXSXFXFXFXFXSXPXz.L.PXSXFXFXFXFXFXFXFXFXFXFXFXHXyXSXFXFXFXFXFXFXFXFXFXFXFXSXLXtXr.E AXHXFXFXFXFXFXFXFXFXFXSXHXjXVXHXFX",
"A.d.f.S.C.d.f.{.V.f.g.d.g.{.l.6.h.=Xl.d.l.{.g.l.g.6.N.V.N.1.) x.u.x.s.s.z.A.f.d.A.A.d.f.S.C.f.C.d.f.{.C.d.g.{.l.f.g.d.g.g.l.d.l.{.k.d.l.{.g.V.g.d.C.{.g.u.z.S.f.g.h.d.A.A.d.f.S.A.d.f.{.C.f.C.d.g.{.V.d.g.{.l.f.g.d.l.{.k.d.g.S.>X=X>XS.f.C.C.N.v.V.S.'.Z &.J.wXm.4 wX#.i.lXjXrXtXtXtXtXrXaXOX/ ) ^ ..aXrXtXtXtXtXrXsXjXyXrXrX8X7X7X7X8XqX7X7X7X7XeXtXtXjXyXyXHXSXFXFXFXFXFXFXFXFXFXFXFXHXAXtXJXnX' ] ZXJXSXFXFXFXFXFXSXPXz.L.PXSXFXFXFXFXFXFXFXFXFXFXFXHXyXSXFXFXFXFXFXFXFXFXFXFXFXSXLXtXr.E AXHXFXFXFXFXFXFXFXFXFXSXHXjXVXHXFX",
"A.d.f.S.C.d.f.{.V.f.g.d.g.{.l.6.h.=Xl.d.l.{.g.l.g.6.N.V.N.1.) x.u.s.s.s.z.A.f.d.A.A.d.f.S.C.f.C.d.f.{.C.d.g.{.l.f.g.d.f.g.l.d.l.{.k.d.l.{.f.V.g.d.C.{.g.u.z.S.f.g.d.d.A.A.d.h.A.A.d.f.{.V.f.C.d.g.{.V.d.g.{.l.f.g.d.l.{.k.d.f.S.>X=X>XS.f.V.C.h.w q a @.G &.z.wXE.4 iX#.i.lXjXrXtXtXtXtXrXaXOX/ ) ^ ..aXrXtXtXtXtXrXsXjXyXrXrXqXqXqXqXqXeXqXqXqXqXeXtXtXjXyXyXHXSXFXFXFXFXFXFXFXFXFXFXFXHXAXkXnX' ] ZXJXSXFXFXFXFXFXFXSXPXz.L.PXSXFXFXFXFXFXFXFXFXFXFXFXHXyXSXFXFXFXFXFXFXFXFXFXFXFXSXLXtXr.E CXHXFXFXFXFXFXFXFXFXFXSXHXjXVXHXFX",
"A.d.f.S.C.d.f.{.V.f.g.d.g.{.l.6.h.=Xl.d.l.{.g.l.g.6.N.V.N.1.) x.u.s.s.s.z.A.f.d.A.A.d.f.S.C.f.C.d.f.{.C.d.g.{.l.f.g.d.f.g.l.d.l.{.k.d.l.{.f.V.g.d.C.{.g.u.z.S.f.g.d.d.A.A.d.h.A.A.d.f.{.V.f.C.d.g.{.V.d.g.{.l.f.g.d.l.{.k.d.f.S.>X=X<XS.f.V.C.>.f h.q.m G &.z.wXT.4 L.#.i.lXjXrXtXtXtXtXrXaXOX/ ) ^ ..aXrXtXtXtXtXrXsXjXyXrXrX8X7X8X7X8XqX7X8X8X7XeXtXtXjXyXyXHXFXHXHXHXHXHXHXHXHXHXHXHXSXJX#X' ] ZXJXSXHXHXHXHXHXHXHXSXPXz.P.PXSXHXHXHXHXHXHXHXHXHXHXFXHXyXSXHXHXHXHXHXHXHXHXHXHXHXFXLXtXr.E AXHXFXHXHXHXHXHXHXHXHXFXHXjXVXHXFX",
"A.d.f.S.C.d.f.{.V.f.g.d.g.{.l.6.h.=Xl.d.l.{.g.l.g.6.N.V.N.1.) x.u.s.s.s.z.A.f.d.A.A.d.f.S.C.f.C.d.f.{.C.d.g.{.l.f.g.d.f.g.l.d.l.{.k.d.l.{.f.V.g.d.C.{.g.u.z.S.f.g.d.d.A.A.d.h.A.A.d.f.{.V.f.C.d.g.{.V.d.g.{.l.f.g.d.l.{.k.d.g.S.=X{.=XA.f.C.k.2.7.N.A.5.e.S W.eX3X4 B.#.i.lXjXrXtXtXtXtXrXaXOX/ ) ^ ..aXrXtXtXtXtXrXsXjXyXrXrXqX8XqX8XqXeX8XqXqX8XeXtXtXjXyXyXFXAXSXSXSXSXSXSXSXSXSXSXAXJXnX' ] ZXFXAXSXSXSXSXSXSXSXSXAXLXz.L.LXAXSXSXSXSXSXSXSXSXSXSXAXSXtXAXSXSXSXSXSXSXSXSXSXSXSXAXHXtX5.E CXSXSXSXSXSXSXSXSXSXSXAXFXsXjXSXAX",
"A.d.f.{.C.d.f.{.V.f.g.d.g.{.l.6.h.=Xl.d.l.{.g.l.g.6.N.V.N.1.) x.u.s.s.s.z.A.f.d.A.A.d.f.S.C.f.C.d.f.{.C.d.g.{.l.f.g.d.f.g.l.d.l.{.k.d.l.{.f.V.g.d.C.{.g.u.z.S.f.g.h.d.A.A.d.h.S.A.d.f.{.C.f.C.d.g.{.V.d.g.{.l.f.g.d.l.{.k.d.g.V.C.C.C.V.f.V.V.q 9 V.2.9 x.S @.iXiX4 w.$.i.lXjXrXtXtXtXtXrXaXOX/ ) ^ ..aXrXtXtXtXtXrXsXjXyXrXrX8X8X8X8XqXqX8X8X8X8XeXtXtXjXyXtXsXtXyXyXyXyXyXyXyXyXyXtXkX#X' ] uXaXtXyXyXyXyXyXyXyXyXyXtXjXf.j.jXtXyXyXyXyXyXyXyXyXyXyXyXyX4XtXyXyXyXyXyXyXyXyXyXyXyXyXjX-X<.E rXyXyXyXyXyXyXyXyXyXyXyXsX4XrXyXyX",
"A.d.f.A.C.d.f.S.V.f.g.d.g.{.l.6.h.{.k.d.l.{.g.l.g.6.N.V.n.1.) x.u.s.s.s.z.A.h.d.A.A.d.h.A.C.f.C.d.f.S.V.d.g.{.l.f.g.d.f.g.l.d.l.{.g.d.l.{.f.V.g.d.V.A.g.u.k.S.f.g.d.d.A.A.d.h.A.C.d.f.S.V.f.C.d.g.{.V.d.g.{.l.f.g.d.l.{.g.d.f.{.<X>X<X{.f.V.C.2.9 N.q q x.S @.iXmX4 v.#.i.lXjXrXtXtXtXtXrXaXOX/ ) ^ ..aXrXtXtXtXtXrXsXjXyXrXrXqX8X8X8XqXeX8X8X8X8XeXtXtXjXyXsXLXHXHXHXHXHXHXHXHXHXUXJXnX' ] wXJXSXHXHXHXHXHXHXHXHXHXHXFXPXz.P.PXFXHXHXHXHXHXHXHXHXHXHXHXHXyXFXHXHXHXHXHXHXHXHXHXHXHXHXLXyXr.E SXHXHXHXHXHXHXHXHXHXHXHXHXjXCXHXHX",
"A.d.f.l.d.d.f.k.d.f.g.d.f.g.d.d.6.g.d.d.g.g.d.V.g.6.h.d.6.1._ s.u.x.s.s.g.f.d.d.l.f.d.h.l.d.f.C.d.f.k.d.d.f.k.d.f.g.d.h.0.f.d.g.g.d.d.g.g.d.C.g.d.g.f.h.u.x.f.d.g.d.d.l.f.d.d.l.h.d.f.l.d.g.C.d.f.g.d.d.f.g.d.g.g.d.g.g.d.d.f.S.>X=X>XS.f.V.V.C.7.h.d.B.).S &.iXNXh j #.i.lXjXrXtXtXtXtXrXaXOX/ ) ^ ..aXrXtXtXtXtXrXsXjXyXrXrX8X8X8X8XqXeX8X8X8X8XeXtXtXjXyXyXHXSXFXFXFXFXFXFXFXSXJXnX' ] mXaXFXSXFXFXFXFXFXFXFXFXFXFXSXPXz.L.IXSXFXFXFXFXFXFXFXFXFXFXSXHXtXSXFXFXFXFXFXFXFXFXFXFXFXSXHXtXr.E CXHXSXFXFXFXFXFXFXFXFXSXHXjXVXHXSX",
"A.d.f.g.d.d.f.g.d.f.g.d.f.g.d.d.6.g.d.d.g.g.d.V.g.6.h.d.6.1._ u.u.x.s.s.f.d.d.d.g.d.d.h.g.d.f.C.d.f.g.d.d.f.g.d.f.g.d.h.0.d.d.g.g.d.d.g.f.d.C.g.d.g.f.h.u.x.h.d.k.h.d.g.d.d.h.g.d.d.f.g.d.g.C.d.f.g.d.d.f.g.d.g.g.d.g.g.d.d.f.S.>X=X>XS.f.V.V.C.N.q.A.C.x.D Z iXNXg j #.i.lXjXrXtXtXtXtXrXaXOX/ ) ^ ..aXrXtXtXtXtXrXsXjXyXrXrXqX8X8X8XqXeX8X8X8X8XeXtXtXjXyXyXHXSXFXFXFXFXFXFXSXJXnX' ] NXFXtXHXSXFXFXFXFXFXFXFXFXFXFXSXPXz.L.PXSXFXFXFXFXFXFXFXFXFXFXFXHXyXSXFXFXFXFXFXFXFXFXFXFXFXSXLXtXr.E AXHXFXFXFXFXFXFXFXFXFXSXHXjXVXHXFX",
"A.d.d.g.d.d.f.g.d.f.g.d.f.g.d.d.6.g.d.d.g.g.d.V.g.6.h.d.6.1._ u.u.x.s.s.f.d.d.d.g.d.d.d.g.d.f.C.d.f.g.d.d.f.g.d.f.g.d.h.0.d.d.g.f.d.d.g.f.d.C.g.d.g.f.h.u.x.h.d.g.d.d.g.d.d.d.g.d.d.h.g.d.f.C.d.f.g.d.d.f.g.d.f.g.d.g.g.d.d.f.S.>X=X>XS.f.V.V.V.h.q.l.V.x.D Z iXNXf j #.i.lXjXrXtXtXtXtXrXaXOX/ ) ^ ..aXrXtXtXtXtXrXsXjXyXrXrXqX8X8X8XqXeX8X8X8X8XeXtXtXjXyXyXHXSXFXFXFXFXFXSXJXnX' ' mXJXAXyXHXFXFXFXFXFXFXFXFXFXFXFXSXPXz.L.PXSXFXFXFXFXFXFXFXFXFXFXFXHXyXSXFXFXFXFXFXFXFXFXFXFXFXSXLXtXr.E AXHXFXFXFXFXFXFXFXFXFXSXHXjXVXHXFX",
"A.f.f.l.f.f.f.l.d.g.l.d.g.g.f.d.6.k.d.d.g.g.d.l.g.q.h.d.v.<._ s.u.x.s.s.k.f.f.f.l.f.f.f.l.h.g.C.d.f.l.f.h.g.k.d.g.g.d.f.0.f.d.g.g.h.h.g.g.d.C.g.d.l.f.h.u.x.f.f.l.f.f.l.f.h.f.l.f.d.f.l.d.g.C.d.g.k.d.h.g.g.d.g.g.d.g.g.h.f.g.{.>X=X>X{.f.f.f.g.6.6.k.g.x.D Z iXBXf h #.i.lXjXrXtXtXtXtXrXaXOX/ ) ^ ..aXrXtXtXtXtXrXsXjXyXrXrX8X8X8X8XqXeX8X8X8X8XeXtXtXjXyXyXHXSXFXFXFXFXSXJXnX' ' nXJXSXAXyXHXFXFXFXFXFXFXFXFXFXFXFXSXPXz.L.PXSXFXFXFXFXFXFXFXFXFXFXFXHXyXSXFXFXFXFXFXFXFXFXFXFXFXSXLXtXr.E AXHXFXFXFXFXFXFXFXFXFXSXHXjXVXHXFX",
"A.>X=X=X=X=XC.=X=X=X>XA.S.>X=X{.N.<X=X{.C.=X<X5.C.S.Z.Z.F.u.) ~.~.~.^.}.}.=X=X=X=X=X=X=X=X=XS.A.>X=X=X=X=X=X=X=X=X=X=X{.g.A.=X=X=X=X=X=X=X=XS.A.>X=X=X>X~.^.Z.=X=X=X=X>XC.{.=X=X=XC.=X=X=X=XC.=X=X=XC.=X1X5.k.<X=X=X=X=X=X=X=X=X=X=X=X=X=X=X=X;XZ.N.;X>X/.D Z mXBXv.h #.i.lXjXrXtXtXtXtXrXaXOX/ ) ^ ..aXrXtXtXtXtXrXsXjXyXrXrXqX8X8X8XqXeX8X8X8X8XeXtXtXjXyXyXHXSXFXFXFXSXJXnX' ' nXJXSXHXAXyXHXFXFXFXFXFXFXFXFXFXFXFXSXPXz.L.PXSXFXFXFXFXFXFXFXFXFXFXFXHXyXSXFXFXFXFXFXFXFXFXFXFXFXSXLXtXr.E AXHXFXFXFXFXFXFXFXFXFXSXHXjXVXHXFX",
"A.>X=X=X=X=XC.=X=X=X<XA.S.>X>X{.N.<X>X{.C.>X<X5.Z.S.Z.Z.F.u.) ~.~.~.^.}.:X=X=X=X=X=X=X=X=X>X{.A.<X=X=X=X=X=X=X=X=X=X>X=Xg.A.>X=X=X=X=X=X=X<XS.A.<X=X=X<X~.^.Z.=X=X=X=X>XC.{.>X=X>XC.=X>X=X=XC.=X=X=XC.=X1X5.k.<X=X=X=X=X=X=X=X=X=X=X=X=X=X=X=X<XZ.N.;X>X/.D Z uXBXn.h  .i.lXjXrXtXtXtXtXrXaXOX/ ) ^ ..aXrXtXtXtXtXrXsXjXyXrXrX8X8X8X8XqXeX8X8X8X8XeXtXtXjXyXyXHXSXFXFXSXJXmX' ' nXJXSXFXHXAXyXHXFXFXFXFXFXFXFXFXFXFXFXSXPXz.L.PXSXFXFXFXFXFXFXFXFXFXFXSXFXtXSXFXFXFXFXFXFXFXFXFXFXFXSXHXtXr.E AXHXFXFXFXFXFXFXFXFXFXSXHXjXVXHXFX",
"C.<X1X>X1X1XA.1X<X=X<XA.S.>X=X{.N.<X=X{.C.=X<X5.C.>X{.Z.F.u.) ~.~.~.^.}.:X=X=X=X=X=X=X=X=X>X{.A.<X1X<X<X=X=X=X=X=X=X>X{.g.A.<X<X1X<X=X=X=X>XS.A.>X=X=X<X~.^.Z.>X1X<X<X>XC.{.>X=X>XC.=X=X=X=XC.=X=X=XC.=X1X5.k.1X1X=X1X<X<X=X=X=X=X=X=X=X=X=X=X;XZ.N.=X>X/.D D MXBXm.h  .p.lXjXrXtXtXtXtXrXaXOX/ ) ^ ..aXrXtXtXtXtXrXsXjXyXrXrXqX8X8X8XqXeX8X8X8X8XeXtXtXjXyXyXHXSXFXSXJXmX' ' nXJXSXFXFXHXAXyXHXFXFXFXFXFXFXFXFXFXFXFXSXPXz.L.PXSXFXFXFXFXFXFXFXFXFXFXHXKXyXHXHXFXFXHXHXKXHXFXFXFXHXHXPXgXr.E AXHXFXFXFXFXFXFXFXFXFXSXHXjXVXHXFX",
"S.C.p g.4.;.f.p g.<X>XA.S.>X=X{.N.<X>X{.C.>X<X5.S.0.2.d.N.x.) ~.~.~.^.}.:X=X=X=X=X=X=X=X=X>XS.S.V.p d.q.1X=X=X=X=X=X>X{.g.S.d.;.0.g.0X=X=X>XS.A.<X=X=X<X~.^.Z.{.a 0.0.=XS.{.>X=X>XC.=X=X=X=XC.=X=X=XC.=X1X5.l.V.>.=Xa 9.q.=X<X=X=X=X=X=X=X=X=X;XS.N.;X>X/.D F :.J.0.4 o.a.GXjXrXtXtXtXtXrXaXOX/ ) ^ ..aXrXtXtXtXtXrXsXjXyXrXrX8X7X8X7XqXqX7X8X8X7XeXtXtXjXyXyXHXFXSXJXmX' ' hXJXSXFXFXFXHXAXyXHXFXFXFXFXFXFXFXFXFXFXFXSXPXz.L.PXSXFXFXFXFXFXFXFXFXFXHX.X.X0X.XbXHXKXbXbXbXbXHXHXSXbXbX.X|.r.E AXHXFXFXFXFXFXFXFXFXFXSXHXjXVXHXFX",
"{.0.q V.;.4.- 0.;.>X>XA.S.>X=X{.N.<X>X{.C.>X<X<.{.2.a 5.f 1. .~.~.~.^.}.:X=X=X=X=X=X=X=X=X>XS.A.{.f.i ;.4.A.<X=X=X=X>X{.g.A.V.a a >.0.=X=X>XS.A.<X=X=X<X~.^.S.l.< A.>.5.d.>X=X=X>XC.=X=X=X=XC.=X=X=XC.=X1X5.V.f.p 0.2.;.p 4.l.<X=X=X=X=X=X=X=X;XS.n.Z.>X/.D F iX:.i 4 & c.GXsXrXtXtXtXtXrXaXOX/ ) ^ ..aXrXtXtXtXtXrXsXjXyXrXrXqXqXqXqXqXeX8XqXqX8XeXtXtXjXyXyXHXSXJXmX] ' hXJXSXFXFXFXFXHXAXyXHXFXFXFXFXFXFXFXFXFXFXFXSXPXz.L.PXSXFXFXFXFXFXFXFXFXHXHXAX.X|..X.XHXFXXXbX.X.XKXbXXX X.X.X].r.E CXHXFXFXFXFXFXFXFXFXFXSXHXjXVXHXFX",
"A.S.9.0 4.l.= >Xa =X<XA.S.>X=X{.N.<X>X{.C.>X<X5.S.V.2.5.: u. .~.~.~.^.}.:X=X=X=X=X=X=X=X=X>X{.C.0X9.d.; ;.1X=X=X=X=X>X{.g.A.=X;.;.: g.<X=X>XS.A.<X=X=X<X~.^.Z.=X0.;.0 < S.{.>X=X>XC.=X=X=X=XC.=X=X=XC.=X1X5.k.<X2.>.l.5.- i 1X=X=X=X=X=X=X=X=X=X{.n.n.>X/.F D +X9.>.4 & c.GXsXrXtXtXtXtXrXaXOX/ ) ^ ..aXrXtXtXtXtXrXsXjXyXrXrX8X7X7X7X8XqX7X7X7X7XeXtXtXjXyXsXHXHXNX] ' hXJXSXFXFXFXFXFXHXAXyXHXFXFXFXFXFXFXFXFXFXFXFXSXPXz.L.PXSXFXFXFXFXFXFXFXHXCXbXHX.XtXbX.XKX.XXX.XCX.XKX.XbX.X.X.X[.r.E CXHXFXFXFXFXFXFXFXFXFXSXHXjXVXHXFX",
"A.A.d.p a ;.q a >.<X>XA.S.>X=X{.N.<X>X{.C.>X<X5.S.g.;.2.0 o. .~.~.~.^.}.:X=X=X=X=X=X=X=X=X>XS.{.0.; f.0 a S.>X=X=X=X>X{.g.C.g.2.0 0 2.<X=X>XS.A.<X=X=X<X~.^.Z.S.f.a 0 i d.>X=X=X>XC.=X=X=X=XC.=X=X=XC.=X1X5.k.=X;.h.a ;.q i V.<X=X=X=X=X=X=X=X=X{.n.n.>X}.D H < J.>.4 * c.GXsXrXtXtXtXtXrXaXOX/ ) ^ ..aXrXtXtXtXtXrXsXjXyXrXrXqXqXqXqXqXeXqXqXqXqXeXtXtXjXyXyXJXNX] ' hXJXSXFXFXFXFXFXFXHXAXyXHXFXFXFXFXFXFXFXFXFXFXFXSXPXz.L.PXSXFXFXFXFXFXFXFXHXbXbXXX.X0XbXXXbXbXXX.XbX.XKX.X.X.X.X.X].r.E CXHXFXFXFXFXFXFXFXFXFXSXHXjXVXHXFX",
"A.A.2.A.l.0.C.4.A.<X>XA.S.>X=X{.N.<X>X{.C.=X<X5.Z.Z.N.N.G.<. .~.~.~.^.}.:X=X=X=X=X=X=X=X=X>XS.S.g.4.d.A.l.A.<X=X=X=X>X{.g.A.d.9.A.A.g.=X=X>XS.A.>X=X=X<X~.^.Z.{.5.g.A.C.h.=X=X=X>XC.=X=X=X=XC.=X=X=XC.=X1X5.k.<Xl.>X0.g.A.V.V.<X=X=X=X=X=X=X=X=X=Xn.n.>X}.D H s.J.J.4 t i.lXjXrXtXtXtXtXrXaXOX/ ) ^ ..aXrXtXtXtXtXrXsXjXyXrXrX8X7X7X7X8XqX7X7X7X7XeXtXtXjXyXkXDX] ' hXJXSXFXFXFXFXFXFXFXHXAXyXHXFXFXFXFXFXFXFXFXFXFXFXSXPXz.P.PXSXFXFXFXFXFXFXFXFXHXHXbXbX|..XCXbXKXFXSXSXCXHXCXbXCXbX.X0Xr.E AXHXFXFXFXFXFXFXFXFXFXSXHXjXVXHXFX",
"C.<X0X<X<X1XC.0X<X=X<XA.S.<X>X{.N.<X>X{.C.>X<X<.C.{.F.Z.F.u._ ~.~.~.^.}.:X=X=X=X=X=X=X=X=X<X{.A.1X0X1X<X<X<X=X=X=X=X>X=Xg.A.1X1X<X<X<X>X=X<XS.A.<X=X=X<X~.^.Z.<X0X<X<X1XA.{.>X=X>XC.=X>X=X>XC.=X>X=XC.=X1X5.k.1X<X=X1X<X<X<X<X=X=X=X=X=X=X=X=X=X>Xn.n.>X}.Z D BXBXwXu t ..lXjXrXtXtXtXtXrXaXOX/ ) / ..aXrXtXtXtXtXrXsXjXyXrXrXqXqXqXqXqXeXqXqXqXqXeXtXtXjXsXiX] ' hXJXSXFXFXFXFXFXFXFXFXHXAXtXHXSXFXFXFXFXFXFXFXFXFXFXSXPXz.L.PXSXFXFXFXFXFXFXFXFXFXFXKXKXgXKXHXHXSXFXHXHXHXFXHXKXHXHXPXgX5.W CXHXFXFXFXFXFXFXFXFXFXSXHXsXVXHXFX",
"A.=X{.=X{.{.C.{.=X=X=XA.S.=X=X{.N.=X=X{.A.=X>X5.Z.S.S.Z.F.x.X.^.~.^.^.}.{.{.=X=X=X=X=X=X=X=X{.A.=X{.{.{.{.=X=X=X=X=X=X{.V.A.=X{.=X{.{.=X=X=XS.A.=X=X=X>X^.^.A.=X{.{.{.=XC.{.=X=X=XC.{.=X=X=XC.=X=X{.C.{.<Xd.l.<X{.=X{.{.=X{.=X=X=X=X=X=X=X=X=X=X=Xn.v.{.}.D A 7XNXuX6 n oXlXjXrXtXtXtXtXrXaXOX( _ ~ ..aXrXtXtXtXtXrXsXjXyXrXrX8X7X7X7X8XqX7X7X7X7XeXtXtXjXkXoX' %XJXSXFXFXFXFXFXFXFXFXFXHXSXjXHXFXFXFXFXFXFXFXFXFXFXFXSXIX-X3XLXSXFXFXFXFXFXFXFXFXFXFXSXFXjXSXFXFXFXFXFXFXFXFXFXFXFXSXHXjXl.XXAXHXFXFXFXFXFXFXFXFXFXFXHXjXAXHXFX",
",X,X,X,X,X,X,X,X,X,X,X,X,X,X,X,X,X,X,X,X,X,X,X4X,X,X,X,X,X,X2X,X,X,X,X,X,X,X,X,X,X,X,X,X,X,X,X,X,X,X,X,X,X,X,X,X,X,X,X,X,X,X,X,X,X,X,X,X,X,X,X,X,X,X,X,X,X,X,X,X,X,X,X,X,X,X,X,X,X,X,X,X,X,X,X,X,X,X,X,X,X3X,X,X,X,X,X,X,X,X,X,X,X,X,X,X,X,X,X,X,X,XI.,X,X/.).;XtX5XG.Y.rXjXjXrXtXtXtXtXrXaX+X .X. .!.aXrXtXtXtXtXrXsXjXyXrXrXqXqXqXqXeXeXqXqXqXqXeXtXtXjXjX5X4XtX5X5X5X5X5X5X5X5X5X5X5X5XrXrX5X5X5X5X5X5X5X5X5X5X5X5X5X5XtXtX5X5X5X5X5X5X5X5X5X5X5X5X5X5XtX5X5X5X5X5X5X5X5X5X5X5X5X5X5XtXtXgXrX5X5X5X5X5X5X5X5X5X5X5X5XrXrX5X5X",
"jXjXjXjXjXjXjXjXjXjXjXjXjXjXjXjXjXjXjXjXjXjXjXjXjXjXjXjXjXjXjXjXjXjXjXjXjXjXjXjXjXjXjXjXjXjXjXjXjXjXjXjXjXjXjXjXjXjXjXjXjXjXjXjXjXjXjXjXjXjXjXjXjXjXjXjXjXjXjXjXjXjXjXjXjXjXjXjXjXjXjXjXjXjXjXjXjXjXjXjXVXjXjXjXjXjXjXjXjXjXjXjXjXjXjXjXjXjXjXjXjXVXVXVXjXkXlXjXjXjXDXVXjXjXjXrXtXtXtXrXrXtXtXaXaXaXaXrXtXrXrXtXtXrXsXjXyXrXrX8X7X7X7X8XqX7X7X7X7XeXtXtXjXjXjXjXjXjXjXjXjXjXjXjXjXjXjXjXjXjXjXjXjXjXjXjXjXjXjXjXjXjXjXjXjXjXjXjXjXjXjXjXjXjXjXjXjXjXjXjXjXjXjXjXjXjXjXjXjXjXjXjXjXjXjXjXjXjXjXjXjXjXjXjXjXjXjXjXjXjXjXjXjXjXjXjX",
"sXsXsXsXsXsXsXsXsXsXsXyXyXyXyXyXyXyXyXyXyXyXyXyXyXyXyXyXyXyXyXyXyXyXyXyXyXyXyXyXyXyXyXyXyXsXsXsXjXjXjXsXsXsXsXsXsXsXsXsXsXsXsXsXsXsXsXsXsXsXsXsXsXsXsXsXsXsXsXsXsXsXsXsXsXsXsXsXsXsXsXsXsXsXsXsXsXsXsXsXsXsXsXsXsXsXsXsXsXsXsXsXsXsXsXsXsXsXsXsXsXsXsXsXsXyXyXsXsXsXsXsXjXjXjXrXtXtXrXtXtX5XtX5XtX4XtXyX5XtXtXtXtXrXsXjXyXrXrXeXeXeXeXeXeXeXeXeXeXeXtXtXjXjXsXsXsXsXsXsXsXsXsXsXsXsXsXsXsXsXsXsXsXsXsXsXsXsXsXsXsXsXsXsXsXsXsXsXsXsXsXsXsXsXsXsXsXsXsXsXsXsXsXsXsXsXsXsXsXsXsXsXsXsXsXsXsXsXsXsXsXsXsXsXsXsXsXsXsXsXsXsXsXsXsXsX",
"rXrXrXrXrXrXrXrXrXrXtXpXpXpXpXpXpXpXpXpXpXpXpXpXpXpXpXpXpXpXpXpXpXpXpXpXpXpXpXpXpXpXpXpXpXtXrX5XsXjXtX5XrXrXrXrXrXrXrXrXrXrXrXrXrXrXrXrXrXrXrXrXrXrXrXrXrXrXrXrXrXrXrXrXrXrXrXrXrXrXrXrXrXrXrXrXrXrXrXrXrXrXrXrXrXrXrXrXrXrXrXrXrXrXrXrXrXrXrXrXrXrXrXrXrXrXrXrXrXrXrXrXtXjXjXrXtXtXrXyX>.0 z.jXz.< 0.j.< 8.yXrXtXrXsXjXyXrXtXtXtXtXtXtXtXtXtXtXtXtXrXtXjXjXrXrXrXtXtXtXtXtXtXtXtXtXtXtXtXtXtXtXtXtXtXtXtXtXtXtXtXrXrXtXtXtXtXtXtXtXtXtXtXtXtXtXtXtXtXtXtXtXtXtXtXtXtXtXtXtXtXtXtXrXrXrXrXrXrXrXrXrXrXrXrXrXrXrXrXrXrXrXrXrXrXrX",
"tXtXtXtXtXtXtXtXrXtXqX`.$X$X$X$X$X$X$X$X$X$X$X$X$X$X$X$X$X$X$X$X$X$X$X$X$X$X$X$X$X$X$X$X`.7XtXrXsXjXtXrXtX-XI.I.I.I.I.I.I.I.I.I.I.I.I.I.I.I.I.I.I.I.I.I.I.I.I.I.I.I.I.I.I.I.I.I.I.I.I.I.I.I.I.I.I.I.I.I.I.I.I.I.I.I.I.I.I.I.I.I.I.I.I.I.I.I.I.I.I.I.I.I.I.I.I.I.I.-XrXtXtXjXjXrXtXrXyXP.a K.a VXa K.>.; I.a -XtXrXrXsXjXyXrXtXrXtXrXeXtXtXeXtXtXrXtXrXtXjXjXtXtXrX3X3X3X3X3X3X3X3X3X3X3X3X3X3X3X3X3X3X3X3X3X3X3X3X5XtX4X3X3X3X3X3X3X3X3X3X3X3X3X3X3X3X3X3X3X3X3X3X3X3X3X3X3X3X3X3XrXtXtXtXtXtXtXtXtXtXtXtXtXtXtXtXtXtXtXtXtXtXtX",
"tXtXtXtXtXtXtXtXrXpX$XB M M M M M M M M M M M M M M M M M M M M M M M M M M M M M M M M B `.pXeXsXjXtXrXtXI.3X5X5X5X5X5X5X5X5X5X5X5X5X5X5X5X5X5X5X5X5X5X5X5X5X5X5X5X5X4X4X5X4X4X4X4X5X4X4X4X4X4X5X5X5X5X5X5X5X5X5X5X5X5X5X5X5X5X5X5X5X5X5X5X5X5X5X5X5X5X5X5X5X5X4XI.rXrXtXjXjXrXtXrXyXD.>.5Xp CXa 5X>.; sXa L.yXrXrXsXjXyXrXtXtXtX`.@XpX@X_.qX_.7XtXrXtXjXjXtXtX5XP.-X-X-X-X-X-X-X-X-X-X-X-X-X-X-X-X-X-X-X-X-X-XP.3XtXI.I.-X-X-X-X-X-X-X-X-X-X-X-X-X-X-X-X-X-X-X-X-X-X-X-X-X-X-XP.5XtXrXtXtXtXtXtXtXtXtXtXtXtXtXtXtXtXtXtXtXtXtX",
"tXtXtXtXtXtXtXtXrXpX&XB l l l l l l l l l l l l l l l l l l l l l l l l l l l l l l l l M $XpXrXsXjXtXrXtXI.4XtXtXtXtXtXtXtXtXtXtXtXtXtXtXtXtXtXtXtXtXtXtXtXtXtXtXtXtXyXtXtXjXyXsXyXtXyXtXyXtXsXtXtXtXtXtXtXtXtXtXtXtXtXtXtXtXtXtXtXtXtXtXtXtXtXtXtXtXtXtXtXtXtXrXI.rXrXtXjXjXrXtXrXtX,Xa 0.a L.>.0.s p q.p 3XtXrXrXsXjXyXrXtXeX7X_.7XtX`.@X@X`.7XpXrXtXjXjXtXtX5XI.tXtXyXyXtXyXyXtXyXyXtXtXtXtXtXtXyXyXtXtXtXyX-X3XtX-X4XtXtXyXyXyXtXyXtXtXyXyXtXyXyXtXtXtXtXtXtXtXyXtXtXtXtXtXI.5XtXrXtXtXtXtXtXtXtXtXtXtXtXtXtXtXtXtXtXtXtXtX",
"tXtXtXtXtXtXtXtXrXpX&XB l x x c x c x x c x c x x c x x c x x x c x c x x x x x c c x l M `.pXrXsXjXtXrXtXI.4XtXrXrXrXrXrXrXrXrXrXrXrXrXrXrXrXrXrXrXrXrXrXrXrXrXrXrXyXK.-XyXq.D.j.P.5XK.I.P.,Xj.yXrXrXrXrXrXrXrXrXrXrXrXrXrXrXrXrXrXrXrXrXrXrXrXrXrXrXrXrXrXrXtX5XI.rXrXtXjXjXrXtXtXrXyXj.a P.q.-Xa j.,Xp j.yXrXtXrXsXjXyXrXtX@X`._._.qX`.`.@X`.@XpXrXtXjXjXtXtX5XI.rXtX3X,XtX3X,XtX,X-XrXrX5XtX5X5X4X3XtX5X5XtX-X3XtXI.4XtXtX-X3X4X4X-XrXtX,X-XtX,X3X5X5X5XrXtXtX4X3XrXtX5XrXrXI.5XtXrXtXtXtXtXtXtXtXtXtXtXtXtXtXtXtXtXtXtXtXtX",
"tXtXtXtXtXtXtXtXrXpX&XB l c N v N M v M v N M v N N c N N v x N v N M v N c c M N M c l M `.pXrXsXjXtXrXtXI.4XtXrXtXtXtXtXtXtXtXtXtXtXtXtXtXtXtXtXtXtXtXtXtXtXtXtX5XjX2.j.VX2.j.s d 3X8.j.8.8.K.yXrXrXrXtXtXtXtXtXtXtXtXtXtXtXtXtXtXtXtXtXtXtXtXtXtXtXtXtXtXtXtX5XI.rXrXtXjXjXrXtXtXtXrXsXjXyXyXtXjXyXtXjXyXrXtXtXrXsXjXyXrXtXtXpX`.@XqX@X`.rX7XqXtXrXtXjXjXtXtX5XI.tXtX2.2.D.2.2.D.>.j.5X,Xd yX8.q.8.2.j.q.3XtX-X3XtXI.4XyXj.8.j.>.0.>.0.P.s K.j.2.j.0.yX0.tXs K.j.8.a I.q.3XtXI.5XtXrXtXtXtXtXtXtXtXtXtXtXtXtXtXtXtXtXtXtXtXtX",
"tXtXtXtXtXtXtXtXrXpX&XB l c M x x N x M c N v N N N N v x N x M x v N N N c x N x N l l M `.pXrXsXjXtXrXtXI.4XtXrXtXtXtXtXtXtXtXtXtXtXtXtXtXtXtXtXtXtXtXtXtXtXtXtX5XjX8.z.jX0.D.q.s 0.w.K.: q.VX5XtXtXtXtXtXtXtXtXtXtXtXtXtXtXtXtXtXtXtXtXtXtXtXtXtXtXtXtXtXtXtX5XI.rXrXtXjXjXrXtXtXtXtX5X5X5XyXtXtXyXrX5XrXtXtXtXrXsXjXyXrXtXrXrXpXpXtXtXpXtXpXtXrXrXtXjXjXtXtX5XI.tX5X8.q.q.q.q.q.s j.yX4Xi P.s j.q.-Xs q.sXtX-X3XtXI.4XsX0.0.5X0.q.,Xj.q.s D.2.4XjXs 8.s -Xs j.D.j.s >.q.3XtXI.5XtXrXtXtXtXtXtXtXtXtXtXtXtXtXtXtXtXtXtXtXtXtX",
"tXtXtXtXtXtXtXtXrXpX&XB l x c M c N c N x N M c N x N v x N x x N N M x N x x N x N x l M `.pXrXsXjXtXrXtXI.4XtXrXtXtXtXtXtXtXtXtXtXtXtXtXtXtXtXtXtXtXtXtXtXtXtXtX5XjX8.K.SX0.K.8.P.i 8.D.s >.,X5X4X5X4XtXtXtXtXtXtXtXtXtXtXtXtXtXtXtXtXtXtXtXtXtXtXtXtXtXtXtXtX5XI.rXrXtXjXjXrXtXtXtXtXtX5XjXj.P.,XD.rXtXrXtXtXtXrXsXjXyXrXtXrXtX8X8XtXeX8XtX7XeXtXrXtXjXjXtXtX5XI.tXtXs q.4Xa a I.8.5Xj.j.8.2.2.j.q.I.s q.sXtX-X3XtXI.4XtXsXq.8.q.0.,Xj.q.0.rX2.4XjX2.P.8.q.i s j.q.j.2.i rXtXI.5XtXrXtXtXtXtXtXtXtXtXtXtXtXtXtXtXtXtXtXtXtXtX",
"tXtXtXtXtXtXtXtXrXpX&XB l c N N c N x M v N v N N N c N N v x N N N c l N M v N x N x l M `.pXrXsXjXtXrXtXI.4XtXrXtXtXtXtXtXtXtXtXtXtXtXtXtXtXtXtXtXtXtXtXtXtXtXtX5XjX0.d j.s q.0.4Xq.s K.j.D.2.q.w.j.0.rXtXrXtXtXtXtXtXtXtXtXtXtXtXtXtXtXtXtXtXtXtXtXtXtXtXtXtX5XI.rXrXtXjXjXrXtXtXtXtXrXtX3Xp q.i s a tXrXrXtXtXrXsXjXyXrXrXtXeX_.@XpX`._.@X`.`.tXrXtXjXjXtXtX5XI.tX5X0.sX4Xq.D.q.>.j.,XP.q.8.j.j.8.>.K.0.-XyX-X3XtXI.4XyXD.0.0.2.0.s 0.I.s D.j.>.D.0.tXq.8.P.j.s 0.j.-Xd 5XtXI.5XtXrXtXtXtXtXtXtXtXtXtXtXtXtXtXtXtXtXtXtXtXtX",
"tXtXtXtXtXtXtXtXrXpX&XB l x c x x x x x x x x x x c x x x x x c x x x x x c x x x x x l M `.pXrXsXjXtXrXtXI.4XtXrXrXrXrXrXrXrXrXrXrXrXrXrXrXrXrXrXrXrXrXrXrXrXrXrXrXtX5X-X,X4X4XrXrXtXrXrX5XtX4X5X5X5X5XrXrXrXrXrXrXrXrXrXrXrXrXrXrXrXrXrXrXrXrXrXrXrXrXrXrXrXtX5XI.rXrXtXjXjXrXtXtXtX5XsXh.p ; h.p j.p tXrXrXtXtXrXsXjXyXrXtXqX7X_.@XtX`.`.@XrX`.pXrXtXjXjXtXtX5XI.tXrX5X5XrX5XrX5X3X,XtXtX5XtXrX5X4X4XtX5X5XtX-X3XtXI.4XtX3X,XtX4X5X-XrXtX,X,XtX,X3XrXrX5X5XyXtX4X4X5XtXtXrXrXI.5XtXrXtXtXtXtXtXtXtXtXtXtXtXtXtXtXtXtXtXtXtXtX",
"tXtXtXtXtXtXtXtXrXpX&XB l l l l l l l l l l l l l l l l l l l l l l l l l l l l l l l l M $XpXrXsXjXtXrXtXI.4XtXtXtXtXtXtXtXtXtXtXtXtXtXtXtXtXtXtXtXtXtXtXtXtXtXtXtXtXtXyXyXtXtXtXtXtXtXtXtXtXtXtXtXtXtXtXtXtXtXtXtXtXtXtXtXtXtXtXtXtXtXtXtXtXtXtXtXtXtXtXtXtXtXrXI.rXrXtXjXjXrXtXtXtX5XjXp 3X8.q.i >.a rXtXrXtXtXrXsXjXyXrXtX@X7X@X_.eX@X*.@X_.@XtXrXtXjXjXtXtX5XI.tXtXtXtXtXtXtXtXyXyXtXtXtXtXtXtXtXyXtXtXtXyX-X3XtX-X4XtXtXyXtXtXtXyXtXtXyXyXtXyXyXtXtXtXtXtXtXyXtXtXtXtXtXtXI.5XtXrXtXtXtXtXtXtXtXtXtXtXtXtXtXtXtXtXtXtXtXtX",
"tXtXtXtXtXtXtXtXrXpX$XB M M M M M M M M M M M M M M M M M M M M M M M M M M M M M M M M B `.pXeXsXjXtXrXtXI.3X5X5X5X5X5X5X5X5X5X5X5X5X5X5X5X5X5X5X5X5X5X5X5X5X5X5X5X5X5X4X4X4X5X5X5X5X5X5X5X5X5X5X5X5X5X5X5X5X5X5X5X5X5X5X5X5X5X5X5X5X5X5X5X5X5X5X5X5X5X5X5X5X5X4XI.rXrXtXjXjXrXtXtXtX5XjX2.>.0 q.i z.< 3XtXrXtXtXrXsXjXyXrXrXpXtX`.@XeX7X@XqX`.@XtXrXtXjXjXtXtX5XP.-X-X-X-X-X-X-X-X-X-X-X-X-X-X-X-X-X-X-X-X-X-XP.3XtXI.I.-X-X-X-X-X-X-X-X-X-X-X-X-X-X-X-X-X-X-X-X-X-X-X-X-X-X-XP.5XtXrXtXtXtXtXtXtXtXtXtXtXtXtXtXtXtXtXtXtXtXtX",
"tXtXtXtXtXtXtXtXrXtXqX`.$X$X$X$X$X$X$X$X$X$X$X$X$X$X$X$X$X$X$X$X$X$X$X$X$X$X$X$X$X$X$X$X`.7XtXrXsXjXtXrXtX-XI.I.I.I.I.I.I.I.I.I.I.I.I.I.I.I.I.I.I.I.I.I.I.I.I.I.I.I.I.I.I.I.I.I.I.I.I.I.I.I.I.I.I.I.I.I.I.I.I.I.I.I.I.I.I.I.I.I.I.I.I.I.I.I.I.I.I.I.I.I.I.I.I.I.I.-XrXtXtXjXjXrXtXtXtXrXtX5X0.q.3X0.>.K.yXrXtXtXtXrXsXjXyXrXtXrXtXpXaXtXtXaXtXpXpXtXtXtXjXjXtXtXrX3X3X3X3X3X3X3X3X3X3X3X3X3X3X3X3X3X3X3X3X3X3X3X3X5XtX4X3X3X3X3X3X3X3X3X3X3X3X3X3X3X3X3X3X3X3X3X3X3X3X3X3X3X3X3X4XrXtXtXtXtXtXtXtXtXtXtXtXtXtXtXtXtXtXtXtXtXtXtX",
"rXrXrXrXrXrXrXrXrXrXtXpXpXpXpXpXpXpXpXpXpXpXpXpXpXpXpXpXpXpXpXpXpXpXpXpXpXpXpXpXpXpXpXpXpXtXrX5XsXjXtX5XrXrXrXrXrXrXrXrXrXrXrXrXrXrXrXrXrXrXrXrXrXrXrXrXrXrXrXrXrXrXrXrXrXrXrXrXrXrXrXrXrXrXrXrXrXrXrXrXrXrXrXrXrXrXrXrXrXrXrXrXrXrXrXrXrXrXrXrXrXrXrXrXrXrXrXrXrXrXrXrXtXjXjXrXrXrXrXrXrXtXjXjXtXjXjXyX5XrXrXrXrX5XsXjXtX5XrXrXrXrXrXrXrXrXrXrXrXrXrXrXjXjXrXrXrXtXtXtXtXtXtXtXtXtXtXtXtXtXtXtXtXtXtXtXtXtXtXtXtXrXrXtXtXtXtXtXtXtXtXtXtXtXtXtXtXtXtXtXtXtXtXtXtXtXtXtXtXtXtXtXtXrXrXrXrXrXrXrXrXrXrXrXrXrXrXrXrXrXrXrXrXrXrXrX",
"sXsXsXsXsXsXsXsXsXsXsXyXyXyXyXyXyXyXyXyXyXyXyXyXyXyXyXyXyXyXyXyXyXyXyXyXyXyXyXyXyXyXyXyXyXsXsXsXjXjXjXsXsXsXsXsXsXsXsXsXsXsXsXsXsXsXsXsXsXsXsXsXsXsXsXsXsXsXsXsXsXsXsXsXsXsXsXsXsXsXsXsXsXsXsXsXsXsXsXsXsXsXsXsXsXsXsXsXsXsXsXsXsXsXsXsXsXsXsXsXsXsXsXsXsXsXsXsXsXsXsXsXjXjXjXsXsXsXsXsXsXsXyXyXsXyXyXyXsXsXsXsXsXsXjXjXjXsXsXsXsXsXsXsXsXsXsXsXsXsXsXsXjXjXsXsXsXsXsXsXsXsXsXsXsXsXsXsXsXsXsXsXsXsXsXsXsXsXsXsXsXsXsXsXsXsXsXsXsXsXsXsXsXsXsXsXsXsXsXsXsXsXsXsXsXsXsXsXsXsXsXsXsXsXsXsXsXsXsXsXsXsXsXsXsXsXsXsXsXsXsXsXsXsXsXsX",
"VXVXVXVXVXVXVXVXVXVXVXVXVXVXVXVXVXVXVXVXVXVXVXVXVXVXVXVXVXVXVXVXVXVXVXVXVXVXVXVXVXVXVXVXVXVXVXVXjXjXVXVXVXVXVXVXVXVXVXVXVXVXVXVXVXVXVXVXVXVXVXVXVXVXVXVXVXVXVXVXVXVXVXVXVXVXVXVXVXVXVXVXVXVXVXVXVXVXVXVXVXVXVXVXVXVXVXVXVXVXVXVXVXVXVXVXVXVXVXVXVXVXVXVXVXVXVXVXVXVXVXVXVXjXjXVXVXVXVXVXVXVXVXVXVXVXVXVXVXVXVXVXVXVXjXjXjXVXVXVXVXVXVXVXVXVXVXVXVXVXVXVXjXjXVXVXVXVXVXVXVXVXVXVXVXVXVXVXVXVXVXVXVXVXVXVXVXVXVXVXVXVXVXVXVXVXVXVXVXVXVXVXVXVXVXVXVXVXVXVXVXVXVXVXVXVXVXVXVXVXVXVXVXVXVXVXVXVXVXVXVXVXVXVXVXVXVXVXVXVXVXVXVXVXVXVX",
"-X-X-X-X-X-X-X-X-X-X-X-X-X-X-X-X-X-X-X-X-X-X-X-X-X-X-X-X-X-X-X-X-X-X-X-X-X-X-X-X-X-X-X-X-X-X-X-X,X,X,X-X-X-X-X-X-X-X-X-X-X-X-X-X-X-X-X-X-X-X-X-X-X-X-X-X-X-X-X-X-X-X-X-X-X-X-X-X-X-X-X-X-X-X-X-X-X-X-X-X-X-X-X-X-X-X-X-X-X-X-X-X-X-X-X-X-X-X-X-X-X-X-X-X-X-X-X-X-X-X-X-X,X,X,X-X-X-X-X-X-X-X-X-X-X-X-X-X-X-X-X-X,X-XtXVX4X-X,X-X-X-X-X-X-X-X-X-X-X-X-X,X,X,X-X-X-X-X-X-X-X-X-X-X-X-X-X-X-X-X-X-X-X-X-X-X-X-X-X-X-X-X-X-X-X-X-X-X-X-X-X-X-X-X-X-X-X-X-X-X-X-X-X-X-X-X-X-X-X-X-X-X-X-X-X-X-X-X-X-X-X-X-X-X-X-X-X-X-X-X-X-X-X-X-X-X",
"L.L.L.L.L.L.L.L.L.L.L.L.L.L.L.L.L.L.L.L.L.L.L.L.L.L.L.L.L.L.L.L.L.L.L.L.L.L.L.L.L.L.L.L.L.L.L.L.L.L.L.L.L.L.L.L.L.L.L.L.L.L.L.L.L.L.L.L.L.L.L.L.L.L.L.L.L.L.L.L.L.L.L.L.L.L.L.L.L.L.L.L.L.L.L.L.L.L.L.L.L.L.L.L.L.L.L.L.L.L.L.L.L.L.L.L.L.L.L.L.L.L.L.L.L.L.L.L.L.L.L.L.L.L.L.L.L.L.L.L.L.L.L.L.L.L.L.L.L.L.L.L.L.K.5XCX,XK.L.L.L.L.L.L.L.L.L.L.L.L.L.L.L.L.L.L.L.L.L.L.L.L.L.L.L.L.L.L.L.L.L.L.L.L.L.L.L.L.L.L.L.L.L.L.L.L.L.L.L.L.L.L.L.L.L.L.L.L.L.L.L.L.L.L.L.L.L.L.L.L.L.L.L.L.L.L.L.L.L.L.L.L.L.L.L.L.L.L.L.L.L.L.L.L.L.L.",
"P.P.P.P.P.P.P.P.P.P.P.P.P.P.P.P.P.P.P.P.P.P.P.P.P.P.P.P.P.P.P.P.P.P.P.P.P.P.P.P.P.P.P.P.P.P.P.P.P.P.P.P.P.P.P.P.P.P.P.P.P.P.P.P.P.P.P.P.P.P.P.P.P.P.P.P.P.P.P.P.P.P.P.P.P.P.P.P.P.P.P.P.P.P.P.P.P.P.P.P.P.P.P.P.P.P.P.P.P.P.P.P.P.P.P.P.P.P.P.P.P.P.P.P.P.P.P.P.P.P.P.P.P.P.P.P.P.P.P.P.P.P.P.P.P.P.P.P.P.P.P.P.P.L.5XCX3XL.P.I.L.-XI.P.P.P.P.P.P.P.P.P.P.P.P.P.P.P.P.P.P.P.P.P.P.P.P.P.P.P.P.P.P.P.P.P.P.P.P.P.P.P.P.P.P.P.P.P.P.P.P.P.P.P.P.P.P.P.P.P.P.P.P.P.P.P.P.P.P.P.P.P.P.P.P.P.P.P.P.P.P.P.P.P.P.P.P.P.P.P.P.P.P.P.P.P.",
"P.P.P.P.P.P.P.P.P.P.P.P.P.P.P.P.P.P.P.P.P.P.P.P.P.P.P.P.P.P.P.P.P.P.P.P.P.P.P.P.P.P.P.P.P.P.P.P.P.P.P.P.P.P.P.P.P.P.P.P.P.P.P.P.P.P.P.P.P.P.P.P.P.P.P.P.P.P.P.P.P.P.P.P.P.P.P.P.P.P.P.P.P.P.P.P.P.P.P.P.P.P.P.P.P.P.P.P.P.P.P.P.P.P.P.P.P.P.P.P.P.P.P.P.P.P.P.P.P.P.P.P.P.P.P.P.P.P.P.P.P.P.P.P.P.P.P.P.P.P.P.P.P.L.5XCX,XL.-Xs d s L.I.L.I.P.L.-XP.K.I.K.P.P.L.I.I.L.P.P.P.P.P.P.P.P.P.P.P.P.P.P.P.P.P.P.P.P.P.P.P.P.P.P.P.P.P.P.P.P.P.P.P.P.P.P.P.P.P.P.P.P.P.P.P.P.P.P.P.P.P.P.P.P.P.P.P.P.P.P.P.P.P.P.P.P.P.P.P.P.P.P.P.P.P.",
"P.P.P.P.P.P.P.P.P.P.P.P.P.P.P.P.P.P.P.P.P.P.P.P.P.P.P.P.P.P.P.P.P.P.P.P.P.P.P.P.P.P.P.P.P.P.P.P.P.P.P.P.P.P.P.P.P.P.P.P.P.P.P.P.P.P.P.P.P.P.P.P.P.P.P.P.P.P.P.P.P.P.P.P.P.P.P.P.P.P.P.P.P.P.P.P.P.P.P.P.P.P.P.P.P.P.P.P.P.P.P.P.P.P.P.P.P.P.P.P.P.P.P.P.P.P.P.P.P.P.P.P.P.P.P.P.P.P.P.P.P.P.P.P.P.P.P.P.P.P.P.P.P.L.5XCX,XL.I.d P.2.8.0.s j.8.s q.s 8.2.s j.2.>.q.d q.I.P.P.P.P.P.P.P.P.P.P.P.P.P.P.P.P.P.P.P.P.P.P.P.P.P.P.P.P.P.P.P.P.P.P.P.P.P.P.P.P.P.P.P.P.P.P.P.P.P.P.P.P.P.P.P.P.P.P.P.P.P.P.P.P.P.P.P.P.P.P.P.P.P.P.P.P.",
"P.P.P.P.P.P.P.P.P.P.P.P.P.P.P.P.P.P.P.P.P.P.P.P.P.P.P.P.P.P.P.P.P.P.P.P.P.P.P.P.P.P.P.P.P.P.P.P.P.P.P.P.P.P.P.P.P.P.P.P.P.P.P.P.P.P.P.P.P.P.P.P.P.P.P.P.P.P.P.P.P.P.P.P.P.P.P.P.P.P.P.P.P.P.P.P.P.P.P.P.P.P.P.P.P.P.P.P.P.P.P.P.P.P.P.P.P.P.P.P.P.P.P.P.P.P.P.P.P.P.P.P.P.P.P.P.P.P.P.P.P.P.P.P.P.P.P.P.P.P.P.P.P.L.5XCX,XL.I.s P.j.d d s i d s d s j.>.8.0.d s d s -XL.P.P.P.P.P.P.P.P.P.P.P.P.P.P.P.P.P.P.P.P.P.P.P.P.P.P.P.P.P.P.P.P.P.P.P.P.P.P.P.P.P.P.P.P.P.P.P.P.P.P.P.P.P.P.P.P.P.P.P.P.P.P.P.P.P.P.P.P.P.P.P.P.P.P.P.P.",
"P.P.P.P.P.P.P.P.P.P.P.P.P.P.P.P.P.P.P.P.P.P.P.P.P.P.P.P.P.P.P.P.P.P.P.P.P.P.P.P.P.P.P.P.P.P.P.P.P.P.P.P.P.P.P.P.P.P.P.P.P.P.P.P.P.P.P.P.P.P.P.P.P.P.P.P.P.P.P.P.P.P.P.P.P.P.P.P.P.P.P.P.P.P.P.P.P.P.P.P.P.P.P.P.P.P.P.P.P.P.P.P.P.P.P.P.P.P.P.P.P.P.P.P.P.P.P.P.P.P.P.P.P.P.P.P.P.P.P.P.P.P.P.P.P.P.P.P.P.P.P.P.P.L.5XCX,XL.I.d z.s 2.d 0.q.i 0.j.j.i j.>.i d j.8.2.-XL.P.P.P.P.P.P.P.P.P.P.P.P.P.P.P.P.P.P.P.P.P.P.P.P.P.P.P.P.P.P.P.P.P.P.P.P.P.P.P.P.P.P.P.P.P.P.P.P.P.P.P.P.P.P.P.P.P.P.P.P.P.P.P.P.P.P.P.P.P.P.P.P.P.P.P.P.",
"P.P.P.P.P.P.P.P.P.P.P.P.P.P.P.P.P.P.P.P.P.P.P.P.P.P.P.P.P.P.P.P.P.P.P.P.P.P.P.P.P.P.P.P.P.P.P.P.P.P.P.P.P.P.P.P.P.P.P.P.P.P.P.P.P.P.P.P.P.P.P.P.P.P.P.P.P.P.P.P.P.P.P.P.P.P.P.P.P.P.P.P.P.P.P.P.P.P.P.P.P.P.P.P.P.P.P.P.P.P.P.P.P.P.P.P.P.P.P.P.P.P.P.P.P.P.P.P.P.P.P.P.P.P.P.P.P.P.P.P.P.P.P.P.P.P.P.P.P.P.P.P.P.L.5XCX3XL.-X2.a 8.-Xq.s j.q.>.j.>.8.0.s j.8.2.q.q.-XL.P.P.P.P.P.P.P.P.P.P.P.P.P.P.P.P.P.P.P.P.P.P.P.P.P.P.P.P.P.P.P.P.P.P.P.P.P.P.P.P.P.P.P.P.P.P.P.P.P.P.P.P.P.P.P.P.P.P.P.P.P.P.P.P.P.P.P.P.P.P.P.P.P.P.P.P.",
"P.P.P.P.P.P.P.P.P.P.P.P.P.P.P.P.P.P.P.P.P.P.P.P.P.P.P.P.P.P.P.P.P.P.P.P.P.P.P.P.P.P.P.P.P.P.P.P.P.P.P.P.P.P.P.P.P.P.P.P.P.P.P.P.P.P.P.P.P.P.P.P.P.P.P.P.P.P.P.P.P.P.P.P.P.P.P.P.P.P.P.P.P.P.P.P.P.P.P.P.P.P.P.P.P.P.P.P.P.P.P.P.P.P.P.P.P.P.P.P.P.P.P.P.P.P.P.P.P.P.P.P.P.P.P.P.P.P.P.P.P.P.P.P.P.P.P.P.P.P.P.P.P.L.5XCX,XL.P.-X-X-XP.I.-XP.-X-XI.-X-XI.-XI.-XI.I.I.P.P.P.P.P.P.P.P.P.P.P.P.P.P.P.P.P.P.P.P.P.P.P.P.P.P.P.P.P.P.P.P.P.P.P.P.P.P.P.P.P.P.P.P.P.P.P.P.P.P.P.P.P.P.P.P.P.P.P.P.P.P.P.P.P.P.P.P.P.P.P.P.P.P.P.P.P.P.",
"P.P.P.P.P.P.P.P.P.P.P.P.P.L.L.L.L.L.L.L.L.L.L.L.L.L.L.L.L.L.L.L.L.L.L.L.L.L.L.L.L.L.L.L.L.L.L.L.L.L.L.L.L.L.L.L.L.L.L.L.L.L.L.L.L.L.L.L.L.L.L.L.L.L.L.L.L.L.L.L.L.L.L.L.L.L.L.L.L.L.L.L.P.P.P.P.P.P.P.P.P.P.P.P.P.P.P.P.P.P.P.P.P.P.P.P.P.P.P.P.P.P.P.P.P.P.P.P.P.P.P.P.P.P.P.P.P.P.P.P.P.P.P.P.P.P.P.P.P.P.P.P.P.L.5XCX3XL.P.P.P.P.P.P.P.P.P.P.P.P.P.P.P.P.P.P.P.P.P.P.P.P.P.P.P.P.P.P.P.P.P.P.P.P.P.P.P.P.P.P.P.P.P.P.P.P.P.P.P.P.P.P.P.P.P.P.P.P.P.P.P.P.P.P.P.P.P.P.P.P.P.P.P.P.P.P.P.P.P.P.P.P.P.P.P.P.P.P.P.P.P.P.P.P.P.P.",
"rXrXrXrXrXrXtXrX5X5XtXjX-X,.9.9.9.9.9.9.9.9.9.9.9.9.9.9.9.9.9.9.9.9.9.9.9.9.9.9.9.9.9.9.9.9.9.9.9.9.9.9.9.9.9.9.9.9.9.9.9.9.9.9.9.9.9.9.9.9.9.9.9.9.9.9.9.9.9.9.9.9.9.9.9.9.9.9.9.9.9.,.-XjXtX5X5X5X5X5X5X5X5X5X5X5X5X5X5X5X5X5X5X5X5X5X5X5X5X5X5X5X5X5X5X5X5X5X5X5X5X5X5X5X5X5X5X5X5X5X5X5X5X5X5X5X5X5X5X5X5X5X5X5XyXjXtX5X5X5X5X5X5X5X5X5X5X5X5X5X5X5X5X5X5X5X5X5X5X5X5X5X5X5X5X5X5X5X5X5X5X5X5X5X5X5X5X5X5X5X5X5X5X5X5X5X5X5X5X5X5X5X5X5X5X5X5X5X5X5X5X5X5X5X5X5X5X5X5X5X5X5X5X5X5X5X5X5X5X5X5X5X5X5X5X5X5X5X5X5X5X5X5X5X5X5X",
"6X6X6X6X6X6X6X4XtXrXtXAX-X<.,.,.,.,.,.,.,.,.,.,.,.,.,.,.,.,.,.,.,.,.,.,.,.,.,.,.,.,.,.,.,.,.,.,.,.,.,.,.,.,.,.,.,.,.,.,.,.,.,.,.,.,.,.,.,.,.,.,.,.,.,.,.,.,.,.,.,.,.,.,.,.,.,.,.,.,.,.<.-XAXtXrXtXtXtXtXtXtXtXtXtXtXtXtXtXtXtXtXtXtXtXtXtXtXtXtXtXtXtXtXtXtXtXtXtXtXtXtXtXtXtXtXtXtXtXtXtXtXtXtXtXtXtXtXtXtXtXtXtXrXsXjXyXrXtXtXtXtXtXtXtXtXtXtXtXtXtXtXtXtXtXtXtXtXtXtXtXtXtXtXtXtXtXtXtXtXtXtXtXtXtXtXtXtXtXtXtXtXtXtXtXtXtXtXtXtXtXtXtXtXtXtXtXtXtXtXtXtXtXtXtXtXtXtXtXtXtXtXtXtXtXtXtXtXtXtXtXtXtXtXtXtXtXtXtXtXtXtXtXtXtXtX",
"y y y y y y y y yX5XtXCX-X<.4.<.:.:.:.:.:.:.:.:.:.:.:.:.:.:.:.:.:.:.:.:.:.:.:.:.:.:.:.:.:.:.:.:.:.:.:.:.:.:.:.:.:.:.:.:.:.:.:.:.:.:.:.:.:.:.:.:.:.:.:.:.:.:.:.:.:.:.:.:.:.:.:.:.:.<.4.<.-XCXtXrXtXrXrXtXrXrXrXrXrXrXtXrXtXjXjXjXjXjXjXjXjXjXjXjXjXjXjXjXjXjXjXjXjXjXjXjXjXjXjXjXjXjXjXjXjXjXjXyXjXjXjXjXjXjXjXyXrXrXsXjXtXrXtXrXrXtX5X5X5XtXrXtXrXrXtXtXrXtXrXrXrXrXrXrXrXrXrXrXrXrXtXrXrXrXrXtXrXrXrXrXrXrXrXrXrXrXrXrXrXrXrXrXrXrXrXtXrX5X5X5XtXtXrXtXrXrXrXrXrXtXrXtXtXrXtXrXrXrXrXrXrXrXrXrXrXrXtXrX5XtXrXrXrXrXtXrXrXtXrXtX",
"X X X X X X O y yX5XtXCX-X<.4.<.:.3.,.,.,.,.,.,.,.,.,.,.,.,.,.,.,.,.,.,.,.,.,.,.,.,.,.,.,.,.,.4.,.3.3.,.,.,.,.,.,.4.,.,.,.,.,.,.,.,.,.,.,.,.,.,.,.,.,.,.,.,.,.,.,.,.,.,.,.,.,.3.:.<.4.<.-XCXtXrXtXtXtXrXyXsXrXtXsXyXtXrXtXjXjXjXjXjXjXjXjXjXjXjXVXjXjXjXjXjXjXjXjXjXjXjXjXjXjXjXjXjXjXjXjXjXjXyXjXjXjXVXjXjXjXyXrXrXsXjXyXrXtXtXtXrXjXjXyXrX5X5XtXtX-X4XrX5XrXtXtXtXtXtXtXtXtXtXtXtXrXyXtXyXyX5X5XrXrX5XrXrX5XrXtXtXtXtXtXtXtXtXtXtXtXtXtXsXjXjX4X5XrXrX5XrXrX5XrX5XrX4X4XrXrXtXtXtXtXtXtXtXtXtXtXtXrXyXjX5XtXrXtXrXrX5XrX5XrX4X",
"X X X X X X O y yX5XtXCX-X<.4.<.:.3.,.,.,.,.,.,.,.,.,.,.,.,.,.,.,.,.,.,.,.,.,.,.,.,.,.,.,.3.,.:.,.:.:.,.,.,.,.,.,.:.,.3.,.,.,.,.,.,.,.,.,.,.,.,.,.,.,.,.,.,.,.,.,.,.,.,.,.,.,.3.:.<.4.<.-XCXtXrXtX3XrXtXP.z.tX4Xz.K.tXrXtXjXjXSXCXjXSXAXjXjXjXjXtXCXSXSXjXjXAXjXjXjXjXjXjXjXjXjXjXjXjXjXjXjXjXyXjXjXVX4XjXjXjXyXrXrXsXjXyXrXtXtXrXtX>.p j.sXsXjX-XtXI.4XjXjXtXrXtXtXtXtXtXtXtXtXtX5XsXj.I.j.j.CXjXtXtXjXyXtXjXyXrXtXtXtXtXtXtXtXtXtXrXtXrX>.i >.p 3XjXtXjXyXyXjXyXyXAX8.j.SXrXrXtXtXtXtXtXtXtXtXtXrXyXD.0.jXI.yX-XyXyXjXtXyXSX;.",
"X X X X X X O y yX5XtXCX-X<.4.<.:.3.,.,.,.,.,.,.,.,.,.,.,.,.,.,.,.,.,.,.,.,.,.,.,.,.,.,.,.9.p - p < ;.0 p a < ;.,.0 i 9.,.,.,.,.,.,.,.,.,.,.,.,.,.,.,.,.,.,.,.,.,.,.,.,.,.,.,.3.:.<.4.<.-XCXtXrXrXp 5X5X< s 2.2.i j.rXtXtXjXCX0.z.yXs 0.jXjXSXjX>.P.p 2.yX5Xj.HXAXjXVXSXsX5XCXjXjXjXjXjXjXjXjXyXjXCXL.# j.AXjXyXrXrXsXjXyXrXtXtXtXrX0 K.< -Xs j.i i j.,X0.a ,XtXrXtXtXtXtXtXtXtXtX5XjX2.>.s I.>.a L.-Xa K.P.a K.yXrXtXtXtXtXtXtXtXtXtXrXtX-X< I.p i 0.-Xs j.D.a P.0.8.>.0 >.4XtXrXtXtXtXtXtXtXtXtX5XjX>.< 4X: >.: 0.j.a ,Xq.>.a ",
"X X X X X X O y yX5XtXCX-X<.4.<.:.3.,.,.,.,.,.,.,.,.,.,.,.,.,.,.,.,.,.,.,.,.,.,.,.,.,.,.,.9.a < p < ;.; < 0 : 9.9.:.p 9.,.,.,.,.,.,.,.,.,.,.,.,.,.,.,.,.,.,.,.,.,.,.,.,.,.,.,.3.:.<.4.<.-XCXtXrXrXi 4X4Xi q.a >.2.4XtXrXtXjXjXi 2.jX-Xa L.FXj.p s 0.j.8.j.j.q.j.a tX-X>.s - 4XVXjXjXjXjXjXjXjXyXjXVXs : d sXjXyXrXrXsXjXyXrXtXtXrXtX< ; 0.tX8.i p j.>.2.>.h.s jX5XtXtXtXtXtXtXtXtX5XjX0.+ z.3X; j.a a a < 0 a < tXrXtXtXtXtXtXtXtXtXtXrXtXtXa tXp h.a 8.0 rX< a < < z.2.>.>.q.jX5XtXtXtXtXtXtXtXrXtX3Xi i j.p P.i 3XL.p p p 5Xs ",
"X X X X X X O y yX5XtXCX-X<.4.<.:.3.,.,.,.,.,.,.,.,.,.,.,.,.,.,.,.,.,.,.,.,.,.,.,.,.,.,.,.9.p < <.< i < < 0 < ;.,.- :.4.,.,.,.,.,.,.,.,.,.,.,.,.,.,.,.,.,.,.,.,.,.,.,.,.,.,.,.3.:.<.4.<.-XCXtXtX5Xp sXtX; >.tX>.0 j.tXrXtXjXSXL.2.LXyXp jX5Xp K.a j.; i -X8.j.>.z.>.s -Xz.>.AXjXjXjXjXjXjXjXjXyXjXjX,X5X,XyXjXyXrXrXsXjXyXrXtXtXtX5Xp 2.>.8.p i p K.2.>.0.I.p jX5XtXtXtXtXtXtXtXtX5XjX2.s a z.;.4Xp i >.q.; >.h.tXrXtXtXtXtXtXtXtXtXtXrXtXrXi 5Xp 4X>.>.8.jX- 2.j.I.a i K.0.0.jX5XtXtXtXtXtXtXtX5XjXh.0 p >.a 4Xp I.p p < s HXs ",
"X X X X X X O y yX5XtXCX-X<.4.<.:.3.,.,.,.,.,.,.,.,.,.,.,.,.,.,.,.,.,.,.,.,.,.,.,.,.,.,.,.3.:.,.3.p p ,.,.;.:.:.<.i ;.3.,.,.,.,.,.,.,.,.,.,.,.,.,.,.,.,.,.,.,.,.,.,.,.,.,.,.,.3.:.<.4.<.-XCXtXrXtX; 0.D.i jXVXs z.AX5XrXtXjXSXj.2.SXa I.FX,Xa tXa 0.j.j.i 0.D.2.4Xa a jXL.>.HXjXjXjXjXjXjXjXjXyXjXAXd o i jXjXyXrXrXsXjXyXrXtXtXtXrX>.5X;.>.a >.0.a >.K.>.i K.yXrXtXtXtXtXtXtXtXtX5XjX0.D.h.>.0.-X2.z.p j.j.a j.tXrXtXtXtXtXtXtXtXtXtXrXtXrX>.5X>.,X8.0.0.CX0.a j.2.s >.K.h.j.jX5XtXtXtXtXtXtXtX5XsX2.I.jX>.s 8.>.>.a a q.>.s >.",
"X X X X X X O y yX5XtXCX-X<.4.<.:.3.,.,.,.,.,.,.,.,.,.,.,.,.,.,.,.,.,.,.,.,.,.,.,.,.,.,.,.,.3.,.,.9.9.,.,.9.3.3.3.9.4.,.,.,.,.,.,.,.,.,.,.,.,.,.,.,.,.,.,.,.,.,.,.,.,.,.,.,.,.3.:.<.4.<.-XCXtXrXtXh.>.z.K.4XtXL.-XtXrXrXtXjXAXK.j.z.- >.-XSX8.p 2.j.0 >.>.D.CX>.i 3Xj.i z.a I.CXjXjXjXjXjXjXjXyXjXVX5X; ,XAXjXyXrXrXsXjXyXrXtXtXtXtXtXtXtXtX4XtXyX5XtXtXtX5XyXrXtXtXtXtXtXtXtXtXtXtXrXtXtXyXtXtXtXtXyX4X4XyX3X4XtXrXtXtXtXtXtXtXtXtXtXtXtXtXtXtXtXtXtXtXtXrXyX3X4X4X5XyXtXtXtXrXtXtXtXtXtXtXtXtXtXrXtXtX5XtXtX5XtX5XrX4XyXtX4XtX",
"X X X X X X O y yX5XtXCX-X<.4.<.:.4.3.3.3.3.3.3.3.3.3.3.3.3.3.3.3.3.3.3.3.3.3.3.3.3.3.3.3.3.3.3.3.,.,.3.3.,.,.3.3.,.,.3.3.3.3.3.3.3.3.3.3.3.3.3.3.3.3.3.3.3.3.3.3.3.3.3.3.3.3.4.:.<.4.<.-XCXtXrXrXjXVXsXyXtXrXyXtXrXtXrXtXjXjXjXjXjXjXyXjXjXVXjXVXjXjXjXAXjXjXVXjXVXCXjXjXjXjXjXjXjXjXjXjXjXjXyXjXjXjXjXjXjXjXyXrXrXsXjXyXrXtXtXtXtXrXrXrXrXtXrXrXtXtXrXrXtXrXtXtXtXtXtXtXtXtXtXtXtXtXrXrXrXtXrXtXrXrXtXtXrXtXtXrXtXtXtXtXtXtXtXtXtXtXtXtXtXrXtXrXtXrXrXrXtXrXtXtXtXtXrXtXrXrXtXtXtXtXtXtXtXtXtXtXtXtXrXrXrXrXtXrXtXtXtXrXrXtXrX",
"O O O O O O O y yX5XtXCX-X<.4.<.:.,.<.,.,.,.,.,.,.,.,.,.,.,.,.,.,.,.,.,.,.,.,.,.,.,.,.,.,.,.,.,.,.,.,.,.,.,.,.,.,.,.,.,.,.,.,.,.,.,.,.,.,.,.,.,.,.,.,.,.,.,.,.,.,.,.,.,.,.,.<.,.:.<.4.<.-XCXtXrXtX5X5XrXrXtXtXrXrXtXtXrXtXjXjXjXjXjXjXjXjXjXjXjXjXjXjXjXjXjXjXjXjXjXjXjXjXjXjXjXjXjXjXjXjXjXjXyXjXjXjXjXjXjXjXyXrXrXsXjXyXrXtXtXtXtXtXtXtXtXtXtXtXtXtXtXtXtXtXtXtXtXtXtXtXtXtXtXtXtXtXtXtXtXtXtXtXtXtXtXtXtXtXtXtXtXtXtXtXtXtXtXtXtXtXtXtXtXtXtXtXtXtXtXtXtXtXtXtXtXtXtXtXtXtXtXtXtXtXtXtXtXtXtXtXtXtXtXtXtXtXtXtXtXtXtXtXtXtXtX",
"y y y y y y y g yX5XtXCX-X<.3.<.:.:.:.:.:.:.:.:.:.:.:.:.:.:.:.:.:.:.:.:.:.:.:.:.:.:.:.:.:.:.:.:.:.:.:.:.:.:.:.:.:.:.:.:.:.:.:.:.:.:.:.:.:.:.:.:.:.:.:.:.:.:.:.:.:.:.:.:.:.:.:.:.:.,.3.<.-XCXtXrXtXtXtXtXtXtXtXtXtXtXtXrXtXjXjXjXjXjXjXjXjXjXjXjXjXjXjXjXjXjXjXjXjXjXjXjXjXjXjXjXjXjXjXjXjXjXjXyXjXjXjXjXjXjXjXyXrXrXsXjXyXrXtXtXtXtXtXtXtXtXtXtXtXtXtXtXtXtXtXtXtXtXtXtXtXtXtXtXtXtXtXtXtXtXtXtXtXtXtXtXtXtXtXtXtXtXtXtXtXtXtXtXtXtXtXtXtXtXtXtXtXrXrXrXrXrXrXrXrXrXtXtXtXtXtXtXtXtXtXtXtXtXtXtXtXtXtXtXtXtXtXtXtXtXtXtXtXtXtXtX",
"yXyXyXyXyXyXyXyXrXrXtXCX-X<.3.,.3.3.3.3.3.3.3.3.3.3.3.3.3.3.3.3.3.3.3.3.3.3.3.3.3.3.3.3.3.3.3.3.3.3.3.3.3.3.3.3.3.3.3.3.3.3.3.3.3.3.3.3.3.3.3.3.3.3.3.3.3.3.3.3.,.3.3.3.3.3.3.3.3.,.3.<.-XCXtXrXtXtXtXtXtXtXtXtXtXtXtXtXtXrXrXrXrXrXrXrXrXrXrXrXrXrXrXrXrXrXrXrXrXrXrXrXrXrXrXrXrXrXrXrXrXrXrXrXrXrXrXrXrXrXrXrXtXrXsXjXyXrXtXtXtXtXtXtXtXtXtXtXtXtXtXtXtXtXtXtXtXtXtXtXtXtXtXtXtXtXtXtXtXtXtXtXtXtXtXtXtXtXtXtXtXtXtXtXtXtXtXtXtXtXtXtXtXtXtXrXrXtXgXgXtXtXtXtXgXgXrXrXtXtXtXtXtXtXtXtXtXtXtXtXtXtXtXtXtXtXtXtXtXtXtXtXtXtXtXtX",
"5X5X5X5X5X5X5X5XtXrXtXCX-X<.3.,.,.,.,.,.,.3.3.,.,.,.,.,.,.,.,.,.,.,.,.,.,.,.,.,.,.,.,.,.,.,.,.,.,.,.,.,.3.,.,.,.,.,.,.,.,.,.,.,.,.,.,.,.,.,.,.,.,.,.,.3.,.,.,.,.9.,.,.,.,.,.,.,.,.,.3.<.-XCXtXrXtXtXtXtXtXtXtXrXtXtXtXrXtXtXtXtXtXtXtXtXtXtXtXtXtXtXtXtXtXtXtXtXtXtXtXtXtXtXtXtXtXtXrXtXtXrXtXtXtXtXtXtXtXtXtXtXtXrXsXjXyXrXtXtXtXtXtXtXtXtXtXtXtXtXtXtXtXtXtXtXtXtXtXtXtXtXtXtXtXtXtXtXtXtXtXtXtXtXtXtXtXtXtXtXtXtXtXtXtXtXtXtXtXtXtXtXtXtXrXtXgXeX|.].R R R R ].|.tXgXrXrXtXtXtXtXtXtXtXtXtXtXtXtXtXtXtXtXtXtXtXtXtXtXtXtXtXtX",
"tXtXrXtXtXtXtXtXtXrXtXCX-X<.3.,.,.,.,.,.3.,.,.,.3.,.,.,.,.3.,.,.,.,.,.,.,.,.,.,.,.,.,.,.,.,.,.,.,.,.3.9.<.9.3.,.,.,.,.,.,.,.,.,.,.,.,.,.,.,.,.,.,.9.,.<.,.3.3.,.;.3.,.,.,.,.,.,.,.,.3.<.-XCXtXrXtXtXtXtXtXtXrXtXrX3X5XrXtXrXtXrXrXtXrXtXtXtXtXtXtXtXtXtXtXtXtXtXtXtXtXtXtXtXtXtXtXrXyX5XrXyXrXtXtXtXtXtXtXtXtXtXtXrXsXjXyXrXtXtXtXtXtXtXtXrXrXrX5XrXrXtXtXtXtXtXtXtXtXtXtXtXtXtXtXtXtXtXtXtXrXrXrXrXrXrXtXtXtXtXtXtXtXtXtXtXtXtXtXtXtXtXtXrXtX0X].T U U U U U U U U R |.yXtXrXtXtXtXtXtXtXtXtXtXtXtXtXtXtXtXtXrXrXrXrXrXrXtXtXtX",
"tX4XyXrXtXtXtXtXtXrXtXCX-X<.3.,.,.,.,.9.; = < 9.,.,.,.,.9.,.,.3.,.,.,.,.,.,.,.,.,.,.,.,.,.,.,.,.,.3.,.- = ; 3.,.,.,.,.,.,.,.,.,.,.,.,.,.,.,.,.,.9.p : : ;.,.<.,.:.9.,.,.3.,.,.,.,.,.3.<.-XCXtXrXtXtXtXtXtXrXtX4X< a K.sX4XyX4XtXyX4XtXrXtXtXtXtXtXtXtXtXtXtXtXtXtXtXtXtXtXtXtXtXrXsXj.i p D.yXrXtXtXtXtXtXtXtXtXtXrXsXjXyXrXtXtXtXtXtXtXrXrXaXaXkXkXaXrXrXrXtXtXtXtXtXtXtXtXtXtXtXtXtXtXtXrXrXaXaXaXaXtXrXrXtXtXtXtXtXtXtXtXtXtXtXtXtXtXrXgX|.T U U R ]. X0X0X X].T U U P 1XtXrXtXtXtXtXtXtXtXtXtXtXtXtXtXrXrXtXyXgXgXgXtXrXrXtX",
"i i j.sX5XtXtXtXtXrXtXCX-X<.3.,.,.,.,.s.: p s.- : ;.- - a : = p 9.,.,.,.,.,.,.,.,.,.,.,.,.,.,.,.,.9.< - s.: p 9.,.,.,.,.,.,.,.,.,.,.,.,.,.,.,.,.,.= ;.,.,.i : i < < = : ,.3.,.,.,.,.3.<.-XCXtXrXtXtXtXtXtXrXyX-Xi yXI.; j.j.i j.0.i i tXrXtXtXtXtXtXtXtXtXtXtXtXtXtXtXtXtXtXtXrXtX5X< 4XK.i sXrXtXtXtXtXtXtXtXtXtXrXsXjXyXrXtXtXtXtXrXrXaXtX+Xx.u.x.:XaXaXrXrXtXtXtXtXtXtXtXtXtXtXtXtXrXrXaXtX+XOXOXOXiXaXaXrXrXtXtXtXtXtXtXtXtXtXtXtXrXgX[.Y U R .XjXkXjXjXjXkXkXVX.XQ % Q 1XyXrXtXtXtXtXtXtXtXtXtXtXtXrXtXgX5XF.G.G.F.4XgXtXrX",
">.K.a jX5XtXtXtXtXrXtXCX-X<.3.,.,.,.,.s.: = p = :.< = : @ ;.< < s.,.,.,.,.,.,.,.,.,.,.,.,.,.,.,.,.9.- i g.< < s.,.,.,.,.,.,.,.,.,.,.,.,.,.,.,.4.:.: 9.= < ;.= : ; - a - p 9.,.,.,.,.3.<.-XCXtXrXtXtXtXtXtXrXtX3X- >.q.i jX; s ; i rX0 5XtXtXtXtXtXtXtXtXtXtXtXtXtXtXtXtXtXtXtXrXtX-Xi jXrX0 tXtXrXtXtXtXtXtXtXtXtXrXsXjXyXrXtXtXtXrXtXaXx.m & & & & & m u.aXtXrXtXtXtXtXtXtXtXtXtXtXrXtXaX+X| _ ( ( ( _ X.OXaXtXrXtXtXtXtXtXtXtXtXtXrXtX|.Y U ].jXjXjXjXjXjXjXjXVX3X6X0XP % Q 1XtXrXtXtXtXtXtXtXtXtXtXrXtX5XM.I r 8 8 r I b.>XgX",
"2.L.a jX5XtXtXtXtXrXtXCX-X<.3.,.,.,.,.s.: a s.= ,.0 = a - < - < 9.,.,.,.,.,.,.,.,.,.,.,.,.,.,.,.,.9.p = ,.: a 9.,.,.,.,.,.,.,.,.,.,.,.,.,.,.,.,.9.= p 0 = : : = - - ;.- p 9.,.,.,.,.3.<.-XCXtXrXtXtXtXtXtXrXyXI.i SXz.a CX0 >.z.i z.< 5XtXtXtXtXtXtXtXtXtXtXtXtXtXtXtXtXtXtXtXtXrXyXi j.j.a jX5XtXtXtXtXtXtXtXtXtXrXsXjXyXrXtXtXrXtXrX..& & & o.o.o.2 & & o.4XtXrXtXtXtXtXtXtXtXtXrXtXeXX./ (  .X...X. .( / ..rXtXrXtXtXtXtXtXtXtXrXtX0XT U ].kXjXjXjXjXjXjXjXjXjX: 0 SXjXP % P gXrXtXtXtXtXtXtXtXtXrXyX>XI 8 r I I M.I r 8 r M.",
"j.-Xh.sXrXtXtXtXtXrXtXCX-X<.3.,.,.,.,.9.i ;.9.< <.3.< < :.< @ 0 9.,.,.,.,.,.,.,.,.,.,.,.,.,.,.,.,.,.4.0 @ = 9.,.,.,.,.,.,.,.,.,.,.,.,.,.,.,.,.,.4.:.- : p < < p p p :.p :.9.,.,.,.,.3.<.-XCXtXrXtXtXtXtXtXrXtX3X0.yXI.q.jXL.s j.j.a ; rXtXtXtXtXtXtXtXtXtXtXtXtXtXtXtXtXtXtXtXtXrXyXI.a = K.yXrXtXtXtXtXtXtXtXtXtXrXsXjXyXrXtXrXrXtXX.( _ a.gXVXGXAXgXx.& & n tXtXrXtXtXtXtXtXtXrXtXrXX.(  .OXyXkXCXkXgXOX{ ( X.tXtXrXtXtXtXtXtXtXrXgX].U R jXjXjXjXjXjXjXjXjXSX2.o z.CXkX1XJ J [.gXrXtXtXtXtXtXtXrXtX>XI r I {.jXZXZXVXaXM.r r ",
"yXtXsXrXtXtXtXtXtXrXtXCX-X<.3.,.,.,.,.,.9.3.,.9.3.,.9.9.,.s.< < 9.,.,.,.,.,.,.,.,.,.,.,.,.,.,.,.,.,.,.9.,.< ,.3.,.,.,.,.,.,.,.,.,.,.,.,.,.,.,.,.,.4.9.9.9.9.9.9.9.9.3.9.3.,.,.,.,.,.3.<.-XCXtXrXtXtXtXtXtXtXrXtXsXrXtXsX5XyXjXtXyXjXp 4XtXtXtXtXtXtXtXtXtXtXtXtXtXtXtXtXtXtXtXtXtXrXtXCXj.j.yXrXtXtXtXtXtXtXtXtXtXrXsXjXyXrXtXrXaX!.(  .wXaXD.VXjXjXjXGXeX2 & o.aXrXtXtXtXtXtXtXrXaXp.(  .wXGXjXjXjXjXjXGXwX .( p.aXrXtXtXtXtXtXrXtX0XT Y 0XjXjXjXjXjXjXjXjXAXI.+ s SXjXsXSXy.% P gXrXrXtXtXtXtXrXtXtXI r I sXZXjXjXjXjXjXZXF.r ",
"rXrX5XtXtXtXtXtXtXrXtXCX-X<.3.,.,.,.,.,.,.,.,.,.,.,.,.,.,.,.,.,.3.,.,.,.,.,.,.,.,.,.,.,.,.,.,.,.,.,.,.,.,.9.,.,.,.,.,.,.,.,.,.,.,.,.,.,.,.,.,.,.,.,.,.,.,.,.,.,.,.,.,.,.,.,.,.,.,.,.3.<.-XCXtXrXtXtXtXtXtXtXtXrX5XtXrXeXrXeX4XrXrX5X4XrXtXtXtXtXtXtXtXtXtXtXtXtXtXtXtXtXtXtXtXtXrXrX5X4XyXtXrXtXtXtXtXtXtXtXtXtXtXrXsXjXyXrXrXtXiX ./ +XJX2.o I.AXjXjXgXGX:X& & +XaXrXtXtXtXtXrXtXiX) _ #XGXgXjXjXjXjXjXgXGX#X_ ) iXtXrXtXtXtXtXrXgX[.U R jXjXjXjXjXjXjXjXjXjX; # yXVXjXjXjXrXJ J <XtXrXtXtXtXtXrXgXG.r I sXjXjXjXjXjXjXjXjXZXM.",
"5XrXtXtXtXtXtXtXtXrXtXCX-X<.3.,.,.,.,.,.,.,.,.9.9.9.9.9.3.,.,.3.,.,.,.,.,.,.,.,.,.,.,.,.,.,.,.,.,.3.9.9.9.9.3.,.,.,.,.,.,.,.,.,.,.,.,.,.,.,.,.,.,.,.,.3.9.9.9.9.9.3.,.,.,.,.,.,.,.,.3.<.-XCXtXrXtXtXtXtXtXtXtXtXrXrXtXaXfXfXfXaXtXrXtXtXtXtXtXtXtXtXtXtXtXtXtXtXtXtXtXtXtXtXrXrXtXaXkXkXkXaXtXrXrXtXtXtXtXtXtXtXtXrXsXjXyXrXrXaXOX( X.kXjXyX: : sXjXjXjXjXGXo.& } aXrXtXtXtXtXrXaX!.( ..CXjXjXjXjXjXVXSXAXjXCXX.( p.aXrXtXtXtXtXrXgX].U  XkXjXjXjXjXjXjXjXAXj.o j.AXjXjXjXjXAXP % k.gXrXtXtXtXrXrXyXI 8 F.ZXjXjXjXjXjXjXjXjXVXaX",
"sXtX5XtXtXtXtXtXtXrXtXCX-X<.3.,.,.,.,.,.,.9.3.1.1.n n 1.<.9.3.,.,.,.,.,.,.,.,.,.,.,.,.,.,.,.,.3.9.<.1.n n n :.3.9.,.,.,.,.,.,.,.,.,.,.,.,.,.,.,.,.,.9.,.1.n 1 n 1.,.9.,.,.,.,.,.,.,.3.<.-XCXtXrXtXtXtXtXtXtXtXrXtXpXqXoX*.*.*.@XeXkXrXrXtXtXtXtXtXtXtXtXtXtXtXtXtXtXtXtXtXrXrXkXrX~.a.} } a.iXkXtXrXtXtXtXtXtXtXtXrXsXjXyXrXrXaX..( OXCXjXSXD.+ j.AXjXjXjXAXx.& o.aXrXtXtXtXtXrXaX..( OXCXjXjXjXjXjXrXq.i # I.~.& o.aXrXtXtXtXtXrXtXR U 0XjXjXjXjXjXjXjXjXVX5Xj.jXjXjXjXjXjXAXP % y.jXrXtXtXtXrXtX4XI r pXjXjXjXjXjXjXjXjXjXsXVX",
"f tXtX5XtXtXtXtXtXrXtXCX-X<.3.,.,.,.,.,.9.1.1 > > > > > , 1 <.9.,.,.,.,.,.,.,.,.,.,.,.,.,.,.9.<.1 , > > > > > 2 1.9.,.,.,.,.,.,.,.,.,.,.,.,.,.,.3.3.1.2 > > > > > , 1 ,.9.,.,.,.,.,.3.<.-XCXtXrXtXtXtXtXtXtXrXaXeX*.+.O.O.V O.O.O.a.aXtXrXtXtXtXtXtXtXtXtXtXtXtXtXtXtXtXrXtXaXa.b z z z z z l } iXaXrXtXtXtXtXtXtXrXsXjXyXrXrXaXX.( #XlXjXjXjX3XjXjXjXjXjXCXiX& 2 tXrXrXtXtXtXrXaX ./ wXkXjXjXjXjXSXq.+ # i 6X+X& m aXrXtXtXtXtXtXtXT Y sXjXjXjXjXjXjXjXjXjXVXAXjXjXjXjXjXjXAXy.% P jXrXtXtXtXrXtX2Xr I jXjXjXjXjXjXAX2.# # # gX",
"O y 3XyX5XtXtXtXtXrXtXCX-X<.3.,.,.,.,.3.1 > > 2 1 o.n 1 , > , 1.9.,.,.,.,.,.,.,.,.,.,.,.,.9.1., > , 1 n o.n 2 > > 1 3.,.,.,.,.,.,.,.,.,.,.,.,.3.,.1 > > 2 n o.n 1 > > , ;.9.,.,.,.,.3.<.-XCXtXrXtXtXtXtXtXrXaX@X+.O.O.+.*.*.*.+.x z m 4XtXrXtXtXtXtXtXtXtXtXtXtXtXtXtXrXtXrX{ z z b } X.X.{ z z b ~.aXrXtXtXtXtXtXrXsXjXyXrXrXaXX.( #XlXjXjXjXVXjXjXjXjXjXCXiX& 2 tXrXrXtXtXtXrXaXX./ wXkXjXjXjXjXVXrXP.jXAXSX+X& m aXrXtXtXtXtXtXtXT Y sXjXjXjXjXjXjXjXjXjXjXjXjXjXjXjXjXjXAXy.% P jXrXtXtXtXrXtX2Xr I jXjXjXjXjXjXCXw.i s s jX",
"y O y 4XtXrXtXtXtXrXtXCX-X<.3.,.,.,.9.1 > , 1.9.s.s.s.s.,.1 > , 1.9.,.,.,.,.,.,.,.,.,.,.9.1., > 1 <.s.s.s.s.9.1., > 1 9.,.,.,.,.,.,.,.,.,.,.,.,.1 > 2 1.9.s.s.s.s.,.2   * :.9.,.,.,.3.<.-XCXtXrXtXtXtXtXrXtX7X+.O.+.*XkXlXlXlXAX~.b z b tXtXrXtXtXtXtXtXtXtXtXtXtXtXrXrXtX{ z l a.jXGXGXGXAX7X{ z l +XaXrXtXtXtXtXrXsXjXyXrXrXaX..( !.CXjXjXjXjXjXjXjXjXjXAXx.& o.aXrXtXtXtXtXrXaXX.( OXCXjXjXjXjXjXVXAXjXjXAXx.& o.aXrXtXtXtXtXrXtXR U .XjXjXjXjXjXjXjXjXjXjXjXjXjXjXjXjXjXAXy.% y.jXrXtXtXtXrXtX1XI r 2XVXjXjXjXjXjXCXAXSXAXAX",
"sXy O g yX5XtXtXtXrXtXCX-X<.3.,.,.9.1.> , 1.s.s.9.9.9.9.s.s.n > , <.3.,.,.,.,.,.,.,.,.,.,.2 > 1 s.s.9.9.9.9.9.s.<., > 1.9.,.,.,.,.,.,.,.,.,.9.n > 2 <.s.9.9.9.s.<.;.s.,   * 9.,.,.,.3.<.-XCXtXrXtXtXtXtXrXaX=.O.+.yXlXjXjXDX0.i lXuXb z } kXrXtXtXtXtXtXtXtXtXtXtXtXrXkXa.z b +XGXjXjXjXjXjXCXCX{ z b rXtXrXtXtXtXrXsXjXyXrXrXaXOX( | kXjXjXjXjXjXjXjXjXjXAXo.& u.kX5XtXtXtXtXrXaXOX( X.CXjXjXjXjXjXjXjXjXjXVXo.& u.kXrXtXtXtXtXrXgX].U XXkXjXjXjXjXjXjXjXjXjXjXjXjXjXjXjXjXAXP J V.gXrXtXtXtXtXrXyXI 8 G.ZXsXjXjXjXjXjXjXjXjX4X",
"CXT.O O U.yX5XtXtXrXtXCX-X<.3.,.,.3.2 > 1.s.9.9.9.9.9.9.9.9.s.1 > n 9.,.,.,.,.,.,.,.,.9.1.> 2 9.s.9.9.9.9.9.9.9.s.1.> 2 ,.,.,.,.,.,.,.,.,.3.<., > 1.s.9.9.9.s.s.@ o 9.4.*   p 9.,.,.3.<.-XCXtXrXtXtXtXrXaX@XO.O.wXlXgXjXjXjX# ; jXGX+Xz l :XaXrXtXtXtXtXtXtXtXtXtXrXtX4Xb z !.GXyXjXjXjXjXjXjXjXjXb z a.kXrXtXtXtXrXsXjXyXrXrXtXeX ./ OXGXjXjXjXjXjXjXjXFX~.& & :XyXrXtXtXtXtXrXtXiX{ / +XGXjXjXjXjXjXjXjXHXx.& & -XtXrXtXtXtXtXrXgX|.U R jXjXjXjXjXjXjXjXjXjXjXjXjXjXjXjXjX0XJ J <XtXrXtXtXtXtXrXgXF.r I aXVXjXjXjXjXjXjXjXUXK ",
"SXUXg O g sX5XtXtXrXtXCX-X<.3.,.3.:., , 9.9.9.9.9.9.9.9.9.9.s.1.> 2 ,.,.,.,.,.,.,.,.,.9.1 > 1.s.9.9.9.9.9.s.s.s.s.s.2 , 1.9.,.,.,.,.,.,.,.9.1.> 1 s.9.9.9.9.s.- 3 p s.s.1   , 9.,.,.3.<.-XCXtXrXtXtXtXrXpX=.O.*.zXgXjXjXAX0.o j.AXyXAX{ z a.kXrXtXtXtXtXtXtXtXtXtXrXaX~.z b jXjXjXjXjXjXjXjXjXjXGXa.z m aXrXrXtXtXrXsXjXyXrXtXrXaXOX^ ) #XkXjXjXjXjXjXjX+X& & e.aXrXtXtXtXtXtXtXrXaX!.( { #XkXjXjXjXjXjXjX~.& & u.aXrXtXtXtXtXtXrXtXrXT U .XkXjXjXjXjXjXjXjXjXjXjXjXjXjXsXAXP % P jXrXtXtXtXtXtXrXrXtXI 8 I aXjXjXjXjXjXjXjX7.. ",
"0 I.E.X i yX5XtXtXrXtXCX-X<.3.,.9.1.> 1 s.9.9.9.9.9.9.s.s.9.9.,., , <.3.,.,.,.,.,.,.3.,., , ,.s.9.9.9.9.s.>.i - = 9.1 $ 1 9.,.,.,.,.,.,.,.9.1 > 1.s.9.9.9.s.9.+ - s.9.s.1.  * 3.,.,.3.<.-XCXtXrXtXtXtXrXaX+.O.$XlXjXjXjXAX0.0 jXjXjXGXa.z { kXrXtXtXtXtXtXtXtXtXtXrXkX} z } GXjXjXjXjXjXjXjXjXjXCX7Xz b 4XtXrXtXtXrXsXjXyXrXtXtXrXaXp.( / +XkXjXjXjXjXiX& & o.tXtXrXtXtXtXtXtXtXrXrXaX..( _ iXkXjXjXjXkX:X& & o.tXrXrXtXtXtXtXtXtXrXgX].U R jXjXjXjXjXjXjXjXjXjXjXjXjXsXAX|.J J {.yXrXtXtXtXtXtXtXrXtX4XI 8 I sXjXjXjXjXAX6.. % ",
"# j.-X3 # yXrXtXtXrXtXCX-X<.3.,.9.n > n s.9.9.9.9.s.9.p :.s.s.9.2 > :.9.,.,.,.,.,.,.3.<., , 9.9.9.9.9.9.s.: 3 + + 8.1   2 9.,.,.,.,.,.,.,.9.1 > 1.s.9.9.9.9.s.3.9.s.9.s.,.$ $ ,.3.,.3.<.-XCXtXrXtXtXrXtXtX+.O.wXkXjXjXjXjXAXVXjXjXjXAX~.z m kXrXtXtXtXtXtXtXtXtXtXeXkX} z a.GXjXjXjXAXCXjXjXjXjXjXyXl l iXtXrXtXtXrXsXjXyXrXtXtXrXrXaXp.X.5XtXtXtXtXtXtXo.o.rXtXrXtXtXtXtXtXtXtXtXrXtXaX..X.rXtXtXtXtXtXtXo.o.tXtXrXtXtXtXtXtXtXtXrXtXrXR U ].kXjXjXjXjXjXjXjXjXjXjXjXAX0XJ % P jXrXtXtXtXtXtXtXtXtXrXtX4XI M.yXtXtXtXtXyXS.w 6.",
"VXSXK.o # yXrXtXtXrXtXCX-X<.3.,.9.1.> n s.9.9.9.9.s.,.o 3 + i s.2 > :.9.,.,.,.,.,.,.3.<., , 9.s.9.9.9.9.s.,.:.9.s.s.1   1 9.,.,.,.,.,.,.,.9.1 > 1.s.9.9.9.9.9.s.9.9.9.s.<.$ * ,.3.,.3.<.-XCXtXrXtXtXtXrXtX+.O.%XkXjXjXjXjXjXjXjXjXjXGX~.z m kXrXtXtXtXtXtXtXtXtXtXeXkX} z a.GXjXjXVXD.3XVXjXjXjXjXuXl l iXtXrXtXtXrXsXjXyXrXtXtXtXrXtXtXrXtXrXrXrXrXrXtXrXtXtXrXtXtXtXtXtXtXtXtXtXtXrXtXtXrXtXrXrXrXrXrXtX5XtXtXrXtXtXtXtXtXtXtXtXtXrXtX<XT U R sXjXjXjXjXjXjXjXjXjXjX<XJ % P rXtXrXtXtXtXtXtXtXtXtXtXrXtXtXtXtXrXrXrXrXrXtX5XyX",
"jXSX8.3 i sX5XtXtXrXtXCX-X<.3.,.9.1.> 2 s.9.9.9.9.9.9.:.< + 0 9., 2 ,.3.,.,.,.,.,.,.3.,.2 > <.s.9.9.9.9.9.s.s.s.9.s.,   1 9.,.,.,.,.,.,.,.9.1 > 1 s.9.9.9.9.9.9.9.9.9.s.1.  * 9.,.,.3.<.-XCXtXrXtXtXtXrXaX+.O.oXlXjXjXjXjXjXjXjXjXjXGX..z } kXrXtXtXtXtXtXtXtXtXtXrXkXa.z { AXjXCX,X+ s SXjXjXjXCX+Xz b tXtXrXtXtXrXsXjXyXrXtXtXtXtXrXrXtXrXtXtXtXtXtXrXtXrXrXtXtXtXtXtXtXtXtXtXtXtXtXrXrXtXrXtXtXtXtXtXrXtXrXrXtXtXtXtXtXtXtXtXtXtXtXrXgX|.T U R jXjXjXjXjXjXjXjXjX<XJ % P 1XtXrXtXtXtXtXtXtXtXtXtXtXtXrXtXtXrXtXtXtXtXtXrXtXrX",
"jXjX# 3 0.jX5XtXtXrXtXCX-X<.3.,.3.,., , <.s.9.9.9.9.9.s.s.9.s.1   2 9.,.,.,.,.,.,.,.,.9.1 > n s.9.9.9.9.9.9.9.9.s.<.$ $ :.4.,.,.,.,.,.,.,.9.:.> 2 9.9.9.9.9.9.9.9.9.9.s.,   1 9.,.,.3.<.-XCXtXrXtXtXtXrXpX!.O.+.lXjXjXjXjXjXjXjXjXjXyXb z ~.aXrXtXtXtXtXtXtXtXtXtXrXaX:Xz l uXkXVXi # 5XVXjXjXjXGX} z } kXeXtXtXtXrXsXjXyXrXtXtXtXtXtXtXrXtXtXtXtXtXtXtXrXrXtXtXtXtXtXtXtXtXtXtXtXtXtXtXtXrXtXtXtXtXtXtXtXrXrXtXtXtXtXtXtXtXtXtXtXtXtXtXrXtX0XR [.gXtXyXsXjXsXsXtXtXtXP P tXtXrXtXtXtXtXtXtXtXtXtXtXtXtXtXrXrXtXtXtXtXtXtXtXrXtX",
"LX8.3 + ,XtXrXtXtXrXtXCX-X<.3.,.,.9.1 > 1 s.s.9.9.9.9.9.9.s.<.$   1 9.,.,.,.,.,.,.,.,.9.1., , <.s.9.9.9.9.9.9.s.s.,   , 9.,.,.,.,.,.,.,.,.,.3.2 > n s.9.9.9.9.9.9.9.f.1.  $ :.9.,.,.3.<.-XCXtXrXtXtXtXrXtXqXO.O.oXzXjXjXjXjXjXjXjXJXX.z b eXtXrXtXtXtXtXtXtXtXtXtXrXrXaX{ z { HX,X+ 0.SXjXjXjXGX+Xz z ~.aXrXtXtXtXrXsXjXyXrXtXtXtXtXtXtXtXtXtXtXtXtXtXtXtXtXtXtXtXtXtXtXtXtXtXtXtXtXtXtXtXtXtXtXtXtXtXtXtXtXtXtXtXtXtXtXtXtXtXtXtXtXtXtXtXrXtXtXrXtXrXrXrXrXrXrXrXrXtXrXtXtXrXtXtXtXtXtXtXtXtXtXtXtXtXtXtXtXtXtXtXtXtXtXtXtXtXtX",
"8.o o 0.jX5XtXtXtXrXtXCX-X<.3.,.,.3.<.2 > 1 9.s.9.9.9.9.s.1.*   , 9.,.,.,.,.,.,.,.,.,.,.9.1 > 2 <.s.9.9.9.9.s.4.2   $ :.9.,.,.,.,.,.,.,.,.,.9.:., > o.9.9.9.9.9.9.9.1.$   1 9.,.,.,.3.<.-XCXtXrXtXtXtXtXrXpX!.O.O.`.jXjXjXjXjXjXjXa.z z ~.aXrXtXtXtXtXtXtXtXtXtXtXtXrXaX+Xl z } NXI.yXjXjXjXjX~.b z } aXrXtXtXtXtXrXsXjXyXrXtXtXtXtXtXtXtXtXtXtXtXtXtXtXtXtXtXtXtXtXtXtXtXtXtXtXtXtXtXtXtXtXtXrXtXtXtXrXtXtXrXtXtXtXtXtXtXtXtXtXtXtXtXtXtXtXrXtXtXrXtXtXtXtXtXtXtXtXrXtXrXrXtXtXtXtXtXtXtXtXtXtXtXtXtXtXtXtXrXtXtXrXrXtXtXrXrXtX",
"o 3 d sX5XtXtXtXtXrXtXCX-X<.3.,.,.,.9.:., > n 9.9.9.9.9.9.*   * <.3.,.,.,.,.,.,.,.,.,.,.,.3.1 > 2 4.9.9.9.9.s.1   $ p 9.,.,.,.,.,.,.,.,.,.,.,.9.1., > 1.9.9.9.9.9.,.$   2 3.,.,.,.,.3.<.-XCXtXrXtXtXtXtXtXrXaX=.O.O.wXkXjXjXjXkX+Xz z ..aXrXtXtXtXtXtXtXtXtXtXtXtXtXtXrXaXx.l V oXlXjXjXjXjXtXb z { rXtXrXtXtXtXtXrXsXjXyXrXtXtXtXtXtXtXtXtXtXtXtXtXtXtXtXtXtXtXtXtXtXtXtXtXtXtXtXtXtXtXtXrXrXtXtXrXrXtXrXrXtXrXtXtXtXtXtXtXtXtXtXtXtXtXtXtXtXrXrXtXtXrXtXtXrXtXrXrXtXrXrXtXtXtXtXtXtXtXtXtXtXtXtXtXtXtXtXrXrXtXrXtXtXrXrXtXtXrX",
"d d sXtXrXtXtXtXtXrXtXCX-X<.3.,.,.,.,.9.:.1 <.3.,.3.3.,.9.1 , <.9.,.,.,.,.,.,.,.,.,.,.,.,.3.3.1 1.9.,.3.3.,.3.<., p 9.,.,.,.,.,.,.,.,.,.,.,.,.,.9.1.1 ,.,.,.3.3.,.9.1 2 3.3.,.,.,.,.3.<.-XCXtXrXtXtXtXtXtXrXrXpX=.=.pXrXtXtXtXrXtX{ a.aXrXrXtXtXtXtXtXtXtXtXtXtXtXtXtXtXrXaX).=.qX5XtXtXtXrXaXa.{ rXtXrXtXtXtXtXtXrXsXjXyXrXtXtXtXtXtXtXtXtXtXtXtXtXtXtXtXtXtXtXtXtXtXtXtXtXtXtXtXtXtXtXrXtXtX-X5XtXtX3XtXtX3XtXtXtXtXtXtXtXtXtXtXtXtXtXtXtXtXrXtX3X5XyX,X5XtXrXrXyXrXyXtXrXtXtXtXtXtXtXtXtXtXtXtXtXtXtXrXtXyXrXyX4XrXtXtXtX4XyX",
"yXsXrXrXtXtXtXtXtXrXtXCX-X<.3.,.,.,.,.,.3.9.3.,.,.,.,.,.,.3.9.3.,.,.,.,.,.,.,.,.,.,.,.,.,.,.,.9.3.,.,.,.,.,.,.3.9.9.,.,.,.,.,.,.,.,.,.,.,.,.,.,.,.9.3.3.,.,.,.,.,.,.3.9.,.,.,.,.,.,.3.<.-XCXtXrXtXtXtXtXtXtXrXrXaXtXtXtXrXrXrXrXtXtXaXrXrXtXtXtXtXtXtXtXtXtXtXtXtXtXtXtXtXrXaXaXtXrXrXrXrXtXtXtXaXtXrXtXtXtXtXtXtXrXsXjXyXrXtXtXtXtXtXtXtXtXtXtXtXtXtXtXtXtXtXtXtXtXtXtXtXtXtXtXtXtXtXrX5XtX8.>.-XjXq.; q.q.; q.sXrXtXtXtXtXtXtXtXtXtXtXtXtXrXtX-Xa p j.s p -XtXjXi h.h.< sXrXtXtXtXtXtXtXtXtXtXtXtXtXrXtX5X< h.-X< >.tXtXs 0 K.",
"rX5XrXtXtXtXtXtXtXrXtXCX-X<.3.,.,.,.,.,.,.,.,.,.,.,.,.,.,.,.,.,.,.,.,.,.,.,.,.,.,.,.,.,.,.,.,.,.,.,.,.,.,.,.,.,.,.,.,.,.,.,.,.,.,.,.,.,.,.,.,.,.,.,.,.,.,.,.,.,.,.,.,.,.,.,.,.,.,.,.3.<.-XCXtXrXtXtXtXtXtXtXtXrXrXrXrXtXtXtXtXtXrXrXrXrXtXtXtXtXtXtXtXtXtXtXtXtXtXtXtXtXtXtXrXrXrXtXtXtXtXtXtXrXrXrXtXtXtXtXtXtXtXrXsXjXyXrXtXtXtXtXtXtXrXrXrXtXtXrXrXtXrXrXtXtXtXtXtXtXtXtXtXtXtXtXrXtXVX-X; 0.4XtXp -Xi i -Xp 5XtXtXtXtXtXtXtXtXtXtXtXtXrXtXjX4XjX>.0.tXp z.jXL.- q.K.0 tXrXtXtXtXtXtXtXtXtXtXtXtXtXrXtXrXa q.2.j.>.D.K.>.D.s ",
"rXrXtX5XrXrXrXtXtXrXtXCX-X<.3.,.,.,.,.,.,.,.,.,.,.,.,.,.,.,.,.,.,.,.,.,.,.,.,.,.,.,.,.,.,.,.,.,.,.,.,.,.,.,.,.,.,.,.,.,.,.,.,.,.,.,.,.,.,.,.,.,.,.,.,.,.,.,.,.,.,.,.,.,.,.,.,.,.,.,.3.<.-XCXtXrXtXtXtXtXtXrXrXrXrXrXrXrXrXrXrXrXtXrXrXtXrXtXtXtXtXtXtXtXtXtXtXtXtXtXtXtXtXtXrXrXtXtXrXrXtXrXrXrXrXrXtXtXtXtXtXtXtXrXsXjXyXrXtXtXtXtXtXrXrXyXtXrXrXyXtXrXyXtXrXtXtXtXtXtXtXtXtXtXtXrXtX-X2.0.a 0.>.jXp sXi i sXp 4XtXrXtXtXtXtXtXtXtXtXtXrXyXL.>.tX-Xp sX0.< 3XtXp >.8.jXp tXrXtXtXtXtXtXtXtXtXtXtXtXtXtX5XjXq.0.2.-X2.D.K.8.,Xa ",
"rXtXrXsXtXyXyXrXtXrXtXCX-X<.3.,.,.,.9.,.3.4.,.4.4.,.4.3.,.,.3.,.3.3.,.,.,.,.,.,.,.,.,.,.,.,.,.,.,.,.3.,.,.9.3.,.9.3.,.,.,.,.,.,.,.,.,.,.,.,.3.9.,.,.3.9.,.3.9.,.,.,.,.9.3.4.9.,.,.,.3.<.-XCXtXrXtXtXtXtXtXrXtXyXsXyXtXsXtXtXyXtXrXtXtXrXtXtXrXrXtXtXtXtXtXtXtXtXtXtXtXtXtXrXtXtXrXrXtXyXrXtXyX5XtXyXrXtXtXtXtXtXtXrXsXjXyXrXtXtXtXtXrXtXtXL.4XtXtX-X5XyXI.rXtXrXtXtXtXtXtXtXtXtXtXrXtX4XL.D.a h.a K.s 8.a a 0.a tXrXtXtXtXtXtXtXtXtXtXtXrXtX3XK.-X; j.I.,Xa >.j.s : 0 tX0 tXrXtXtXtXtXtXtXtXtXtXtXtXtXtX5XjX8.0.h.>.s 0.j.a 2.2.",
"tXrXsXh.4XP.P.yXtXrXtXCX-X<.3.,.3.,.;.,.<.:.9.:.:.9.:.<.4.,.,.,.,.,.9.9.,.,.,.,.,.,.,.,.,.,.,.,.,.,.,.,.9.:.<.9.:.,.3.,.,.,.,.,.,.,.,.,.,.4.<.;.,.3.,.:.9.,.:.4.,.,.9.p :.:.;.3.,.,.3.<.-XCXtXrXtXtXtXtXrXtX4X-XK.-X4XD.-X4XK.tXtX5X4XtX4XtXsXtXrXtXtXtXtXtXtXtXtXtXtXtXrXyX-X,XtXtX5XP.yX4XI.yX4XI.yXrXtXtXtXtXtXrXsXjXyXrXtXtXtXtXrXyX8.>.I.jXq.< 8.q.< 2.yXrXtXtXtXtXtXtXtXtXtXtXrXtXyXsXq.>.L.j.-Xa L.I.a L.yXrXtXtXtXtXtXtXtXtXtXtXtXrXtXjXK.a >.q.s 0.D.j.SXL.K.yXq.tXrXtXtXtXtXtXtXtXtXtXtXtXtXtXrXyXK.D.tXs j.j.K.j.s 4X",
"tX5XI.i h.0 a 0.sX5XtXCX-X<.3.,.3.; < ;.: : p : : p = : <.4.: 9.p < :.;.,.,.,.,.,.,.,.,.,.,.,.,.s.= < s.p = - p = - ,.,.,.,.,.,.,.,.,.,.3.<.: < ,.4.- = p - = p 9.,.<.: i = - - 9.,.3.<.-XCXtXrXtXtXtX5XjX0.0 j.a < a a D.q.p >.VXj.2.SXs D.L.,XtXrXtXtXtXtXtXtXtXtXtXrXyXP.i p -XyX>.0 j.>.0 j.s 0 z.yXrXtXtXtXtXrXsXjXyXrXtXtXtXrXtX,X; >.-XyXp -Xa < 4Xp ,XtXrXtXtXtXtXtXtXtXtXtXtXrXrXrXsXjXyXyXtXjXtXtXjXyXrXtXtXtXtXtXtXtXtXtXtXtXtXtXtX5XyXjXjXsXjXsXyXyX4XtXyXrXsXrXtXtXtXtXtXtXtXtXtXtXtXtXtXtXtXrXyXyXtXjXsXyXyXsXjXtX",
"jX>.p < h.>.0.>.jX5XtXCX-X<.3.9.;.@ < < < ;.@ p p @ ;.< < s.= a - - < @ :.4.,.,.,.,.,.,.,.,.,.9.;.= < s.- ;.< @ <.- a 9.,.,.,.,.,.,.,.,.9.0 @ 0 3.;.: <.@ ; :.: s.< : @ p : p : 9.,.3.<.-XCXtXrXtXtXrXtX4Xa p SXP.>.>.p K.tX0.a CXj.i I.i j.< p jX5XtXtXtXtXtXtXtXtXtX5XjX2.j.0.q.3Xa 4X; >.3X- 8.L.a jX5XtXtXtXtXrXsXjXyXrXtXtXtXrXsXz.i j.a AXp tXa ; sXa -XyXrXtXtXtXtXtXtXtXtXtXtXtXtXtX5X5XtXyXtXyXtX5X5XrXtXtXtXtXtXtXtXtXtXtXtXtXtXtXtXtXrX5X5X5X4XyXtXyXsX5XrXtX5XtXtXtXtXtXtXtXtXtXtXtXtXtXtXtXtXtXrX5XrX5X5XrXrX5X5XrX",
"sXi jXa h.< a 8.sX5XtXCX-X<.,.9.i : p + p ;.+ ;.a + :.0 < s.@ - = 0 ;.< 9.,.,.,.,.,.,.,.,.,.3.<.: - - s.- :.< @ 3.- p 9.,.,.,.,.,.,.,.,.9.- < ; p <.- 9.@ < <.: s.= 3.- i = - - 4.,.3.<.-XCXtXrXtXtXrXsXa >.i sXs j.jXK.i ,Xa >.jXj.; 2.; rX>.-XyXrXtXtXtXtXtXtXtXtXtX5XjX2.D.h.q.4Xs yX- 2.tX: 0.-Xa jX5XtXtXtXtXrXsXjXyXrXtXtXtXrXtX,Xp 0.a j.>.>.s a >.a 5XtXrXtXtXtXtXtXtXtXtXtXtXtXtXtXrXsX,Xh.5Xj.-XyXrXtXtXtXtXtXtXtXtXtXtXtXtXtXtXtXtXtXtXtXrXtXjX0.4XD.D.tXtXtXtXtXtXtXtXtXtXtXtXtXtXtXtXtXtXtXtXtXtXtXsXtXsXtXtXsXtXrX",
"VXp 0.< q.a j.i sX5XtXCX-X<.3.9.;.: < : - - - - - - - : p 9.= s.p - @ p ,.,.,.,.,.,.,.,.,.,.3.:.< @ @ p < - - - - : :.4.,.,.,.,.,.,.,.,.9.i - < - p : - - - - < s.- < = 0 : p = ,.,.3.<.-XCXtXrXtXtXrXtX8.p = K.i rXK.j.p D.j.0 jXh.>.HXa a i ,XtXrXtXtXtXtXtXtXtXtXtXrXsXj.a s 2.j.s >.s s >.s s s 8.jX5XtXtXtXtXrXsXjXyXrXtXtXtXtXrXyXz.>.-Xj.4X>.K.4X>.L.yXrXtXtXtXtXtXtXtXtXtXtXtXtXtXrXtX4X0.>.>.a p K.yXrXtXtXtXtXtXtXtXtXtXtXtXtXtXtXtXtXtXrXtX5XK.i h.0 s 8.sX5XtXtXtXtXtXtXtXtXtXtXtXtXtXtXtXtXtXrXtX,XD.,XD.rXrXz.-XtX",
"yXP.2.j.,X>.>.-XtXrXtXCX-X<.3.,.9.p < 4.i < 9.0 < 9.< 0 9.,.p ,.:.p < < <.3.,.,.,.,.,.,.,.,.,.3.s.<.;.p ,.< p 3.< p 9.,.,.,.,.,.,.,.,.,.,.4.< i ;.;.;.; ,.a < ,.4.:.< 0 <.< - ;.9.,.3.<.-XCXtXrXtXtXtXrXjXyXK.,Xz.jXj.>.-Xj.>.I.sXI.D.tXz.h.>.j.yXrXtXtXtXtXtXtXtXtXtXrXrXtX0.j.P.K.P.>.5XD.>.tXj.2.rXtXrXtXtXtXtXrXsXjXyXrXtXtXtXtXtXrXyXjXtXsXtXjXyXtXjXyXrXtXtXtXtXtXtXtXtXtXtXtXtXtXrXtX,Xp 0 >.>.0.p K.yXrXtXtXtXtXtXtXtXtXtXtXtXtXtXtXtXtXtX5XsX>.p < h.s 8.2.jX5XtXtXtXtXtXtXtXtXtXtXtXtXtXtXtXtXtXrXtX< p < p 0.2.i L.tX",
"rXyXjXsXtXjXjXtXrXrXtXCX-X<.3.,.,.9.s.,.9.9.,.9.9.,.9.9.,.,.9.,.4.9.s.9.3.,.,.,.,.,.,.,.,.,.,.,.,.3.4.9.3.9.9.,.s.9.,.,.,.,.,.,.,.,.,.,.,.,.9.9.9.9.9.s.,.9.s.,.,.3.9.9.3.9.s.9.,.,.3.<.-XCXtXrXtXtXtXtX5XrXyXtXsX5XsXjXtXsXjXtXrXtXyXrXyXjXjXsXrXtXtXtXtXtXtXtXtXtXtXtXtXrXjXsXyXyXyXjXtXyXjXrXsXjXtXrXtXtXtXtXtXrXsXjXyXrXtXtXtXtXtXtXrX5XrXrXrX5XrXrX5XrXtXtXtXtXtXtXtXtXtXtXtXtXtXtXrXjXh.8.3X>.>.a p D.yXrXtXtXtXtXtXtXtXtXtXtXtXtXtXtXtXtXrXtX4Xi VXa h.0 >.2.sXrXtXtXtXtXtXtXtXtXtXtXtXtXtXtXtXtXtXtX5Xp ,Xa -X>.K.s L.tX",
"tXrX5X5XrX5X5XrXtXrXtXCX-X<.3.,.,.,.,.,.,.,.,.,.,.,.,.,.,.,.,.,.,.,.,.,.,.,.,.,.,.,.,.,.,.,.,.,.,.,.,.,.,.,.,.,.,.,.,.,.,.,.,.,.,.,.,.,.,.,.,.,.,.,.,.,.,.,.,.,.,.,.,.,.,.,.,.,.,.,.3.<.-XCXtXrXtXtXtXtXtXrXrXrXrXtX5X5XrX5X5XrXtXrXrXtXrX5X5X5XtXtXtXtXtXtXtXtXtXtXtXtXtXtX5X5XrXrXrX5XrXrX5XrXrX5XrXtXtXtXtXtXtXrXsXjXyXrXtXtXtXtXtXtXtXtXtXtXtXtXtXtXtXtXtXtXtXtXtXtXtXtXtXtXtXtXtXtXrXyXP.p s s >.0.a q.jX5XtXtXtXtXtXtXtXtXtXtXtXtXtXtXtXtXrXrXyXp 2.< q.p q.p sX5XtXtXtXtXtXtXtXtXtXtXtXtXtXtXtXtXrXtX5Xi I.a K.a ,Xa a jX",
"tXtXtXtXtXtXtXtXtXrXtXCX-X<.4.3.3.3.3.3.3.3.3.3.3.3.3.3.3.3.3.3.3.3.3.3.3.3.3.3.3.3.3.3.3.3.3.3.3.3.3.3.3.3.3.3.3.3.3.3.3.3.3.3.3.3.3.3.3.3.3.3.3.3.3.3.3.3.3.3.3.3.3.3.3.3.3.3.3.3.3.<.-XCXtXrXtXtXtXtXtXtXtXtXtXtXtXtXtXtXtXtXtXtXtXtXtXtXtXtXtXtXtXtXtXtXtXtXtXtXtXtXtXtXtXtXtXtXtXtXtXtXtXtXtXtXtXtXtXtXtXtXtXrXsXjXyXrXtXtXtXtXtXtXtXtXtXtXtXtXtXtXtXtXtXtXtXtXtXtXtXtXtXtXtXtXtXtXtXrXyXj.0.I.K.>.j.tXrXtXtXtXtXtXtXtXtXtXtXtXtXtXtXtXtXtXtXrXtX-X0.z.3X8.8.4XtXrXtXtXtXtXtXtXtXtXtXtXtXtXtXtXtXtXtXtXrXD.4XK.3XP.D.8.3XtX",
"rXrXrXrXrXrXrXrXrX5XtXAX-X:.,.<.<.<.<.<.<.<.<.<.<.<.<.<.<.<.<.<.<.<.<.<.<.<.<.<.<.<.<.<.<.<.<.<.<.<.<.<.<.<.<.<.<.<.<.<.<.<.<.<.<.<.<.<.<.<.<.<.<.<.<.<.<.<.<.<.<.<.<.<.<.<.<.<.<.<.,.:.-XCXtXrXrXrXrXrXrXrXrXrXrXrXrXrXrXrXrXrXrXrXrXrXrXrXrXrXrXrXrXrXrXrXrXrXrXrXrXrXrXrXrXrXrXrXrXrXrXrXrXrXrXrXrXrXrXrXrXrXrX5XsXjXtX5XrXrXrXrXrXrXrXrXrXrXrXrXrXrXrXrXrXrXrXrXrXrXrXrXrXrXrXrXrXrXrXrX5XsXjXtXyXjXsXrXrXrXrXrXrXrXrXrXrXrXrXrXrXrXrXrXrXrXrXrX5XtXjXyXtXjXjXtXrXrXrXrXrXrXrXrXrXrXrXrXrXrXrXrXrXrXrXrXrXyXtXyXtXyXyXjXtXrX",
"jXjXjXjXjXjXjXjXjXjXjXjXyX,X3X3X3X3X3X3X3X3X3X3X3X3X3X3X3X3X3X3X3X3X3X3X3X3X3X3X3X3X3X3X3X3X3X3X3X3X3X3X3X3X3X3X3X3X3X3X3X3X3X3X3X3X3X3X3X3X3X3X3X3X3X3X3X3X3X3X3X3X3X3X3X3X3X3X3X3X3X,XyXjXjXjXjXjXjXjXjXjXjXjXjXjXjXjXjXjXjXjXjXjXjXjXjXjXjXjXjXjXjXjXjXjXjXjXjXjXjXjXjXjXjXjXjXjXjXjXjXjXjXjXjXjXjXjXjXjXjXjXjXjXjXjXjXjXjXjXjXjXjXjXjXjXjXjXjXjXjXjXjXjXjXjXjXjXjXjXjXjXjXjXjXjXjXjXjXjXjXsXyXsXsXyXsXjXjXjXjXjXjXjXjXjXjXjXjXjXjXjXjXjXjXjXjXjXjXsXyXsXsXyXyXsXjXjXjXjXjXjXjXjXjXjXjXjXjXjXjXjXjXjXjXjXjXsXjXsXjXsXsXyXsXjX",
"jXjXjXjXjXjXjXjXjXjXjXjXjXCXCXCXCXCXCXCXCXCXCXCXCXCXCXCXCXCXCXCXCXCXCXCXCXCXCXCXCXCXCXCXCXCXCXCXCXCXCXCXCXCXCXCXCXCXCXCXCXCXCXCXCXCXCXCXCXCXCXCXCXCXCXCXCXCXCXCXCXCXCXCXCXCXCXCXCXCXCXCXjXjXjXjXjXjXjXjXjXjXjXjXjXjXjXjXjXjXjXjXjXjXjXjXjXjXjXjXjXjXjXjXjXjXjXjXjXjXjXjXjXjXjXjXjXjXjXjXjXjXjXjXjXjXjXjXjXjXjXjXjXjXjXjXjXjXjXjXjXjXjXjXjXjXjXjXjXjXjXjXjXjXjXjXjXjXjXjXjXjXjXjXjXjXjXjXjXjXjXjXjXjXjXjXjXjXjXjXjXjXjXjXjXjXjXjXjXjXjXjXjXjXjXjXjXjXjXjXjXjXjXjXjXjXjXjXjXjXjXjXjXjXjXjXjXjXjXjXjXjXjXjXjXjXjXjXjXjXjXjXjXjXjXjX",
"tXtXtXtXtXtXtXtXtXtXtXtXtXtXtXtXtXtXtXtXtXtXtXtXtXtXtXtXtXtXtXtXtXtXtXtXtXtXtXtXtXtXtXtXtXtXtXtXtXtXtXtXtXtXtXtXtXtXtXtXtXtXtXtXtXtXtXtXtXtXtXtXtXtXtXtXtXtXtXtXtXtXtXtXtXtXtXtXtXtXtXtXtXtXtXtXtXtXtXtXtXtXtXtXtXtXtXtXtXtXtXtXtXtXtXtXtXtXtXtXtXtXtXtXtXtXtXtXtXtXtXtXtXtXtXtXtXtXtXtXtXtXtXtXtXtXtXtXtXtXtXtXtXtXtXtXtXtXtXtXtXtXtXtXtXtXtXtXtXtXtXtXtXtXtXtXtXtXtXtXtXtXtXtXtXtXtXtXtXtXtXtXtXtXtXtXtXtXtXtXtXtXtXtXtXtXtXtXtXtXtXtXtXtXtXtXtXtXtXtXtXtXtXtXtXtXtXtXtXtXtXtXtXtXtXtXtXtXtXtXtXtXtXtXtXtXtXtXtXtXtXtXtXtXtXtX",
"rXrXrXrXrXrXrXrXrXrXrXrXrXrXrXrXrXrXrXrXrXrXrXrXrXrXrXrXrXrXrXrXrXrXrXrXrXrXrXrXrXrXrXrXrXrXrXrXrXrXrXrXrXrXrXrXrXrXrXrXrXrXrXrXrXrXrXrXrXrXrXrXrXrXrXrXrXrXrXrXrXrXrXrXrXrXrXrXrXrXrXrXrXrXrXrXrXrXrXrXrXrXrXrXrXrXrXrXrXrXrXrXrXrXrXrXrXrXrXrXrXrXrXrXrXrXrXrXrXrXrXrXrXrXrXrXrXrXrXrXrXrXrXrXrXrXrXrXrXrXrXrXrXrXrXrXrXrXrXrXrXrXrXrXrXrXrXrXrXrXrXrXrXrXrXrXrXrXrXrXrXrXrXrXrXrXrXrXrXrXrXrXrXrXrXrXrXrXrXrXrXrXrXrXrXrXrXrXrXrXrXrXrXrXrXrXrXrXrXrXrXrXrXrXrXrXrXrXrXrXrXrXrXrXrXrXrXrXrXrXrXrXrXrXrXrXrXrXrXrXrXrXrXrXrXrX",
"tXtXtXtXtXtXtXtXtXtXtXtXtXtXtXtXtXtXtXtXtXtXtXtXtXtXtXtXtXtXtXtXtXtXtXtXtXtXtXtXtXtXtXtXtXtXtXtXtXtXtXtXtXtXtXtXtXtXtXtXtXtXtXtXtXtXtXtXtXtXtXtXtXtXtXtXtXtXtXtXtXtXtXtXtXtXtXtXtXtXtXtXtXtXtXtXtXtXtXtXtXtXtXtXtXtXtXtXtXtXtXtXtXtXtXtXtXtXtXtXtXtXtXtXtXtXtXtXtXtXtXtXtXtXtXtXtXtXtXtXtXtXtXtXtXtXtXtXtXtXtXtXtXtXtXtXtXtXtXtXtXtXtXtXtXtXtXtXtXtXtXtXtXtXtXtXtXtXtXtXtXtXtXtXtXtXtXtXtXtXtXtXtXtXtXtXtXtXtXtXtXtXtXtXtXtXtXtXtXtXtXtXtXtXtXtXtXtXtXtXtXtXtXtXtXtXtXtXtXtXtXtXtXtXtXtXtXtXtXtXtXtXtXtXtXtXtXtXtXtXtXtXtXtXtXtX",
"tXtXtXtXtXtXtXtXtXtXtXtXtXtXtXtXtXtXtXtXtXtXtXtXtXtXtXtXtXtXtXtXtXtXtXtXtXtXtXtXtXtXtXtXtXtXtXtXtXtXtXtXtXtXtXtXtXtXtXtXtXtXtXtXtXtXtXtXtXtXtXtXtXtXtXtXtXtXtXtXtXtXtXtXtXtXtXtXtXtXtXtXtXtXtXtXtXtXtXtXtXtXtXtXtXtXtXtXtXtXtXtXtXtXtXtXtXtXtXtXtXtXtXtXtXtXtXtXtXtXtXtXtXtXtXtXtXtXtXtXtXtXtXtXtXtXtXtXtXtXtXtXtXtXtXtXtXtXtXtXtXtXtXtXtXtXtXtXtXtXtXtXtXtXtXtXtXtXtXtXtXtXtXtXtXtXtXtXtXtXtXtXtXtXtXtXtXtXtXtXtXtXtXtXtXtXtXtXtXtXtXtXtXtXtXtXtXtXtXtXtXtXtXtXtXtXtXtXtXtXtXtXtXtXtXtXtXtXtXtXtXtXtXtXtXtXtXtXtXtXtXtXtXtXtXtX",
"tXtXtXtXtXtXtXtXtXtXtXtXtXtXtXtXtXtXtXtXtXtXtXtXtXtXtXtXtXtXtXtXtXtXtXtXtXtXtXtXtXtXtXtXtXtXtXtXtXtXtXtXtXtXtXtXtXtXtXtXtXtXtXtXtXtXtXtXtXtXtXtXtXtXtXtXtXtXtXtXtXtXtXtXtXtXtXtXtXtXtXtXtXtXtXtXtXtXtXtXtXtXtXtXtXtXtXtXtXtXtXtXtXtXtXtXtXtXtXtXtXtXtXtXtXtXtXtXtXtXtXtXtXtXtXtXtXtXtXtXtXtXtXtXtXtXtXtXtXtXtXtXtXtXtXtXtXtXtXtXtXtXtXtXtXtXtXtXtXtXtXtXtXtXtXtXtXtXtXtXtXtXtXtXtXtXtXtXtXtXtXtXtXtXtXtXtXtXtXtXtXtXtXtXtXtXtXtXtXtXtXtXtXtXtXtXtXtXtXtXtXtXtXtXtXtXtXtXtXtXtXtXtXtXtXtXtXtXtXtXtXtXtXtXtXtXtXtXtXtXtXtXtXtXtXtX",
"tXtXtXtXtXtXtXtXtXtXtXtXtXtXtXtXtXtXtXtXtXtXtXtXtXtXtXtXtXtXtXtXtXtXtXtXtXtXtXtXtXtXtXtXtXtXtXtXtXtXtXtXtXtXtXtXtXtXtXtXtXtXtXtXtXtXtXtXtXtXtXtXtXtXtXtXtXtXtXtXtXtXtXtXtXtXtXtXtXtXtXtXtXtXtXtXtXtXtXtXtXtXtXtXtXtXtXtXtXtXtXtXtXtXtXtXtXtXtXtXtXtXtXtXtXtXtXtXtXtXtXtXtXtXtXtXtXtXtXtXtXtXtXtXtXtXtXtXtXtXtXtXtXtXtXtXtXtXtXtXtXtXtXtXtXtXtXtXtXtXtXtXtXtXtXtXtXtXtXtXtXtXtXtXtXtXtXtXtXtXtXtXtXtXtXtXtXtXtXtXtXtXtXtXtXtXtXtXtXtXtXtXtXtXtXtXtXtXtXtXtXtXtXtXtXtXtXtXtXtXtXtXtXtXtXtXtXtXtXtXtXtXtXtXtXtXtXtXtXtXtXtXtXtXtXtX",
"tXtXtXtXtXtXtXtXtXtXtXtXtXtXtXtXtXtXtXtXtXtXtXtXtXtXtXtXtXtXtXtXtXtXtXtXtXtXtXtXtXtXtXtXtXtXtXtXtXtXtXtXtXtXtXtXtXtXtXtXtXtXtXtXtXtXtXtXtXtXtXtXtXtXtXtXtXtXtXtXtXtXtXtXtXtXtXtXtXtXtXtXtXtXtXtXtXtXtXtXtXtXtXtXtXtXtXtXtXtXtXtXtXtXtXtXtXtXtXtXtXtXtXtXtXtXtXtXtXtXtXtXtXtXtXtXtXtXtXtXtXtXtXtXtXtXtXtXtXtXtXtXtXtXtXtXtXtXtXtXtXtXtXtXtXtXtXtXtXtXtXtXtXtXtXtXtXtXtXtXtXtXtXtXtXtXtXtXtXtXtXtXtXtXtXtXtXtXtXtXtXtXtXtXtXtXtXtXtXtXtXtXtXtXtXtXtXtXtXtXtXtXtXtXtXtXtXtXtXtXtXtXtXtXtXtXtXtXtXtXtXtXtXtXtXtXtXtXtXtXtXtXtXtXtXtX",
"tXtXtXtXtXtXtXtXtXtXtXtXtXtXtXtXtXtXtXtXtXtXtXtXtXtXtXtXtXtXtXtXtXtXtXtXtXtXtXtXtXtXtXtXtXtXtXtXtXtXtXtXtXtXtXtXtXtXtXtXtXtXtXtXtXtXtXtXtXtXtXtXtXtXtXtXtXtXtXtXtXtXtXtXtXtXtXtXtXtXtXtXtXtXtXtXtXtXtXtXtXtXtXtXtXtXtXtXtXtXtXtXtXtXtXtXtXtXtXtXtXtXtXtXtXtXtXtXtXtXtXtXtXtXtXtXtXtXtXtXtXtXtXtXtXtXtXtXtXtXtXtXtXtXtXtXtXtXtXtXtXtXtXtXtXtXtXtXtXtXtXtXtXtXtXtXtXtXtXtXtXtXtXtXtXtXtXtXtXtXtXtXtXtXtXtXtXtXtXtXtXtXtXtXtXtXtXtXtXtXtXtXtXtXtXtXtXtXtXtXtXtXtXtXtXtXtXtXtXtXtXtXtXtXtXtXtXtXtXtXtXtXtXtXtXtXtXtXtXtXtXtXtXtXtXtX",
"tXtXtXtXtXtXtXtXtXtXtXtXtXtXtXtXtXtXtXtXtXtXtXtXtXtXtXtXtXtXtXtXtXtXtXtXtXtXtXtXtXtXtXtXtXtXtXtXtXtXtXtXtXtXtXtXtXtXtXtXtXtXtXtXtXtXtXtXtXtXtXtXtXtXtXtXtXtXtXtXtXtXtXtXtXtXtXtXtXtXtXtXtXtXtXtXtXtXtXtXtXtXtXtXtXtXtXtXtXtXtXtXtXtXtXtXtXtXtXtXtXtXtXtXtXtXtXtXtXtXtXtXtXtXtXtXtXtXtXtXtXtXtXtXtXtXtXtXtXtXtXtXtXtXtXtXtXtXtXtXtXtXtXtXtXtXtXtXtXtXtXtXtXtXtXtXtXtXtXtXtXtXtXtXtXtXtXtXtXtXtXtXtXtXtXtXtXtXtXtXtXtXtXtXtXtXtXtXtXtXtXtXtXtXtXtXtXtXtXtXtXtXtXtXtXtXtXtXtXtXtXtXtXtXtXtXtXtXtXtXtXtXtXtXtXtXtXtXtXtXtXtXtXtXtXtX",
"tXtXtXtXtXtXtXtXtXtXtXtXtXtXtXtXtXtXtXtXtXtXtXtXtXtXtXtXtXtXtXtXtXtXtXtXtXtXtXtXtXtXtXtXtXtXtXtXtXtXtXtXtXtXtXtXtXtXtXtXtXtXtXtXtXtXtXtXtXtXtXtXtXtXtXtXtXtXtXtXtXtXtXtXtXtXtXtXtXtXtXtXtXtXtXtXtXtXtXtXtXtXtXtXtXtXtXtXtXtXtXtXtXtXtXtXtXtXtXtXtXtXtXtXtXtXtXtXtXtXtXtXtXtXtXtXtXtXtXtXtXtXtXtXtXtXtXtXtXtXtXtXtXtXtXtXtXtXtXtXtXtXtXtXtXtXtXtXtXtXtXtXtXtXtXtXtXtXtXtXtXtXtXtXtXtXtXtXtXtXtXtXtXtXtXtXtXtXtXtXtXtXtXtXtXtXtXtXtXtXtXtXtXtXtXtXtXtXtXtXtXtXtXtXtXtXtXtXtXtXtXtXtXtXtXtXtXtXtXtXtXtXtXtXtXtXtXtXtXtXtXtXtXtXtXtX"
};
