/* XPM */
static char *sc_deesser_mono[] = {
/* columns rows colors chars-per-pixel */
"256 256 256 2 ",
"   c #282937",
".  c #323A08",
"X  c #024A31",
"o  c #3E4307",
"O  c #595801",
"+  c #4B4914",
"@  c #666601",
"#  c #53502E",
"$  c #535031",
"%  c #6B6635",
"&  c #383945",
"*  c #710A7E",
"=  c #0A5352",
"-  c #01654C",
";  c #00684B",
":  c #007455",
">  c #0C6950",
",  c #356E6E",
"<  c #1E605E",
"1  c #52514F",
"2  c #635C45",
"3  c #706B53",
"4  c #515265",
"5  c #7B7864",
"6  c #6E6E73",
"7  c #4A6F76",
"8  c #5A3B2A",
"9  c #A0782F",
"0  c #DA701B",
"q  c #D5762C",
"w  c #E37427",
"e  c #B76F56",
"r  c #827D67",
"t  c #8F7A6D",
"y  c #B87667",
"u  c #916B54",
"i  c #CC6758",
"p  c #CF6C57",
"a  c #CC7565",
"s  c #D2786A",
"d  c #D0766C",
"f  c #CE5B5D",
"g  c #BF3771",
"h  c #00885B",
"j  c #008A64",
"k  c #0E946E",
"l  c #20A17B",
"z  c #4F8C74",
"x  c #738D6C",
"c  c #A19729",
"v  c #DC8239",
"b  c #89846B",
"n  c #8B8875",
"m  c #938D77",
"M  c #97937B",
"N  c #948C6D",
"B  c #B48A77",
"V  c #A8A25D",
"C  c #DA8C4F",
"Z  c #D58578",
"A  c #CD8C73",
"S  c #DB9F72",
"D  c #771783",
"F  c #697C82",
"G  c #3D7EFD",
"H  c #A364A4",
"J  c #CA619C",
"K  c #C137D3",
"L  c #BE73C4",
"P  c #9E5FC8",
"I  c #C54FD0",
"U  c #C375C8",
"Y  c #CB66D4",
"T  c #CE78D1",
"R  c #CB6CCD",
"E  c #92329D",
"W  c #0CAA82",
"Q  c #10AB83",
"!  c #36B897",
"~  c #009CAA",
"^  c #1891A6",
"/  c #2791A8",
"(  c #2891A8",
")  c #2694A7",
"_  c #3A98AC",
"`  c #3997A5",
"'  c #238EA8",
"]  c #02A6B5",
"[  c #0BA5B2",
"{  c #2FADB6",
"}  c #209495",
"|  c #6F958F",
" . c #6DAD99",
".. c #459EA8",
"X. c #4E9EAF",
"o. c #5CB5BF",
"O. c #59B7BC",
"+. c #4DA7B0",
"@. c #7AB3BB",
"#. c #6FB5AE",
"$. c #51A28F",
"%. c #10A8CC",
"&. c #59B9C2",
"*. c #4584FC",
"=. c #7BA1EA",
"-. c #6FB3CA",
";. c #71C6C9",
":. c #5AC2C9",
">. c #75C6B4",
",. c #9A9786",
"<. c #9E9C95",
"1. c #989793",
"2. c #8B8C86",
"3. c #A79A89",
"4. c #A09E97",
"5. c #A49E97",
"6. c #B19D94",
"7. c #B2968A",
"8. c #95A696",
"9. c #A6A28D",
"0. c #A5A39D",
"q. c #AAA796",
"w. c #BEAA9D",
"e. c #B4A899",
"r. c #B4B495",
"t. c #83B7B7",
"y. c #86B9BA",
"u. c #94B2AC",
"i. c #ACABA4",
"p. c #A7A7A1",
"a. c #B4AEA3",
"s. c #B5B2A3",
"d. c #B6B7A9",
"f. c #BCBBB4",
"g. c #ABB7AF",
"h. c #9B95B1",
"j. c #D79588",
"k. c #D0948A",
"l. c #C4A99C",
"z. c #D9A89A",
"x. c #D2B092",
"c. c #C2AEA2",
"v. c #C9AEA3",
"b. c #C5B1A5",
"n. c #C9B5AA",
"m. c #CDB9AE",
"M. c #C7B5A8",
"N. c #D6B8A9",
"B. c #C2BDB2",
"V. c #CEBBB1",
"C. c #C6BCB6",
"Z. c #D2BDB3",
"A. c #DABAB3",
"S. c #D6ABA7",
"D. c #E2B9AB",
"F. c #E2BDB4",
"G. c #E2ABA4",
"H. c #DEA39A",
"J. c #8CC8B4",
"K. c #B9C4B9",
"L. c #ADC8B5",
"P. c #BBC298",
"I. c #C4C2B6",
"U. c #C6C4B9",
"Y. c #C8C6BB",
"T. c #CBC9BE",
"R. c #CBC9B4",
"E. c #D6C3BA",
"W. c #DAC4BC",
"Q. c #D6C5B9",
"!. c #D5D4BC",
"~. c #CDC9AC",
"^. c #E3C3BC",
"/. c #E4C5B8",
"(. c #E5CCB0",
"). c #C6C697",
"_. c #9EBFC0",
"`. c #88BAC1",
"'. c #AEBBD6",
"]. c #9FAFDE",
"[. c #D393D7",
"{. c #D5AED4",
"}. c #DD96E3",
"|. c #DDABE1",
" X c #E2B6E3",
".X c #E2ACDC",
"XX c #8DCBCD",
"oX c #A3C3C5",
"OX c #B2D1D1",
"+X c #B8E3DD",
"@X c #CECCC3",
"#X c #C9CAC7",
"$X c #D1CEC5",
"%X c #DDCAC3",
"&X c #D6CEC9",
"*X c #CED6CD",
"=X c #C4D2C9",
"-X c #D3D1C7",
";X c #D5D3CB",
":X c #D9D6CF",
">X c #D9D9C9",
",X c #C6CCD6",
"<X c #CACED5",
"1X c #C3C8D9",
"2X c #CED1D4",
"3X c #C7DBD5",
"4X c #D6D6D1",
"5X c #D9D7D0",
"6X c #DAD9D2",
"7X c #D9DBD6",
"8X c #D8C7D6",
"9X c #E2CCC5",
"0X c #E2CEC8",
"qX c #E7C8C5",
"wX c #E6D3CC",
"eX c #E8D5CE",
"rX c #E7DCCA",
"tX c #EAD7D1",
"yX c #E5DCD5",
"uX c #ECDAD4",
"iX c #E0DFD9",
"pX c #ECDDD9",
"aX c #E5D6D3",
"sX c #F1DDD8",
"dX c #EBCED1",
"fX c #DBE2D8",
"gX c #CAE0DD",
"hX c #E4E3DD",
"jX c #EBE3DD",
"kX c #E6E6D7",
"lX c #F2E6DF",
"zX c #FBE2DC",
"xX c #E6E3D0",
"cX c #E8D1E6",
"vX c #CBE2E0",
"bX c #D5E4E2",
"nX c #DAE6E3",
"mX c #DBE9E6",
"MX c #DBF2EA",
"NX c #E7E6E0",
"BX c #E9E6E1",
"VX c #EBEAE4",
"CX c #EFEEE9",
"ZX c #E3EBE7",
"AX c #F0EFEA",
"SX c #F3E9E4",
"DX c #F2F1EC",
"FX c #FCF3ED",
"GX c #F4FEEC",
"HX c #F9FAE9",
"JX c #F5F5F1",
"KX c #FAF6F4",
"LX c #FBFAF5",
"PX c #FBFBF9",
"IX c #ECF1EB",
"UX c #D6D0E1",
/* pixels */
"6X6X6X6X6X6X6X6X6X6X6X6X6X6X6X6X6X6X6X6X6X6X6X6X6X6X6X6X6X6X6X6X6X6X6X6X6X6X6X6X6X6X6X6X6X6X6X6X6X6X6X6X6X6X6X6X6X6X6X6X6X6X6X6X6X6X6X6X6X6X6X6X6X6X6X6X6X6X6X6X6X6X6X6X6X6X6X6X6X6X6X6X6X6X6X6X6X6X6X6X6X6X6X6X6X6X6X6X6X6X6X6X6X6X6X6X6X6X6X6X6X6X6X6X6X6X6X6X6X6X6X6X6X6X6X6X6X6X6X6X6X6X6X6X6X6X6X6X6X6X6X6X6X6X6X6X6X6X6X6X6X6X6X6X6X6X6X6X6X6X6X6X6X6X6X6X6X6X6X6X6X6X6X6X6X6X6X6X6X6X6X6X6X6X6X6X6X6X6X6X6X6X6X6X6X6X6X6X6X6X6X6X6X6X6X6X6X6X6X6X6X6X6X6X6X6X6X6X6X6X6X6X6X6X6X6X6X6X6X6X6X6X5X5X5X5X5X5X6X5X5X5X6X6X5X5X",
"6X6X6X6X6X6X6X6X6X6X6X6X6X6X6X6X6X6X6X6X6X6X6X6X6X6X6X6X6X6X6X6X6X6X6X6X6X6X6X6X6X6X6X6X6X6X6X6X6X6X6X6X6X6X6X6X6X6X6X6X6X6X6X6X6X6X6X6X6X6X6X6X6X6X6X6X6X6X6X6X6X6X6X6X6X6X6X6X6X6X6X6X6X6X6X6X6X6X6X6X6X6X6X6X6X6X6X6X6X6X6X6X6X6X6X6X6X6X6X6X6X6X6X6X6X6X6X6X6X6X6X6X6X6X6X6X6X6X6X6X6X6X6X6X6X6X6X6X6X6X6X6X6X6X6X6X6X6X6X6X6X6X6X6X6X6X6X6X6X6X6X6X6X6X6X6X6X6X6X6X6X6X6X6X6X6X6X6X6X6X6X6X6X6X6X6X6X6X6X6X6X6X6X6X6X6X6X6X6X6X6X6X6X6X6X6X6X6X6X6X6X6X6X6X6X6X6X6X6X6X6X6X6X6X6X6X6X6X6X6X6X5X6XyX6X6XyX6X6X6XyX6X5X6X6XyX",
"6X6X6X6X6X6X6X6X6X6X6X6X6X6X6X6X6X6X6X6X6X6X6X6X6X6X6X6X6X6X6X6X6X6X6X6X6X6X6X6X6X6X6X6X6X6X6X6X6X6X6X6X6X6X6X6X6X6X6X6X6X6X6X6X6X6X6X6X6X6X6X6X6X6X6X6X6X6X6X6X6X6X6X6X6X6X6X6X6X6X6X6X6X6X6X6X6X6X6X6X6X6X6X6X6X6X6X6X6X6X6X6X6X6X6X6X6X6X6X6X6X6X6X6X6X6X6X6X6X6X6X6X6X6X6X6X6X6X6X6X6X6X6X6X6X6X6X6X6X6X6X6X6X6X6X6X6X6X6X6X6X6X6X6X6X6X6X6X6X6X6X6X6X6X6X6X6X6X6X6X6X6X6X6X6X6X6X6X6X6X6X6X6X6X6X6X6X6X6X6X6X6X6X6X6X6X6X6X6X6X6X6X6X6X6X6X6X6X6X6X6X6X6X6X6X6X6X6X6X6X6X6X6X6X6X6X6X6X6X6X5X6X#X'.#X#X'.#X4X'.'.#X6X6X#Xf.",
"6X6X6X6X6X6X6X6X6X6X6X6X6X6X6X6X6X6X6X6X6X6X6X6X6X6X6X6X6X6X6X6X6X6X6X6X6X6X6X6X6X6X6X6X6X6X6X6X6X6X6X6X6X6X6X6X6X6X6X6X6X6X6X6X6X6X6X6X6X6X6X6X6X6X6X6X6X6X6X6X6X6X6X6X6X6X6X6X6X6X6X6X6X6X6X6X6X6X6X6X6X6X6X6X6X6X6X6X6X6X6X6X6X6X6X6X6X6X6X6X6X6X6X6X6X6X6X6X6X6X6X6X6X6X6X6X6X6X6X6X6X6X6X6X6X6X6X6X6X6X6X6X6X6X6X6X6X6X6X6X6X6X6X6X6X6X6X6X6X6X6X6X6X6X6X6X6X6X6X6X6X6X6X6X6X6X6X6X6X6X6X6X6X6X6X6X6X6X6X6X6X6X6X6X6X6X6X6X6X6X6X6X6X6X6X6X6X6X6X6X6X6X6X6X6X6X6X6X6X6X6X6X6X6X6X6X6X6X6X5X6X#Xh.g.g.#Xh.#X#Xh.g.h.'.yXh.g.",
"6X6X6X6X6X6X6X6X6X6X6X6X6X6X6X6X6X6X6X6X6X6X6X6X6X6X6X6X6X6X6X6X6X6X6X6X6X6X6X6X6X6X6X6X6X6X6X6X6X6X6X6X6X6X6X6X6X6X6X6X6X6X6X6X6X6X6X6X6X6X6X6X6X6X6X6X6X6X6X6X6X6X6X6X6X6X6X6X6X6X6X6X6X6X6X6X6X6X6X6X6X6X6X6X6X6X6X6X6X6X6X6X6X6X6X6X6X6X6X6X6X6X6X6X6X6X6X6X6X6X6X6X6X6X6X6X6X6X6X6X6X6X6X6X6X6X6X6X6X6X6X6X6X6X6X6X6X6X6X6X6X6X6X6X6X6X6X6X6X6X6X6X6X6X6X6X6X6X6X6X6X6X6X6X6X6X6X6X6X6X6X6X6X6X6X6X6X6X6X6X6X6X6X6X6X6X6X6X6X6X6X6X6X6X6X6X6X6X6X6X6X6X6X6X6X6X6X6X6X6X6X6X6X6X6X6X6X6X6X5X6X#Xh.#XyX4Xh.:X#Xh.kX#Xh.6Xh.g.",
"6X6X6X6X6X6X6X6X6X6X6X6X6X6X6X6X6X6X6X6X6X6X6X6X6X6X6X6X6X6X6X6X6X6X6X6X6X6X6X6X6X6X6X6X6X6X6X6X6X6X6X6X6X6X6X6X6X6X6X6X6X6X6X6X6X6X6X6X6X6X6X6X6X6X6X6X6X6X6X6X6X6X6X6X6X6X6X6X6X6X6X6X6X6X6X6X6X6X6X6X6X6X6X6X6X6X6X6X6X6X6X6X6X6X6X6X6X6X6X6X6X6X6X6X6X6X6X6X6X6X6X6X6X6X6X6X6X6X6X6X6X6X6X6X6X6X6X6X6X6X6X6X6X6X6X6X6X6X6X6X6X6X6X6X6X6X6X6X6X6X6X6X6X6X6X6X6X6X6X6X6X6X6X6X6X6X6X6X6X6X6X6X6X6X6X6X6X6X6X6X6X6X6X6X6X6X6X6X6X6X6X6X6X6X6X6X6X6X6X6X6X6X6X6X6X6X6X6X6X6X6X6X6X6X6X6X6X6X6X6X5X6X#Xh.g.4Xh.;X#Xh.xX;Xh.4Xh.g.",
"6X6X6X6X6X6X6X6X6X6X6X6X6X6X6X6X6X6X6X6X6X6X6X6X6X6X6X6X6X6X6X6X6X6X6X6X6X6X6X6X6X6X6X6X6X6X6X6X6X6X6X6X6X6X6X6X6X6X6X6X6X6X6X6X6X6X6X6X6X6X6X6X6X6X6X6X6X6X6X6X6X6X6X6X6X6X6X6X6X6X6X6X6X6X6X6X6X6X6X6X6X6X6X6X6X6X6X6X6X6X6X6X6X6X6X6X6X6X6X6X6X6X6X6X6X6X6X6X6X6X6X6X6X6X6X6X6X6X6X6X6X6X6X6X6X6X6X6X6X6X6X6X6X6X6X6X6X6X6X6X6X6X6X6X6X6X6X6X6X6X6X6X6X6X6X6X6X6X6X6X6X6X6X6X6X6X6X6X6X6X6X6X6X6X6X6X6X6X6X6X6X6X6X6X6X6X6X6X6X6X6X6X6X6X6X6X6X6X6X6X6X6X6X6X6X6X6X6X6X6X6X6X6X6X6X6X6X6X6X5X6X;X;X#Xh.;Xh.;X#Xh.5Xg.h.yXh.#X",
"6X6X6X6X6X6X6X6X6X6X6X6X6X6X6X6X6X6X6X6X6X6X6X6X6X6X6X6X6X6X6X6X6X6X6X6X6X6X6X6X6X6X6X6X6X6X6X6X6X6X6X6X6X6X6X6X6X6X6X6X6X6X6X6X6X6X6X6X6X6X6X6X6X6X6X6X6X6X6X6X6X6X6X6X6X6X6X6X6X6X6X6X6X6X6X6X6X6X6X6X6X6X6X6X6X6X6X6X6X6X6X6X6X6X6X6X6X6X6X6X6X6X6X6X6X6X6X6X6X6X6X6X6X6X6X6X6X6X6X6X6X6X6X6X6X6X6X6X6X6X6X6X6X6X6X6X6X6X6X6X6X6X6X6X6X6X6X6X6X6X6X6X6X6X6X6X6X6X6X6X6X6X6X6X6X6X6X6X6X6X6X6X6X6X6X6X6X6X6X6X6X6X6X6X6X6X6X6X6X6X6X6X6X6X6X6X6X6X6X6X6X6X6X6X6X6X6X6X6X6X6X6X6X6X6X6X6X6X6X5X6X#Xh.h.'.#Xh.#X-Xh.h.h.;X6Xh.h.",
"6X6X6X6X6X6X6X6X6X6X6X6X6X6X6X6X6X6X6X6X6X6X6X6X6X6X6X6X6X6X6X6X6X6X6X6X6X6X6X6X6X6X6X6X6X6X6X6X6X6X6X6X6X6X6X6X6X6X6X6X6X6X6X6X6X6X6X6X6X6X6X6X6X6X6X6X6X6X6X6X6X6X6X6X6X6X6X6X6X6X6X6X6X6X6X6X6X6X6X6X6X6X6X6X6X6X6X6X6X6X6X6X6X6X6X6X6X6X6X6X6X6X6X6X6X6X6X6X6X6X6X6X6X6X6X6X6X6X6X6X6X6X6X6X6X5X5X5X5X5X5X5X5X5X5X5X5X5X5X5X5X5X5X5X5X5X5X5X5X5X5X5X5X5X5X5X5X5X5X5X5X5X5X5X5X5X5X5X5X5X5X5X5X5X5X5X5X5X5X5X5X5X5X5X5X5X5X5X5X5X5X5X5X5X5X5X5X5X5X5X5X5X5X5X5X5X5X5X5X5X5X5X5X5X5X5X5X5X5X5X5X6X6X6X6X5X6X5X6X6X6X6X6X5X6X6X",
"6X6X6X6X6X6X6X6X6X6X6X6X6X6X6X6X6X6X6X6X6X6X6X6X6X6X6X6X6X6X6X6X6X6X6X6X6X6X6X6X6X6X6X6X6X6X6X6X6X6X6X6X6X6X6X6X6X6X6X6X6X6X6X6X6X6X6X6X6X6X6X6X6X6X6X6X6X6X6X6X6X6X6X6X6X6X6X6X6X6X6X6X6X6X6X6X6X6X6X6X6X6X6X6X6X6X6X6X6X6X6X6X6X6X6X6X6X6X6X6X6X6X6X6X6X6X6X6X6X6X6X6X6X6X6X6X6X6X6X6X6X6X6X6X6X6X6X6X6X6X6X6X6X6X6X6X6X6X6X6X6X6X6X6X6X6X6X6X6X6X6X6X6X6X6X6X6X6X6X6X6X6X6X6X6X6X6X6X6X6X6X6X6X6X6X6X6X6X6X6X6X6X6X6X6X6X6X6X6X6X6X6X6X6X6X6X6X6X6X6X6X6X6X6X6X6X6X6X6X6X6X6X6X6X6X6X6X6X6X6X6X6X6X6X6X6X6X6X6X6X6X6X6X6X6X6X",
"6X6X6X6X6X6X6X6X6X6X6X6X6X6X6X6X6X6X6X6X6X6X6X6X6X6X6X6X6X6X6X6X6X6X6X6X6X6X6X6X6X6X6X6X6X6X6X6X6X6X6X6X6X6X6X6X6X6X6X6X6X6X6X6X6X6X6X6X6X6X6X6X6X6X6X6X6X6X6X6X6X6X6X6X6X6X6X6X6X6X6X6X6X6X6X6X6X6X6X6X6X6X6X6X6X6X6X6X6X6X6X6X6X6X6X6X6X6X6X6X6X6X6X6X6X6X6X6X6X6X6X6X6X6X6X6X6X6X6X6X6X6X6X5XiXhXhXhXhXhXhXhXhXhXhXhXhXhXhXhXhXhXhXhXhXhXhXhXhXhXhXhXhXhXhXhXhXhXhXhXhXhXhXhXhXhXhXhXhXhXhXhXhXhXhXhXhXhXhXhXhXhXhXhXhXhXhXhXhXhXhXhXhXhXhXhXhXhXhXhXhXhXhXhXhXhXhXhXhXhXhXhXhXhXhXhXhXhXhXhXhXhXhXhXhXhXhXhXhXhXhXhXhXhXhXhX",
"6X6X6X6X6X6X6X6X6X6X6X6X6X6X6X6X6X6X6X6X6X6X6X6X6X6X6X6X6X6X6X6X6X6X6X6X6X6X6X6X6X6X6X6X6X6X6X6X6X6X6X6X6X6X6X6X6X6X6X6X6X6X6X6X6X6X6X6X6X6X6X6X6X6X6X6X6X6X6X6X6X6X6X6X6X6X6X6X6X6X6X6X6X6X6X6X6X6X6X6X6X6X6X6X6X6X6X6X6X6X6X6X6X6X6X6X6X6X6X6X6X6X6X6X6X6X6X6X6X6X6X6X6X6X6X6X6X6X6X6X6X6X5XiXhXhXhXhXhXhXhXhXhXhXhXhXhXhXhXhXhXhXhXhXhXhXhXhXhXhXhXhXhXhXhXhXhXhXhXhXhXhXhXhXhXhXhXhXhXhXhXhXhXhXhXhXhXhXhXhXhXhXhXhXhXhXhXhXhXhXhXhXhXhXhXhXhXhXhXhXhXhXhXhXhXhXhXhXhXhXhXhXhXhXhXhXhXhXhXhXhXhXhXhXhXhXhXhXhXhXhXhXhXhXhXhX",
"6X6X6X6X6X6X6X6X6X6X6X6X6X6X6X6X6X6X6X6X6X6X6X6X6X6X6X6X6X6X6X6X6X6X6X6X6X6X6X6X6X6X6X6X6X6X6X6X6X6X6X6X6X6X6X6X6X6X6X6X6X6X6X6X6X6X6X6X6X6X6X6X6X6X6X6X6X6X6X6X6X6X6X6X6X6X6X6X6X6X6X6X6X6X6X6X6X6X6X6X6X6X6X6X6X6X6X6X6X6X6X6X6X6X6X6X6X6X6X6X6X6X6X6X6X6X6X6X6X6X6X6X6X6X6X6X6X6X6X6X6X5XiXhXhXhXhXhXhXhXhXhXhXhXhXhXhXhXhXhXhXhXhXhXhXhXhXhXhXhXhXhXhXhXhXhXhXhXhXhXhXhXhXhXhXhXhXhXhXBXCXVXhXhXhXhXNXhXhXhXhXhXhXhXhXhXhXhXhXhXhXhXhXhXhXhXhXhXhXhXhXhXhXhXhXhXhXhXhXhXhXhXhXhXhXhXhXhXhXhXhXhXhXhXhXhXhXhXhXhXhXhXhXhXhXhX",
"6X6X6X6X6X6X6X6X6X6X6X6X6X6X6X6X6X6X6X6X6X6X6X6X6X6X6X6X6X6X6X6X6X6X6X6X6X6X6X6X6X6X6X6X6X6X6X6X6X6X6X6X6X6X6X6X6X6X6X6X6X6X6X6X6X6X6X6X6X6X6X6X6X6X6X6X6X6X6X6X6X6X6X6X6X6X6X6X6X6X6X6X6X6X6X6X6X6X6X6X6X6X6X6X6X6X6X6X6X6X6X6X6X6X6X6X6X6X6X6X6X6X6X6X6X6X6X6X6X6X6X6X6X6X6X6X6X6X6X6X5XiXhXhXhXhXhXhXhXhXjXhXhXhXhXhXhXhXhXhXhXhXhXhXhXhXhXhXhXhXhXhXhXhXhXhXhXhXhXhXhXhXhXhXhXhXhXhXBX$Xe.T.hXVXCX-Xq.BXCXVXhXVXCXhX6XVXhXNXVXCXhXNXVXVXNXCXhXNXCXBXhXCXVXhX6XVXhXhXhXhXhXhXhXhXhXhXhXhXhXhXhXhXhXhXhXhXhXhXhXhXhXhXhXhXhXhX",
"6X6X6X6X6X6X6X6X6X6X6X6X6X6X6X6X6X6X6X6X6X6X6X6X6X6X6X6X6X6X6X6X6X6X6X6X6X6X6X6X6X6X6X6X6X6X6X6X6X6X6X6X6X6X6X6X6X6X6X6X6X6X6X6X6X6X6X6X6X6X6X6X6X6X6X6X6X6X6X6X6X6X6X6X6X6X6X6X6X6X6X6X6X6X6X6X6X6X6X6X6X6X6X6X6X6X6X6X6X6X6X6X6X6X6X6X6X6X6X6X6X6X6X6X6X6X6X6X6X6X6X6X6X6X6X6X6X6X6X5XiXhXhXhXhXhXhXhXjX7XXX7XjXhXhXhXhXhXhXhXhXhXhXhXhXhXhXhXhXhXhXhXhXhXhXhXhXhXhXhXhXhXhXhXhXhXhXNX5Xn d.B.BXd.Y.-XM BXs.Y.CXU.d.e.b $XBX;XI.s.iX:XI.Y.;Xe.7X6Xe.T.hXs.-Xf.r @XNXhXhXhXhXhXhXhXhXhXhXhXhXhXhXhXhXhXhXhXhXhXhXhXhXhXhXhXhXhX",
"6X6X6X6X6X6X6X6X6X6X6X6X6X6X6X6X6X6X6X6X6X6X6X6X6X6X6X6X6X6X6X6X6X6X6X6X6X6X6X6X6X6X6X6X6X6X6X6X6X6X6X6X6X6X6X6X6X6X6X6X6X6X6X6X6X6X6X6X6X6X6X6X6X6X6X6X6X6X6X6X6X6X6X6X6X6X6X6X6X6X6X6X6X6X6X6X6X6X6X6X6X6X6X6X6X6X6X6X6X6X6X6X6X6X6X6X6X6X6X6X6X6X6X6X6X6X6X6X6X6X6X6X6X6X6X6X6X6X5XiXhXhXhXhXhXhXhXhX7X;.3XjXhXhXhXhXhXhXhXhXhXhXhXhXhXhXhXhXhXhXhXhXhXhXhXhXhXhXhXhXhXhXhXhXhXhXhXhX7Xn B.JXe.,.M q.q.q.3.m s.M I.q.n ;XCXe.b q.9.e.b T.M 9.M M 9.:X9.3.M 9.n ;XhXhXhXhXhXhXhXhXhXhXhXhXhXhXhXhXhXhXhXhXhXhXhXhXhXhXhXhXhXhX",
"6X6X6X6X6X6X6X6X6X6X6X6X6X6X6X6X6X6X6X6X6X6X6X6X6X6X6X6X6X6X6X6X6X6X6X6X6X6X6X6X6X6X6X6X6X6X6X6X6X6X6X6X6X6X6X6X6X6X6X6X6X6X6X6X6X6X6X6X6X6X6X6X6X6X6X6X6X6X6X6X6X6X6X6X6X6X6X6X6X6X6X6X6X6X6X6X6X6X6X6X6X6X6X6X6X6X6X6X6X6X6X6X6X6X6X6X6X6X6X6X6X6X6X6X6X6X6X6X6X6X6X6X6X6X6X6X6X5XiXhXhXhXhXhXhXhXhXjX3X-.fXjXhXhXhXhXhXhXhXhXhXhXhXhXhXhXhXhXhXhXhXhXhXhXhXhXhXhXhXhXhXhXhXhXhXhXhXhXBXiX,.9.m ,.9.q.9.b 3.9.m d.PXU.q.DXVXs.s.JXM q.B.;X5 q.9.I.3.@Xb 9.3.e.e.DXhXhXhXhXhXhXhXhXhXhXhXhXhXhXhXhXhXhXhXhXhXhXhXhXhXhXhXhXhXhX",
"6X6X6X6X6X6X6X6X6X6X6X6X6X6X6X6X6X6X6X6X6X6X6X6X6X6X6X6X6X6X6X6X6X6X6X6X6X6X6X6X6X6X6X6X6X6X6X6X6X6X6X6X6X6X6X6X6X6X6X6X6X6X6X6X6X6X6X6X6X6X6X6X6X6X6X6X6X6X6X6X6X6X6X6X6X6X6X6X6X6X6X6X6X6X6X6X6X6X6X6X6X6X6X6X6X6X6X6X6X6X6X6X6X6X6X6X6X6X6X6X6X6X6X6X6X6X6X6X6X6X6X6X6X6X6X6X5XiXhXhXhXhXhXhXhXhXhXhXjX3X;.7XhXhXhXhXhXhXhXhXhXhXhXhXhXhXhXhXhXhXhXhXhXhXhXhXhXhXhXhXhXhXhXhXhXhXhXhX6X$X@XM 3.q.6XU.,.3.a.7Xf.M 5Xf.m 7XCXs.m B.,.q.s.7Xn @X;X:Xs.m ,.s.6XU.m 7XhXhXhXhXhXhXhXhXhXhXhXhXhXhXhXhXhXhXhXhXhXhXhXhXhXhXhXhXhXhX",
"6X6X6X6X6X6X6X6X6X6X6X6X6X6X6X6X6X6X6X6X6X6X6X6X6X6X6X6X6X6X6X6X6X6X6X6X6X6X6X6X6X6X6X6X6X6X6X6X6X6X6X6X6X6X6X6X6X6X6X6X6X6X6X6X6X6X6X6X6X6X6X6X6X6X6X6X6X6X6X6X6X6X6X6X6X6X6X6X6X6X6X6X6X6X6X6X6X6X6X6X6X6X6X6X6X6X6X6X6X6X6X6X6X6X6X6X6X6X6X6X6X6X6X6X6X6X6X6X6X6X6X6X6X6X6X5XiXhXhXhXhXhXhXhXhXhXhXhXhXjX7XfXhXhXhXhXhXhXhXhXhXhXhXhXhXhXhXhXhXhXhXhXhXhXhXhXhXhXhXhXhXhXhXhXhXhXhXhX7Xq.,.$XhX9.9.T.B.6X3.9.7Xs.3.:Xq.B.DXd.m 9.:XY.Y.CXI.,.f.d.,.@X6X3.q.7Xq.B.BXhXhXhXhXhXhXhXhXhXhXhXhXhXhXhXhXhXhXhXhXhXhXhXhXhXhXhXhXhX",
"6X6X6X6X6X6X6X6X6X6X6X6X6X6X6X6X6X6X6X6X6X6X6X6X6X6X6X6X6X6X6X6X6X6X6X6X6X6X6X6X6X6X6X6X6X6X6X6X6X6X6X6X6X6X6X6X6X6X6X6X6X6X6X6X6X6X6X6X6X6X6X6X6X6X6X6X6X6X6X6X6X6X6X6X6X6X6X6X6X6X6X6X6X6X6X6X6X6X6X6X6X6X6X6X6X6X6X6X6X6X6X6X6X6X6X6X6X6X6X6X6X6X6X6X6X6X6X6X6X6X6X6X6X6X5XiXhXhXhXhXhXhXhXhXhXhXhXhXhXhXjXhXhXhXhXhXhXhXhXhXhXhXhXhXhXhXhXhXhXhXhXhXhXhXhXhXhXhXhXhXhXhXhXhXhXhXhXhXhXVXCXBXhXCXVXNXVXhXCXVXhXVXCXNXVXNXCXe.e.KXhXBXBXhXVXCXBXVXCXBXhXCXVXhXVXBXhXhXhXhXhXhXhXhXhXhXhXhXhXhXhXhXhXhXhXhXhXhXhXhXhXhXhXhXhXhX",
"5X5X5X5X5X5X5X5X5X5X5X5X5X5X5X5X5X5X5X5X5X5X5X5X5X5X5X5X5X5X5X5X5X5X5X5X5X5X5X5X5X5X5X5X5X5X5X5X5X5X5X5X5X5X5X5X5X5X5X5X5X5X5X5X5X5X5X5X5X5X5X5X5X5X5X5X5X5X5X5X5X5X5X5X5X5X5X5X5X5X5X5X5X5X5X5X5X5X5X5X5X5X5X5X5X5X5X5X5X5X5X5X5X5X5X5X5X5X5X5X5X5X5X5X5X5X5X5X5X5X5X5X5X5XiXhXhXhXhXhXhXhXhXhXhXhXhXhXhXhXhXhXhXhXhXhXhXhXhXhXhXhXhXhXhXhXhXhXhXhXhXhXhXhXhXhXhXhXhXhXhXhXhXhXhXhXhXhXhXhXhXhXhXhXhXhXhXhXhXhXhXhXhXhXhXhXVXT.Y.NXhXhXhXhXhXhXhXhXhXhXhXhXhXhXhXhXhXhXhXhXhXhXhXhXhXhXhXhXhXhXhXhXhXhXhXhXhXhXhXhXhXhXhXhXhXhX",
"7X7X7X7X7X7X7X7X7X7X7X7X7X7X7X7X7X7X7X7X7X7X7X7X7X7X7X7X7X7X7X7X7X7X7X7X7X7X7X7X7X7X7X7X7X7X7X7X7X7X7X7X7X7X7X7X7X7X7X7X7X7X7X7X7X7X7X7X7X7X7X7X7X7X7X7X7X7X7X7X7X7X7X7X7X7X7X7X7X7X7X7X7X7X7X7X7X7X7X7X7X7X7X7X7X7X7X7X7X7X7X7X7X7X7X7X7X7X7X7X7X7X7X7X7X7X7X7X7X7X7X7X7XiXhXhXhXhXhXhXhXhXhXhXhXhXhXhXhXhXhXhXhXhXhXhXhXhXhXhXhXhXhXhXhXhXhXhXhXhXhXhXhXhXhXhXhXhXhXhXhXhXhXhXhXhXhXhXhXhXhXhXhXhXhXhXhXhXhXhXhXhXhXhXhXhXhXNXBXhXhXhXhXhXhXhXhXhXhXhXhXhXhXhXhXhXhXhXhXhXhXhXhXhXhXhXhXhXhXhXhXhXhXhXhXhXhXhXhXhXhXhXhXhXhXhX",
"NXNXNXNXNXNXNXNXNXNXNXNXNXNXNXNXNXNXNXNXNXNXNXNXNXNXNXNXNXNXNXNXNXNXNXNXNXNXNXNXNXNXNXNXNXNXNXNXNXNXNXNXNXNXNXNXNXNXNXNXNXNXNXNXNXNXNXNXNXNXNXNXNXNXNXNXNXNXNXNXNXNXNXNXNXNXNXNXNXNXNXNXNXNXNXNXNXNXNXNXNXNXNXNXNXNXNXNXNXNXNXNXNXNXNXNXNXNXNXNXNXNXNXNXNXNXNXNXNXNXNXNXNXhXhXhXhXhXhXhXhXhXhXhXhXhXhXhXhXhXhXhXhXhXhXhXhXhXhXhXhXhXhXhXhXhXhXhXhXhXhXhXhXhXNXNXNXNXNXNXNXNXNXNXNXNXNXNXNXNXNXNXNXNXNXNXNXNXNXNXNXNXNXNXNXNXNXhXhXNXNXNXNXNXNXNXNXNXNXNXNXNXNXNXNXNXNXNXNXNXNXNXNXNXNXNXNXNXNXNXNXNXNXNXNXNXNXNXNXNXNXNXNXNXNXNX",
";X;X;X;X;X;X;X;X;X;X;X;X;X;X;X;X;X;X;X;X;X;X;X;X;X;X;X;X;X;X;X;X;X;X;X;X;X;X;X;X;X;X;X;X;X;X;X;X;X;X;X;X;X;X;X;X;X;X;X;X;X;X;X;X;X;X;X;X;X;X;X;X;X;X;X;X;X;X;X;X;X;X;X;X;X;X;X;X;X;X;X;X;X;X;X;X;X;X;X;X;X;X;X;X;X;X;X;X;X;X;X;X;X;X;X;X;X;X;X;X;X;X;X;X;X;X;X;X;X;X;X;X;XhXhX7X7X7X7X7X7X7X7X7X7X7X7X7X7X7X7X7X7X7XhXhXiX7X7X7X7X7X7X7X7X7X7X7X7X7X7X7XhXhX;X;X;X;X;X;X;X;X;X;X;X;X;X;X;X;X;X;X;X;X;X;X;X;X;X;X;X;X;X;X;X;X;X;X;X;X;X;X;X;X;X;X;X;X;X;X;X;X;X;X;X;X;X;X;X;X;X;X;X;X;X;X;X;X;X;X;X;X;X;X;X;X;X;X;X;X;X;X;X;X;X;X",
"U.U.U.U.U.U.U.U.U.U.U.U.U.U.U.U.U.U.U.U.U.U.U.U.U.U.U.U.U.U.U.U.U.U.U.U.U.U.U.U.U.U.U.U.U.U.U.U.U.U.U.U.U.U.U.U.U.U.U.U.U.U.U.U.U.U.U.U.U.U.U.U.U.U.U.U.U.U.U.U.U.U.U.U.U.U.U.U.U.U.U.U.U.U.U.U.U.U.U.U.U.U.U.U.U.U.U.U.U.U.U.U.U.U.U.U.U.U.U.U.U.U.U.U.U.U.U.U.U.U.U.I.T.hXhX5X5X5X5X5X5X6X6X6X6X6X6X6X5X5X5X5X5X:XiXhX6X:X5X5X:X:X5X5X5X:X5X5X5X5X5X5XhXhXU.U.U.I.I.U.I.I.U.I.I.I.U.I.U.I.U.U.I.I.I.I.I.I.U.U.I.I.U.U.I.U.I.U.U.U.U.U.U.U.U.U.U.U.U.U.U.U.U.U.U.U.U.U.U.U.U.U.U.U.U.U.U.U.U.U.U.U.U.U.U.U.U.U.U.U.U.U.U.U.U.U.",
"Y.Y.Y.Y.Y.Y.Y.Y.Y.Y.Y.Y.Y.Y.Y.Y.Y.Y.Y.Y.Y.Y.Y.Y.Y.Y.Y.Y.Y.Y.Y.Y.Y.Y.Y.Y.Y.Y.Y.Y.Y.Y.Y.Y.Y.Y.Y.Y.Y.Y.Y.Y.Y.Y.Y.Y.Y.Y.Y.Y.Y.Y.Y.Y.Y.Y.Y.Y.Y.Y.Y.Y.Y.Y.Y.Y.Y.Y.Y.Y.Y.Y.Y.Y.Y.Y.Y.Y.Y.Y.Y.Y.Y.Y.Y.Y.Y.Y.Y.Y.Y.Y.Y.Y.Y.Y.Y.Y.Y.Y.Y.Y.Y.Y.Y.Y.Y.Y.Y.Y.Y.Y.Y.Y.Y.Y.Y.Y.Y.Y.Y.Y.@XhXhX6X6X6X6X5X6X$XB.Y.I.U.B.T.6X5X6X6X6X5XiXhX7X5X5X6XhX7X5X5X5X6X6X5X5X5X6X6XhXhXY.Y.T.@X@XT.@X@XT.@X@X@XY.@XY.@XT.T.@X@X@X@X@X@XT.T.@X@XT.T.@XY.@XT.Y.Y.Y.Y.Y.Y.Y.Y.Y.Y.Y.Y.Y.Y.Y.Y.Y.Y.Y.Y.Y.Y.Y.Y.Y.Y.Y.Y.Y.Y.Y.Y.Y.Y.Y.Y.Y.Y.Y.Y.Y.Y.Y.Y.Y.Y.Y.Y.",
"Y.Y.Y.Y.Y.Y.Y.Y.Y.Y.Y.Y.Y.Y.Y.Y.Y.Y.Y.Y.Y.Y.Y.Y.Y.Y.Y.Y.Y.Y.Y.Y.Y.Y.Y.Y.Y.Y.Y.Y.Y.Y.Y.Y.Y.Y.Y.Y.Y.Y.Y.Y.Y.Y.Y.Y.Y.Y.Y.Y.Y.Y.Y.Y.Y.Y.Y.Y.Y.Y.Y.Y.Y.Y.Y.Y.Y.Y.Y.Y.Y.Y.Y.Y.Y.Y.Y.Y.Y.Y.Y.Y.Y.Y.Y.Y.Y.Y.Y.Y.Y.Y.Y.Y.Y.Y.Y.Y.Y.Y.Y.Y.Y.Y.Y.Y.Y.Y.Y.Y.Y.Y.Y.Y.Y.Y.Y.Y.Y.Y.Y.U.T.hXhX5X6X6X6X5X7XU.I.e.3.e.$Xf.7X5X6X6X6X5XiXhX7X:X7X;Xs.I.6XiXiXI.@XiXiX6X5X6XhXhXY.T.f.m M B.3.N e.3.m 9.U.9.@Xe.d.d.m 9.,.N 3.M q.I.M M B.d.,.@Xq.B.T.Y.Y.Y.Y.Y.Y.Y.Y.Y.Y.Y.Y.Y.Y.Y.Y.Y.Y.Y.Y.Y.Y.Y.Y.Y.Y.Y.Y.Y.Y.Y.Y.Y.Y.Y.Y.Y.Y.Y.Y.Y.Y.Y.Y.Y.Y.Y.",
"Y.Y.Y.Y.Y.Y.Y.Y.Y.Y.Y.Y.Y.Y.Y.Y.Y.Y.Y.Y.Y.Y.Y.Y.Y.Y.Y.Y.Y.Y.Y.Y.Y.Y.Y.Y.Y.Y.Y.Y.Y.Y.Y.Y.Y.Y.Y.Y.Y.Y.Y.Y.Y.Y.Y.Y.Y.Y.Y.Y.Y.Y.Y.Y.Y.Y.Y.Y.Y.Y.Y.Y.Y.Y.Y.Y.Y.Y.Y.Y.Y.Y.Y.Y.Y.Y.Y.Y.Y.Y.Y.Y.Y.Y.Y.Y.Y.Y.Y.Y.Y.Y.Y.Y.Y.Y.Y.Y.Y.Y.Y.Y.Y.Y.Y.Y.Y.Y.Y.Y.Y.Y.Y.Y.Y.Y.Y.Y.Y.Y.Y.U.T.hXhX5X6X6X6X5X7XT.q.s.5Xe.s.U.6X5X6X6X6X5XiXhX6X6X$Xb ,.s.:Xs.@X$X$XT.d.;X6X6XhXhXY.@Xe.,.q.,.M d.Y.N B.M 9.m $X3.3.m d.B.B.N I.M e.M e.s.M e.3 d.,.d.T.Y.Y.Y.Y.Y.Y.Y.Y.Y.Y.Y.Y.Y.Y.Y.Y.Y.Y.Y.Y.Y.Y.Y.Y.Y.Y.Y.Y.Y.Y.Y.Y.Y.Y.Y.Y.Y.Y.Y.Y.Y.Y.Y.Y.Y.Y.Y.",
"Y.Y.Y.Y.Y.Y.Y.Y.Y.Y.Y.Y.Y.Y.Y.Y.Y.Y.Y.Y.Y.Y.Y.Y.Y.Y.Y.Y.Y.Y.Y.Y.Y.Y.Y.Y.Y.Y.Y.Y.Y.Y.Y.Y.Y.Y.Y.Y.Y.Y.Y.Y.Y.Y.Y.Y.Y.Y.Y.Y.Y.Y.Y.Y.Y.Y.Y.Y.Y.Y.Y.Y.Y.Y.Y.Y.Y.Y.Y.Y.Y.Y.Y.Y.Y.Y.Y.Y.Y.Y.Y.Y.Y.Y.Y.Y.Y.Y.Y.Y.Y.Y.Y.Y.Y.Y.Y.Y.Y.Y.Y.Y.Y.Y.Y.Y.Y.Y.Y.Y.Y.Y.Y.Y.Y.Y.Y.Y.Y.Y.Y.U.T.hXhX5X6X6X6X5X7XT.,.;XBX@Xq.Y.6X5X6X6X6X5XiXhX6XhX3.9.5XI.-X3.m ,.q.5 m ,.hX:XhXhXY.@Xd.b b f.N N s.M @Xs.M M $Xq.m 3.-XY.U.M T.9.e.M T.@XM q.,.M 3.d.T.Y.Y.Y.Y.Y.Y.Y.Y.Y.Y.Y.Y.Y.Y.Y.Y.Y.Y.Y.Y.Y.Y.Y.Y.Y.Y.Y.Y.Y.Y.Y.Y.Y.Y.Y.Y.Y.Y.Y.Y.Y.Y.Y.Y.Y.Y.Y.",
"Y.Y.Y.Y.Y.Y.Y.Y.Y.Y.Y.Y.Y.Y.Y.Y.Y.Y.Y.Y.Y.Y.Y.Y.Y.Y.Y.Y.Y.Y.Y.Y.Y.Y.Y.Y.Y.Y.Y.Y.Y.Y.Y.Y.Y.Y.Y.Y.Y.Y.Y.Y.Y.Y.Y.Y.Y.Y.Y.Y.Y.Y.Y.Y.Y.Y.Y.Y.Y.Y.Y.Y.Y.Y.Y.Y.Y.Y.Y.Y.Y.Y.Y.Y.Y.Y.Y.Y.Y.Y.Y.Y.Y.Y.Y.Y.Y.Y.Y.Y.Y.Y.Y.Y.Y.Y.Y.Y.Y.Y.Y.Y.Y.Y.Y.Y.Y.Y.Y.Y.Y.Y.Y.Y.Y.Y.Y.Y.Y.Y.Y.U.T.hXhX5X6X6X6X5X7XT.a.q.Y.3.3.I.6X5X6X6X6X5XiXhX6XhX,.e.;X5 a.,.r m q.,.5Xb iX5XhXhXY.@Xa.,.,.a.M f.Y.N T.,.9.M T.,.9.m U.Y.I.m Y.3.a.m d.f.M q.q.9.3 B.T.Y.Y.Y.Y.Y.Y.Y.Y.Y.Y.Y.Y.Y.Y.Y.Y.Y.Y.Y.Y.Y.Y.Y.Y.Y.Y.Y.Y.Y.Y.Y.Y.Y.Y.Y.Y.Y.Y.Y.Y.Y.Y.Y.Y.Y.Y.Y.",
"Y.Y.Y.Y.Y.Y.Y.Y.Y.Y.Y.Y.Y.Y.Y.Y.Y.Y.Y.Y.Y.Y.Y.Y.Y.Y.Y.Y.Y.Y.Y.Y.Y.Y.Y.Y.Y.Y.Y.Y.Y.Y.Y.Y.Y.Y.Y.Y.Y.Y.Y.Y.Y.Y.Y.Y.Y.Y.Y.Y.Y.Y.Y.Y.Y.Y.Y.Y.Y.Y.Y.Y.Y.Y.Y.Y.Y.Y.Y.Y.Y.Y.Y.Y.Y.Y.Y.Y.Y.Y.Y.Y.Y.Y.Y.Y.Y.Y.Y.Y.Y.Y.Y.Y.Y.Y.Y.Y.Y.Y.Y.Y.Y.Y.Y.Y.Y.Y.Y.Y.Y.Y.Y.Y.Y.Y.Y.Y.Y.Y.Y.U.T.hXhX5X6X6X6X5X7XU.Y.f.q.q.5 q.iX:X6X6X6X5XiXhX6X7XU.r s.n b n n n q.M $Xb iX5XhXhXY.@Xd.q.f.3.,.N e.M N ,.T.q.m ,.T.q.N q.U.3.U.m q.d.m m d.s.e.T.b B.T.Y.Y.Y.Y.Y.Y.Y.Y.Y.Y.Y.Y.Y.Y.Y.Y.Y.Y.Y.Y.Y.Y.Y.Y.Y.Y.Y.Y.Y.Y.Y.Y.Y.Y.Y.Y.Y.Y.Y.Y.Y.Y.Y.Y.Y.Y.Y.",
"Y.Y.Y.Y.Y.Y.Y.Y.Y.Y.Y.Y.Y.Y.Y.Y.Y.Y.Y.Y.Y.Y.Y.Y.Y.Y.Y.Y.Y.Y.Y.Y.Y.Y.U.Y.Y.Y.Y.Y.Y.Y.Y.Y.Y.Y.Y.Y.Y.Y.Y.Y.Y.Y.Y.Y.Y.Y.Y.Y.Y.Y.Y.Y.Y.Y.Y.Y.Y.Y.Y.Y.Y.Y.Y.Y.Y.Y.Y.Y.Y.Y.Y.Y.Y.Y.Y.Y.Y.Y.Y.Y.Y.Y.Y.Y.Y.Y.Y.Y.Y.Y.Y.Y.Y.Y.Y.Y.Y.Y.Y.Y.Y.Y.Y.Y.Y.Y.Y.Y.Y.Y.Y.Y.Y.Y.Y.Y.Y.Y.Y.U.T.hXhX5X6X6X6X5X6X$Xf.Y.Y.Y.s.I.7X5X6X6X6X5XiXhX7X:X7XY.9.f.$Xe.U.Y.@XY.:XI.6X6XhXhXY.Y.T.T.T.T.T.Y.Y.T.Y.@XY.T.Y.T.Y.@XY.Y.Y.T.Y.T.Y.T.T.Y.T.Y.T.Y.@XY.Y.Y.Y.Y.Y.Y.Y.Y.Y.Y.Y.Y.Y.Y.Y.Y.Y.Y.Y.Y.Y.Y.Y.Y.Y.Y.Y.Y.Y.Y.Y.Y.Y.Y.Y.Y.Y.Y.Y.Y.Y.Y.Y.Y.Y.Y.Y.Y.",
"U.U.U.U.U.U.Y.U.U.U.U.U.U.U.U.U.Y.U.U.U.U.U.U.T.U.U.U.U.U.U.U.U.U.U.T.Y.U.Y.U.U.U.U.U.U.U.U.U.Y.U.U.U.U.U.U.U.U.U.U.U.U.Y.Y.U.U.U.U.U.U.U.U.U.U.U.U.U.U.U.Y.Y.U.U.U.U.U.U.U.U.U.U.Y.U.U.U.U.Y.U.U.U.Y.U.U.T.Y.U.U.U.U.U.U.U.U.U.U.U.U.U.U.U.U.U.U.U.U.U.U.Y.U.U.U.Y.Y.T.$XhXhX5X6X6X6X6X5X6X6X5X5X5X7X6X5X6X6X6X6X5XiXhX7X5X5X7XhXiX6XhX7X7X6X7X6X7X5X6XhXhXY.U.U.U.U.U.U.U.U.U.U.U.U.U.U.U.U.U.U.U.U.U.U.U.U.U.U.U.U.U.U.Y.Y.U.U.U.U.U.U.U.U.U.U.U.U.U.U.Y.U.U.U.U.U.U.U.U.U.U.U.U.U.Y.T.T.U.U.U.U.U.U.U.U.U.U.U.U.U.U.U.U.U.U.",
"hXBXhXhXhXNXhXhXNXhXBXhXhXNXNXhXhXNXNXhXhXNXBX-XhXBXhXhXhXhXhXhXhXyXOX7XfXfXhXhXhXhXhXNXhXBXhXyXBXhXhXhXhXhXhXhXhXhXhXBX6XiXBXhXhXhXhXhXhXNXhXhXBXhXhXhXBXfX7XBXhXhXhXNXhXhXNXhXNXhXhXNXhXNXhXhXNXhXhXhXVX;X7XBXhXhXhXhXhXhXhXhXhXhXhXhXhXhXhXhXhXhXhXNXhXhXhXhXfXfXhXOXOXhXhX5X6X6X6X6X6X5X6X6X6X6X6X5X6X6X6X6X6X5XiXhX7X5X6X5X:X:X5X:X5X5X5X5X6X5X6X6XhX7X6XBXhXhXhXhXhXhXhXhXhXhXhXhXNXhXhXNXhXhXhXhXhXhXhXhXhXhXhXhXVX5X6XVXhXhXhXhXhXhXhXhXhXhXhXhXNXhXhXNXhXhXhXhXhXhXhXhXhXhXBXcX8X;XBXhXhXhXhXhXhXhXhXhXhXhXhXBXhXhXNXhX",
"hXJXDXDXDXDX7XDXDXDXJXhXBXDXDXCX7XDXDXVXiXDXLX0.NXJXDXAXCXVXjXpXpXuX_ OXbXbXnXmXZXCXDXDXDXJXyX0XJXDXDXDXDXDXDXDXDXDXDXKX!.;XKXDXDXDXDXDXDXDXNXhXJXDXDXDXKX3X=XKXDXDXDXDXiXVXDXDXDX7XCXDXDXDX7XDXDXDX7XDXPXa.-XLXDXDXDXDXDXDXDXDXDXDXDXDXDXDXDXDXDXDXDXDXVX7XZXmXbXvXnXO.@.SXhX5X6X6X6X6X6X5X7XhXhXhXiX5X6X6X6X6X6X5XiXhX7X5X6X:X:X:X:X:X:X:X:X:X:X5X6X6XhX7XiXJXDXDXDXDXDXDXDXDXDXDXDXDXDXCX7XDXDXDXDXDXDXDXDXDXDXDXDXAXPXf.U.PXAXDXDXDXDXDXDXDXDXDXDXDXDX7XAXDXDXDXDXDXDXDXDXDXDXAXGX}.L s.PXCXDXDXDXDXDXDXDXDXDXDXDXJXhXBXDXDX",
"iXDXCXAXCXAX6XCXAXCXDXhXhXDXAXVX7XDXAXVXiXAXJX0.hXDXCXCXVXBXjXpXyXuX+.OXbXbXbXnXZXVXCXAXCXDXyX0XJXCXAXAXAXAXAXAXAXAXCXJX!.;XJXCXAXAXAXAXCXDXhXhXDXCXAXCXFX3X=XFXCXAXCXDX7XVXDXCXDX7XCXAXCXAX6XCXAXCX6XCXLXd.-XJXCXAXAXAXAXAXAXAXAXAXAXAXAXAXAXAXAXAXCXAXVX7XZXnXbXvXbXo.t.lXhX5X6X6X6X6X6X5X7XhXhXhXiX5X6X6X6X6X6X5XiXhX7X5X6X7X7X7X7X7X7X7X7X7X7X7X5X6XhX7X7XDXCXAXAXAXAXAXAXAXAXAXAXCXAXVX7XDXCXAXAXAXAXAXAXAXAXAXAXCXLXf.U.KXCXAXAXAXAXAXAXAXAXAXAXCXDX6XCXAXAXAXAXAXAXAXAXAXAXCXGX}.U d.JXCXDXCXAXAXAXAXCXDXAXDXCXDXhXNXDXAX",
"iXDXCXAXAXDX6XCXAXCXDXhXhXDXDXVX7XDXDXVXiXDXJX0.hXDXAXCXVXBXjXpXuXuX+.OXbXbXbXnXZXVXCXAXAXDXyX0XJXCXAXAXAXAXAXAXAXAXCXJX!.;XJXCXAXAXAXAXAXDXhXhXDXCXAXCXFX3X=XFXCXAXCXDX7XVXDXCXDX7XCXDXAXAX6XAXAXCX6XCXLXs.-XKXCXAXAXAXAXAXAXAXAXAXAXAXAXAXAXAXAXAXAXDXVX7XZXnXbXvXbXo.t.lXhX5X6X6X6X6X6X5X7XhXhXhXiX5X6X6X6X6X6X5XiXhX7X6X;X~.~.~.~.~.~.~.~.R.~.!.6X6XhX7X7XDXCXAXAXAXAXAXAXAXAXAXAXAXDXVX7XDXAXAXAXAXAXAXAXAXAXAXAXCXLXf.U.LXCXAXAXAXAXAXAXAXAXAXAXAXDX7XCXAXAXAXAXAXAXAXAXAXAXCXGX}.Y L  X XVXDXDXCXDXAXDXCXVX XCXDXiXBXBX X",
"iXDXCXAXAXDX6XCXAXCXDXhXhXDXDXVX7XDXDXVXiXDXJX0.hXDXAXCXVXBXjXpXuXuX+.OXbXbXbXnXZXVXCXAXAXDXyX0XJXCXAXAXAXAXAXAXAXAXCXJX!.;XJXCXAXAXAXAXAXDXhXhXDXCXAXCXFX3X=XFXCXAXCXDX7XVXDXCXDX7XCXDXAXAX6XAXAXCX6XCXLXs.-XKXCXAXAXAXAXAXAXAXAXAXAXAXAXAXAXAXAXAXAXDXVX7XZXnXbXvXbXo.t.lXhX5X6X6X6X6X6X5X7XhXhXhXiX5X6X6X6X6X6X5XiXhX6X7X!.c 9 c 9 9 9 9 c c 9 x.7X:XhX7X7XDXCXAXAXAXAXAXAXAXAXAXAXAXDXVX7XDXAXAXAXAXAXAXAXAXAXAXAXCXLXf.U.LXCXAXAXAXAXAXAXAXAXAXAXAXDX7XCXAXAXAXAXAXAXAXAXAXAXCXGX}.U H DX|.}.cX|. X X}.|.|.BX}.}.cX{.|.cX|.",
"iXDXCXAXAXDX6XCXAXCXDXhXhXDXDXVX7XDXDXVXiXDXJX0.hXDXAXCXVXBXjXpXuXuX+.OXbXbXbXnXZXVXCXAXAXDXyX0XJXCXAXAXAXAXAXAXAXAXCXJX!.;XJXCXAXAXAXAXAXDXhXhXDXCXAXCXFX3X=XFXCXAXCXDX7XVXDXCXDX7XCXDXAXAX6XAXAXCX6XCXLXs.-XKXCXAXAXAXAXAXAXAXAXAXAXAXAXAXAXAXAXAXAXDXVX7XZXnXbXvXbXo.t.lXhX5X6X6X6X6X6X5X7XhXhXhX7X5X6X6X6X6X6X5XiXhX6X6X@X9.9.9.9.9.9.9.9.9.,.f.7X5XhX7X7XDXCXAXAXAXAXAXAXAXAXAXAXAXDXVX7XDXAXAXAXAXAXAXAXAXAXAXAXCXLXf.U.LXCXAXAXAXAXAXAXAXAXAXAXAXDX7XCXAXAXAXAXAXAXAXAXAXAXCXGX}.U H SX|.cX|.|.BX[. X X XcX XcX|.{. X X[.",
"iXDXCXAXAXDX6XCXAXCXDXhXhXDXDXVX7XDXDXVXiXDXJX0.hXDXAXCXVXBXjXpXuXuX+.OXbXbXbXnXZXVXCXAXAXDXyX0XJXCXAXAXAXAXAXAXAXAXCXJX!.;XJXCXAXAXAXAXAXDXhXhXDXCXAXCXFX3X=XFXCXAXCXDX7XVXDXCXDX7XCXDXAXAX6XAXAXCX6XCXLXs.-XKXCXAXAXAXAXAXAXAXAXAXAXAXAXAXAXAXAXAXAXDXVX7XZXnXbXvXbXo.t.lXhX5X6X6X6X6X5XyXoX_ X._ y.yX4X6X6X6X6X5XiXhX7X6X2X*.*.*.*.*.*.*.*.*.*.].rX5XhX7X7XDXCXAXAXAXAXAXAXAXAXAXAXAXDXVX7XDXAXAXAXAXAXAXAXAXAXAXAXCXLXf.U.LXCXAXAXAXAXAXAXAXAXAXAXAXDX7XCXAXAXAXAXAXAXAXAXAXAXCXGX}.U H SX XcX X XCX|. XcX}. XcXcX X{.[.cX|.",
"iXDXCXAXAXDX6XCXAXCXDXhXhXDXDXVX7XDXDXVXiXDXJX0.hXDXAXCXVXBXjXpXuXuX+.OXbXbXbXnXZXVXCXAXAXDXyX0XJXCXAXAXAXAXAXAXAXAXCXJX!.;XJXCXAXAXAXAXAXDXhXhXDXCXAXCXFX3X=XFXCXAXCXDX7XVXDXCXDX7XCXDXAXAX6XAXAXCX6XCXLXs.-XKXCXAXAXAXAXAXAXAXAXAXAXAXAXAXAXAXAXAXAXDXVX7XZXnXbXvXbXo.t.lXhX5X6X6X6X6X5XyXoX' _ ' @.yX4X6X6X6X6X5XiXhX7X6X<X=.=.=.=.=.=.=.=.=.=.'.yX5XhX7X7XDXCXAXAXAXAXAXAXAXAXAXAXAXDXVX7XDXAXAXAXAXAXAXAXAXAXAXAXCXLXf.U.LXCXAXAXAXAXAXAXAXAXAXAXAXDX7XCXAXAXAXAXAXAXAXAXAXAXCXGX}.U s.KXVXCXCXCXDXCXcXBXBXAXCXCXDXiXhXDXCX",
"iXDXCXAXAXDX6XCXAXCXDXhXhXDXDXVX7XDXDXVXiXDXJX0.hXDXAXCXVXBXjXpXuXuX+.OXbXbXbXnXZXVXCXAXAXDXyX0XJXCXAXAXAXAXAXAXAXAXCXJX!.;XJXCXAXAXAXAXAXDXhXhXDXCXAXCXFX3X=XFXCXAXCXDX7XVXDXCXDX7XCXDXAXAX6XAXAXCX6XCXLXs.-XKXCXAXAXAXAXAXAXAXAXAXAXAXAXAXAXAXAXAXAXDXVX7XZXnXbXvXbXo.t.lXhX5X6X6X6X6X5XyXoX( _ ( @.yX4X6X6X6X6X5XiXhX7X6X2X*.*.*.*.*.*.*.*.*.*.'.rX5XhX7X7XDXCXAXAXAXAXAXAXAXAXAXAXAXDXVX7XDXAXAXAXAXAXAXAXAXAXAXAXCXLXf.U.LXCXAXAXAXAXAXAXAXAXAXAXAXDX7XCXAXAXAXAXAXAXAXAXAXAXCXGX}.L d.KXCXDXDXDXAXDXDXDXDXAXDXDXDXhXBXDXDX",
"iXDXCXAXAXDX6XCXAXCXDXhXhXDXDXVX7XDXDXVXiXDXJX0.hXDXAXCXVXBXjXpXuXuX+.OXbXbXbXnXZXVXCXAXAXDXyX0XJXCXAXAXAXAXAXAXAXAXCXJX!.;XJXCXAXAXAXAXAXDXhXhXDXCXAXCXFX3X=XFXCXAXCXDX7XVXDXCXDX7XCXDXAXAX6XAXAXCX6XCXLXs.-XKXCXAXAXAXAXAXAXAXAXAXAXAXAXAXAXAXAXAXAXDXVX7XZXnXbXvXbXo.t.lXhX5X6X6X6X6X5XyXoX( _ / @.yX4X6X6X6X6X5XiXhX7X6X<X=.=.=.=.=.=.=.=.=.=.'.yX5XhX7X7XDXCXAXAXAXAXAXAXAXAXAXAXAXDXVX7XDXAXAXAXAXAXAXAXAXAXAXAXCXLXf.U.LXCXAXAXAXAXAXAXAXAXAXAXAXDX7XCXAXAXAXAXAXAXAXAXAXAXCXGX}.U d.KXCXAXAXAXAXAXAXAXAXAXAXCXDXhXNXDXAX",
"iXDXCXAXAXDX6XCXAXCXDXhXhXDXDXVX7XDXDXVXiXDXJX0.hXDXAXCXVXBXjXpXuXuX+.OXbXbXbXnXZXVXCXAXAXDXyX0XJXCXAXAXAXAXAXAXAXAXCXJX!.;XJXCXAXAXAXAXAXDXhXhXDXCXAXCXFX3X=XFXCXAXCXDX7XVXDXCXDX7XCXDXAXAX6XAXAXCX6XCXLXs.-XKXCXAXAXAXAXAXAXAXAXAXAXAXAXAXAXAXAXAXAXDXVX7XZXnXbXvXbXo.t.lXhX5X6X6X6X6X5XyXoX( _ / @.yX4X6X6X6X6X5XiXhX7X6X2X*.G G G G G G G G G ].rX5XhX7X7XDXCXAXAXAXAXAXAXAXAXAXAXAXDXVX7XDXAXAXAXAXAXAXAXAXAXAXAXCXLXf.U.LXCXAXAXAXAXAXAXAXAXAXAXAXDX7XCXAXAXAXAXAXAXAXAXAXAXCXGX}.U d.KXCXAXAXAXAXAXAXAXAXAXAXCXDXhXNXDXAX",
"iXDXCXAXAXDX6XCXAXCXDXhXhXDXDXVX7XDXDXVXiXDXJX0.hXDXAXCXVXBXjXpXuXuX+.OXbXbXbXnXZXVXCXAXAXDXyX0XJXCXAXAXAXAXAXAXAXAXCXJX!.;XJXCXAXAXAXAXAXDXhXhXDXCXAXCXFX3X=XFXCXAXCXDX7XVXDXCXDX7XCXDXAXAX6XAXAXCX6XCXLXs.-XKXCXAXAXAXAXAXAXAXAXAXAXAXAXAXAXAXAXAXAXDXVX7XZXnXbXvXbXo.t.lXhX5X6X6X6X6X5XyXoX( _ / @.yX4X6X6X6X6X5XiXhX7X6X4X'.'.'.'.'.'.'.'.'.'.1X6X6XhX7X7XDXCXAXAXAXAXAXAXAXAXAXAXAXDXVX7XDXAXAXAXAXAXAXAXAXAXAXAXCXLXf.U.LXCXAXAXAXAXAXAXAXAXAXAXAXDX7XCXAXAXAXAXAXAXAXAXAXAXCXGX}.U d.KXCXAXAXAXAXAXAXAXAXAXAXCXDXhXNXDXAX",
"iXDXCXAXAXDX6XCXAXCXDXhXhXDXDXVX7XDXDXVXiXDXJX0.hXDXAXCXVXBXjXpXuXuX+.OXbXbXbXnXZXVXCXAXAXDXyX0XJXCXAXAXAXAXAXAXAXAXCXJX!.;XJXCXAXAXAXAXAXDXhXhXDXCXAXCXFX3X=XFXCXAXCXDX7XVXDXCXDX7XCXDXAXAX6XAXAXCX6XCXLXs.-XKXCXAXAXAXAXAXAXAXAXAXAXAXAXAXAXAXAXAXAXDXVX7XZXnXbXvXbXo.t.lXhX5X6X6X6X6X5XyXoX( _ / @.yX4X6X6X6X6X5XiXhX7X5X6X2X<X2X2X2X2X2X2X2X2X4X6X6XhX7X7XDXCXAXAXAXAXAXAXAXAXAXAXAXDXVX7XDXAXAXAXAXAXAXAXAXAXAXAXCXLXf.U.LXCXAXAXAXAXAXAXAXAXAXAXAXDX7XCXAXAXAXAXAXAXAXAXAXAXCXGX}.U d.KXCXAXAXAXAXAXAXAXAXAXAXCXDXhXNXDXAX",
"iXDXCXAXAXDX6XCXAXCXDXhXhXDXDXVX7XDXDXVXiXDXJX0.hXDXAXCXVXBXjXpXuXuX+.OXbXbXbXnXZXVXCXAXAXDXyX0XJXCXAXAXAXAXAXAXAXAXCXJX!.;XJXCXAXAXAXAXAXDXhXhXDXCXAXCXFX3X=XFXCXAXCXDX7XVXDXCXDX7XCXDXAXAX6XAXAXCX6XCXLXs.-XKXCXAXAXAXAXAXAXAXAXAXAXAXAXAXAXAXAXAXAXDXVX7XZXnXbXvXbXo.t.lXhX5X6X6X6X6X5XyXoX( _ / @.yX4X6X6X6X6X5XiXhX7X5X5X2X2X2X2X2X2X2X2X2X2X4X6X6XhX7X7XDXCXAXAXAXAXAXAXAXAXAXAXAXDXVX7XDXAXAXAXAXAXAXAXAXAXAXAXCXLXf.U.LXCXAXAXAXAXAXAXAXAXAXAXAXDX7XCXAXAXAXAXAXAXAXAXAXAXCXGX}.U d.KXCXAXAXAXAXAXAXAXAXAXAXCXDXhXNXDXAX",
"iXDXCXAXCXAX6XCXAXCXDXhXhXDXAXVX7XDXDXVXiXDXJX0.hXDXAXCXVXBXjXpXuXuX+.OXbXbXbXnXZXVXCXAXCXDXyX0XJXCXAXAXAXAXAXAXAXAXCXJX!.;XJXCXAXAXAXAXCXDXhXhXDXCXAXCXFX3X=XFXCXAXCXDX7XVXDXCXDX7XCXAXAXAX6XCXAXCX6XCXLXs.-XJXCXAXAXAXAXAXAXAXAXAXAXAXAXAXAXAXAXAXAXDXVX7XZXnXbXvXbXo.t.lXhX5X6X6X6X6X5XyXoX( _ / @.yX4X6X6X6X6X5XiXhX7X5X5X<X,X,X,X,X,X,X,X,X,X4X6X6XhX7X7XDXCXAXAXAXAXAXAXAXAXAXAXAXDXVX7XDXCXAXAXAXAXAXAXAXAXAXAXCXLXf.U.LXCXAXAXAXAXAXAXAXAXAXAXCXDX6XCXAXAXAXAXAXAXAXAXAXAXCXGX}.L d.KXCXAXAXAXAXAXAXAXAXAXAXCXDXhXNXDXCX",
"hXJXDXDXDXDX7XDXDXDXJXhXBXDXDXCXiXDXDXVXiXDXKX0.NXJXDXAXCXVXjXjXpXuX+.OXbXbXnXmXZXCXDXDXDXJXyXwXJXDXDXDXDXDXDXDXDXDXDXJX!.>XJXDXDXDXDXDXDXDXNXhXJXDXDXDXKX3X=XKXDXDXDXJXiXCXDXDXDX7XAXDXDXDX7XDXDXDX7XDXPXd.;XLXDXDXDXDXDXDXDXDXDXDXDXDXDXDXDXDXDXDXDXDXVX7XZXmXbXvXnX&.t.lXhX5X6X6X6X6X5XyXoX( _ / @.yX4X6X6X6X6X5XiXhX7X5X5X2X2X2X2X2X2X2X2X2X2X4X6X6XhX7XiXJXDXDXDXDXDXDXDXDXDXDXDXDXDXCXiXDXDXDXDXDXDXDXDXDXDXDXDXAXPXf.Y.PXDXDXDXDXDXDXDXDXDXDXDXDXDX7XAXDXDXDXDXDXDXDXDXDXDXAXGX}.U d.LXAXDXDXDXDXDXDXDXDXDXDXDXJXhXBXDXDX",
"6XBXhXhXhXNX:XhXhXhXBX6XiXBXNXhX5XBXNXhX6XNXVX4.6XBXhXhXhXyXyXaXwXwX..oX3X3X3X7XfXhXhXhXhXVX:X%XVXhXhXhXhXhXhXhXhXNXhX>X9.3.>XhXNXhXhXhXhXBX7X6XBXhXhXhXVXOXOXVXhXhXhXBX5XhXNXhXBX:XhXNXhXhX:XhXhXhX:XhXDXi.@XCXhXhXhXhXhXhXhXhXhXhXhXhXhXhXhXhXhXhXhXNXhX;XfX7X3X3X3XO.t.lXhX5X6X6X6X6X5XyXoX( _ / @.yX4X6X6X6X6X5XiXhX7X5X5X<X,X,X,X,X,X,X,X,X,X4X6X6XhX7X7XBXhXhXhXhXhXhXhXhXhXhXhXhXNXhX5XBXhXhXhXhXhXhXhXhXhXhXhXhXAXd.f.AXhXhXhXhXhXhXhXhXhXhXhXhXNX:XhXhXhXhXhXhXhXhXhXhXhXhXVX}.L i.AXhXhXhXhXhXhXhXhXhXhXhXhXBX6XiXBXhX",
":XhXhXhXhXhX;XhXhXhXhX5X6XhXhXiX:XhXhX7X:XhXBX<.5XhXhXiXyXaXwX:X&X9X..oX3X3X3X7X7X7XhXhXhXhX;XW.NXhXhXhXhXhXhXhXhXhX>X5 + + 5 >XhXhXhXhXhXhX6X6XhXhXhXhXjXOXOXjXhXhXhXhX:XiXhXhXhX:XiXhXhXhX;XhXhXhX;XhXVXp.Y.BXhXhXhXhXhXhXhXhXhXhXhXhXhXhXhXhXhXhXhXhX7X*X7X3X3X3X3XO.t.lXhX5X6X6X6X6X5XyXoX( _ / @.yX4X6X6X6X6X5XiXhX7X5X5X2X2X2X2X2X2X2X2X2X2X4X6X6XhX7X7XhXhXhXhXhXhXhXhXhXhXhXhXhXhXiX:XhXhXhXhXhXhXhXhXhXhXhXhXiXVXd.f.VXhXhXhXhXhXhXhXhXhXhXhXhXhX:XhXhXhXhXhXhXhXhXhXhXhXiXkX[.L q.VXiXhXhXhXhXhXhXhXhXhXhXhXhX5X6XhXhX",
"hXJXDXDXDXDX7XDXDXDXJXhXBXJXDXCXiXJXDXCXhXDXLX0.BXJXDXDXAXSXBXjXpXsX+.OXbXbXmXZXZXIXDXDXDXJXpXwXLXDXDXDXDXDXDXDXDXDX!.$ c c # R.DXDXDXDXDXJXBXhXJXDXDXDXKX3X=XKXDXDXDXJXiXCXDXDXJXiXDXDXDXDX7XDXDXDX7XDXPXd.;XLXDXDXDXDXDXDXDXDXDXDXDXDXDXDXDXDXDXDXDXDXCX7XZXmXnXvXmX&.t.lXhX5X6X6X6X6X5XyXoX( _ / @.yX4X6X6X6X6X5XiXhX7X5X5X<X,X,X,X,X,X,X,X,X,X4X6X6XhX7XiXJXDXDXDXDXDXDXDXDXDXDXDXDXDXCXiXJXDXDXDXDXDXDXDXDXDXDXDXDXPXf.Y.PXDXDXDXDXDXDXDXDXDXDXDXDXDX7XDXDXDXDXDXDXDXDXDXDXDXAXGX}.U d.PXAXDXDXDXDXDXDXDXDXDXDXDXJXhXVXJXDX",
"~.!.!.!.!.!.~.!.!.!.!.R.R.!.!.!.~.!.!.!.~.!.>X,.R.!.!.!.!.Q.Q.Q.~.~...y.K.K.K.Y.T.!.!.!.!.>X~.M.>X!.!.!.!.!.!.!.!.!.).# % % + r.>X!.!.!.!.!.R.R.!.!.!.!.!.L.d.!.!.!.!.!.~.!.!.!.!.~.!.!.!.!.~.!.!.!.~.!.>X9.d.>X!.!.!.!.!.!.!.!.!.!.!.!.!.!.!.!.!.!.!.!.!.I.T.Y.K.K.K.+.y.lXhX5X6X6X6X6X5XyXoX( _ / @.yX4X6X6X6X6X5XiXhX7X5X5X2X2X2X2X2X2X2X2X2X2X4X6X6XhX7X7XDXCXCXCXCXCXCXCXCXCXCXCXCXAXVX7XDXCXCXCXCXCXCXCXCXCXCXCXCXLXf.U.KXCXCXCXCXCXCXCXCXCXCXCXCXDX6XCXAXCXCXCXCXCXCXCXCXCXCXGX}.L d.KXCXCXCXCXCXCXCXCXCXCXCXCXDXhXNXDXCX",
"iXDXCXAXCXAX6XCXAXCXDXhXhXDXAXVX7XDXDXVX7XAXJX0.hXDXCXCXVXBXjXpXuXuX+.OXbXvXbXnXZXVXCXAXCXDXyX0XJXCXAXAXAXAXAXCXCXJXV V 2 2 V V jXDXCXAXCXDXhXhXDXCXAXCXFX3X=XFXCXAXCXDX7XVXDXCXDX6XCXAXCXAX6XCXAXCX6XCXLXs.-XJXCXAXAXAXAXAXAXAXAXAXAXAXAXAXAXAXAXAXCXDXVX4XZXnXbXvXbXo.t.lXhX5X6X6X6X6X5XyXoX( _ / @.yX4X6X6X6X6X5XiXhX7X5X5X<X,X,X,X,X,X,X,X,X,X4X6X6XhX7X7XDXCXAXAXAXAXAXAXAXAXAXAXAXDXVX7XDXAXAXAXAXAXAXAXAXAXAXAXCXLXf.U.LXCXAXAXAXAXAXAXAXAXAXAXAXDX7XCXAXAXAXAXAXAXAXAXAXAXCXGX}.U d.KXCXAXAXAXAXAXAXAXAXAXAXCXDXhXNXDXAX",
"iXDXAXAXAXDX7XCXAXAXDXhXhXDXDXVX7XDXDXVXiXDXJX0.hXDXAXCXVXBXjXpXuXuX+.OXbXbXbXmXZXVXCXAXAXDXyX0XJXCXAXAXAXAXAXCXKX).V xX).).kXr.V JXAXAXAXDXhXhXDXAXAXCXFX3X=XFXCXAXAXDX7XVXDXAXDX7XCXDXAXAX6XAXDXCX7XCXLXd.-XKXCXAXAXAXAXAXAXAXAXAXAXAXAXAXAXAXAXAXAXDXVX7XZXnXbXvXbXo.t.lXhX5X6X6X6X6X5XyXoX( _ / @.yX4X6X6X6X6X5XiXhX7X5X5X2X2X2X2X2X2X2X2X2X2X4X6X6XhX7X7XDXCXAXAXAXAXAXAXAXAXAXAXAXDXVX7XDXAXAXAXAXAXAXAXAXAXAXAXCXLXf.U.LXCXAXAXAXAXAXAXAXAXAXAXAXDX7XCXAXAXAXAXAXAXAXAXAXAXCXGX}.U d.KXCXAXAXAXAXAXAXAXAXAXAXCXDXhXNXDXAX",
"iXDXCXAXAXDX6XCXAXCXDXhXhXDXDXVX7XDXDXVXiXDXJX0.hXDXAXCXVXBXjXpXuXuX+.OXbXbXbXnXZXVXCXAXAXDXyX0XJXCXAXAXAXAXCXKX!.V >XVX~.R.kXkXV r.KXCXCXDXhXhXDXCXAXCXFX3X=XFXCXAXCXDX7XVXDXCXDX7XCXDXAXAX6XAXAXCX6XCXLXs.-XKXCXAXAXAXAXAXAXAXAXAXAXAXAXAXAXAXAXAXAXDXVX7XZXnXbXvXbXo.t.lXhX5X6X6X6X6X5XyXoX( _ / @.yX4X6X6X6X6X5XiXhX7X5X5X<X,X,X,X,X,X,X,X,X,X4X6X6XhX7X7XDXCXAXAXAXAXAXAXAXAXAXAXAXDXVX7XDXAXAXAXAXAXAXAXAXAXAXAXCXLXf.U.LXCXAXAXAXAXAXAXAXAXAXAXAXDX7XCXAXAXAXAXAXAXAXAXAXAXCXGX}.U d.KXCXAXAXAXAXAXAXAXAXAXAXCXDXhXNXDXAX",
"iXDXCXAXAXDX6XCXAXCXDXhXhXDXDXVX7XDXDXVXiXDXJX0.hXDXAXCXVXBXjXpXuXuX+.OXbXbXbXnXZXVXCXAXAXDXyX0XJXCXAXAXAXCXJX>XV !.kXkX~.R.kXkXxXV ).PXCXDXhXhXDXCXAXCXFX3X=XFXCXAXCXDX7XVXDXCXDX7XCXDXAXAX6XAXAXCX6XCXLXs.-XKXCXAXAXAXAXAXAXAXAXAXAXAXAXAXAXAXAXAXAXDXVX7XZXnXbXvXbXo.t.lXhX5X6X6X6X6X5XyXoX( _ / @.yX4X6X6X6X6X5XiXhX7X5X5X2X2X2X2X2X2X2X2X2X2X4X6X6XhX7X7XDXCXAXAXAXAXAXAXAXAXAXAXAXDXVX7XDXAXAXAXAXAXAXAXAXAXAXAXCXLXf.U.LXCXAXAXAXAXAXAXAXAXAXAXAXDX7XCXAXAXAXAXAXAXAXAXAXAXCXGX}.U d.KXCXAXAXAXAXAXAXAXAXAXAXCXDXhXNXDXAX",
"iXDXCXAXAXDX6XCXAXCXDXhXhXDXDXVX7XDXDXVXiXDXJX0.hXDXAXCXVXBXjXpXuXuX+.OXbXbXbXnXZXVXCXAXAXDXyX0XJXCXAXAXCXJXrXV ).jXxXkX~.R.kXxXkX>XV ~.KXDXhXhXDXCXAXCXFX3X=XFXCXAXCXDX7XVXDXCXDX7XCXDXAXAX6XAXAXCX6XCXLXs.-XKXCXAXAXAXAXAXAXAXAXAXAXAXAXAXAXAXAXAXAXDXVX7XZXnXbXvXbXo.t.lXhX5X6X6X6X6X5XyXoX( _ / @.yX4X6X6X6X6X5XiXhX7X5X5X<X,X<X,X,X,X,X,X<X,X4X6X6XhX7X7XDXAXAXAXAXAXAXAXAXCXDXDXDXDXVX7XDXAXAXAXAXAXAXAXAXAXAXAXAXLXf.U.LXCXAXAXAXAXAXAXAXDXAXCXDXDX7XCXAXAXAXAXAXAXAXAXDXDXCXGX}.U d.KXCXAXAXAXAXAXAXAXCXAXAXDXDXhXNXDXAX",
"iXDXCXAXAXDX6XCXAXCXDXhXhXDXDXVX7XDXDXVXiXDXJX0.hXDXAXCXVXBXjXpXuXuX+.OXbXbXbXnXZXVXCXAXAXDXyX0XJXCXCXAXKX!.V ).jXxXxXkX~.R.kXxXxXkX!.V ~.PXhXhXDXCXAXCXFX3X=XFXCXAXCXDX7XVXDXCXDX7XCXDXAXAX6XAXAXCX6XCXLXs.-XKXCXAXAXAXAXAXAXAXAXAXAXAXAXAXAXAXAXAXAXDXVX7XZXnXbXvXbXo.t.lXhX5X6X6X6X6X5XyXoX( _ / @.yX4X6X6X6X6X5XiXhX7X5X5X2X<X2X2X2X2X2X2X2X<X4X6X6XhX7XiXDXVXDXDXAXAXAXAXCXDXBXVXCXCXCX7XDXAXAXAXAXAXAXAXCXDXDXDXhXPXf.U.LXCXAXAXAXAXAXAXCXhXAXDXhXCX7XCXAXAXAXAXAXAXAXDXCXBXAXGX}.L d.KXCXAXAXAXAXAXAXAXDXAXCXNXJXhXNXDXAX",
"iXDXCXAXAXDX6XCXAXCXDXhXhXDXDXVX7XDXDXVXiXDXJX0.hXDXAXCXVXBXjXpXuXuX+.OXbXbXbXnXZXVXCXAXAXDXyX0XDXCXJXJX).V ~.jXxXxXxXkXR.R.kXxXxXxXkX!.V r.hXBXDXCXAXCXFX3X=XFXCXAXCXDX7XVXDXCXDX7XCXDXAXAX6XAXAXCX6XCXLXs.-XKXCXAXAXAXAXAXAXAXAXAXAXAXAXAXAXAXAXAXAXDXVX7XZXnXbXvXbXo.t.lXhX5X6X6X6X6X5XyXoX( _ / @.yX4X6X6X6X6X5XiXhX7X5X5X<X<X<X<X<X<X<X<X<X<X4X6X6XhX7XhXhXhXVXCXDXAXAXCXDX5Xq.:X9.q.VX7XDXAXAXAXAXAXAXCXDXBX,.I.,.Y.I.U.LXCXAXAXAXAXCXDXhXq.s.U.q.VX7XCXAXAXAXAXAXAXCXDXT.,.;X>Xt U d.KXCXAXAXAXAXAXCXJXq.s.5X,.T.NXhXDXAX",
"iXDXCXAXAXDX6XCXAXCXDXhXhXDXDXVX7XDXDXVXiXDXJX0.hXDXAXCXVXBXjXpXuXuX+.OXbXbXbXnXZXVXCXAXCXDXyX0XPXJX>XV V !.jXxXxXxXkXkXx.~.VXxXxXxXxXkXxXV V ~.JXKXDXCXFX3X=XFXCXAXCXDX7XVXDXCXDX7XCXDXAXAX6XAXAXCX6XCXLXs.-XKXCXAXAXAXAXAXAXAXAXAXAXAXAXAXAXAXAXAXAXDXVX7XZXnXbXvXbXo.t.lXhX5X6X6X6X6X5XyXoX( _ / @.yX4X6X6X6X6X5XiXhX7X5X5X2X<X<X<X<X<X<X<X<X<X4X6X6XhX7XhX;X3.,.q.AXAXAXAXPXe.q.B.I.d.@XhXDXAXAXAXAXAXCXDXPXI.,.I.m I.I.U.LXCXAXAXAXAXAXKXJXd.9.,.s.CX7XCXAXAXAXAXAXAXDXJXKXY.s.P.H U d.KXCXAXAXAXAXCXJXPXB.e.PX$Xe.VXhXDXAX",
"iXDXCXAXAXDX6XCXAXCXDXhXhXDXDXVX7XDXDXVXiXDXJX0.hXDXAXCXVXBXjXpXuXuX+.OXbXvXbXnXZXVXCXDXDXPXpXW.!.V V ).kXkXxXkXxXkX(.v 0 q (.kXxXxXkXxXkXjX).V V ~.VXJXPX3X=XFXCXCXCXDX7XVXDXCXDX7XCXDXAXAX6XAXAXCX6XCXLXs.-XKXCXAXAXAXAXAXAXAXAXAXAXAXAXAXAXAXAXAXAXDXVX7XZXnXbXvXbXo.t.lXhX5X6X6X6X6X5XyXoX( _ / @.yX4X6X6X6X6X5XiXhX7X5X5X<X<X<X<X<X<X<X<X<X<X4X6X6XhX7XhX$Xn @Xq.hXDXDXhXB.,.I.r @Xd.T.hXDXAXAXAXAXCXDX;Xs.m n q.9.d.I.U.LXCXAXAXAXAXDXB.6XNXM ,.d.d.BXVXAXAXAXAXCXDXhXf.hXs.f.m t L d.KXCXAXAXAXCXDX@X@X6Xs.KXq.BXhXNXDXAX",
"7XDXCXCXCXCX7XCXCXCXDXhXhXDXCXVX7XAXCXBX7XCXJX0.hXDXCXVXVXjXjXpXyXuX+.OXbXbXmXZXIXJXDXVXrX~.x.V V ).xXjXxXxXxXxXhXx.0 C x.v w (.kXxXkXxXxXkX6X>X).V V r.~.K.=XKXKXKXJXJXiXVXDXCXDX6XVXCXCXCX6XCXCXCX6XCXLXs.$XJXCXCXCXCXCXCXCXCXCXCXAXAXAXAXAXAXAXAXAXAXVX4XZXnXbX3XbXo.t.lXhX5X6X6X6X6X5XyXoX( _ / @.yX4X6X6X6X6X5XiXhX7X5X5X2X<X<X<X<X<X<X<X<X<X4X6X6XhX7XhX-XM -Xe.hXDXAXVXiXI.9.s.9.9.hX7XDXCXCXCXCXCXDXhX6XiX9.q.q.d.f.U.KXCXCXCXCXCXCXiX@Xe.q.s.3.@XhXVXAXCXCXCXCXAXBXhX3.m $X>XH U d.KXVXCXCXCXCXDXiXhX;XB.s.b ;XhXhXDXCX",
"jXKXFXFXFXFXyXFXFXFXKXjXSXFXFXAXpXFXFXSXjXKXPX0.VXLXKXKXFXSXSXBXpXtX+.oX3X=XT.K.P.r.V V V V u 2 c.uXxXxXxXxXrXW.x.0 C kXR.~.v C kXrXxXxXxXkX>X>XjXkX!.r.V V V V P.~.!.xX:XhXAXCXJXhXJXKXKXKXNXJXKXJXhXJXPXd.4XPXJXJXJXJXJXJXJXJXJXJXDXDXDXDXDXDXDXDXDXDXVX7XZXmXmXvXmX&.t.lXhX5X6X6X6X6X5XyXoX( _ / @.yX4X6X6X6X6X5XiXhX7X5X5X<X<X<X<X<X<X<X<X<X<X4X6X6XhX7XiXJXCXDXAXDXDXDXJXLXJXiXJXBXVXDXhXJXDXDXDXDXDXDXKXLXLXJXJX6XPXI.#XPXDXDXDXDXDXDXLXDX6XDXDXhXKXiXDXJXDXDXDXDXDXJXLXBX7XBXPX}.U d.PXDXDXDXDXDXDXKXKXDXDXVXiXBXNXVXJXDX",
"oX+X+X+X+X+XOX+X+X+X+XOXOX+X+X+XOX+XOXOXoXOXOX8.L.K.L.P.P.r.r.S S S ` x V V V V r.).~.rXxX3.8 u 8 n.kXkXkXlXxXS 0 S VXkXx.!.(.0 x.W.kXVXkXVXfX>XkXkXkXlXlXK.r.).S V V V V V V V V V r.).).).r.~.~.~.).!.!.9.).rX>XrXrXrXrXxXxXxXxXxXxXjXjXjXkXkXkXjXjXlXjX-XyX-X!.Y.!.+.t.SXhX5X6X6X6X6X5XyXoX( _ / @.yX4X6X6X6X6X5XiXhX7X5X5X<X<X<X<X<X<X<X<X<X<X4X6X6XhX7X6XhXiXiXhXiXiXiX7X7X7XhX7XhXhX6X$XhX7XiXiXiXiXiX7X7X7XiXiXhXVXa.d.BX7XiXiXiXiXiX7XhXhXiXiXhXiX@X7XiXiXiXiXiXiX7X7XhXhXiXkX[.L q.BX7XiXiXiXiXiX7X7XiXiXhXhXhX-X:XhX7X",
"] ] ] ] ] ~ ] ] ~ ~ ~ ~ ~ ~ ~ ~ ~ ~ ~ ~ ~ ~ ~ ~ ~ ~ ~ ~ ~ } } } $.| } $.8.8.8.0.p.i.i.0.e.2 e s u 3 e.0.0.0.A q V 0.0.3.N N 3.q q y 7.7.k.k.B y A B y y d y y d d d y y y e e e e u 9 9 9 9 9 9 9 9 9 9 9 9 9 9 9 9 9 9 c c c c c c 9 9 9 9 9 9 q q q q q q q q 9 e q z t.SXhX5X6X6X6X6X5XyXoX( _ / @.yX4X6X6X6X6X5XiXhX7X5X5X2X<X<X<X<X<X<X<X<X<X4X6X6XhXhX@X$ # # # # # # # # # # # # # # # # # # # # # # # # # # # # $ # # $ # # # # # # # # # # # # # # # # # # # # # # # # # $ + E E + $ # # # # # # # # # # # # # # # # # ",
"oXOXOXOXOXoXy.oXoXoXXXy.y.J.J.@.#.#.#.#.+.+.+.} ! ! ! ! ) } } ^ ^ ^ ~ ~ [ { +.O.#.#.t.y.g.r 8 u 8 5.g.g.g.V 9 e i.5.,.t t u t B v e 5.5.5.p.p.p.g.g.g.g.oXu.u.OXg.L.oXOXg.OXOXM g.oXOXOXOXOXoXOXOXOXoXOX+X8.g.OXOXOXOXOXOXOXOXd.9.B V e 9 e e C C B B S r.r.s.d.g.g.L...t.lXhX5X6X6X6X6X5XyXoX( _ / @.yX4X6X6X6X6X5XiXhX7X5X5X<X<X<X<X<X<X<X<X<X<X4X6X6XhX7X7XVXBXBXBXBXBXBXBXBXBXBXBXBXVXhX:XVXBXBXBXBXBXBXBXBXBXBXBXhXDXd.B.DXNXBXBXBXBXBXBXBXBXBXBXBXVX:XNXBXBXBXBXBXBXBXBXBXBXBXIX}.L s.AXhXBXBXBXBXBXBXBXBXBXBXBXVX6XiXVXBX",
"wXzXzXzXzXzXqXzXzXzXSXtXsXzXzXsXqXzXzXsX0XsXzX7.wXuX>X-X@XU.K.g.u.8.) { { [ ~ ~ ~ ] ] ] ] ) , < } [ ] ] ~ ~ ] ] ~ ~ ~ ] ] ] ] ] ~ ] ] ] ] ] ] ] ] ] ] ] ] ] ] ] ] ] ] ] ] ] ] ] ] ] ] ] ] ] ] ] ] ] ] ] ] ] ] ] ] ] ] ] ] ] ~ ~ ~ ~ ~ ~ ~ ~ ~ ~ ] ] ] ] ] ] ] ] ] ] ] ~ @.SXfX5X6X6X6X6X5XyXoX( _ / @.yX4X6X6X6X6X5XiXhX7X5X5X2X<X<X<X<X<X<X<X<X<X4X6X6XhX7XiXJXDXDXDXDXDXDXDXDXDXDXDXDXDXCXiXDXDXDXDXDXDXDXDXDXDXDXDXAXPXf.Y.PXDXDXDXDXDXDXDXDXDXDXDXDXDXiXAXDXDXDXDXDXDXDXDXDXDXAXGX}.U d.LXAXDXDXDXDXDXDXDXDXDXDXDXJXhXVXDXDX",
"%XpXpXpXpXpX%XpXpXpXpX&XwXpXpXuX%XpXpXaX%XpXSX6.aXlXsXsXsXsXsXsXdXqXX.oX*XOXoXoXy.#.+.! ! ! ! #. .b b b #.;. .| @.;.#. .| #.#.>.@.x | ;.| | ;.#.@.;.;.;.;.O.O.;.#.#.;.;.o.;.;.| #.;.;.#. .;.o.;.;.;.#.;.;.+.o. .x x x x | @.XXXXXXXXXXXXXXXXXXXXXXXXXXXX;.;.;.;.;.;.;.{ t.lXfX5X6X6X6X6X5XyXoX( _ / @.yX4X6X6X6X6X5XiXhX7X5X5X<X<X<X<X<X<X<X<X<X<X4X6X6XhX7X7XDXCXAXAXAXAXAXAXAXAXAXAXCXAXVX7XDXCXAXAXAXAXAXAXAXAXAXAXCXLXf.U.KXCXAXAXAXAXAXAXAXAXAXAXCXDX6XCXAXAXAXAXAXAXAXAXAXAXCXGX}.L d.KXCXAXAXAXAXAXAXAXAXAXAXCXDXhXNXDXCX",
"0XlXpXpXpXpX%XpXpXpXlXwXeXsXpXuX%XpXpXtX%XpXlX6.wXsXpXpXtXtXF.H.9XqX..oX4X4X7XaXH.eXlXjX-Xw.b u q w q r.fXlXZ i z.Q.!.j.e x.A /.W.q v N.d p N.>XW.kXVXhXlXOXK.DXA k.IXkX!.iXrXa N.:XZXA.k.IX>XkXkXVX7XZX(.S q w v S D.rXFXFXFXFXFXFXFXFXFXFXFXFXFXFXFXFXFXyXDXVXZXnXZXo.t.lXhX5X6X6X6X6X5XyXoX( _ / @.yX4X6X6X6X6X5XiXhX7X5X5X2X<X2X2X2X2X2X2X2X<X4X6X6XhX7X7XDXCXAXAXAXAXAXAXAXAXAXAXAXDXVX7XDXAXAXAXAXAXAXAXAXAXAXAXCXLXf.U.LXCXAXAXAXAXAXAXAXAXAXAXAXDX7XCXAXAXAXAXAXAXAXAXAXAXCXGX}.U d.KXCXAXAXAXAXAXAXAXAXAXAXCXDXhXNXDXAX",
"0XlXpXpXpXpX%XpXpXpXlXwXeXsXpXuX%XsXpXtX%XpXSX6.wXlXpXpXuXtXd i D.qX..oX4X2X4X;Xa W.dXG.Z w w w S N.oX>. . .n y A A 4Xl.e B y m.m.e q q y e w.s.e V.bXfXfXs.K.7Xy B 7X*XU.@X*Xy l.#XfXb.B fX=XT.M.4Xx.C 0 q S (.VXJXJXJXCXCXCXCXCXCXCXCXCXCXCXCXCXCXCXCXZX4XmXbXbX3XbXo.t.lXhX5X6X6X6X6X5XyXoX( _ / @.yX4X6X6X6X6X5XiXhX7X5X5X<X,X<X,X,X,X,X,X<X,X4X6X6XhX7X7XDXCXAXAXAXAXAXAXAXAXAXAXAXDXVX7XDXAXAXAXAXAXAXAXAXAXAXAXCXLXf.U.LXCXAXAXAXAXAXAXAXAXAXAXAXDX7XCXAXAXAXAXAXAXAXAXAXAXCXGX}.U d.KXCXAXAXAXAXAXAXAXAXAXAXCXDXhXNXDXAX",
"0XlXpXpXpXpX%XpXpXpXlXwXeXlXlXuX%XpXpXtX%XpXSX6.wXlXpXpXuXqXd i d ^...oX4X2X7X6Xa Z s q 0 v S /.wXF.lXDXfXL.x z x N ;Xk.e y e l.k.e p w p e k.B e v.fXfXfXy M.Q.B B 4Xl.6.*X$Xy y e.fXv.B 4X3Xl.p v 0 C (.q.4XPXCXAXCXAXAXAXAXAXAXAXAXAXAXAXAXAXAXAXAXDXVX7XZXnXbXvXbXo.t.lXhX5X6X6X6X6X5XyXoX( _ / @.yX4X6X6X6X6X5XiXhX7X5X5X2X2X2X2X2X2X2X2X2X2X4X6X6XhX7X7XDXCXAXAXAXAXAXAXAXAXAXAXAXDXVX7XDXAXAXAXAXAXAXAXAXAXAXAXCXLXf.U.LXCXAXAXAXAXAXAXAXAXAXAXAXDX7XCXAXAXAXAXAXAXAXAXAXAXCXGX}.U d.KXCXAXAXAXAXAXAXAXAXAXAXCXDXhXNXDXAX",
"0XlXpXpXjXlX%XpXpXpXlXwXaXuXF.tX%XpXuXtX%XpXSX6.wXlXjXpXpX^.s a i F.+.oX4X2X@Xk.i q 0 C x.G.A.yXj.i /.DXSXqXs y b z $.m B a e A y e y q C k.y y B l.nX4Xl.y M.V.B A T.A y l.A y e B 7Xl.B M.A v w C ~.JXsXy 6XDXAXCXAXAXAXAXAXAXAXAXAXAXAXAXAXAXAXAXAXDXVX7XZXnXbXvXbXo.t.lXhX5X6X6X6X6X5XyXoX( _ / @.yX4X6X6X6X6X5XiXhX7X5X5X<X,X,X,X,X,X,X,X,X,X4X6X6XhX7X7XDXCXAXAXAXAXAXAXAXAXAXAXAXDXVX7XDXAXAXAXAXAXAXAXAXAXAXAXCXLXf.U.LXCXAXAXAXAXAXAXAXAXAXAXAXDX7XCXAXAXAXAXAXAXAXAXAXAXCXGX}.U d.KXCXAXAXAXAXAXAXAXAXAXAXCXDXhXNXDXAX",
"0XlXpXjX^.F.&XpXpXpXlX0XyXF.i qXaXF.j.tX0XpXlX6.wXsXwXuXpXH.Z d i H.+.oX#Xk.p q q q H.jXqXZ j.wXj.i z.VX9Xz.i Z p p i.z z r A A y e y p w A y y k.y n.k.e e b.n.k.k.k.y y y e y B e Y.l.p v 0 q A A.;XLXF.e 6XuXAXCXCXAXAXAXAXAXAXAXAXAXAXAXAXAXAXAXAXDXVX7XZXnXbXvXbXo.t.lXhX5X6X6X6X6X5XyXoX( _ / @.yX4X6X6X6X6X5XiXhX7X5X5X2X2X2X2X2X2X2X2X2X2X4X6X6XhX7X7XDXCXAXAXAXAXAXAXAXAXAXAXAXDXVX7XDXAXAXAXAXAXAXAXAXAXAXAXCXLXf.U.LXCXAXAXAXAXAXAXAXAXAXAXAXDX7XCXAXAXAXAXAXAXAXAXAXAXCXGX}.U d.KXCXAXAXAXAXAXAXAXAXAXAXCXDXhXNXDXAX",
"0XlXuXSXj.j.:XpXpXpXlX0XpXG.i ^.yXG.s uX0XBXSX6.yXuXs wXBXd z.Z i s ` <.a q q C p i z.wXi s k.%Xj.Z j.F.Z j.s j.i a s s 9.z z t i A B B v q e b.l.e k.B e e l.v.k.k.y k.k.e e B $XB k.S 0 q A k.a i z.JXD.e E.j.CXG.^.JXAXAXAXAXAXAXAXAXAXAXAXAXAXAXAXDXVX7XZXnXbXvXbXo.t.lXhX5X6X6X6X6X5XyXoX( _ / @.yX4X6X6X6X6X5XiXhX7X5X5X<X,X,X,X,X,X,X,X,X,X4X6X6XhX7X7XDXCXAXAXAXAXAXAXAXAXAXAXAXDXVX7XDXAXAXAXAXAXAXAXAXAXAXAXCXLXf.U.LXCXAXAXAXAXAXAXAXAXAXAXAXDX7XCXAXAXAXAXAXAXAXAXAXAXCXGX}.U d.KXCXAXAXAXAXAXAXAXAXAXAXCXDXhXNXDXAX",
"0XsXpXjXZ j.:XpXpXpXlX0XyXG.f F.yXH.s tXwXG.qX6.A.H.a H.wXZ z.Z i f F u q e l.7Xa i j./.a s a N.j.H.j.D.a s F.G.i z.Z a z.Z.L.z 3 k.v.b.x.w p C.v.e A B e e B k.l.k.e n.I.k.y B *Xl.q w e A Z s p i j.IXG.e A.s BXj.j.CXCXAXAXAXAXAXAXAXAXAXAXAXAXAXAXDXVX7XZXnXbXvXbXo.t.lXhX5X6X6X6X6X5XyXoX( _ / @.yX4X6X6X6X6X5XiXhX7X5X5X2X2X2X2X2X2X2X2X2X2X4X6X6XhX7X7XDXCXAXAXAXAXAXAXAXAXAXAXAXDXVX7XDXAXAXAXAXAXAXAXAXAXAXAXCXLXf.U.LXCXAXAXAXAXAXAXAXAXAXAXAXDX7XCXAXAXAXAXAXAXAXAXAXAXCXGX}.U d.KXCXAXAXAXAXAXAXAXAXAXAXCXDXhXNXDXCX",
"wXlXpXuXs Z :XpXpXpXlX0XyXH.i G.yXH.a tX%Xp H.3.f i p i G.Z G.d i q z M k.e l.&Xa i Z D.j.z.i j.j.F.Z z.i a 0XN.i ^.^.p l.Q.sXA 3 z d.N.M.C q m.-Xl.y y e y y B v.l.B T.I.@XB B N.q q e i D.Z p a p s F.z.i A.a pXj.i eXBXBXDXAXAXAXAXAXAXAXAXAXAXAXAXDXVX7XZXnXbXvXbXo.t.lXhX5X6X6X6X6X5XyXoX( _ / @.yX4X6X6X6X6X5XiXhX7X5X5X<X,X,X,X,X,X,X,X,X,X4X6X6XhX7X7XDXCXAXAXAXAXAXAXAXAXAXAXAXDXVX7XDXAXAXAXAXAXAXAXAXAXAXAXCXLXf.U.LXCXAXAXAXAXAXAXAXAXAXAXAXDX7XCXAXAXAXAXAXAXAXAXAXAXCXGX}.U d.KXCXAXAXAXAXAXAXAXAXAXAXCXDXhXNXDXDX",
"W.uXjXeXi Z :XuXpXpXsX0XaXj.i H.yXj.p tX%Xs Z B i i i i j.d s q q q $.1.y 7.B Z.d k.Z Z j.z.i a Z wXs a p z.yXN.p 9XwXG.N.Z.aXZ i 2.$.8.N.x.0 C 4Xm.y y y e y y v.-X@X-XB.T.l.A w q y a p F.j.i a a i a s a N.p z.Z i qXBXjXDXAXAXAXAXAXAXAXAXAXAXAXAXDXVX7XZXnXbXvXbXo.t.lXhX5X6X6X6X6X5XyXoX( _ / @.yX4X6X6X6X6X5XiXhX7X5X5X2X2X2X2X2X2X2X2X2X2X4X6X6XhX7X7XDXCXAXAXAXAXAXAXAXAXAXAXAXDXVX7XDXAXAXAXAXAXAXAXAXAXAXAXCXLXf.U.LXCXAXAXAXAXAXAXAXAXAXAXAXDX7XCXAXAXAXAXAXAXAXAXAXAXCXGX}.U d.KXCXAXAXAXAXAXAXAXAXAXAXCXDXhXNXDXAX",
"Z s j.^.i Z %XjXjXpXSXwXaXj.j.d S.s p 0X%Xs s i i Z d i i q 0 q S s ` t c.C.y k.A W.Z i j.z.p i j.pXj.i s 9XaX9X^.eXwXpXm.Z.pXj.i F.=X$.8.Q.A 0 N.C.e y e y y e m.-X@X$XB.=Xx.0 v s.j.s s F.j.p a p a p s s j.i s s i ^.z.F.JXAXAXAXAXAXAXAXAXAXAXAXAXDXVX7XZXnXbXvXbXo.t.lXhX5X6X6X6X6X5XyXoX( _ / @.yX4X6X6X6X6X5XiXhX7X5X5X<X,X,X,X,X,X,X,X,X,X4X6X6XhX7X7XDXCXAXAXAXAXAXAXAXAXAXAXAXDXVX7XDXAXAXAXAXAXAXAXAXAXAXAXCXLXf.U.LXCXAXAXAXAXAXAXAXAXAXAXAXDX7XCXAXAXAXAXAXAXAXAXAXAXCXGX}.U d.KXCXAXAXAXAXAXAXAXAXAXAXCXDXhXBXDX-X",
"d i i p d Z %XF.qXtXD.A.aXZ G.s i d p j.%XZ j.i p D.j.q 0 q x.Z H.D.` t #XB.B e A Q.Z i j.z.p i j.yXz.i N.aXwXwXeXwXwXtXm.V.pXG.j.^.uXI.z u.N.q C Y.B l.l.g.B y Y.@X@X$XU.v.w c c.W.j.Z j.D.Z a a a s a Z s a a s a i D.s j.DXCXCXCXCXCXCXCXCXCXCXCXCXAXVX4XZXnXbXvXbXo.t.lXhX5X6X6X6X6X5XyXoX( _ / @.yX4X6X6X6X6X5XiXhX7X5X5X2X2X2X2X2X2X2X2X2X2X4X6X6XhX7X7XDXCXCXCXCXCXCXCXCXCXCXCXCXAXVX7XDXCXCXCXCXCXCXCXCXCXCXCXCXLXf.U.KXCXCXCXCXCXCXCXCXCXCXCXCXDX6XCXAXCXCXCXCXCXCXCXCXCXCXGX}.L d.KXCXCXCXCXCXCXCXCXCXCXCXCXDXhXNX;X;X",
"a i s Z G.d %Xj.j.dXi i z.Z F.d f Z s d W.s H.i j.S w q C j.aXF.S.^...0.#XB.B e k.Q.Z i z./.i i G.jXG.i /.uXeXeXeXeXeXuXZ.Z.uXtX/./.aXqXn.$.8.j.0 x.@X$X:XL.B a T.-X$X;Xb.w v s.D.N.Z Z /./.Z s Z j.j.j.j.Z i Z s a s z.s s BXDXDXDXDXDXDXDXDXDXDXDXDXDXCX7XZXmXbXvXmX&.t.lXhX5X6X6X6X6X5XyXoX( _ / @.yX4X6X6X6X6X5XiXhX7X5X5X<X,X,X,X,X,X,X,X,X,X4X6X6XhX7XiXJXDXDXDXDXDXDXDXDXDXDXDXDXDXCXiXJXDXDXDXDXDXDXDXDXDXDXDXDXPXf.Y.PXDXDXDXDXDXDXDXDXDXDXDXDXDX7XDXDXDXDXDXDXDXDXDXDXDXAXGX}.U d.PXAXDXDXDXDXDXDXDXDXDXDXDXJXhX@X5XDX",
"p i j.W.S.d H.s Z A.i i Z Z S.z.d k.d i S.d S.p p 0 v x.W.A.A.N.z.N...y.f.s.7.y v.v.Z a N.E.A A A.&Xz.p A.%XW.W.W.W.W.%Xv.n.%X%XN.A.%XZ.D.f.z 8.v q I.I.I.g.3.B I.I.I.I.C q 9.N.z.x.A k.N.N.x.k.S.N.N.E.E.Z i Z s a Z Z s a %XhXyXhXiXiXiXiXiXiXiXiXiXhX7X*X7X*X3XOX3XO.t.lXhX5X6X6X6X6X5XyXoX( _ / @.yX4X6X6X6X6X5XiXhX7X5X5X2X2X2X2X2X2X2X2X2X2X4X6X6XhX7X7XhXiXiXiXiXiXiXiXiXiXiXiXiXhX7X;XhXiXiXiXiXiXiXiXiXiXiXiX7XVXs.f.BX7XiXiXiXiXiXiXiXiXiXiXiXhX;XiXiXiXiXiXiXiXiXiXiXiXiXkX[.L q.BX7XiXiXiXiXiXiXiXiXiXiXiXhX-XT.iXhX",
"s j.G.^.A.d i f Z z.i i s Z F.W.A.^.s i S.s Z w q x.wX0X%XW.W.A.z.D...u.U.d.n.n.n.N.Z Z W.wXW.z.9XwXN.a W.0X9X9X9X9X9XwXn.m.wX9X9X9X9X9X%XqXq.z B 0 x.#XT.g.g.$XY.Y.@XC 0 9.N.N.N.z.N.N.N.N.S.N.N.A.E.9XwXZ i j.z.s j.a Z Z ^.VXaXBXBXBXBXBXBXBXBXBXBXVXhX;XfXfX3X3X7XO.t.lXhX5X6X6X6X6X5XyXoX( _ / @.yX4X6X6X6X6X5XiXhX7X5X5X<X,X,X,X,X,X,X,X,X,X4X6X6XhX7X7XVXBXBXBXBXBXBXBXBXBXBXBXBXBXhX6XVXBXBXBXBXBXBXBXBXBXBXBXNXDXd.B.DXNXBXBXBXBXBXBXBXBXBXBXBXVX5XNXBXBXBXBXBXBXBXBXBXBXBXIX}.L s.AXhXBXBXBXBXBXBXBXBXBXBXBX$XT.NXVXBX",
"s qX^.^.qXd i d Z j.p i i j.qX^.N.^.F.Z Z q 0 p /.yXwXwXwX9X^.N.z.D...g.#XB.U.n.W.wXj.Z 9XuX^.z.wXuXF.s wXeXeXeXeXeXwXuXm.Z.uXwXeXeXeXeXeXwXD.8.$.C v T.;XL.g.-X@X;Xx.0 V W.D.N./.E./.D.D.9XN.D.D.^.W.eXtXj.i G.tX9XD.i j.j.j.D.z.DXVXDXDXDXDXDXDXDXDXDXVX7XZXmXbXvXnX&.t.lXhX5X6X6X6X6X5XyXoX( _ / @.yX4X6X6X6X6X5XiXhX7X5X5X4X2X2X2X2X2X2X2X2X2X4X6X6XhX7XiXDXDXDXDXDXDXDXDXDXDXDXDXDXDXCX7XDXDXDXDXDXDXDXDXDXDXDXDXAXPXf.Y.LXAXDXDXDXDXDXDXDXDXDXDXDXDX7XAXDXDXDXDXDXDXDXDXDXDXAXGX}.U d.LXCXDXDXDXDXDXDXDXDXDXDX;X:XhXBXDXDX",
"Z qX^.^.qXZ p F.Z s Z i i z.qXF.N.qXF.C 0 q D.5.%XeXwXwX0X9XD.z.z.G...u.C.B.Y.n.&XaXz.j.^.tXW.S.eXwX9XF.wXwXwXwXwXwXwXtXm.Z.tXwXwXwXwXwXwXwXS.D. .n w S 4Xg.g.$X@XR.w V f.D.N.D.wX%X/./.D.9XN.D.D.^.W.wXaXj.s ^.eXeXwXp H.D.s j.Z jXBXCXAXAXAXAXAXAXAXDXVX7XZXnXbXvXbXo.t.lXhX5X6X6X6X6X5XyXoX( _ / @.yX4X6X6X6X6X5XiXhX7X5X5X<X,X,X,X,X,X,X,X,X,X4X6X6XhX7X7XDXCXAXAXAXAXAXAXAXAXAXAXAXDXVX7XDXCXAXAXAXAXAXAXAXAXAXAXCXLXf.U.LXCXAXAXAXAXAXAXAXAXAXAXCXDX7XCXAXAXAXAXAXAXAXAXAXAXCXGX}.L d.KXCXAXAXAXAXAXAXCXAXDX;X-XDXhXNXDXCX",
"A.qX^.^.qXZ a ^.d a j.i i G.qX^.A.H.q q p Z pX3.%XeXwXwX0X9XN.z.S.G...u.b.B.Y.m.&XwX/.D.9XtXW.A.tXwXeXeXwXwXwXwXwXwXwXtXm.Z.tXwXwXwXwXwXwXwXN.A.Z.$.c q Q.L.g.$X@XC q i.A.N./.D.eXW.wXwX/.wXN.F./.9XW.wXaXj.s ^.wXwXwXs H./.Z j.i /.9XjXDXAXAXAXAXAXAXDXVX7XZXnXbXvXbXo.t.lXhX5X6X6X6X6X5XyXoX( _ / @.yX4X6X6X6X6X5XiXhX7X5X5X4X2X2X2X2X2X2X2X2X2X4X6X6XhX7X7XDXCXAXAXAXAXAXAXAXAXAXAXAXDXVX7XDXAXAXAXAXAXAXAXAXAXAXAXCXLXf.U.LXCXAXAXAXAXAXAXAXAXAXAXAXDX7XCXAXAXAXAXAXAXAXAXAXAXCXGX}.U d.KXCXAXAXAXAXAXAXAXDX;X;XDXDXhXNXDXAX",
"A.qX^.^.qXj.a qXZ s z.i i D.0XD.C 0 C (.Z d uX3.%XeXwXwX0X9XN.z.N.G...u.b.B.@XZ.&XwX/.D.wXtXW.A.tXwXwXwXwXwXwXwXwXwXwXtXm.Z.tXwXwXwXwXwXwXwXN.A.dXu.z 0 S L.s.4Xx.0 M W.z.W./.D.eXW.wXwXwXeXN.F.eXwXE.wXyXj.Z eXwXwXeXs z.wXZ Z i j.s qXJXAXAXAXAXAXAXDXVX7XZXnXbXvXbXo.t.lXhX5X6X6X6X6X5XyXoX( _ / @.yX4X6X6X6X6X5XiXhX7X5X5X<X,X,X,X,X,X,X,X,X,X4X6X6XhX7X7XDXCXAXAXAXAXAXAXAXAXAXAXAXDXVX7XDXAXAXAXAXAXAXAXAXAXAXAXCXLXf.U.LXCXAXAXAXAXAXAXAXAXAXAXAXDX7XCXAXAXAXAXAXAXAXAXAXAXCXGX}.U d.KXCXAXAXAXAXAXAXDX;X;XDXAXDXhXNXDXAX",
"A.qX^.^.qXG.Z qXG.H.G.i d F.j.q q x.eXyXA Z pX3.%XeXwXwXwX^.N.N.N.D...u.b.C.$X&X&XwX/.F.wXtXW.A.tXwXwXwXwXwXwXwXwXwXwXtXm.Z.tXwXwXwXwXwXwXeXN.A.yX/. .b w q.L.N.w c K./.z./.^.D.eXW.wXwXwXeXN./.eXwXE.wXyXz.j.yXwXwXaXz.N.wXZ s i Z i F.JXCXAXAXAXAXAXDXVX7XZXnXbXvXbXo.t.lXhX5X6X6X6X6X5XyXoX( _ / @.yX4X6X6X6X6X5XiXhX7X5X5X4X2X2X2X2X2X2X2X2X2X4X6X6XhX7X7XDXCXAXAXAXAXAXAXAXAXAXAXAXDXVX7XDXAXAXAXAXAXAXAXAXAXAXAXCXLXf.U.LXCXAXAXAXAXAXAXAXAXAXAXAXDX7XCXAXAXAXAXAXAXAXAXAXAXCXGX}.U d.KXCXAXAXAXAXAXDX:X;XDXAXCXDXhXNXDXAX",
"A.qX^.^.^.qXA.^.qXqXH.d z.C 0 C A.yXwXwXk.Z pX3.%XeXwXwXwXA.F.N.N.^...u.b.C.$X&X&XwX/./.wXtXW.A.tXwXwXwXwXwXwXwXwXwXwXtXm.Z.tXwXwXwXwXwXwXeXA.W.aXqXb.$.c 9 x C 9 8.wXD.z.^.wX9XeXW.wXwXwXwXE.0XwXwXE.wXuXl.v.uXwXwXwXeXeX0XZ s j.s i z.CXVXDXAXAXAXAXDXVX7XZXnXbXvXbXo.t.lXhX5X6X6X6X6X5XyXoX( _ / @.yX4X6X6X6X6X5XiXhX7X5X5X<X,X,X,X,X,X,X,X,X,X4X6X6XhX7X7XDXCXAXAXAXAXAXAXAXAXAXAXAXDXVX7XDXAXAXAXAXAXAXAXAXAXAXAXCXLXf.U.LXCXAXAXAXAXAXAXAXAXAXAXAXDX7XCXAXAXAXAXAXAXAXAXAXAXCXGX}.U d.KXCXAXAXAXAXDX:X-XDXDXAXCXDXhXNXDXAX",
"A.qX^.^.^.^.N.^.^.qXF.A q q z.wX%XwXwXwXk.Z pX3.N.wXwXwXwXN.^.N.N.^...u.C.#X#X&X&X:X/./.wXeXW.A.tXwXwXwXwXwXwXwXwXwXwXtXm.Z.tXwXwXwXwXwXwXeX%X%XeX0XD.u.< X X $ z m././.N.^.eXwXwXE.wXwXwXwXE.wXwXwXE.wXuXe.V.uXwXwXwXwXwXwXZ a N.a i j.jXBXAXCXCXCXCXDXVX4XZXnXbX3XbXo.t.lXhX5X6X6X6X6X5XyXoX( _ / @.yX4X6X6X6X6X5XiXhX7X5X5X2X2X2X2X2X2X2X2X2X2X4X6X6XhX7X7XDXCXAXAXAXAXAXAXAXAXAXAXAXDXVX7XDXAXAXAXAXAXAXAXAXAXAXAXCXLXf.U.LXCXAXAXAXAXAXAXAXAXAXAXAXDX7XCXAXAXAXAXAXAXAXAXAXAXCXGX}.U d.KXCXAXAXAXDX:X$XAXDXAXAXCXDXhXNXDXAX",
"A.qX^.^.^.qXN.^.qXD.C 0 C /.pXwXW.tXeXeXz.z.sX7.S.wXqX9X^.D.^.D.D.^...oX#X#X$X&X:XwX0X0XeXtX^.A.uXeXeXeXeXeXeXeXeXeXeXuXN.Z.uXeXeXeXeXeXeXtX9X%XtXtX/.f.< j W = | /.D.qXW.0XeXeXeXW.wXeXeXeXW.eXeXeXW.eXsXe.Z.uXeXeXeXeXeXrXZ p ^.Z i j.j.D.KXAXDXDXAXDXVX7XZXmXbXvXnX&.t.lXhX5X6X6X6X6X5XyXoX( _ / @.yX4X6X6X6X6X5XiXhX7X5X5X<X,X,X,X,X,X,X,X,X,X4X6X6XhX7X7XDXCXAXAXAXAXAXAXAXAXAXAXAXDXVX7XDXAXAXAXAXAXAXAXAXAXAXAXCXLXf.U.LXCXAXAXAXAXAXAXAXAXAXAXAXDX7XCXAXAXAXAXAXAXAXAXAXAXCXGX}.U d.KXCXAXAXDX:X$XAXDXAXAXAXCXDXhXNXDXAX",
"a.d.d.d.d.d.a.d.S w q B f.K.K.f.g.K.K.f.g.K.K.2.e.s.w.w.e.e.d.w.w.d.` @.g.g.g.g.g.K.K.K.K.K.d.i.K.K.K.K.K.K.K.K.K.K.K.K.i.i.K.K.K.K.K.K.K.K.g.g.K.K.s.u.< : j X 8.d.e.f.g.f.K.K.K.g.K.K.K.K.g.K.K.K.g.K.K.1.p.K.K.K.K.K.{.[.J d K.l.k.d i k.+XK.OX{.+XOXOXL.OX'.OX'.oX+.y.lXhX5X6X6X6X6X5XyXoX( _ / @.yX4X6X6X6X6X5XiXhX7X5X5X2X2X2X2X2X2X2X2X2X2X4X6X6XhX7X7XDXCXAXAXAXAXAXAXAXAXAXAXAXDXVX7XDXAXAXAXAXAXAXAXAXAXAXAXCXLXf.U.LXCXAXAXAXAXAXAXAXAXAXAXAXDX7XCXAXAXAXAXAXAXAXAXAXAXCXGX}.U d.KXCXAXDX5X-XAXDXAXAXAXAXCXDXhXNXDXAX",
"N.^.^.^.^.qXz.C 0 S 9X&X%XwXwX%XE.wXwX%XE.wXaX3.z.N.N.N.N.N.%XN.N.^...y.#X#X#X$X&X;XwXwXwXwXW.A.eXwXwXwXwXwXwXwXwXwXwXaXm.m.eXwXwXwXwXwXwXwX%XW.wXwX/.R.u.< < x I.^.N.wXE.%XwXwXwXE.0XwXwXwXE.wXwXwXE.wXuXe.V.tXwXwXwXwXwX[.J J [.8X{.J f [. XJ 8X[.|.BX|.{.UX{.{.T 7XO.t.lXhX5X6X6X6X6X5XyXoX( _ / @.yX4X6X6X6X6X5XiXhX7X5X5X<X,X,X,X,X,X,X,X,X,X4X6X6XhX7X7XDXCXAXAXAXAXAXAXAXAXAXAXAXDXVX7XDXAXAXAXAXAXAXAXAXAXAXAXCXLXf.U.LXCXAXAXAXAXAXAXAXAXAXAXAXDX7XCXAXAXAXAXAXAXAXAXAXAXCXGX}.U d.KXCXDX5X$XAXDXAXAXAXAXAXCXDXhXNXDXCX",
"A.qX^.qX^.S 0 v D.aXtXW.9XeXeXwXW.eXeX0XW.eXuX7.N.D.D.D.N.D.9XN.A.^..._.#X#X$X&X;XwXwXwXwXtXW.A.tXwXwXwXwXwXwXwXwXwXwXtXm.Z.tXwXwXwXwXwXwXeX%X%XeXeX^.F.Q.q.p.Q./.qXD.eXW.0XeXwXeXW.wXeXwXeXW.wXeXwXW.wXsXe.V.uXwXwXwXwXrX.Xk.J .X[.[.k.J J [.J dX X X|.8X{. X[.8X{.UX&.t.lXhX5X6X6X6X6X5XyXoX( _ / @.yX4X6X6X6X6X5XiXhX7X5X5X2X2X2X2X2X2X2X2X2X2X4X6X6XhX7X7XDXCXAXAXAXAXAXAXAXAXAXAXAXDXVX7XDXAXAXAXAXAXAXAXAXAXAXAXCXLXf.U.LXCXAXAXAXAXAXAXAXAXAXAXAXDX7XCXAXAXAXAXAXAXAXAXAXAXCXGX}.U d.KXAX5X@XCXDXAXAXAXCXCXCXCXDX7XBXFXFX",
"A.qXqXG.C 0 S 0XyXwXeX%X%XeXwXwXW.eXwX0XW.wXuX7.N.wXF.N.D.F.9X^.^.^..._.#X#X@X&X&XwXwXwXwXtXW.A.tXwXwXwXwXwXwXwXwXwXwXtXm.Z.tXwXwXwXwXwXwXeX%X%XeXwX^.N.D.l.b./.^.9XD.eXW.0XeXwXeXW.wXwXwXwXE.wXwXwXE.wXuXe.V.uXwXwXwXwXrX[.k.J 8X[.{.z.J k.F.J  XcX X X|.[. X[.{.[.UX&.t.lXhX5X6X6X6X6X5XyXoX( _ / @.yX4X6X6X6X6X5XiXhX7X5X5X<X,X,X,X,X,X,X,X,X,X4X6X6XhX7X7XDXCXAXAXAXAXAXAXAXAXAXAXAXDXVX7XDXAXAXAXAXAXAXAXAXAXAXAXCXLXf.U.LXCXAXAXAXAXAXAXAXAXAXAXAXDX7XCXAXAXAXAXAXAXAXAXAXAXCXGX}.L d.LX:X@XAXDXCXCXCXCXAXDXFXFXKXlXNXmX+X",
"A.^.S 0 v D.%XeXwXwXeX%X%XeXeXwXW.eXeX0XW.eXuX7.N.uX^.F.wX9XqXqX^./..._.#X#X$X&X;XwXwXwXwXtXW.A.tXwXwXwXwXwXwXwXwXwXwXtXm.Z.tXwXwXwXwXwXwXeX%X%XeXeX9XN.D.l.l./.^.wX9XeXW.0XeXwXeXW.wXeXwXwXW.wXwXwXW.wXpXe.V.uXwXwXwXwXwXdXz.d aXqX0XwXA.J H.f j.CXVXAXcX8XZXUXUX1XnX&.t.lXhX5X6X6X6X6X5XyXoX( _ / @.yX4X6X6X6X6X5XiXhX7X5X5X2X2X2X2X2X2X2X2X2X2X4X6X6XhX7X7XDXAXDXDXDXDXDXDXDXDXDXDXDXDXCX7XDXAXDXDXDXDXDXDXDXDXDXDXCXLXf.Y.LXCXDXDXDXDXDXDXDXDXDXDXAXDX7XCXDXDXDXDXDXDXDXDXDXDXAXGX}.L s.bXoXvXZXAXFXFXFXFXDXbX+XXX;.{ { ] ~ ",
"z.C 0 S 9XaXE.0XwXwXwXW.%XwXwX0XE.wXwX9XW.0XtX7.N.wX0X9X9X9XqXW.W.F...g.#X#X#X$X&X&XwXwXwXwXW.A.eX0XwXwXwXwXwXwXwXwX0XtXm.V.eX0XwXwXwXwXwXwX%XW.wXwX9XN.D.w.l.D.9XwXwXwXE.9XwXwXwXE.0XwXwXwXE.wXwX0XE.0XuXe.m.tX0XwXwXwX0XwX9X/.wXwXwXwX0XZ s p Z uX0XCXVX4XZXnXgXvXbXo.t.lXhX5X6X6X6X6X5XyXoX( _ / @.yX4X6X6X6X6X5XiXhX7X5X5X<X,X,X,X,X,X,X,X,X,X4X6X6XhX7X7XDXCXCXCXCXCXCXCXCXCXCXCXCXCXVX6XAXCXCXCXCXCXCXCXCXCXCXCXVXKXf.U.KXVXCXCXCXCXCXCXCXCXCXCXCXCX6XVXCXCXCXCXCXCXCXCXCXCXVXGX}.T u.| , , oXmXgXXX;.{ { ] ~ ~ [ { &.XXOX",
"0 v B 5.3.3.3.3.3.3.3.3.3.3.3.3.3.3.3.3.3.B 7.u B 3.3.3.3.3.7.7.7.7.} | 1.1.1.,.3.3.3.3.3.3.3.B 3.3.3.3.3.3.3.3.3.3.3.3.M M 3.3.3.3.3.3.3.3.3.3.3.3.3.B B ,.N B 3.3.3.3.3.3.3.3.3.3.3.3.3.3.3.3.3.3.3.3.9.b M 6.3.3.3.3.3.3.3.9.3.3.3.3.3.A p p a B a q.0.1.8.8.8.8.8.` y.lXhX5X6X6X6X6X5XyXoX( _ / @.yX4X6X6X6X6X5XiXhX7X5X5X2X2X2X2X2X2X2X2X2X2X4X6X6XhXiX:X0.0.0.0.0.0.0.0.0.0.0.0.0.0.4.1.0.0.0.0.0.0.0.0.0.0.0.0.0.0.n 2.0.0.0.0.0.0.0.0.0.0.0.0.0.0.1.0.0.0.0.0.0.0.0.0.0.0.5.q.L T J.= ~ ~ < [ ~ ~ [ { +.+.| | <.4.e.e.e.",
"J Y Y Y Y Y Y Y Y Y Y Y Y Y Y Y Y Y Y Y Y Y Y I Y Y Y Y Y Y Y Y Y Y P L Y Y Y Y Y Y Y Y Y Y Y Y Y Y Y Y Y Y Y Y Y Y Y Y Y Y Y Y Y Y Y Y Y Y Y Y Y Y Y Y Y Y I Y Y Y Y Y Y Y Y Y Y Y Y Y Y Y Y Y Y Y Y Y Y I Y Y Y Y Y Y Y Y Y Y Y Y Y Y Y I I I I Y I Y Y Y Y Y Y Y Y P y.lXhX5X6X6X6X6X5XyXoX( _ / @.yX4X6X6X6X6X5XiXhX7X5X5X<X,X,X,X,X,X,X,X,X,X4X6X6XhX7XiXJXDXDXDXDXDXDXDXDXDXDXDXDXDXCXiXDXDXDXDXDXDXDXDXDXDXDXDXAXPXf.Y.PXAXDXDXDXDXDXDXDXDXDXDXDXDXiXAXDXDXDXDXDXDXDXDXDXDXAXGX}.U $.= ] ] = &.OXvXmXDXFXFXFXFXJXhXNXDXAX",
"T T T T T T R T T T T R T T T T R T R T R R R J T T T T T T T R R R P L U U U T T T T T T T R R T T T T T T T T T T T T U U T T T T T T T T T R T T T T T U L R T T T T R T T T T R T T T T R T T T R T T L U T T T T T T T T T T T T T T T J J J R J T T T T T T T T P y.lXhX5X6X6X6X6X5XyXoX( _ / @.yX4X6X6X6X6X5XiXhX7X5X5X2X2X2X2X2X2X2X2X2X2X4X6X6XhX7X7XDXCXCXCXCXCXCXCXCXCXCXCXCXAXVX7XDXCXCXCXCXCXCXCXCXCXCXCXCXLXf.U.KXCXCXCXCXCXCXCXCXCXCXCXCXDX6XCXAXCXCXCXCXCXCXCXAXCXAXkXh._ ] < < <  .MXFXFXDXAXCXCXCXCXDXiXNXDXCX",
"!.rXrXrXrXrXQ.rXrXrXxX!.0XrX(.rX!.(.(.rXN.(.rXB 0XxXrXrXrXwX9X/././.` J.=X=X*X>X>XrXrXrXrXxX/.Q.xXrXrXrXrXrXrXrXrXrXrXxX~.~.xXrXrXrXrXrXrXxX9X!.xXrXrXrXuXY.w.(.rXrXrXxX!.rXrXrXrX!.rXrXrXrXQ.rXrXrX!.rXlXe.~.xXrXrXrXrXrXrXrXrXrXrXrXrXxXrXz.j.s z.A AXIXfXIXMXMXvXMXO.t.lXhX5X6X6X6X6X5XyXoX( _ / @.yX4X6X6X6X6X5XiXhX7X5X5X<X,X<X<X<X<X<X<X<X,X4X6X6XhX7X7XDXCXAXAXAXAXAXAXAXAXAXAXAXDXVX7XDXAXAXAXAXAXAXAXAXAXAXAXCXLXf.U.LXCXAXAXAXAXAXAXAXAXAXAXAXDX7XCXAXAXAXAXAXAXAXAXCXFX7X#.] [ O.+Xu.oXvXVXCXCXCXCXAXAXAXCXDXhXNXDXAX",
"W.eXwXwXwXwXE.wXwXwXeXW.%X^.N.9XA.D.D.9XS.D.tX3.%XeXwXwX0X9XqX^.^.F..._.#X#X#X&X&X&XwXwXwXeXW.A.tXwXwXwXwXwXwXwXwXwXwXtXm.Z.tXwXwXwXwXwXwXeX%X%XeXwXwXwXeXU.w./.wXwXwXeXW.0XwXwXwXE.0XwXwXwXE.wXwXwXE.wXuXe.V.tXwXwXwXwXwXwXwXwXwX0XwX0X0XwXaXaXj.j.d VXVX4XZXnXUX3XbX&.t.lXhX5X6X6X6X6X5XyXoX( _ / @.yX4X6X6X6X6X5XiXhX7X5X5X2X<X2X2X2X2X2X2X2X<X4X6X6XhX7X7XDXCXAXAXAXAXAXAXAXAXAXAXAXDXVX7XDXAXAXAXAXAXAXAXAXAXAXAXCXLXf.U.LXCXAXAXAXAXAXAXAXAXAXAXAXDX7XCXAXAXAXAXAXAXCXCXFX3X{ ] X.h.d.LXIXIXCXDXAXAXAXAXAXAXAXCXDXhXNXDXAX",
"W.eXwXwXwXwXE.wXwXwXeXW.%X^.D.A.N./.F.9XS.D.uX3.%XeXwXwX0X9XqX^.^./..._.#X#X@X&X&XwXwXwXwXtXW.A.tXwXwXwXwXwXwXwXwXwXwXtXm.Z.tXwXwXwXwXwXwXeX%X%XeXwXwXwXeXU.w./.eXwXwXeXW.0XeXwXeXW.wXwXwXwXE.wXwXwXE.wXuXe.V.uXwXwXwXwXwXwXwXwXqX[.{.[.{.wXwX[.J k.J cXIX7X X8X[.[.UX&.t.lXhX5X6X6X6X6X5XyXoX( _ / @.yX4X6X6X6X6X5XiXhX7X5X5X<X<X<X<X<X<X<X<X<X<X4X6X6XhX7X7XDXCXAXAXAXAXAXAXAXAXAXAXAXDXVX7XDXAXAXAXAXAXAXAXAXAXAXAXCXLXf.U.LXCXAXAXAXAXAXAXAXAXAXAXAXDX7XCXAXAXAXAXAXCXCXFXOX~ [ +X}.U d.KXCXAXAXAXAXAXAXAXAXAXAXCXDXhXNXDXAX",
"W.eXwXwXwXwXE.wXwXwXeXW.%X/.D.N.z.^.F.A.S.F.uX3.%XeXwXwX0X9XqX^.^./..._.#X#X@X&X&XwXwXwXwXtXW.A.tXwXwXwXwXwXwXwXwXwXwXtXm.Z.tXwXwXwXwXwXwXeX%X%XeXwXwXwXtXU.B.eXwXwXwXeXW.0XeXwXeXW.wXwXwXwXE.wXwXwXE.wXuXe.V.uXwXwXwXwXwXwXwXrXeX0X[.[.{.wXwXrXU j.f [.VX[.[. X[.[.UX&.t.lXhX5X6X6X6X6X5XyXoX( _ / @.yX4X6X6X6X6X5XiXhX7X5X5X2X<X<X<X<X<X<X<X<X<X4X6X6XhX7X7XDXCXAXAXAXAXAXAXAXAXAXAXAXDXVX7XDXAXAXAXAXAXAXAXAXAXAXAXCXLXf.U.LXCXAXAXAXAXAXAXAXAXAXAXAXDX7XCXAXAXAXAXCXAXFX;.~ &.nXHX}.L d.KXCXAXAXAXAXAXAXAXAXAXAXCXDXhXNXDXAX",
"W.eXwXwXwXwXE.wXwXwXeXW.%X/.D.F.z.^.F.N.z./.uX3.%XeXwXwX0X9XqX^.^./..._.#X#X@X&X&XwXwXwXwXtXW.A.tXwXwXwXwXwXwXwXwXwXwXtXm.Z.tXwXwXwXwXwXwXeX%X%XeXwXwXwXtXU.B.tXwXwXwXeXW.0XeXwXeXW.wXwXwXwXE.wXwXwXE.wXuXe.V.uXwXwXwXwXwXwXwX{.0X{.qXeX[.{.rX8XJ Z J z.cX{. X{.{.{.8X&.t.lXhX5X6X6X6X6X5XyXoX( _ / @.yX4X6X6X6X6X5XiXhX7X5X5X<X<X<X<X<X<X<X<X<X<X4X6X6XhX7X7XDXCXAXAXAXAXAXAXAXAXAXAXAXDXVX7XDXAXAXAXAXAXAXAXAXAXAXAXCXLXf.U.LXCXAXAXAXAXAXAXAXAXAXAXAXDX7XCXAXAXAXCXDXDX;.~ :.DXAXGX}.U d.KXCXAXAXAXAXAXAXAXAXAXAXCXDXhXNXDXAX",
"W.eXwXeX^./.W.wXwXwXeXW.%X/.^.wXz.9XF.N.z./.uX3.%XeXwXwX0X9XqX^.^./..._.#X#X@X&X&XwXwXwXwXtXW.A.tXwXwXwXwXwXwXwXwXwXwXtXm.Z.tXwXwXwXwXwXwXeX%X%XeXwXwXwXtXU.B.tXwXwXwXeXW.0XeXwXeXW.wXwXwXwXE.wXwXwXE.wXuXe.V.uXwXwXwXwXwXwXwX0X{.T {.{.[.{.qX[.J J J H.VX[.[.8X[.[.UX&.t.lXhX5X6X6X6X6X5XyXoX( _ / @.yX4X6X6X6X6X5XiXhX7X5X5X2X<X<X<X<X<X<X<X<X<X4X6X6XhX7X7XDXCXAXAXAXAXAXAXAXAXAXAXAXDXVX7XDXAXAXAXAXAXAXAXAXAXAXAXCXLXf.U.LXCXAXAXAXAXAXAXAXAXAXAXAXDX7XCXAXAXCXDXDX&.~ XXFXAXCXGX}.U d.KXCXAXAXAXAXAXAXAXAXAXAXCXDXhXNXDXAX",
"W.eXwXeX/./.W.wXwXwXtX%X%X/.9XwXA.wX/.A.z.^.uX3.%XeXwXwX0X9XqX^.^./..._.#X#X@X&X&XwXwXwXwXtXW.A.tXwXwXwXwXwXwXwXwXwXwXtXm.Z.tXwXwXwXwXwXwXeX%X%XeXwXwXwXtXU.B.tXwXwXwXeXW.0XeXwXeXW.wXwXwXwXE.wXwXwXE.wXuXe.V.uXwXwXwXwXwXwXwXeX0XqXqXqX0XwX0XdXk.a f H.IX2XnXnXUX<XnXo.t.lXhX5X6X6X6X6X5XyXoX( _ / @.yX4X6X6X6X6X5XiXhX7X5X5X2X<X<X<X<X<X<X<X<X<X4X6X6XhX7X7XDXCXAXAXAXAXAXAXAXAXAXAXAXDXVX7XDXAXAXAXAXAXAXAXAXAXAXAXCXLXf.U.LXCXAXAXAXAXAXAXAXAXAXAXAXDX7XCXDXCXDXDX&.~ XXFXCXCXCXGX}.U d.KXCXAXAXAXAXAXAXAXAXAXAXCXDXhXNXDXAX",
"W.eXwXeXF./.W.wXwXwXwXA.W./.9XwXW.eXeX^.S.wXuX3.%XeXwXwX0X9XqX^.^./..._.#X#X@X&X&XwXwXwXwXtXW.A.tXwXwXwXwXwXwXwXwXwXwXtXm.Z.tXwXwXwXwXwXwXeX%X%XeXwXwXwXtXU.B.tXwXwXwXeXW.0XeXwXeXW.wXwXwXwXE.wXwXwXE.wXuXe.V.uXwXwXwXwXwXwXwXwXwXeXeXeXwXwXwXuXz.p i j.CX7XZXnXbXvXbXo.t.lXhX5X6X6X6X6X5XyXoX( _ / @.yX4X6X6X6X6X5XiXhX7X5X5X<X<X<X<X<X<X<X<X<X<X4X6X6XhX7X7XDXCXAXAXAXAXAXAXAXAXAXAXAXDXVX7XDXAXAXAXAXAXAXAXAXAXAXAXCXLXf.U.LXCXAXAXAXAXAXAXAXAXAXAXAXDX7XCXCXAXDX&.~ XXFXCXCXAXCXGX}.U d.KXCXAXAXAXAXAXAXAXAXAXAXCXDXhXNXDXAX",
"W.eXwXwXD.F.W.wXeX^.D.z.N./.wXwXW.eXeX^.S.wXuX3.%XeXwXwX0X9XqX^.^./..._.#X#X@X&X&XwXwXwXwXtXW.A.tXwXwXwXwXwXwXwXwXwXwXtXm.Z.tXwXwXwXwXwXwXeX%X%XeXwXwXwXtXU.B.tXwXwXwXeXW.0XeXwXeXW.wXwXwXwXE.wXwXwXE.wXuXe.V.uXwXwXwXwXwXwXwXwXwXwXwXwXwXwXwXaXz.i i j.CX4XZXnXbXvXbXo.t.lXhX5X6X6X6X6X5XyXoX( _ / @.yX4X6X6X6X6X5XiXhX7X5X5X2X<X<X<X<X<X<X<X<X<X4X6X6XhX7X7XDXCXAXAXAXAXAXAXAXAXAXAXAXDXVX7XDXAXAXAXAXAXAXAXAXAXAXAXCXLXf.U.LXCXAXAXAXAXAXAXAXAXAXAXAXDX7XCXCXFX&.~ XXFXCXCXAXAXCXGX}.U d.KXCXAXAXAXAXAXAXAXAXAXAXCXDXhXNXDXAX",
"W.eXwXwXD.D.E.wXeX/.D.S.S.D.wXwXW.eXeX9XN.wXuX3.%XeXwXwX0X9XqX^.^./..._.#X#X@X&X&XwXwXwXwXtXW.A.tXwXwXwXwXwXwXwXwXwXwXtXm.Z.tXwXwXwXwXwXwXeX%X%XeXwXwXwXtXU.B.tXwXwXwXeXW.0XeXwXeXW.wXwXwXwXE.wXwXwXE.wXuXe.V.uXwXwXwXwXwXwXwXwXwXwXwXwXwXwXwXaXN.i i j.CX4XZXnXbXvXbXo.t.lXhX5X6X6X6X6X5XyXoX( _ / @.yX4X6X6X6X6X5XiXhX7X5X5X<X<X<X<X<X<X<X<X<X<X4X6X6XhX7X7XDXCXAXAXAXAXAXAXAXAXAXAXAXDXVX7XDXAXAXAXAXAXAXAXAXAXAXAXCXLXf.U.LXCXAXAXAXAXAXAXAXAXAXAXAXDX7XCXFX;.~ XXFXCXCXAXAXAXCXGX}.U d.KXCXAXAXAXAXAXAXAXAXAXAXCXDXhXNXDXAX",
"N.^.wX/.D.F.W.wXeX/.D.S.N.^.wXwXW.eXwX0XW.wXuX3.%XeXwXwX0X9XqX^.^./..._.#X#X@X&X&XwXwXwXwXtXW.A.tXwXwXwXwXwXwXwXwXwXwXtXm.Z.tXwXwXwXwXwXwXeX%X%XeXwXwXwXtXU.B.tXwXwXwXeXW.0XeXwXeXW.wXwXwXwXE.wXwXwXE.wXuXe.V.uXwXwXwXwXwXwXwXwXwXwXwXwXwXwXwXeX/.H.a j.CX4XZXnXbXvXbXo.t.lXhX5X6X6X6X6X5XyXoX( _ / @.yX4X6X6X6X6X5XiXhX7X5X5X2X<X<X<X<X<X<X<X<X<X4X6X6XhX7X7XDXCXAXAXAXAXAXAXAXAXAXAXAXDXVX7XDXAXAXAXAXAXAXAXAXAXAXAXCXLXf.U.LXCXAXAXAXAXAXAXAXAXAXAXAXDX7XFX;.~ XXFXCXCXAXAXAXAXCXGX}.U d.KXCXAXAXAXAXAXAXAXAXAXAXCXDXhXNXDXAX",
"N.D./.F.^./.N.9XwXF./.S.%XtXwXwXW.eXwX0XW.wXtX3.%XeXwXwX0X9XqX^.^./..._.#X#X@X&X&X:XwXwXwXtXW.A.tXwXwXwXwXwXwXwXwXwXwXtXm.Z.tXwXwXwXwXwXwXeX%X%XeXwXwXwXeXU.B.tXwXwXwXeXW.0XwXwXeXW.wXwXwXwXE.wXwXwXE.wXuXe.V.uXwXwXwXwXwXwXwXwXwXwXwXwXwXwXwXeX^./.s j.CX4XZXnXbXvXbXo.t.lXhX5X6X6X6X6X5XyXoX( _ / @.yX4X6X6X6X6X5XiXhX7X5X5X<X<X<X<X<X<X<X<X<X<X4X6X6XhX7X7XDXCXAXAXAXAXAXAXAXAXAXAXAXDXVX7XDXCXAXAXAXAXAXAXAXAXAXAXCXLXf.U.LXCXAXAXAXAXAXAXAXAXAXAXCXDXpX;.~ XXFXCXCXAXAXAXAXAXCXGX}.L d.KXCXAXAXAXAXAXAXAXAXAXAXCXDXhXNXDXCX",
"N.D.D./.wXF.z.D./././.N.9XeXeXwXW.eXeX0XW.eXuX3.%XtXwXwXwX9XqXqX^.^...oX#X#X$X&X;XwXwXeXwXtXW.A.uXwXeXeXeXeXeXeXeXeXwXuXm.Z.tXwXeXeXeXeXwXeX%X%XtXwXeXwXtXU.B.tXwXeXwXeXW.wXeXwXeXW.wXeXeXeXW.wXeXwXW.wXsXe.V.uXwXeXeXeXeXeXeXeXeXeXeXeXeXeXwXeX^.D.j.j.VX7XZXnXbXvXnX&.t.lXhX5X6X6X6X6X5XyXoX( _ / @.yX4X6X6X6X6X5XiXhX7X5X5X2X2X2X2X2X2X2X2X2X<X4X6X6XhX7XiXDXDXDXDXDXDXDXDXDXDXDXDXDXDXCX7XDXDXDXDXDXDXDXDXDXDXDXDXCXPXf.Y.LXAXDXDXDXDXDXDXDXDXDXDXDXFX:.~ XXFXCXDXDXDXDXDXDXDXAXGX}.U d.LXCXDXDXDXDXDXDXDXDXDXDXDXDXhXBXDXDX",
"z.z.S.A.W.S.x.S.z.S.N.x.Z.W.W.E.Z.W.W.E.Z.E.%X,.V.W.E.E.E.Z.A.A.N.N...u.f.f.C.C.Y.E.E.W.E.W.N.S.W.E.E.E.E.E.E.E.E.E.E.%Xv.n.W.E.E.E.E.E.E.W.Z.Z.W.E.E.E.W.d.d.W.E.E.E.W.Z.E.W.E.W.Z.E.W.E.W.Z.E.W.E.Z.E.%X3.c.%XE.E.E.E.E.E.E.E.E.E.E.E.E.E.E.W.A.N.S.Z 6X*X4X2X=XOX*XO.t.lXhX5X6X6X6X6X5XyXoX( _ / @.yX4X6X6X6X6X5XiXhX7X5X5X<X,X,X,X,X,X,X,X,X,X4X6X6XhX7X6XiX6X7X7X7X7X7X7X7X7X7X7X7X7X6X;X7X6X7X7X7X7X7X7X7X7X7X7X6XhXa.d.hX6X7X7X7X7X7X7X7X7X7X7XpX;.~ ;.jX7X7X7X7X7X7X7X7X7X6XkX[.L q.hX6X7X7X7X7X7X7X7X7X7X7X6X7X;X5X7X6X",
"S.9XwXwXwXD.z.0XD.F.9XS.%XwXwX0XE.wXwX9XW.wXtX3.%XeXwXwX9X9XqX^.W.F...g.#X#X#X&X&X:XwXwXwXeXW.A.eXwXwXwXwXwXwXwXwXwXwXtXm.Z.tXwXwXwXwXwXwXwX%XW.eXwXwXwXeXI.B.eXwXwXwXwXW.9XwXwXwXE.wXwXwXwXE.wXwXwXE.wXuXe.V.tXwXwXwXwXwXwXwXwXwXwXwXwXwXwXwXwXwXaXN.j.VX4XZXnXbX3XbXo.t.lXhX5X6X6X6X6X5XyXoX( _ / @.yX4X6X6X6X6X5XiXhX7X5X5X2X2X2X2X2X2X2X2X2X2X4X6X6XhX7X7XDXCXCXCXCXCXCXCXCXCXCXCXCXCXVX7XDXCXCXCXCXCXCXCXCXCXCXCXVXKXf.U.KXVXCXCXCXCXCXCXCXCXCXFX;.~ ;.FXCXCXCXCXCXCXCXCXCXCXCXGX}.L d.KXVXCXCXCXCXCXCXCXCXCXCXCXDXiXhXAXCX",
"S.wXwXwXwXF.z.wXD./.9XS.%XeXwXwXW.eXeX0XW.eXuX3.%XeXwXwX0X9XqX^.^./..._.#X#X$X&X;XwXwXwXwXtXW.A.tXwXwXwXwXwXwXwXwXwXwXtXm.Z.tXwXwXwXwXwXwXeX%X%XeXwXwXwXtXU.B.tXwXwXwXeXW.0XeXwXeXW.wXwXwXwXE.wXwXwXW.wXpXe.V.uXwXwXwXwXwXwXwXwXwXwXwXwXwXwXwXwXwXtXN.j.VX7XZXnXbXvXnX&.t.lXhX5X6X6X6X6X5XyXoX( _ / @.yX4X6X6X6X6X5XiXhX7X5X5X<X,X,X,X,X,X,X,X,X,X4X6X6XhX7X7XDXAXAXAXAXAXAXAXAXAXAXAXAXDXVX7XDXAXAXAXAXAXAXAXAXAXAXAXCXLXf.Y.LXCXAXAXAXAXAXAXCXCXFX;.~ XXpXCXDXAXAXAXAXAXAXAXAXAXAXGX}.U d.KXCXAXAXAXAXAXAXAXAXAXAXAXDXhXBXDXAX",
"S.eXwXwXeX/.S.eX0XwXwXW.%XeXwXwXW.eXwX0XW.wXuX3.%XeXwXwX0X9XqX^.^./..._.#X#X@X&X&XwXwXwXwXtXW.A.tXwXwXwXwXwXwXwXwXwXwXtXm.Z.tXwXwXwXwXwXwXeX%X%XeXwXwXwXtXU.B.tXwXwXwXeXW.0XeXwXeXW.wXwXwXwXE.wXwXwXE.wXuXe.V.uXwXwXwXwXwXwXwXwXwXwXwXwXwXwXwXwXwXaXN.j.VX7XZXnXbXvXbXo.t.lXhX5X6X6X6X6X5XyXoX( _ / @.yX4X6X6X6X6X5XiXhX7X5X5X2X2X2X2X2X2X2X2X2X2X4X6X6XhX7X7XDXCXAXAXAXAXAXAXAXAXAXAXAXDXVX7XDXCXAXAXAXAXAXAXAXAXAXAXCXLXf.U.LXCXAXAXAXAXAXCXCXFX;.~ ;.FX7XCXAXAXAXAXAXAXAXAXAXAXCXGX}.U d.KXCXAXAXAXAXAXAXAXAXAXAXCXDXhXNXDXAX",
"N.eXwXwXeX/.N.eXwXwXeX%X%XeXwXwXW.eXwX0XW.wXuX3.%XeXwXwX0X9XqX^.^./..._.#X#X@X&X&XwXwXwXwXtXW.A.tXwXwXwXwXwXwXwXwXwXwXtXm.Z.tXwXwXwXwXwXwXeX%X%XeXwXwXwXtXU.B.tXwXwXwXeXW.0XeXwXeXW.wXwXwXwXE.wXwXwXE.wXuXe.V.uXwXwXwXwXwXwXwXwXwXwXwXwXwXwXwXwXwXaXF.Z BX7XZXnXbXvXbXo.t.lXhX5X6X6X6X6X5XyXoX( _ / @.yX4X6X6X6X6X5XiXhX7X5X5X<X,X,X,X,X,X,X,X,X,X4X6X6XhX7X7XDXCXAXAXAXAXAXAXAXAXAXAXAXDXVX7XDXAXAXAXAXAXAXAXAXAXAXAXCXLXf.U.LXCXAXAXAXAXCXCXFX;.~ ;.FXDX7XCXAXAXAXAXAXAXAXAXAXAXCXGX}.U d.KXCXAXAXAXAXAXAXAXAXAXAXCXDXhXNXDXAX",
"N.eXwXwXwX9XZ.wXwXwXeXW.%XeXwXwXW.eXwX0XW.wXuX3.%XeXwXwX0X9XqX^.^./..._.#X#X@X&X&XwXwXwXwXtXW.A.tXwXwXwXwXwXwXwXwXwXwXtXm.Z.tXwXwXwXwXwXwXeX%X%XeXwXwXwXtXU.B.tXwXwXwXeXW.0XeXwXeXW.wXwXwXwXE.wXwXwXE.wXuXe.V.uXwXwXwXwXwXwXwXwXwXwXwXwXwXwXwXwXwXaXF.Z BX7XZXnXbXvXbXo.t.lXhX5X6X6X6X6X5XyXoX( _ / @.yX4X6X6X6X6X5XiXhX7X5X5X2X2X2X2X2X2X2X2X2X2X4X6X6XhX7X7XDXCXAXAXAXAXAXAXAXAXAXAXAXDXVX7XDXAXAXAXAXAXAXAXAXAXAXAXCXLXf.U.LXCXAXAXAXCXCXFX;.~ :.DXAXDX7XCXAXAXAXAXAXAXAXAXAXAXCXGX}.U d.KXCXAXAXAXAXAXAXAXAXAXAXCXDXhXNXDXAX",
"N.eXwXwXwXeXW.wXwXwXeX%X%XeXwXwXW.eXwX0XW.wXuX3.%XeXwXwX0X9XqX^.^./..._.#X#X@X&X&XwXwXwXwXtXW.A.tXwXwXwXwXwXwXwXwXwXwXtXm.Z.tXwXwXwXwXwXwXeX%X%XeXwXwXwXtXU.B.tXwXwXwXeXW.0XeXwXeXW.wXwXwXwXE.wXwXwXE.wXuXe.V.uXwXwXwXwXwXwXwXwXwXwXwXwXwXwXwXwXwXaXF.Z BX7XZXnXbXvXbXo.t.lXhX5X6X6X6X6X5XyXoX( _ / @.yX4X6X6X6X6X5XiXhX7X5X5X<X,X,X,X,X,X,X,X,X,X4X6X6XhX7X7XDXCXAXAXAXAXAXAXAXAXAXAXAXDXVX7XDXAXAXAXAXAXAXAXAXAXAXAXCXLXf.U.LXCXAXAXCXCXFX;.~ :.DXDXCXDX7XCXAXAXAXAXAXAXAXAXAXAXCXGX}.U d.KXCXAXAXAXAXAXAXAXAXAXAXCXDXhXNXDXAX",
"N.tXwXwXwXwXE.wXwXwXeX%X%XeXwXwXW.eXwX0XW.wXuX3.%XeXwXwX0X9XqX^.^./..._.#X#X@X&X&XwXwXwXwXtXW.A.tXwXwXwXwXwXwXwXwXwXwXtXm.Z.tXwXwXwXwXwXwXeX%X%XeXwXwXwXtXU.B.tXwXwXwXeXW.0XeXwXeXW.wXwXwXwXE.wXwXwXE.wXuXe.V.uXwXwXwXwXwXwXwXwXwXwXwXwXwXwXwXwXwXaXF.Z yX7XZXnXbXvXbXo.t.lXhX5X6X6X6X6X5XyXoX( _ / @.yX4X6X6X6X6X5XiXhX7X5X5X2X2X2X2X2X2X2X2X2X2X4X6X6XhX7X7XDXCXAXAXAXAXAXAXAXAXAXAXAXDXVX7XDXAXAXAXAXAXAXAXAXAXAXAXCXLXf.U.LXCXAXCXCXFX;.~ :.DXDXCXAXDX7XCXAXAXAXAXAXAXAXAXAXAXCXGX}.U d.KXCXAXAXAXAXAXAXAXAXAXAXCXDXhXNXDXAX",
"W.eXwXwXwXwXE.wXwXwXeX%X%XeXwXwXW.eXwX0XW.wXuX3.%XeXwXwX0X9XqX^.^./..._.#X#X@X&X&XwXwXwXwXtXW.A.tXwXwXwXwXwXwXwXwXwXwXtXm.Z.tXwXwXwXwXwXwXeX%X%XeXwXwXwXtXU.B.tXwXwXwXeXW.0XeXwXeXW.wXwXwXwXE.wXwXwXE.wXuXe.V.uXwXwXwXwXwXwXwXwXwXwXwXwXwXwXwXwXwXaX/.a Z :XZXnXbXvXbXo.t.lXhX5X6X6X6X6X5XyXoX( _ / @.yX4X6X6X6X6X5XiXhX7X5X5X<X,X,X,X,X,X,X,X,X,X4X6X6XhX7X7XDXCXAXAXAXAXAXAXAXAXAXAXAXDXVX7XDXAXAXAXAXAXAXAXAXAXAXAXCXLXf.U.LXCXCXCXFX;.~ :.DXDXCXAXAXDX7XCXAXAXAXAXAXAXAXAXAXAXCXGX}.U d.KXCXAXAXAXAXAXAXAXAXAXAXCXDXhXNXDXAX",
"W.eXwXwXwXwXE.wXwXwXeX%X%XeXwXwXW.eXwX0XW.wXuX3.%XeXwXwX0X9XqX^.^./..._.#X#X@X&X&XwXwXwXwXtXW.A.tXwXwXwXwXwXwXwXwXwXwXtXm.Z.tXwXwXwXwXwXwXeX%X%XeXwXwXwXtXU.B.tXwXwXwXeXW.0XeXwXeXW.wXwXwXwXE.wXwXwXE.wXuXe.V.uXwXwXwXwXwXwXwXwXwXwXwXwXwXwXwXwXwXeX^.a i &XZXnXbXvXbXo.t.lXhX5X6X6X6X6X5XyXoX( _ / @.yX4X6X6X6X6X5XiXhX7X5X5X2X2X2X2X2X2X2X2X2X2X4X6X6XhX7X7XDXCXAXAXAXAXAXAXAXAXAXAXAXDXVX7XDXAXAXAXAXAXAXAXAXAXAXAXCXLXf.U.LXCXCXFXXX~ &.DXDXCXAXAXAXDX7XCXAXAXAXAXAXAXAXAXAXAXCXGX}.U d.KXCXAXAXAXAXAXAXAXAXAXAXCXDXhXNXDXAX",
"W.eXwXwXwXwXE.wXwXwXeX%X%XeXwXwXW.eXwX0XW.wXuX3.%XeXwXwX0X9XqX^.^./..._.#X#X@X&X&XwXwXwXwXtXW.A.tXwXwXwXwXwXwXwXwXwXwXtXm.Z.tXwXwXwXwXwXwXeX%X%XeXwXwXwXtXU.B.tXwXwXwXeXW.0XeXwXeXW.wXwXwXwXE.wXwXwXE.wXuXe.V.uXwXwXwXwXwXwXwXwXwXwXwXwXwXwXwXwXwXeX^.a i $XZXnXbXvXbXo.t.lXhX5X6X6X6X6X5XyXoX( _ / @.yX4X6X6X6X6X5XiXhX7X5X5X<X,X,X,X,X,X,X,X,X,X4X6X6XhX7X7XDXCXAXAXAXAXAXAXAXAXAXAXAXDXVX7XDXAXAXAXAXAXAXAXAXAXAXAXCXLXf.U.LXCXFXXX~ :.DXDXCXAXAXAXAXDX7XCXAXAXAXAXAXAXAXAXAXAXCXGX}.U d.KXCXAXAXAXAXAXAXAXAXAXAXCXDXhXNXDXAX",
"W.eXwXwXwXwXE.wXwXwXeX%X%XeXwXwXW.eXwX0XW.wXuX3.%XeXwXwX0X9XqX^.^./..._.#X#X@X&X&XwXwXwXwXtXW.A.tXwXwXwXwXwXwXwXwXwXwXtXm.Z.tXwXwXwXwXwXwXeX%X%XeXwXwXwXtXU.B.tXwXwXwXeXW.0XeXwXeXW.wXwXwXwXE.wXwXwXE.wXuXe.V.uXwXwXwXwXwXwXwXwXwXwXwXwXwXwXwXwXwXeX^.a i E.ZXnXbXvXbXo.t.lXhX5X6X6X6X6X5XyXoX( _ / @.yX4X6X6X6X6X5XiXhX7X5X5X4X2X2X2X2X2X2X2X2X2X4X6X6XhX7X7XDXCXAXAXAXAXAXAXAXAXAXAXAXDXVX7XDXAXAXAXAXAXAXAXAXAXAXAXCXLXf.U.KXFXXX~ :.DXAXCXAXAXAXAXAXDX7XCXAXAXAXAXAXAXAXAXAXAXCXGX}.U d.KXCXAXAXAXAXAXAXAXAXAXAXCXDXhXNXDXAX",
"W.eXwXwXwXwXE.wXwXwXeX%X%XeXwXwXW.eXwX0XW.wXuX3.%XeXwXwX0X9XqX^.^./..._.#X#X@X&X&XwXwXwXwXtXW.A.tXwXwXwXwXwXwXwXwXwXwXtXm.Z.tXwXwXwXwXwXwXeX%X%XeXwXwXwXtXU.B.tXwXwXwXeXW.0XeXwXeXW.wXwXwXwXE.wXwXwXE.wXuXe.V.uXwXwXwXwXwXwXwXwXwXwXwXwXwXwXwXwXwXeX^.a i Z.ZXnXbXvXbXo.t.lXhX5X6X6X6X6X5XyXoX( _ / @.yX4X6X6X6X6X5XiXhX7X5X5X<X,X,X,X,X,X,X,X,X,X4X6X6XhX7X7XDXCXAXAXAXAXAXAXAXAXAXAXAXDXVX7XDXAXAXAXAXAXAXAXAXAXAXAXCXLXf.U.PXXX~ &.DXAXCXAXAXAXAXAXAXDX7XCXAXAXAXAXAXAXAXAXAXAXCXGX}.U d.KXCXAXAXAXAXAXAXAXAXAXAXCXDXhXNXDXAX",
"W.eXwXwXwXwXE.wXwXwXeXW.%XeXwXwXW.eXwX9XW.wXtX3.%XeXwXwX0X9XqX^.^./...g.#X#X@X&X&X:XwXwXwXeXW.A.tXwXwXwXwXwXwXwXwXwXwXtXm.Z.tXwXwXwXwXwXwXeX%X%XeXwXwXwXeXU.B.eXwXwXwXeXW.0XwXwXwXE.wXwXwXwXE.wXwXwXE.wXuXe.V.uXwXwXwXwXwXwXwXwXwXwXwXwXwXwXwXwXwXeX^.a i N.ZXnXbXgXbXo.t.lXhX5X6X6X6X6X5XyXoX( _ / @.yX4X6X6X6X6X5XiXhX7X5X5X4X2X2X2X2X2X2X2X2X2X4X6X6XhX7X7XDXCXCXCXCXCXCXCXCXCXCXCXCXAXVX7XDXCXCXCXCXCXCXCXCXCXCXCXCXLXf.T.+X~ &.DXAXCXAXCXCXCXCXCXCXDX6XCXAXCXCXCXCXCXCXCXCXCXCXGX}.L d.KXCXCXCXCXCXCXCXCXCXCXCXCXDXiXNXDXCX",
"%XuXtXtXtXtXW.tXtXtXuX9XwXuXtXeX%XuXuXwX%XuXsX6.0XuXtXeXeXwX9XqXqX^...oX-X#X;X:X:XeXtXtXtXuXqXA.pXtXtXtXtXtXtXtXtXtXtXpX~.Q.pXtXtXtXtXtXtXuX0X9XuXtXtXtXsXY.C.sXtXtXtXuX%XwXuXtXuX%XeXtXtXtXW.tXtXtXW.tXlXe.Z.sXtXtXtXtXtXtXtXtXtXtXtXtXtXtXtXtXtXuXqXs i N.IXmXmXbXmX&.t.lXhX5X6X6X6X6X5XyXoX( _ / @.yX4X6X6X6X6X5XiXhX7X5X5X<X,X,X,X,X,X,X,X,X,X4X6X6XhX7XiXKXJXJXJXJXJXJXJXJXJXJXJXJXJXDXhXKXJXJXJXJXJXJXJXJXJXJXJXDXPXY.#.] :.KXJXJXJXJXJXJXJXJXJXJXKXhXDXJXJXJXJXJXJXJXJXJXJXJXLX}.U L.PXDXJXJXJXJXJXJXJXJXJXJXJXKXhXCXKXJX",
"n.E.Z.E.E.E.M.Z.E.Z.E.n.V.E.E.Z.M.E.E.V.n.E.W.,.V.E.E.Z.Z.Z.V.m.n.S...u.f.f.f.C.C.V.E.E.Z.E.n.v.E.Z.E.E.E.E.E.E.E.E.Z.E.l.c.E.Z.E.E.E.E.E.E.V.m.E.E.E.Z.W.d.a.W.Z.E.Z.E.n.Z.E.Z.E.M.Z.E.E.E.M.E.E.Z.M.Z.%X3.a.W.Z.E.E.E.E.E.E.E.E.E.E.E.E.E.E.E.Z.E.Z.s i l.3X=XOXOX=X+.y.lXhX5X6X6X6X6X5XyXoX( _ / @.yX4X6X6X6X6X5XiXhX7X5X5X4X2X2X2X2X2X2X2X2X2X4X6X6XhX7X6X7X4X5X5X5X5X5X5X5X5X5X5X5X5X;X@X6X5X5X5X5X5X5X5X5X5X5X5X;XjXXX~ +.6X6X4X5X5X5X5X5X5X5X5X5X6XT.:X5X5X5X5X5X5X5X5X5X5X4XfX[.L q.iX:X5X5X5X5X5X5X5X5X5X5X5X6X@X-X6X5X",
"3.6.6.6.6.6.3.6.6.6.6.3.3.6.6.6.3.6.6.6.3.6.e.t 3.6.6.6.6.6.7.7.7.7.` | <.1.<.5.5.6.6.6.6.6.7.7.e.6.6.6.6.6.6.6.6.6.6.6.M 3.6.6.6.6.6.6.6.6.3.3.6.6.6.6.6.,.,.6.6.6.6.6.3.6.6.6.6.3.6.6.6.6.3.6.6.6.3.6.e.n ,.e.6.6.6.6.6.6.6.6.6.6.6.6.6.6.6.6.6.6.7.a i B u.p.u.u.p...y.lXhX5X6X6X6X6X5XyXoX( _ / @.yX4X6X6X6X6X5XiXhX7X5X5X<X,X,X,X,X,X,X,X,X,X4X6X6XhXiX:Xa.i.i.i.i.i.i.i.i.i.i.i.i.i.i.0.i.i.i.i.i.i.i.i.i.i.i.i.s.| ~ O.d.i.i.i.i.i.i.i.i.i.i.i.i.i.0.i.i.i.i.i.i.i.i.i.i.i.i.s.L H n s.i.i.i.i.i.i.i.i.i.i.i.i.i.0.0.i.i.",
"9XsXuXuXuXpX%XuXuXuXsXwXwXsXuXuX9XsXpXtX9XpXlX6.wXsXuXuXtXeXwXqXqXqX..oX;X*X4X6XaXuXuXuXuXlXqXA.lXuXuXuXuXuXuXuXuXuXuXlXQ.Q.lXuXuXuXuXuXuXsXwX0XsXuXuXuXsX@XU.sXuXuXuXsX9XtXsXuXsX%XuXuXuXuX%XuXuXuX%XuXzXw.E.lXuXuXuXuXuXuXuXuXuXuXuXuXuXuXuXuXuXpXeXs i z.JXZXMXmXZXo.t.lXhX5X6X6X6X6X5XyXoX( _ / @.yX4X6X6X6X6X5XiXhX7X5X5X4X2X2X2X2X2X2X2X2X2X4X6X6XhX7XiXPXLXLXLXLXLXLXLXLXLXLXLXLXLXJXNXPXLXLXLXLXLXLXLXLXLXKXPX+X] ) ;XPXKXLXLXLXLXLXLXLXLXLXLXLXPXhXKXLXLXLXLXLXLXLXLXLXLXKXPX}.U K.PXKXLXLXLXLXLXLXLXLXLXLXLXPXVXDXPXLX",
"%XtXwXtXwXwXE.wXwXwXwXW.%XwXwX0XE.wXwX9XW.wXeX3.0XwXeXwX9X9XqX^.W.F...g.#X#X#X$X&X;XwXwXwXeXW.A.uXeXtXwXwXwXwXwXwXwXwXtXm.V.eXwXwXwXwXwXwXwX%X9XeXtXwXwXeXI.B.eXwXwXwXwXE.9XwXwXwXE.0XwXwXwX%XwXeXeXE.wXuXe.V.tXwXwXwXwXwXwXwXwXwXwXwXwXwXwXwXwXwXwXqXs i z.ZXfXgX3XbXo.t.lXhX5X6X6X6X6X5XyXoX( _ / @.yX4X6X6X6X6X5XiXhX7X5X5X<X,X,X,X,X,X,X,X,X,X4X6X6XhX7X7XDXCXCXCXCXCXCXCXCXCXCXCXCXCXVX6XAXCXCXCXCXCXCXCXCXVXFXOX~ :.f.U.JXVXCXCXCXCXCXCXCXCXCXCXCXCX6XVXCXCXCXCXCXCXCXCXCXCXVXGX}.L d.JXVXCXCXCXCXCXCXCXCXCXCXCXAXiXhXAXCX",
"b.W.W.m.wXeXE.wXwXwXeX%X%XeXwXwXW.eXwX0XW.wXuX3.b.eXE.E.wX9XqX^.^./..._.#X#X@X&X&XwXwXwXwXtX^.l.W.Z.V.9XeXwXwXwXwXwXwXtXm.Z.tXwXwXwXwXwXwXuXZ.b.wXZ.0XwXeXU.B.tXwXwXwXeXW.0XeXwXeXW.wXwXeXwXw.%XW.E.W.wXuXe.V.uXwXwXwXwXwXwXwXwXwXwXwXwXwXwXwXwXwXeX9Xs i k.ZXnXbXvXbXo.t.lXhX5X6X6X6X6X5XyXoX( _ / @.yX4X6X6X6X6X5XiXhX7X5X5X2X2X2X2X2X2X2X2X2X2X4X6X6XhX7X7XDXCXAXAXAXAXAXAXAXAXAXAXAXDXVX7XDXAXAXAXAXAXAXAXCXFXOX~ &.LXB.U.LXCXAXAXAXAXAXAXAXAXAXAXAXDX7XCXAXAXAXAXAXAXAXAXAXAXCXGX}.U d.KXCXAXAXAXAXAXAXAXAXAXAXCXDXhXNXDXAX",
"M m.M w.wXeXE.wXwXwXeX%X%XeXwXwXW.eXwX0XW.tX%Xu e.m.3.E.wX9XqX^.^./..._.#X#X@X&X&XwXwXwXwXuX7.B M.b.N M.uXwXwXwXwXwXwXtXm.Z.tXwXwXwXwXwXtXE.m w.w.M e.tXeXU.B.tXwXwXwXeXW.0XeXwXeXW.wXwXtX7.M b.7.3.n.eXuXe.V.uXwXwXwXwXwXwXwXwXwXwXwXwXwXwXwXwXwXwX0Xs a k.ZXnXbXvXbXo.t.lXhX5X6X6X6X6X5XyXoX( _ / @.yX4X6X6X6X6X5XiXhX7X5X5X<X,X,X,X,X,X,X,X,X,X4X6X6XhX7X7XDXCXAXAXAXAXAXAXAXAXAXAXAXDXVX7XDXAXAXAXAXAXAXCXFXOX~ &.AXLXf.U.LXCXAXAXAXAXAXAXAXAXAXAXAXDX7XCXAXAXAXAXAXAXAXAXAXAXCXGX}.U d.KXCXAXAXAXAXAXAXAXAXAXAXCXDXhXNXDXAX",
"W.sX3.6.9XeXE.wXwXwXeX%X%XeXwXwXW.eXwX0XW.uXl.u lXw.m m.wX9XqX^.^./..._.#X#X@X&X&XwXwXwXeX0XN A.pXuX7.0XeXwXwXwXwXwXwXtXm.Z.tXwXwXwXwXwXuXe.w.sXm.t w.tXeXU.B.tXwXwXwXeXW.0XeXwXeXW.wXtXW.3.wXE.6.3.e.uXuXe.V.uXwXwXwXwXwXwXwXwXwXwXwXwXwXwXwXwXwXwX0Xs s k.NXnXbXvXbXo.t.lXhX5X6X6X6X6X5XyXoX( _ / @.yX4X6X6X6X6X5XiXhX7X5X5X2X2X2X2X2X2X2X2X2X2X4X6X6XhX7X7XDXCXAXAXAXAXAXAXAXAXAXAXAXDXVX7XDXAXAXAXAXAXCXFXOX~ { CXAXLXf.U.LXCXAXAXAXAXAXAXAXAXAXAXAXDX7XCXAXAXAXAXAXAXAXAXAXAXCXGX}.U d.KXCXAXAXAXAXAXAXAXAXAXAXCXDXhXNXDXAX",
"V.tXuXe.w.pXE.wXwXwXeX%X%XeXwXwXW.eXwX0XW.uXb.3 uXe.w.3.9X9XqX^.^./..._.#X#X@X&X&XwXwXwXwXwXt N.lXb.6.uXwXwXwXwXwXwXwXtXm.Z.tXwXwXwXwXwXuXw.6.eXw.6.7.eXeXU.B.tXwXwXwXeXW.0XeXwXeXW.wXeX%XM E.eXZ.N c.tXuXe.V.uXwXwXwXwXwXwXwXwXwXwXwXwXwXwXwXwXwXwXwXs Z k.fXmXbXvXbXo.t.lXhX5X6X6X6X6X5XyXoX( _ / @.yX4X6X6X6X6X5XiXhX7X5X5X<X,X,X,X,X,X,X,X,X,X4X6X6XhX7X7XDXCXAXAXAXAXAXAXAXAXAXAXAXDXVX7XDXAXAXAXAXCXFXOX~ { CXDXVXLXf.U.LXCXAXAXAXAXAXAXAXAXAXAXAXDX7XCXAXAXAXAXAXAXAXAXAXAXCXGX}.U d.KXCXAXAXAXAXAXAXAXAXAXAXCXDXhXNXDXAX",
"N b.w.3.%XeXE.wXwXwXeX%X%XeXwXwXW.eXwX0XW.eXwXr 3.E.3.w.wX9XqX^.^./..._.#X#X@X&X&XwXwXwXwXuXl.N V.l.Z.tXwXwXwXwXwXwXwXtXm.Z.tXwXwXwXwXwXeX9XM 7.b.3.w.eXeXU.B.tXwXwXwXeXW.0XeXwXeXW.wXwXtXw.N Z.w.e.W.wXuXe.V.uXwXwXwXwXwXwXwXwXwXwXwXwXwXwXwXwXwXwX0Xa j.A 7XmXbXvXbXo.t.lXhX5X6X6X6X6X5XyXoX( _ / @.yX4X6X6X6X6X5XiXhX7X5X5X2X2X2X2X2X2X2X2X2X2X4X6X6XhX7X7XDXCXAXAXAXAXAXAXAXAXAXAXAXDXVX7XDXAXAXAXCXFXOX~ { CXDXCXCXLXf.U.LXCXAXAXAXAXAXAXAXAXAXAXAXDX7XCXAXAXAXAXAXAXAXAXAXAXCXGX}.U d.KXCXAXAXAXAXAXAXAXAXAXAXCXDXhXNXDXAX",
"W.wXwXwXeXwXE.wXwXwXeXW.%XeXwXwXW.eXwX9XW.wXuX6.W.tXwXeX0X9XqX^.^./...g.#X#X@X&X&XwXwXwXwXeXqXA.eXeXeXwXwXwXwXwXwXwXwXtXm.Z.tXwXwXwXwXwXwXtX9XW.tXwXeXwXeXU.B.eXwXwXwXeXW.0XwXwXeXE.wXwXwXtXE.wXwXeXW.wXuXe.V.uXwXwXwXwXwXwXwXwXwXwXwXwXwXwXwXwXwXwXwXa j.A 5XmXbXvXbXo.t.lXhX5X6X6X6X6X5XyXoX( _ / @.yX4X6X6X6X6X5XiXhX7X5X5X<X,X,X,X,X,X,X,X,X,X4X6X6XhX7X7XDXCXAXAXAXAXAXAXAXAXAXAXAXDXVX7XDXAXAXCXFX+X~ { CXDXCXAXCXLXf.U.LXCXAXAXAXAXAXAXAXAXAXAXAXDX7XCXAXAXAXAXAXAXAXAXAXAXCXGX}.U d.KXCXAXAXAXAXAXAXAXAXAXAXCXDXhXNXDXAX",
"W.tXeXwXwXeXW.wXeXeXtX%X9XeXeXwXW.eXeXwXW.eXuX3.%XtXwXwXwX9XqX^.^.^...oX#X#X$X;X;XwXeXeXwXtXW.A.uXwXwXeXeXeXwXeXeXeXeXuXm.Z.uXwXwXeXeXeXwXeX%X%XtXwXwXwXuXU.B.uXwXeXeXeXW.wXeXwXeXW.wXeXwXeXW.eXeXwXE.eXsX6.V.uXwXeXeXwXeXeXeXwXwXwXwXwXeXeXeXeXeXeXtXH.z.A ;XMXbXvXbXo.t.lXhX5X6X6X6X6X5XyXoX( _ / @.yX4X6X6X6X6X5XiXhX7X5X5X2X2X2X2X2X2X2X2X2X2X4X6X6XhX7X7XDXCXAXAXAXAXAXAXAXAXAXAXAXDXVX7XDXAXCXFX+X~ { ZXDXCXAXAXCXLXf.U.LXCXAXAXAXAXAXAXAXAXAXAXAXDX7XCXAXAXAXAXAXAXAXAXAXAXCXGX}.U d.KXCXAXAXAXAXAXAXAXAXAXAXCXDXhXNXDXAX",
"W.m.V.%X%Xn.m.0XW.m.E.M.Z.wXE.M.Z.wXE.M.Z.wXZ.n.Z.n.W.9XZ.v.A.W.v.S...u.U.#Xd.d.$X%Xm.m.%X%Xv.N.m.V.0XW.n.Z.0XE.V.E.M.E.m.m.n.E.0XE.M.E.0XZ.E.Z.n.W.0XV.m.f.U.Z.E.m.m.%X%Xn.m.%X%XM.V.9XW.Z.W.n.Z.0XE.M.E.E.V.Z.Z.n.E.0XE.n.Z.9XeXwXeX9Xm.m.m.m.m.m.V.l.l.A b.3XbXvXbXo.t.lXhX5X6X6X6X6X5XyXoX( _ / @.yX4X6X6X6X6X5XiXhX7X5X5X<X,X,X,X,X,X,X,X,X,X4X6X6XhX7X7XDXCXAXAXAXAXAXAXAXAXAXAXAXDXVX7XDXCXFX+X~ { ZXFXCXAXAXAXCXLXf.U.LXCXAXAXAXAXAXAXAXAXAXAXAXDX7XCXAXAXAXAXAXAXAXAXAXAXCXGX}.U d.KXCXAXAXAXAXAXAXAXAXAXAXCXDXhXNXDXAX",
"W.c.b.%XW.w.M.%XE.b.m.w.n.%XZ.w.V.0XV.w.Z.0Xn.E.V.w.E.%XM.w.Z.A.l.l.` 8.f.K.i.a.T.W.c.c.%XW.l.N.c.b.%XE.w.n.%XZ.b.m.w.V.m.n.w.V.0Xm.w.Z.0XM.E.m.w.E.%Xb.c.d.Y.M.m.c.c.W.%Xc.c.%XW.c.b.%XE.M.W.w.n.%XE.w.n.wXZ.b.n.w.V.0Xm.w.M.%XeXwXeX%Xb.Z.V.V.V.V.V.l.v.A w.3XnXgXbXo.t.lXhX5X6X6X6X6X5XyXoX( _ / @.yX4X6X6X6X6X5XiXhX7X5X5X2X2X2X2X2X2X2X2X2X2X4X6X6XhX7X7XDXCXAXAXAXAXAXAXAXAXAXAXAXDXVX7XIXFXvX] { ZXFXCXAXAXAXAXCXLXf.U.LXCXAXAXAXAXAXAXAXAXAXAXAXDX7XCXAXAXAXAXAXAXAXAXAXAXCXGX}.U d.KXCXAXAXAXAXAXAXAXAXAXAXCXDXhXNXDXAX",
"W.c.M.%XW.c.n.%XE.b.m.c.m.0XE.l.V.0XZ.w.Z.0Xm.Z.V.w.E.%Xn.l.Z.W.l.z.` 8.K.K.a.a.T.W.b.b.%X%Xl.N.b.M.%XE.c.n.9XE.M.m.l.Z.m.n.c.Z.0XV.l.E.0Xn.E.m.l.E.%XM.v.d.U.n.m.b.b.%X%Xb.b.%XW.c.M.%XE.n.W.c.n.%XE.l.m.9XZ.M.m.c.Z.0XV.c.n.%XeXwXeX%Xn.E.E.E.%XE.%XN.N.A w.3XnXgXbXo.t.lXhX5X6X6X6X6X5XyXoX( _ / @.yX4X6X6X6X6X5XiXhX7X5X5X<X,X,X,X,X,X,X,X,X,X4X6X6XhX7X7XDXCXAXAXAXAXAXAXAXAXAXAXAXDXVX7XKXvX[ { ZXFXCXAXAXAXAXAXCXLXf.U.LXCXAXAXAXAXAXAXAXAXAXAXAXDX7XCXAXAXAXAXAXAXAXAXAXAXCXGX}.U d.KXCXAXAXAXAXAXAXAXAXAXAXCXDXhXNXDXAX",
"W.c.b.%XW.c.n.%XE.b.m.c.m.0XE.w.V.0XZ.w.Z.0Xm.Z.V.w.E.%Xn.l.Z.W.l.z.` 8.f.K.a.a.T.W.c.b.%XW.l.N.b.M.%XE.l.n.9XZ.M.m.w.Z.m.n.c.Z.0XV.w.E.0Xn.E.m.l.E.%XM.v.d.U.n.m.b.c.%X%Xb.b.%XW.c.M.%XE.n.W.l.n.%XE.w.m.0XZ.M.m.l.V.0XV.c.n.%XeXwXeX%XM.E.E.V.N N N l.Z.A 6.3XnXgXbXo.t.lXhX5X6X6X6X6X5XyXoX( _ / @.yX4X6X6X6X6X5XiXhX7X5X5X2X2X2X2X2X2X2X2X2X2X4X6X6XhX7X7XDXCXAXAXAXAXAXAXAXAXAXAXAXDXVXjXvX[ { ZXFXCXAXAXAXAXAXAXCXLXf.U.LXCXAXAXAXAXAXAXAXAXAXAXAXDX7XCXAXAXAXAXAXAXAXAXAXAXCXGX}.U d.KXCXAXAXAXAXAXAXAXAXAXAXCXDXhXNXDXAX",
"W.c.b.%XW.c.n.%XE.b.m.c.m.0XE.w.V.0XZ.w.Z.0Xm.Z.V.w.E.%Xn.l.Z.W.l.z.` 8.f.K.a.a.T.W.c.b.%XW.l.N.b.M.%XE.l.n.9XZ.M.m.w.Z.m.n.c.Z.0XV.w.E.0Xn.E.m.l.E.%XM.v.d.U.n.m.b.c.%X%Xb.b.%XW.c.M.%XE.n.W.l.n.%XE.w.m.0XZ.M.m.l.V.0XV.c.n.%XeXwXeX%XM.E.W.3.7.V.w.N V.k.7.3XnXvXnX&.t.lXhX5X6X6X6X6X5XyXoX( _ / @.yX4X6X6X6X6X5XiXhX7X5X5X<X,X<X<X<X<X<X<X<X,X4X6X6XhX7X7XDXAXDXDXDXDXDXDXDXDXDXDXDXCXFXOX[ { ZXFXCXDXDXDXDXDXDXDXCXLXf.Y.LXCXDXDXDXDXDXDXDXDXDXDXAXDX7XCXDXDXDXDXDXDXDXDXDXDXAXGX}.U d.KXCXDXDXDXDXDXDXDXDXDXDXAXDXhXBXDXAX",
"W.c.b.%XW.c.n.%XE.b.m.c.m.0XZ.w.V.0XZ.w.Z.0Xm.Z.V.w.E.%Xn.l.Z.E.l.z.` 8.f.K.a.a.T.W.c.b.%XW.l.N.b.M.%XE.l.n.%XZ.M.m.w.Z.m.n.c.Z.0XV.w.Z.0Xn.E.m.l.E.%XM.v.d.U.n.m.b.c.%X%Xb.b.%XW.c.M.%XE.n.W.l.n.%XE.w.m.0XZ.M.m.l.V.0XV.c.n.%XwXwXwX%XM.E.m.7.E.W.W.e.s.k.7.3XbX3XbXo.t.lXhX5X6X6X6X6X5XyXoX( _ / @.yX4X6X6X6X6X5XiXhX7X5X5X2X<X2X2X2X2X2X2X2X<X4X6X6XhX7X7XAXVXCXCXCXCXCXCXCXCXCXCXVXFXvX[ { ZXAXVXCXCXCXCXCXCXCXCXVXKXf.U.JXVXCXCXCXCXCXCXCXCXCXCXVXCX6XVXCXCXCXCXCXCXCXCXCXCXVXGX}.L s.JXVXCXCXCXCXCXCXCXCXCXCXVXAXiXhXCXVX",
"W.c.b.%XW.c.n.%XE.b.m.c.m.0XE.w.V.0XZ.w.Z.0Xm.Z.V.w.E.%Xn.l.Z.W.l.z.` 8.K.K.a.a.T.%Xc.b.%X%Xl.N.b.M.%XE.l.n.0XE.M.m.w.Z.m.n.c.Z.0XV.w.E.0Xn.E.m.l.E.%XM.v.d.Y.n.m.b.c.%X%Xb.b.%XW.c.M.%XE.n.W.l.n.9XE.w.m.0XZ.M.m.l.V.0XV.c.n.E.W.W.W.Z.n.E.E.u u 0X3.3 C.k.7.=X=XOX*XO.t.lXhX5X6X6X6X6X5XyXoX( _ / @.yX4X6X6X6X6X5XiXhX7X5X5X<X<X<X<X<X<X<X<X<X<X4X6X6XhX7X6XiX6X7X7X7X7X7X7X7X7X7X7XjXOX[ { 4XyX7X7X7X7X7X7X7X7X7X7X6XjXa.d.hX6X7X7X7X7X7X7X7X7X7X7X7X7X;X6X7X7X7X7X7X7X7X7X7X7X6XkX[.L q.hX6X7X7X7X7X7X7X7X7X7X7X7XiX;X5X7X7X",
"W.c.b.%XE.c.M.%XE.b.m.c.m.%XZ.w.V.%XV.w.Z.%Xn.Z.V.w.E.%XM.l.Z.A.l.z.` 8.f.K.a.a.T.E.c.b.%XW.l.N.b.M.%XE.c.n.%XZ.M.m.w.Z.m.M.c.V.%Xm.w.Z.%Xn.E.m.l.E.%XM.v.d.U.n.m.b.c.W.W.c.b.%XW.c.M.%XE.n.W.l.n.%XE.l.m.%XV.M.m.l.V.%Xm.c.n.9XtXwXtX%XM.E.W.3.u Z.t t E.k.B 3XnXvXnX&.t.lXhX5X6X6X6X6X5XyXoX( _ / @.yX4X6X6X6X6X5XiXhX7X5X5X2X<X<X<X<X<X<X<X<X<X4X6X6XhX7XiXJXDXDXDXDXDXDXDXDXDXIXFXvX[ { 3XKXCXDXDXDXDXDXDXDXDXDXDXAXPXf.Y.PXAXDXDXDXDXDXDXDXDXDXDXDXDX7XAXDXDXDXDXDXDXDXDXDXDXAXGX}.U d.LXCXDXDXDXDXDXDXDXDXDXDXDXDXhXBXDXDX",
"W.c.b.V.b.c.M.V.c.M.m.c.n.m.c.c.n.m.c.c.m.m.c.E.V.l.m.n.c.l.n.v.l.v.` 8.d.i.i.a.B.b.c.b.V.b.l.N.b.b.V.b.c.M.m.c.n.m.l.m.l.w.c.m.m.c.c.m.n.c.E.m.c.m.n.c.v.s.a.b.m.b.c.V.b.c.b.V.b.c.b.V.c.n.W.c.M.m.c.c.n.m.c.n.m.c.m.m.c.c.n.%XeXwXeX%XM.E.E.E.w.Z.l.m.$Xk.B 3XbX3XbXo.t.lXhX5X6X6X6X6X5XyXoX( _ / @.yX4X6X6X6X6X5XiXhX7X5X5X<X<X<X<X<X<X<X<X<X<X4X6X6XhX7X7XDXCXAXAXAXAXAXAXAXCXFXvX[ { bXyXAXCXAXAXAXAXAXAXAXAXAXAXCXLXf.U.KXCXAXAXAXAXAXAXAXAXAXAXCXDX6XCXAXAXAXAXAXAXAXAXAXAXCXGX}.L d.KXCXAXAXAXAXAXAXAXAXAXAXCXDXhXNXDXCX",
"W.c.b.m.c.c.M.m.c.M.m.c.n.m.c.c.n.n.c.c.n.n.w.E.V.l.m.M.c.l.n.l.l.v.` 8.d.i.i.a.B.s.c.b.m.b.l.N.b.b.m.c.c.M.m.c.n.m.c.m.l.w.c.n.n.c.c.m.n.l.E.m.c.m.M.c.v.s.e.b.m.b.c.m.b.c.b.m.c.c.b.m.c.n.W.c.M.m.c.c.n.m.c.n.m.c.n.n.c.c.n.%XeXwXeX%Xn.E.E.E.W.E.W.E.E.k.B 3XnXgXbXo.t.lXhX5X6X6X6X6X5XyXoX( _ / @.yX4X6X6X6X6X5XiXhX7X5X5X2X<X<X<X<X<X<X<X<X<X4X6X6XhX7X7XDXCXAXAXAXAXAXAXCXFXvX[ { mXAX7XDXCXAXAXAXAXAXAXAXAXAXAXCXLXf.U.LXCXAXAXAXAXAXAXAXAXAXAXAXDX7XCXAXAXAXAXAXAXAXAXAXAXCXGX}.U d.KXCXAXAXAXAXAXAXAXAXAXAXCXDXhXNXDXAX",
"W.c.b.m.c.c.b.m.c.M.m.c.M.m.c.c.n.n.c.c.n.n.w.E.V.w.m.M.l.l.v.l.l.v.` 8.d.i.i.a.B.s.c.b.m.b.l.N.b.b.m.c.c.M.m.c.M.m.w.m.l.w.c.n.n.c.c.m.n.w.E.m.w.m.b.c.v.a.e.v.m.b.c.m.b.c.b.m.c.c.b.m.c.n.W.l.M.m.c.c.M.m.c.n.n.l.n.n.c.c.M.%XeXwXeX%XM.E.Z.Z.Z.Z.Z.Z.E.k.B 3XnXgXbXo.t.lXhX5X6X6X6X6X5XyXoX( _ / @.yX4X6X6X6X6X5XiXhX7X5X5X2X<X<X<X<X<X<X<X<X<X4X6X6XhX7X7XDXCXAXAXAXAXAXCXFXvX[ [ bXFXVX7XDXAXAXAXAXAXAXAXAXAXAXAXCXLXf.U.LXCXAXAXAXAXAXAXAXAXAXAXAXDX7XCXAXAXAXAXAXAXAXAXAXAXCXGX}.U d.KXCXAXAXAXAXAXAXAXAXAXAXCXDXhXNXDXAX",
"W.b.M.Z.b.b.M.Z.b.n.V.c.n.V.b.b.n.m.b.b.m.m.c.Z.Z.c.V.n.c.c.n.v.l.S.` u.d.i.a.s.B.b.b.M.Z.M.v.N.M.n.Z.b.b.n.V.b.m.m.c.V.l.w.b.m.m.b.b.m.m.c.E.V.c.Z.n.b.n.s.a.n.Z.M.b.Z.b.b.M.Z.b.b.M.Z.b.m.W.c.n.V.b.b.m.n.c.m.m.c.m.m.b.b.m.%XeXwXeX%XM.n.n.n.n.n.n.n.B.k.B 3XnXgXbXo.t.lXhX5X6X6X6X6X5XyXoX( _ / @.yX4X6X6X6X6X5XiXhX7X5X5X<X<X<X<X<X<X<X<X<X<X4X6X6XhX7X7XDXCXAXAXAXAXCXFXvX[ [ vXFXCXVX7XDXAXAXAXAXAXAXAXAXAXAXAXCXLXf.U.LXCXAXAXAXAXAXAXAXAXAXAXAXDX7XCXAXAXAXAXAXAXAXAXAXAXCXGX}.U d.KXCXAXAXAXAXAXAXAXAXAXAXCXDXhXNXDXAX",
"W.eXwXwXwXwXE.wXwXwXeXW.%XwXwX0XW.wXwX9XW.wXtX3.%XeXwXwX9X9XqX^.W./...g.#X#X#X&X&X:XwXwXwXeXW.A.tXwXwXwXwXwXwXwXwXwXwXtXm.Z.tXwXwXwXwXwXwXwX%X%XeXwXwXwXeXU.B.eXwXwXwXeXW.9XwXwXwXE.wXwXwXwXE.wXwXwXE.wXuXe.V.tXwXwXwXwXwXwXwXwXwXwXwXwXwXwXwXwXwXwXwXwXwXl.k.nXbXvXbXo.t.lXhX5X6X6X6X6X5XyXoX( _ / @.yX4X6X6X6X6X5XiXhX7X5X5X2X<X<X<X<X<X<X<X<X<X4X6X6XhX7X7XDXCXAXAXAXCXFXvX[ [ vXFXCXDXVX7XDXAXAXAXAXAXAXAXAXAXAXAXCXLXf.U.LXCXAXAXAXAXAXAXAXAXAXAXAXDX7XCXAXAXAXAXAXAXAXAXAXAXCXGX}.U d.KXCXAXAXAXAXAXAXAXAXAXAXCXDXhXNXDXAX",
"W.eXwXwXwXwXE.wXwXwXeX%X%XeXwXwXW.eXeX0XW.eXuX3.%XeXwXwX0X9XqX^.^./..._.#X#X$X&X;XwXwXwXwXtXW.A.tXwXwXwXwXwXwXwXwXwXwXtXm.Z.tXwXwXwXwXwXwXeX%X%XeXwXwXwXtXU.B.tXwXwXwXeXW.0XeXwXeXW.wXwXwXwXE.wXwXwXW.wXpXe.V.uXwXwXwXwXwXwXwXwXwXwXwXwXwXwXwXwXwXwXwXwXwXl.k.nXbX3XbXo.t.lXhX5X6X6X6X6X5XyXoX( _ / @.yX4X6X6X6X6X5XiXhX7X5X5X<X<X<X<X<X<X<X<X<X<X4X6X6XhX7X7XDXCXAXAXCXFXbX[ [ vXFXCXAXDXVX7XDXAXAXAXAXAXAXAXAXAXAXAXCXLXf.U.LXCXAXAXAXAXAXAXAXAXAXAXAXDX7XCXAXAXAXAXAXAXAXAXAXAXCXGX}.U d.KXCXAXAXAXAXAXAXAXAXAXAXCXDXiXNXAXCX",
"W.tXuXeXtXuXW.uXtXwXeX%X%XeXwXwXW.eXwX0XW.wXtX3.%XuXtXeXwX9XqX^.^./..._.#X#X@X&X&XwXwXwXwXtXW.A.uXuXtXtXwXwXwXwXwXwXwXtXm.Z.uXtXtXeXwXwXwXeX%X%XeXwXwXwXtXU.B.tXuXeXtXeXW.0XeXwXeXW.wXwXwXwXE.wXwXwXE.wXuXe.V.sXuXwXuXtXtXwXwXwXwXwXwXwXwXwXwXwXwXwXwXwXwXl.k.ZXmXbXMX&.y.lXhX5X6X6X6X6X5XyXoX( _ / @.yX4X6X6X6X6X5XiXhX7X5X5X2X<X<X<X<X<X<X<X<X<X4X6X6XhX7X7XDXCXAXCXFXbX{ [ vXFXCXAXAXDXVX7XDXAXAXAXAXAXAXAXAXAXAXAXCXLXf.U.LXCXAXAXAXAXAXAXAXAXAXAXAXDX7XCXAXAXAXAXAXAXAXAXAXAXCXGX}.U d.LXAXDXDXDXAXDXDXDXDXDXDXCXDXhXVXHXDX",
"%XW.M V.w.3.n.M V.tXeX%X%XeXwXwXW.eXwX0XW.wXuX3.0Xb.e.V.V.eXqX^.^./..._.#X#X@X&X&XwXwXwXwXtXW.A.W.M b.b.uXwXwXwXwXwXwXtXm.E.M.3.s.V.sXwXwXeX%X%XeXwXwXwXtXU.B.wX,.s.s.wX%X0XeXwXeXW.wXwXwXwXE.wXwXwXE.wXuXe.Z.Q.3.wX3.w.b.wXeXwXwXwXwXwXwXwXwXwXwXwXwXwXwXv.y M f.g.<.X.8.SXhX5X6X6X6X6X5XyXoX( _ / @.yX4X6X6X6X6X5XiXhX7X5X5X<X,X<X<X<X<X<X<X<X,X4X6X6XhX7X7XDXAXCXFXbX{ [ +XFXCXAXAXAXDXVX7XDXAXAXAXAXAXAXAXAXAXAXAXCXLXf.U.LXCXAXAXAXAXAXAXAXAXAXAXAXDX7XCXAXAXAXAXAXAXAXAXAXAXCXGX}.L d.cX|.cX|.cXDXcX|.cX X XCXDXDX{.8X|.cX",
"9Xb.N E.3.e.5 s.3.eXeX%X%XeXwXwXW.eXwX0XW.wXuX3.wXe.3.s.3.c.qX^.^./..._.#X#X@X&X&XwXwXwXwXtXW.A.wXm.m 3.w.%XeXwXwXwXwXtXm.Z.%XM 3.9.b.wXwXeX%X%XeXwXwXwXtXU.C.W.r %X3.e.b.wXwXwXeXW.wXwXwXwXE.wXwXwXE.wXuXe.Z.m.m w.e.3.M e.E.tXwXwXwXwXwXwXwXwXwXwXwXwXwXn.e c.,.,.g., 8.SXiX5X6X6X6X6X5XyXoX( _ / @.yX4X6X6X6X6X5XiXhX7X5X5X2X2X2X2X2X2X2X2X2X<X4X6X6XhX7X7XDXCXFXbX{ [ gXFXCXAXAXAXAXDXVX7XDXAXAXAXAXAXAXAXAXAXAXAXCXLXf.U.LXCXAXAXAXAXAXAXAXAXAXAXAXDX7XCXAXAXAXAXAXAXAXAXAXAXCXGX}.L d.JX X}.|.CXDXCXcX|.CX|.cXBX}.[.{.|.|.",
"W.%Xw.b e.E.3 eX,.wXeX%X%XeXwXwXW.eXwX0XW.wXuX3.9X%Xe.w.3 W.qX^.^./..._.#X#X@X&X&XwXwXwXwXtXW.A.lXw.b.5 3.uXwXwXwXwXwXtXm.Z.eX3.3.3 V.tXwXeX%X%XeXwXwXwXtXU.B.wXs.3.b b %X0XwXwXeXW.wXwXwXwXE.wXwXwXE.wXuXe.V.tXe.9.E.e.3 m uXwXwXwXwXwXwXwXwXwXwXwXwXwXwXv.a 7.p.p.3X< 8.SXiX5X6X6X6X6X5XyXoX( _ / @.yX4X6X6X6X6X5XiXhX7X5X5X<X,X,X,X,X,X,X,X,X,X4X6X6XhX7XiXDXDXmX{ [ gXFXCXAXAXAXAXAXDXVX7XDXAXAXAXAXAXAXAXAXAXAXAXCXLXf.U.LXCXAXAXAXAXAXAXAXAXAXAXAXDX7XCXAXAXAXAXAXAXAXAXAXAXCXGX}.U d.LX XBXcX|.DXGXcXcXAX XDX|.cX{.{.|.|.",
"W.%Xb.M 3.3.N 3.3.eXeX%X%XeXwXwXW.eXwX0XW.wXuX3.0XE.6.w.r w.qX^.^./..._.#X#X@X&X&XwXwXwXwXtXW.F.b.r m.b M %XeXwXwXwXwXtXm.V.E.e.N b q.eXwXeX%X%XeXwXwXwXtXU.B.0Xm.3.N m c.wXwXwXeXW.wXwXwXwXE.wXwXwXE.wXuXe.V.wX3.n.M 3.m m E.tXwXwXwXwXwXwXwXwXwXwXwXwXwXm.e 3 K.8.8., 1.CXiX5X6X6X6X6X5XyXoX( _ / @.yX4X6X6X6X6X5XiXhX7X5X5X2X2X2X2X2X2X2X2X2X2X4X6X6XhX7X7XFXmX{ [ gXFXCXAXAXAXAXAXAXDXVX7XDXAXAXAXAXAXAXAXAXAXAXAXCXLXf.U.LXCXAXAXAXAXAXAXAXAXAXAXAXDX7XCXAXAXAXAXAXAXAXAXAXAXCXGX}.R f.|.|.BXcX|.BXcX[.cX[. XDX X X[.{. X|.",
"%X%Xe.%XE.b.W.e.%XeXeX%X%XeXwXwXW.eXwX0XW.wXuX3.%XwXE.W.W.m.qX^.^.^..._.#X#X$X&X&XwXwXwXwXtXW.A.E.e.b.%XE.%XeXwXwXwXwXtXm.Z.M.w.%X%XV.wXwXeX%X%XeXwXwXwXtXU.B.wXe.V.%XW.M.wXwXwXeXW.wXwXwXwXE.wXwXwXW.wXuXe.V.tXE.eXb.V.%XE.E.eXwXwXwXwXwXwXwXwXwXwXwXwXwXm.e M K.OXf.o.t.SXhX5X6X6X6X6X5XyXoX( _ / @.yX4X6X6X6X6X5XiXhX7X5X5X<X,X,X,X,X,X,X,X,X,X4X6X6XhX7XjXZX{ [ gXFXCXAXAXAXAXAXAXAXDXVX7XDXAXAXAXAXAXAXAXAXAXAXAXCXLXf.Y.LXCXAXAXAXAXAXAXAXAXAXAXAXDX7XCXAXAXAXAXAXAXAXAXAXAXCXGX}.U P.cX8XcX XBXBXcXcXcXcXcXCXCXcX8XiX XcX",
"W.tXsXeXtXuXE.uXeXwXeXW.%XeXwXwXW.eXeX0XW.eXuX3.%XtXtXeXwXwXqX^.^./.` y.#X#X#X&X&X:XwXwXwXtXW.A.pXsXuXeXtXeXwXwXwXwXwXtXm.V.sXuXeXeXtXwXwXeX%X%XeXwXwXwXtXI.f.uXpXtXeXuX%X0XeXwXeXE.wXwXwXwXE.wXwXwXE.wXpX6.V.uXtXwXuXtXeXtXtXwXwXwXwXwXwXwXwXwXwXwXwXwXwXY.A S.MXvXMXO.@.lXhX5X6X6X6X6X5XyXoX( _ ( @.yX4X6X6X6X6X5XiXhX7X5X5X2X2X2X2X2X2X2X2X2X2X4X6X6XhXiX=X{ [ gXFXCXAXAXAXAXAXAXAXAXDXVX6XDXCXAXAXAXAXAXAXAXAXAXAXCXLXf.U.LXCXAXAXAXAXAXAXAXAXAXAXAXDX6XCXAXAXAXAXAXAXAXAXAXAXCXGX}.L s.PXDXDXGXDXDXDXGXDXGXGXDXDXGXhXBXGXDX",
"%XwXwXwXwXwXW.wXwXwXwX%X9XwXwXwXW.wXwX0X%XwXeXw.%XwXwXwX0X9X9XqX^.^.#.oX$X@X&X&X&XwXwXwXwXeX^.A.eX0XwXwXwXwXwXwXwXwXwXeXQ.E.wXwXwXwXwXwXwXwX9X%XwXwXwXwXeXT.U.eXwXwXwXwXW.0XwXwXwXW.wXwXwXwXW.wXwXwXW.wXuXc.Z.eXwXwXwXwXwXwXwXwXwXwXwXwXwXwXwXwXwXwXwXwX0X%XA l.MXfXnXXXy.jXhX5X6X6X6X6X5XyXoX^ ( ^ @.yX4X6X6X6X6X5XiXhX7X5X5X<X,X,X,X,X,X,X,X,X,X4X6X6XhXjXXX{ +XFXCXAXAXAXAXAXAXAXAXAXDXCXhXDXAXAXAXAXAXAXAXAXAXAXAXCXKX@X-XKXCXAXAXAXAXAXAXAXAXAXAXAXDXhXCXAXAXAXAXAXAXAXAXAXAXAXGX|.[.U.JXCXAXAXAXAXAXAXAXAXAXAXAXAXhXBXAXAX",
";X;X;X;X;X;X;X;X;X;X;X;X;X;X;X;X;X;X;X;X;X;X-X:X;X;X;X;X;X;X;X;X;X;XwX;X;X;X;X;X;X;X;X;X;X;X;X;X;X;X;X;X;X;X;X;X;X;X;X-X;X;X-X;X;X;X;X;X;X;X;X;X;X;X;X;X-X;X;X-X;X;X;X;X;X;X;X;X;X;X;X;X;X;X;X;X;X;X;X;X-X:X;X-X;X;X;X;X;X;X;X;X;X;X;X;X;X;X;X;X;X;X;X;X;X;XE.Q.6X5X5XyX:XhXhX5X6X6X6X6X5XyXOX+.#.+._.yX5X6X6X6X6X5XiXhX7X5X5X2X2X2X2X2X2X2X2X2X2X4X6X6XhXhX:X;X6X:X:X:X:X:X:X:X:X:X:X:X:X5X5X:X:X:X:X:X:X:X:X:X:X:X:X:X:X6X6X:X:X:X:X:X:X:X:X:X:X:X:X:X:X6X:X:X:X:X:X:X:X:X:X:X:X5X:X6X6X6X:X:X:X:X:X:X:X:X:X:X:X:X:X:X5X5X:X:X",
"hXhXhXhXhXhXhXhXhXhXhXhXhXhXhXhXhXhXhXhXhXhXhXhXhXhXhXhXhXhXhXhXhXhXhXhXhXhXhXhXhXhXhXhXhXhXhXhXhXhXhXhXhXhXhXhXhXhXhXhXhXhXhXhXhXhXhXhXhXhXhXhXhXhXhXhXhXhXhXhXhXhXhXhXhXhXhXhXhXhXhXhXhXhXhXhXhXhXhXhXhXhXhXhXhXhXhXhXhXhXhXhXhXhXhXhXhXhXhXhXhXhXhXhXhXhXNXNXhXhXhXhXhXhXhX5X6X6X6X5X5X6X6XyXyXyXyX5X6X5X5X6X6X5XiXhX7X5X5X<X,X,X,X,X,X,X,X,X,X4X6X6XhXhXhXhXhXhXhXhXhXhXhXhXhXhXhXhXhXhXhXhXhXhXhXhXhXhXhXhXhXhXhXhXhXhXhXhXhXhXhXhXhXhXhXhXhXhXhXhXhXhXhXhXhXhXhXhXhXhXhXhXhXhXhXhXhXhXhXhXhXhXhXhXhXhXhXhXhXhXhXhXhXhXhXhX",
"iXiXiXiXiXiXiXiXiXiXiXiXiXiXiXiXiXiXiXiXiXiXiXiXiXiXiXiXiXiXiXiXiXiXiXiXiXiXiXiXiXiXiXiXiXiXiXiXhXhXhXiXiXiXiXiXiXiXiXiXiXiXiXiXiXiXiXiXiXiXiXiXiXiXiXiXiXiXiXiXiXiXiXiXiXiXiXiXiXiXiXiXiXiXiXiXiXiXiXiXiXiXiXiXiXiXiXiXiXiXiXiXiXiXiXiXiXiXiXiXiXiXiXiXiXiXiXiXiXiXiXiXhXhXhX5X6X6X6X6X6X:X7X:X7X;X6X7X:X6X6X6X6X5XiXhX7X5X5X2X2X2X2X2X2X2X2X2X2X4X6X6XhXhXiXiXiXiXiXiXiXiXiXiXiXiXiXiXiXiXiXiXiXiXiXiXiXiXiXiXiXiXiXiXiXiXiXiXiXiXiXiXiXiXiXiXiXiXiXiXiXiXiXiXiXiXiXiXiXiXiXiXiXiXiXiXiXiXiXiXiXiXiXiXiXiXiXiXiXiXiXiXiXiXiXiX",
"5X5X5X5X5X5X5X5X5X5X5X5X5X5X5X5X5X5X5X5X5X5X5X5X5X5X5X5X5X5X5X5X5X5X5X5X5X5X5X5X5X5X5X5X5X5X5X:XiXhX6X:X5X5X5X5X5X5X5X5X5X5X5X5X5X5X5X5X5X5X5X5X5X5X5X5X5X5X5X5X5X5X5X5X5X5X5X5X5X5X5X5X5X5X5X5X5X5X5X5X5X5X5X5X5X5X5X5X5X5X5X5X5X5X5X5X5X5X5X5X5X5X5X5X5X5X5X5X5X5X5X5X6XhXhX5X6X6X5X7X,.r f.hXf.5 q.f.5 9.7X5X6X5XiXhX7X5X5X<X,X,X,X,X,X,X,X,X,X4X6X6XhXhX5X5X5X6X6X6X6X6X6X6X6X6X6X6X6X6X6X6X6X6X6X6X6X6X6X6X6X5X5X6X6X6X6X6X6X6X6X6X6X6X6X6X6X6X6X6X6X6X6X6X6X6X6X6X6X6X6X6X6X5X5X5X5X5X5X5X5X5X5X5X5X5X5X5X5X5X5X5X5X5X5X5X",
"6X6X6X6X6X6X6X6X6X6X6X6X6X6X6X6X6X6X6X6X6X6X6X6X6X6X6X6X6X6X6X6X6X6X6X6X6X6X6X6X6X6X6X6X6X6X6X5XiXhX6X5X6X@XT.T.T.T.T.T.T.T.T.T.T.T.T.T.T.T.T.T.T.T.T.T.T.T.T.T.T.T.T.T.T.T.T.T.T.T.T.T.T.T.T.T.T.T.T.T.T.T.T.T.T.T.T.T.T.T.T.T.T.T.T.T.T.T.T.T.T.T.T.T.T.T.T.T.T.@X5X6X6XhXhX5X6X5X7XY.m I.m NXm I.,.5 T.m @X6X5X5XiXhX7X5X5X2X2X2X2X2X2X2X2X2X2X4X6X6XhXhX6X6X5X-X-X-X-X-X-X-X-X-X-X-X-X-X-X-X-X-X-X-X-X-X-X-X-X:X6X;X-X-X-X-X-X-X-X-X-X-X-X-X-X-X-X-X-X-X-X-X-X-X-X-X-X-X-X-X-X5X6X6X6X6X6X6X6X6X6X6X6X6X6X6X6X6X6X6X6X6X6X6X",
"6X6X6X6X6X6X6X6X6X6X6X6X6X6X6X6X6X6X6X6X6X6X6X6X6X6X6X6X6X6X6X6X6X6X6X6X6X6X6X6X6X6X6X6X6X6X6X5XiXhX6X5X6XT.-X:X:X:X:X:X:X:X:X:X:X:X:X:X:X:X:X:X:X:X:X:X:X:X:X:X:X:X:X;X;X:X;X;X;X;X:X;X;X;X;X;X:X:X:X:X:X:X:X:X:X:X:X:X:X:X:X:X:X:X:X:X:X:X:X:X:X:X:X:X:X:X:X:X;XT.5X5X6XhXhX5X6X5X7XB.,.:Xn BXm :X,.3 iXm U.7X5X5XiXhX7X5X5X<X,X,X,X,X,X,X,X,X,X4X6X6XhXhX6X6X:XY.@X@X@X@X@X@X@X@X@X@X@X@X@X@X@X@X@X@X@X@X@X@XY.-X6XT.T.@X@X@X@X@X@X@X@X@X@X@X@X@X@X@X@X@X@X@X@X@X@X@X@X@X@X@XY.:X6X5X6X6X6X6X6X6X6X6X6X6X6X6X6X6X6X6X6X6X6X6X",
"6X6X6X6X6X6X6X6X6X6X6X6X6X6X6X6X6X6X6X6X6X6X6X6X6X6X6X6X6X6X6X6X6X6X6X6X6X6X6X6X6X6X6X6X6X6X6X5XiXhX6X5X6XT.;X6X6X6X6X6X6X6X6X6X6X6X6X6X6X6X6X6X6X6X6X6X6X6X6X6X6X6X6X7X6X6XhX7XiX7X6X7X7X7X6XiX6X6X6X6X6X6X6X6X6X6X6X6X6X6X6X6X6X6X6X6X6X6X6X6X6X6X6X6X6X6X6X6X5XT.5X5X6XhXhX5X6X5X6X$Xn q.m U.,.q.M n e.n -X6X5X5XiXhX7X5X5X4X2X2X2X2X2X2X2X2X2X4X6X6XhXhX6X6X:XT.6X6X7X7X6X7X7X6X7X7X6X6X6X6X6X6X7X7X6X6X6X7X@X-X6X@X;X6X6X7X7X7X6X7X6X6X7X7X6X7X7X6X6X6X6X6X6X6X7X6X6X6X6X6XT.:X6X5X6X6X6X6X6X6X6X6X6X6X6X6X6X6X6X6X6X6X6X6X",
"6X6X6X6X6X6X6X6X6X6X6X6X6X6X6X6X6X6X6X6X6X6X6X6X6X6X6X6X6X6X6X6X6X6X6X6X6X6X6X6X6X6X6X6X6X6X6X5XiXhX6X5X6XT.;X6X5X5X5X5X5X5X5X5X5X5X5X5X5X5X5X5X5X5X5X5X5X5X5X5X5X5X7XI.@X7Xe.B.d.Y.:XI.T.Y.$Xf.7X5X5X5X5X5X5X5X5X5X5X5X5X5X5X5X5X5X5X5X5X5X5X5X5X5X5X5X5X5X5X6X:XT.5X5X6XhXhX5X6X6X5X7Xs.m Y.q.@Xm d.$Xn d.7X5X6X5XiXhX7X5X5X,X,X,X,X,X,X,X,X,X,X4X6X6XhXhX6X6X:XT.6X6X-X$X6X-X$X6X$X@X5X5X:X6X:X:X;X-X6X:X:X6X@X-X6XT.;X6X6X@X-X;X;X@X5X6X$X@X7X$X-X:X:X:X5X6X6X;X-X5X6X:X5X5XT.:X6X5X6X6X6X6X6X6X6X6X6X6X6X6X6X6X6X6X6X6X6X6X",
"6X6X6X6X6X6X6X6X6X6X6X6X6X6X6X6X6X6X6X6X6X6X6X6X6X6X6X6X6X6X6X6X6X6X6X6X6X6X6X6X6X6X6X6X6X6X6X5XiXhX6X5X6XT.;X6X5X6X6X6X6X6X6X6X6X6X6X6X6X6X6X6X6X6X6X6X6X6X6X6X6X:XhX3.f.NX3.d.M N -X9.d.9.9.I.7X5X5X5X6X6X6X6X6X6X6X6X6X6X6X6X6X6X6X6X6X6X6X6X6X6X6X6X6X6X6X6X:XT.5X5X6XhXhX5X6X6X6X5XiXhX7X7X6XhX7X6XhX7X5X6X6X5XiXhX7X5X5X4X4X4X4X4X4X4X4X4X4X4X6X6XhXhX6X6X:XT.6X6X3.3.B.3.3.B.,.s.:X$Xb 7X9.e.9.3.d.e.-X7X@X-X6XT.;X7Xs.q.d.,.q.,.q.Y.M I.d.3.d.q.7Xq.6XM I.s.9.m T.a.-X6XT.:X6X5X6X6X6X6X6X6X6X6X6X6X6X6X6X6X6X6X6X6X6X6X",
"6X6X6X6X6X6X6X6X6X6X6X6X6X6X6X6X6X6X6X6X6X6X6X6X6X6X6X6X6X6X6X6X6X6X6X6X6X6X6X6X6X6X6X6X6X6X6X5XiXhX6X5X6XT.;X6X5X6X6X6X6X6X6X6X6X6X6X6X6X6X6X6X6X6X6X6X6X6X6X6X6X:XhX9.f.hXq.B.e.M q.s.I.3 e.NX:X6X6X6X6X6X6X6X6X6X6X6X6X6X6X6X6X6X6X6X6X6X6X6X6X6X6X6X6X6X6X6X:XT.5X5X6XhXhX5X6X6X6X6X:X:X:X7X6X6X7X5X:X5X6X6X6X5XiXhX7X5X6X6X6X6X6X6X6X6X6XyX6X6X5X6XhXhX6X6X:XT.6X:X9.e.e.e.a.s.M d.7X;Xb Y.M s.e.@XM e.iX6X@X-X6XT.-XiXq.q.:Xq.e.$Xs.e.M B.3.;XhXM 9.M @XM s.B.s.M ,.e.-X6XT.:X6X5X6X6X6X6X6X6X6X6X6X6X6X6X6X6X6X6X6X6X6X6X",
"6X6X6X6X6X6X6X6X6X6X6X6X6X6X6X6X6X6X6X6X6X6X6X6X6X6X6X6X6X6X6X6X6X6X6X6X6X6X6X6X6X6X6X6X6X6X6X5XiXhX6X5X6XT.;X6X5X6X6X6X6X6X6X6X6X6X6X6X6X6X6X6X6X6X6X6X6X6X6X6X6X:XhX9.I.CXq.I.9.Y.b 9.B.M ,.$X:X;X:X;X6X6X6X6X6X6X6X6X6X6X6X6X6X6X6X6X6X6X6X6X6X6X6X6X6X6X6X6X:XT.5X5X6XhXhX5X6X6X6X6X6X:XhXd.Y.$XB.5X6X5X6X6X6X5XiXhX7X5X6X5X6X<X4X6X4X2X4X,X2X5X5X6XhXhX6X6X:XT.6X6Xm e.;Xm m T.9.:Xd.d.9.3.3.d.e.T.M e.iX6X@X-X6XT.;X6XiXe.9.e.q.$Xs.e.q.5X3.;XhX3.Y.9.e.b M s.a.s.3.b 5X6XT.:X6X5X6X6X6X6X6X6X6X6X6X6X6X6X6X6X6X6X6X6X6X6X",
"6X6X6X6X6X6X6X6X6X6X6X6X6X6X6X6X6X6X6X6X6X6X6X6X6X6X6X6X6X6X6X6X6X6X6X6X6X6X6X6X6X6X6X6X6X6X6X5XiXhX6X5X6XT.;X6X5X6X6X6X6X6X6X6X6X6X6X6X6X6X6X6X6X6X6X6X6X6X6X6X6X:XhXq.N s.M e.q.;Xe.M I.s.B.3.e.s.s.q.5X6X5X6X6X6X6X6X6X6X6X6X6X6X6X6X6X6X6X6X6X6X6X6X6X6X6X6X:XT.5X5X6XhXhX5X6X6X6X6X5X6X-Xn e.b M m 6X5X5X6X6X5XiXhX7X5X6X6X5X'.].6X'.].OX].].6X5X6XhXhX6X6X:XT.6X:Xq.iX;Xe.B.e.,.s.$XY.a.9.s.d.9.,.I.q.@X7X@X-X6XT.;X7XB.q.q.3.q.M q.T.M B.d.,.B.q.6Xe.9.Y.s.M q.s.@XN :X6XT.:X6X5X6X6X6X6X6X6X6X6X6X6X6X6X6X6X6X6X6X6X6X6X",
"6X6X6X6X6X6X6X6X6X6X6X6X6X6X6X6X6X6X6X6X6X6X6X6X6X6X6X6X6X6X6X6X6X6X6X6X6X6X6X6X6X6X6X6X6X6X6X5XiXhX6X5X6XT.;X6X5X5X5X5X5X5X5X5X5X5X5X5X5X5X5X5X5X5X5X5X5X5X5X5X5X5X6X:X@X$X;X;X5X5X6X5X5X:X6X;X:X:X:X:X5X5X5X5X5X5X5X5X5X5X5X5X5X5X5X5X5X5X5X5X5X5X5X5X5X5X5X6X:XT.5X5X6XhXhX5X6X6X6X:XiXs.n 5 s.n d.n 6X5X5X6X6X5XiXhX7X5X6X2X4X6X].6X'.].OX2X'.yX5X6XhXhX6X6X:XT.6X5X:X:X5X:X5X:X-X$X6X6X:X6X5X:X;X;X6X:X:X6X@X-X6XT.;X6X-X$X6X;X:X@X5X6X$X$X6X$X-X5X5X:X:X7X6X;X;X:X6X6X5X5XT.:X6X5X6X6X6X6X6X6X6X6X6X6X6X6X6X6X6X6X6X6X6X6X",
"6X6X6X6X6X6X6X6X6X6X6X6X6X6X6X6X6X6X6X6X6X6X6X6X6X6X6X6X6X6X6X6X6X6X6X6X6X6X6X6X6X6X6X6X6X6X6X5XiXhX6X5X6XT.;X6X6X6X6X6X6X6X6X6X6X6X6X6X6X6X6X6X6X6X6X6X6X6X6X6X6X6X6X6X7X7X6X6X6X6X6X6X6X6X6X6X6X6X6X6X6X6X6X6X6X6X6X6X6X6X6X6X6X6X6X6X6X6X6X6X6X6X6X6X6X6X6X6X5XT.5X5X6XhXhX5X6X6X6X:XhXn -X9.e.b ,.m 5X6X5X6X6X5XiXhX7X5X6XOX1X].OX6XOX=.,X].,X6X5X6XhXhX6X6X:XT.6X6X6X6X6X6X6X6X7X7X6X6X6X6X6X6X7X7X6X6X6X7X@X-X6X@X;X6X7X7X6X7X6X7X6X6X7X7X6X7X7X6X6X6X6X6X6X7X6X6X6X6X6X6XT.:X6X5X6X6X6X6X6X6X6X6X6X6X6X6X6X6X6X6X6X6X6X6X",
"6X6X6X6X6X6X6X6X6X6X6X6X6X6X6X6X6X6X6X6X6X6X6X6X6X6X6X6X6X6X6X6X6X6X6X6X6X6X6X6X6X6X6X6X6X6X6X5XiXhX6X5X6XT.-X:X;X:X:X:X:X:X:X:X:X:X:X:X:X:X:X:X:X:X:X:X:X:X:X:X:X:X:X:X;X;X;X;X:X:X:X;X:X:X:X;X:X:X:X:X:X:X:X:X:X:X:X:X:X:X:X:X:X:X:X:X:X:X:X:X:X:X:X:X:X:X:X:X;XT.5X5X6XhXhX5X6X6X6X:XhX3.,.r e.b f.5 -X6X5X6X6X5XiXhX7X5X5XyX4X].OX2X1XOX5X1X6X6X5X6XhXhX6X6X:XY.@X@X@X@X@X@X@X@X@X@X@X@X@X@X@X@X@X@X@X@X@X@XY.-X6XT.T.@X@X@X@X@X@X@X@X@X@X@X@X@X@X@X@X@X@X@X@X@X@X@X@X@X@X@XY.:X6X5X6X6X6X6X6X6X6X6X6X6X6X6X6X6X6X6X6X6X6X6X",
"6X6X6X6X6X6X6X6X6X6X6X6X6X6X6X6X6X6X6X6X6X6X6X6X6X6X6X6X6X6X6X6X6X6X6X6X6X6X6X6X6X6X6X6X6X6X6X5XiXhX6X5X6X@XT.T.T.T.T.T.T.T.T.T.T.T.T.T.T.T.T.T.T.T.T.T.T.T.T.T.T.T.T.T.T.T.T.T.T.T.T.T.T.T.T.T.T.T.T.T.T.T.T.T.T.T.T.T.T.T.T.T.T.T.T.T.T.T.T.T.T.T.T.T.T.T.T.T.T.@X5X6X6XhXhX6X6X6X6X5X6X:Xq.q.-Xq.,.I.7X5X6X6X6X5XiXhX7X5X6X5X6XrXyX6X6XyX6X6X6X6X6X6XhXhX6X6X5X-X-X-X-X-X-X-X-X-X-X-X-X-X-X-X-X-X-X-X-X-X-X-X-X:X6X;X-X-X-X-X-X-X-X-X-X-X-X-X-X-X-X-X-X-X-X-X-X-X-X-X-X-X-X-X-X5X6X6X6X6X6X6X6X6X6X6X6X6X6X6X6X6X6X6X6X6X6X6X",
"5X5X5X5X5X5X5X5X5X5X5X5X5X5X5X5X5X5X5X5X5X5X5X5X5X5X5X5X5X5X5X5X5X5X5X5X5X5X5X5X5X5X5X5X5X5X5X:XiXhX6X:X5X5X5X5X5X5X5X5X5X5X5X5X5X5X5X5X5X5X5X5X5X5X5X5X5X5X5X5X5X5X5X5X5X5X5X5X5X5X5X5X5X5X5X5X5X5X5X5X5X5X5X5X5X5X5X5X5X5X5X5X5X5X5X5X5X5X5X5X5X5X5X5X5X5X5X5X5X5X5X5X6XhXhX5X5X5X5X5X5X6XhXhX6XhXhX7X:X5X5X5X5X:XiXhX6X:X5X5X5X4X5X5X5X5X5X5X5X5X5X6XhXhX5X5X5X6X6X6X6X6X6X6X6X6X6X6X6X6X6X6X6X6X6X6X6X6X6X6X6X5X5X6X6X6X6X6X6X6X6X6X6X6X6X6X6X6X6X6X6X6X6X6X6X6X6X6X6X6X6X6X6X5X5X5X5X5X5X5X5X5X5X5X5X5X5X5X5X5X5X5X5X5X5X5X",
"iXiXiXiXiXiXiXiXiXiXiXiXiXiXiXiXiXiXiXiXiXiXiXiXiXiXiXiXiXiXiXiXiXiXiXiXiXiXiXiXiXiXiXiXiXiXiXiXhXhXhXiXiXiXiXiXiXiXiXiXiXiXiXiXiXiXiXiXiXiXiXiXiXiXiXiXiXiXiXiXiXiXiXiXiXiXiXiXiXiXiXiXiXiXiXiXiXiXiXiXiXiXiXiXiXiXiXiXiXiXiXiXiXiXiXiXiXiXiXiXiXiXiXiXiXiXiXiXiXiXiXiXhXhXhXiXiXiXiXiXiXiX7X7XiX7X7X7XiXiXiXiXiXiXhXhXhXiXiXiXiXiXiXiXiXiXiXiXiXiXiXiXhXhXiXiXiXiXiXiXiXiXiXiXiXiXiXiXiXiXiXiXiXiXiXiXiXiXiXiXiXiXiXiXiXiXiXiXiXiXiXiXiXiXiXiXiXiXiXiXiXiXiXiXiXiXiXiXiXiXiXiXiXiXiXiXiXiXiXiXiXiXiXiXiXiXiXiXiXiXiXiXiXiXiXiX",
"NXNXNXNXNXNXNXNXNXNXNXNXNXNXNXNXNXNXNXNXNXNXNXNXNXNXNXNXNXNXNXNXNXNXNXNXNXNXNXNXNXNXNXNXNXNXNXNXhXhXNXNXNXNXNXNXNXNXNXNXNXNXNXNXNXNXNXNXNXNXNXNXNXNXNXNXNXNXNXNXNXNXNXNXNXNXNXNXNXNXNXNXNXNXNXNXNXNXNXNXNXNXNXNXNXNXNXNXNXNXNXNXNXNXNXNXNXNXNXNXNXNXNXNXNXNXNXNXNXNXNXNXNXhXhXNXNXNXNXNXNXNXNXNXNXNXNXNXNXNXNXNXNXNXhXhXhXNXNXNXNXNXNXNXNXNXNXNXNXNXNXNXhXhXNXNXNXNXNXNXNXNXNXNXNXNXNXNXNXNXNXNXNXNXNXNXNXNXNXNXNXNXNXNXNXNXNXNXNXNXNXNXNXNXNXNXNXNXNXNXNXNXNXNXNXNXNXNXNXNXNXNXNXNXNXNXNXNXNXNXNXNXNXNXNXNXNXNXNXNXNXNXNXNXNXNX",
"@X@X@X@X@X@X@X@X@X@X@X@X@X@X@X@X@X@X@X@X@X@X@X@X@X@X@X@X@X@X@X@X@X@X@X@X@X@X@X@X@X@X@X@X@X@X@X@X$X$X$X@X@X@X@X@X@X@X@X@X@X@X@X@X@X@X@X@X@X@X@X@X@X@X@X@X@X@X@X@X@X@X@X@X@X@X@X@X@X@X@X@X@X@X@X@X@X@X@X@X@X@X@X@X@X@X@X@X@X@X@X@X@X@X@X@X@X@X@X@X@X@X@X@X@X@X@X@X@X@X@X@X$X$X$X@X@X@X@X@X@X@X@X@X@X@X@X@X@X@X@X@X$X@X6XNX;X@X$X@X@X@X@X@X@X@X@X@X@X@X@X$X$X$X@X@X@X@X@X@X@X@X@X@X@X@X@X@X@X@X@X@X@X@X@X@X@X@X@X@X@X@X@X@X@X@X@X@X@X@X@X@X@X@X@X@X@X@X@X@X@X@X@X@X@X@X@X@X@X@X@X@X@X@X@X@X@X@X@X@X@X@X@X@X@X@X@X@X@X@X@X@X@X@X@X@X",
"U.U.U.U.U.U.U.U.U.U.U.U.U.U.U.U.U.U.U.U.U.U.U.U.U.U.U.U.U.U.U.U.U.U.U.U.U.U.U.U.U.U.U.U.U.U.U.U.U.U.U.U.U.U.U.U.U.U.U.U.U.U.U.U.U.U.U.U.U.U.U.U.U.U.U.U.U.U.U.U.U.U.U.U.U.U.U.U.U.U.U.U.U.U.U.U.U.U.U.U.U.U.U.U.U.U.U.U.U.U.U.U.U.U.U.U.U.U.U.U.U.U.U.U.U.U.U.U.U.U.U.U.U.U.U.U.U.U.U.U.U.U.U.U.U.U.U.U.U.U.U.U.U.I.:XBX$XI.U.U.U.U.U.U.U.U.U.U.U.U.U.U.U.U.U.U.U.U.U.U.U.U.U.U.U.U.U.U.U.U.U.U.U.U.U.U.U.U.U.U.U.U.U.U.U.U.U.U.U.U.U.U.U.U.U.U.U.U.U.U.U.U.U.U.U.U.U.U.U.U.U.U.U.U.U.U.U.U.U.U.U.U.U.U.U.U.U.U.U.U.U.U.U.U.U.U.",
"Y.Y.Y.Y.Y.Y.Y.Y.Y.Y.Y.Y.Y.Y.Y.Y.Y.Y.Y.Y.Y.Y.Y.Y.Y.Y.Y.Y.Y.Y.Y.Y.Y.Y.Y.Y.Y.Y.Y.Y.Y.Y.Y.Y.Y.Y.Y.Y.Y.Y.Y.Y.Y.Y.Y.Y.Y.Y.Y.Y.Y.Y.Y.Y.Y.Y.Y.Y.Y.Y.Y.Y.Y.Y.Y.Y.Y.Y.Y.Y.Y.Y.Y.Y.Y.Y.Y.Y.Y.Y.Y.Y.Y.Y.Y.Y.Y.Y.Y.Y.Y.Y.Y.Y.Y.Y.Y.Y.Y.Y.Y.Y.Y.Y.Y.Y.Y.Y.Y.Y.Y.Y.Y.Y.Y.Y.Y.Y.Y.Y.Y.Y.Y.Y.Y.Y.Y.Y.Y.Y.Y.Y.Y.Y.Y.Y.Y.Y.Y.Y.Y.Y.Y.U.:XBX-XU.Y.T.U.@XT.Y.Y.Y.Y.Y.Y.Y.Y.Y.Y.Y.Y.Y.Y.Y.Y.Y.Y.Y.Y.Y.Y.Y.Y.Y.Y.Y.Y.Y.Y.Y.Y.Y.Y.Y.Y.Y.Y.Y.Y.Y.Y.Y.Y.Y.Y.Y.Y.Y.Y.Y.Y.Y.Y.Y.Y.Y.Y.Y.Y.Y.Y.Y.Y.Y.Y.Y.Y.Y.Y.Y.Y.Y.Y.Y.Y.Y.Y.Y.Y.Y.Y.Y.Y.Y.Y.Y.Y.Y.Y.Y.Y.Y.",
"Y.Y.Y.Y.Y.Y.Y.Y.Y.Y.Y.Y.Y.Y.Y.Y.Y.Y.Y.Y.Y.Y.Y.Y.Y.Y.Y.Y.Y.Y.Y.Y.Y.Y.Y.Y.Y.Y.Y.Y.Y.Y.Y.Y.Y.Y.Y.Y.Y.Y.Y.Y.Y.Y.Y.Y.Y.Y.Y.Y.Y.Y.Y.Y.Y.Y.Y.Y.Y.Y.Y.Y.Y.Y.Y.Y.Y.Y.Y.Y.Y.Y.Y.Y.Y.Y.Y.Y.Y.Y.Y.Y.Y.Y.Y.Y.Y.Y.Y.Y.Y.Y.Y.Y.Y.Y.Y.Y.Y.Y.Y.Y.Y.Y.Y.Y.Y.Y.Y.Y.Y.Y.Y.Y.Y.Y.Y.Y.Y.Y.Y.Y.Y.Y.Y.Y.Y.Y.Y.Y.Y.Y.Y.Y.Y.Y.Y.Y.Y.Y.Y.Y.Y.U.:XBX$XU.@XM m M U.T.U.T.Y.U.@XY.I.T.I.Y.Y.U.T.T.U.Y.Y.Y.Y.Y.Y.Y.Y.Y.Y.Y.Y.Y.Y.Y.Y.Y.Y.Y.Y.Y.Y.Y.Y.Y.Y.Y.Y.Y.Y.Y.Y.Y.Y.Y.Y.Y.Y.Y.Y.Y.Y.Y.Y.Y.Y.Y.Y.Y.Y.Y.Y.Y.Y.Y.Y.Y.Y.Y.Y.Y.Y.Y.Y.Y.Y.Y.Y.Y.Y.Y.Y.Y.Y.Y.Y.Y.",
"Y.Y.Y.Y.Y.Y.Y.Y.Y.Y.Y.Y.Y.Y.Y.Y.Y.Y.Y.Y.Y.Y.Y.Y.Y.Y.Y.Y.Y.Y.Y.Y.Y.Y.Y.Y.Y.Y.Y.Y.Y.Y.Y.Y.Y.Y.Y.Y.Y.Y.Y.Y.Y.Y.Y.Y.Y.Y.Y.Y.Y.Y.Y.Y.Y.Y.Y.Y.Y.Y.Y.Y.Y.Y.Y.Y.Y.Y.Y.Y.Y.Y.Y.Y.Y.Y.Y.Y.Y.Y.Y.Y.Y.Y.Y.Y.Y.Y.Y.Y.Y.Y.Y.Y.Y.Y.Y.Y.Y.Y.Y.Y.Y.Y.Y.Y.Y.Y.Y.Y.Y.Y.Y.Y.Y.Y.Y.Y.Y.Y.Y.Y.Y.Y.Y.Y.Y.Y.Y.Y.Y.Y.Y.Y.Y.Y.Y.Y.Y.Y.Y.Y.Y.U.:XBX$XU.T.N Y.3.9.q.m d.9.M e.M 9.3.M d.3.,.a.N e.T.Y.Y.Y.Y.Y.Y.Y.Y.Y.Y.Y.Y.Y.Y.Y.Y.Y.Y.Y.Y.Y.Y.Y.Y.Y.Y.Y.Y.Y.Y.Y.Y.Y.Y.Y.Y.Y.Y.Y.Y.Y.Y.Y.Y.Y.Y.Y.Y.Y.Y.Y.Y.Y.Y.Y.Y.Y.Y.Y.Y.Y.Y.Y.Y.Y.Y.Y.Y.Y.Y.Y.Y.Y.Y.Y.Y.",
"Y.Y.Y.Y.Y.Y.Y.Y.Y.Y.Y.Y.Y.Y.Y.Y.Y.Y.Y.Y.Y.Y.Y.Y.Y.Y.Y.Y.Y.Y.Y.Y.Y.Y.Y.Y.Y.Y.Y.Y.Y.Y.Y.Y.Y.Y.Y.Y.Y.Y.Y.Y.Y.Y.Y.Y.Y.Y.Y.Y.Y.Y.Y.Y.Y.Y.Y.Y.Y.Y.Y.Y.Y.Y.Y.Y.Y.Y.Y.Y.Y.Y.Y.Y.Y.Y.Y.Y.Y.Y.Y.Y.Y.Y.Y.Y.Y.Y.Y.Y.Y.Y.Y.Y.Y.Y.Y.Y.Y.Y.Y.Y.Y.Y.Y.Y.Y.Y.Y.Y.Y.Y.Y.Y.Y.Y.Y.Y.Y.Y.Y.Y.Y.Y.Y.Y.Y.Y.Y.Y.Y.Y.Y.Y.Y.Y.Y.Y.Y.Y.Y.Y.Y.U.:XBX$XU.T.M Y.d.N b M b N M N M d.,.9.q.b M N M @XU.Y.Y.Y.Y.Y.Y.Y.Y.Y.Y.Y.Y.Y.Y.Y.Y.Y.Y.Y.Y.Y.Y.Y.Y.Y.Y.Y.Y.Y.Y.Y.Y.Y.Y.Y.Y.Y.Y.Y.Y.Y.Y.Y.Y.Y.Y.Y.Y.Y.Y.Y.Y.Y.Y.Y.Y.Y.Y.Y.Y.Y.Y.Y.Y.Y.Y.Y.Y.Y.Y.Y.Y.Y.Y.Y.Y.",
"Y.Y.Y.Y.Y.Y.Y.Y.Y.Y.Y.Y.Y.Y.Y.Y.Y.Y.Y.Y.Y.Y.Y.Y.Y.Y.Y.Y.Y.Y.Y.Y.Y.Y.Y.Y.Y.Y.Y.Y.Y.Y.Y.Y.Y.Y.Y.Y.Y.Y.Y.Y.Y.Y.Y.Y.Y.Y.Y.Y.Y.Y.Y.Y.Y.Y.Y.Y.Y.Y.Y.Y.Y.Y.Y.Y.Y.Y.Y.Y.Y.Y.Y.Y.Y.Y.Y.Y.Y.Y.Y.Y.Y.Y.Y.Y.Y.Y.Y.Y.Y.Y.Y.Y.Y.Y.Y.Y.Y.Y.Y.Y.Y.Y.Y.Y.Y.Y.Y.Y.Y.Y.Y.Y.Y.Y.Y.Y.Y.Y.Y.Y.Y.Y.Y.Y.Y.Y.Y.Y.Y.Y.Y.Y.Y.Y.Y.Y.Y.Y.Y.Y.Y.U.:XBX$XU.T.N f.M 3.N q.e.b q.d.d.b d.,.b N s.9.3.@XU.Y.Y.Y.Y.Y.Y.Y.Y.Y.Y.Y.Y.Y.Y.Y.Y.Y.Y.Y.Y.Y.Y.Y.Y.Y.Y.Y.Y.Y.Y.Y.Y.Y.Y.Y.Y.Y.Y.Y.Y.Y.Y.Y.Y.Y.Y.Y.Y.Y.Y.Y.Y.Y.Y.Y.Y.Y.Y.Y.Y.Y.Y.Y.Y.Y.Y.Y.Y.Y.Y.Y.Y.Y.Y.Y.Y.",
"Y.Y.Y.Y.Y.Y.Y.Y.Y.Y.Y.Y.Y.Y.Y.Y.Y.Y.Y.Y.Y.Y.Y.Y.Y.Y.Y.Y.Y.Y.Y.Y.Y.Y.Y.Y.Y.Y.Y.Y.Y.Y.Y.Y.Y.Y.Y.Y.Y.Y.Y.Y.Y.Y.Y.Y.Y.Y.Y.Y.Y.Y.Y.Y.Y.Y.Y.Y.Y.Y.Y.Y.Y.Y.Y.Y.Y.Y.Y.Y.Y.Y.Y.Y.Y.Y.Y.Y.Y.Y.Y.Y.Y.Y.Y.Y.Y.Y.Y.Y.Y.Y.Y.Y.Y.Y.Y.Y.Y.Y.Y.Y.Y.Y.Y.Y.Y.Y.Y.Y.Y.Y.Y.Y.Y.Y.Y.Y.Y.Y.Y.Y.Y.Y.Y.Y.Y.Y.Y.Y.Y.Y.Y.Y.Y.Y.Y.Y.Y.Y.Y.Y.Y.U.:XBX-XU.@X3.m 9.@Xe.M d.e.,.s.,.9.q.M d.q.3.e.e.@XU.Y.Y.Y.Y.Y.Y.Y.Y.Y.Y.Y.Y.Y.Y.Y.Y.Y.Y.Y.Y.Y.Y.Y.Y.Y.Y.Y.Y.Y.Y.Y.Y.Y.Y.Y.Y.Y.Y.Y.Y.Y.Y.Y.Y.Y.Y.Y.Y.Y.Y.Y.Y.Y.Y.Y.Y.Y.Y.Y.Y.Y.Y.Y.Y.Y.Y.Y.Y.Y.Y.Y.Y.Y.Y.Y.Y.",
"Y.Y.Y.Y.Y.Y.Y.Y.Y.Y.Y.Y.Y.Y.Y.Y.Y.Y.Y.Y.Y.Y.Y.Y.Y.Y.Y.Y.Y.Y.Y.Y.Y.Y.Y.Y.Y.Y.Y.Y.Y.Y.Y.Y.Y.Y.Y.Y.Y.Y.Y.Y.Y.Y.Y.Y.Y.Y.Y.Y.Y.Y.Y.Y.Y.Y.Y.Y.Y.Y.Y.Y.Y.Y.Y.Y.Y.Y.Y.Y.Y.Y.Y.Y.Y.Y.Y.Y.Y.Y.Y.Y.Y.Y.Y.Y.Y.Y.Y.Y.Y.Y.Y.Y.Y.Y.Y.Y.Y.Y.Y.Y.Y.Y.Y.Y.Y.Y.Y.Y.Y.Y.Y.Y.Y.Y.Y.Y.Y.Y.Y.Y.Y.Y.Y.Y.Y.Y.Y.Y.Y.Y.Y.Y.Y.Y.Y.Y.Y.Y.Y.Y.Y.U.:XBX$XU.Y.@X@X@XY.T.@XY.@X@XT.@X@XT.@XT.@XT.T.T.Y.Y.Y.Y.Y.Y.Y.Y.Y.Y.Y.Y.Y.Y.Y.Y.Y.Y.Y.Y.Y.Y.Y.Y.Y.Y.Y.Y.Y.Y.Y.Y.Y.Y.Y.Y.Y.Y.Y.Y.Y.Y.Y.Y.Y.Y.Y.Y.Y.Y.Y.Y.Y.Y.Y.Y.Y.Y.Y.Y.Y.Y.Y.Y.Y.Y.Y.Y.Y.Y.Y.Y.Y.Y.Y.Y.Y.Y.",
"Y.Y.Y.Y.Y.Y.Y.Y.Y.Y.Y.Y.Y.Y.Y.Y.Y.Y.Y.Y.Y.Y.Y.Y.Y.Y.Y.Y.Y.Y.Y.Y.Y.Y.Y.Y.Y.Y.Y.Y.Y.Y.Y.Y.Y.Y.Y.Y.Y.Y.Y.Y.Y.Y.Y.Y.Y.Y.Y.Y.Y.Y.Y.Y.Y.Y.Y.Y.Y.Y.Y.Y.Y.Y.Y.Y.Y.Y.Y.Y.Y.Y.Y.Y.Y.Y.Y.Y.Y.Y.Y.Y.Y.Y.Y.U.U.U.U.U.U.U.U.U.U.U.U.U.U.U.U.U.U.U.U.U.U.U.U.U.U.U.U.U.U.U.U.U.U.U.U.U.U.U.U.U.U.U.U.U.U.U.U.U.U.U.U.U.U.U.U.U.Y.I.:XBX-XU.Y.Y.Y.Y.Y.Y.Y.Y.Y.Y.Y.Y.Y.Y.Y.Y.Y.Y.Y.Y.Y.Y.Y.Y.Y.Y.Y.Y.Y.Y.Y.Y.Y.Y.Y.Y.Y.Y.Y.Y.Y.Y.Y.Y.Y.Y.Y.Y.Y.Y.Y.Y.Y.Y.Y.Y.Y.Y.Y.Y.Y.Y.Y.Y.Y.Y.Y.Y.Y.Y.Y.Y.Y.Y.Y.Y.Y.Y.Y.Y.Y.Y.Y.Y.Y.Y.Y.Y.Y.Y.Y.Y.Y.Y.Y.Y.Y.Y.",
"6X6X6X6X6X6X6X5X:X:X6XhX7X:X:X5X6X5X6X6X6X6X6X6X6X6X6X6X6X6X6X6X6X6X6X6X6X6X6X6X6X6X6X6X6X6X6X6X6X6X6X6X6X6X6X6X6X6X6X6X6X6X6X6X6X6X6X6X6X6X6X6X6X6X6X6X6X6X6X6X6X6X6X6X6X6X6X5X6X5X:X:X7XhXd.<.0.0.0.0.0.0.0.0.0.0.0.0.0.0.0.0.0.0.0.0.0.0.0.0.0.0.0.0.0.0.0.0.0.0.0.0.0.0.0.0.0.0.0.0.0.0.0.0.0.0.0.0.0.0.0.0.0.<.@XVX6X:X:X:X:X:X:X:X:X:X:X:X:X:X:X:X:X:X:X:X:X:X:X:X:X:X:X:X:X:X:X:X:X:X:X:X:X:X:X:X:X:X:X:X:X:X:X:X:X:X:X:X:X:X:X:X:X:X:X:X:X:X:X:X:X:X:X:X:X:X:X:X:X:X:X:X:X:X:X:X:X:X:X:X:X:X:X:X:X:X:X:X:X:X:X:X:X:X:X:X",
">X>X>X>X>X>X>X>X6X5X7XhXhX5X6X4X*X*X*X*X*X*X*X*X*X*X*X*X*X*X*X*X*X*X*X*X*X*X*X*X*X*X*X*X*X*X*X*X*X*X*X*X*X*X*X*X*X*X*X*X*X*X*X*X*X*X*X*X*X*X*X*X*X*X*X*X*X*X*X*X*X*X*X*X*X*X*X*X*X4X6X5XiXVXa.1.<.<.<.<.<.<.<.<.<.<.<.<.<.<.<.<.<.<.<.<.<.<.<.<.<.<.<.<.<.<.<.<.<.<.<.<.<.<.<.<.<.<.<.<.<.<.<.<.<.<.<.<.<.<.<.<.<.1.@XVX6X5X6X6X6X6X6X6X6X6X6X6X6X6X6X6X6X6X6X6X6X6X6X6X6X6X6X6X6X6X6X6X6X6X6X6X6X6X6X6X6X6X6X6X6X6X6X6X6X6X6X6X6X6X6X6X6X6X6X6X6X6X6X6X6X6X6X6X6X6X6X6X6X6X6X6X6X6X6X6X6X6X6X6X6X6X6X6X6X6X6X6X6X6X6X6X6X6X6X6X",
"c c c c c c c c 7X:X6XhXiX:XpXJ.l Q W W W W W W W W W W W W W W W W W W W W W W W W W W W W W W W W W W W W W W W W W W W W W W W W W W W W W W W W W W W W W W W W W W W W W Q l J.uX:XiXBXs.1.4.<.<.<.<.<.<.<.<.<.<.<.4.0.0.0.0.0.0.0.0.0.0.0.0.0.0.0.0.0.0.0.0.0.0.0.0.0.0.0.0.0.0.0.0.0.0.0.0.0.0.0.0.0.0.0.4.1.@XVX6X5X6X6X6X5X6X5X:X:X5X6X6X5X5X6X6X5X6X6X6X6X6X6X6X6X6X6X6X6X6X6X6X6X6X5X:X5X:X6X6X6X6X6X6X6X6X6X6X6X6X6X6X6X6X6X6X6X6X6X6X6X6X5X6X5X:X:X6X6X5X6X6X6X6X6X6X6X5X6X6X5X6X6X6X6X6X6X6X6X6X6X6X6X6X6X6X5X6X:X",
"O O O O O O @ c 7X:X6XhXiX:XuX>.j - ; ; ; ; ; ; ; ; ; ; ; ; ; ; ; ; ; ; ; ; ; ; ; ; ; ; ; ; - - ; - - ; ; ; ; - ; - ; ; ; ; ; ; ; ; ; ; ; ; ; ; ; ; ; ; ; ; ; ; ; ; ; ; ; ; ; - j J.uX:XiXBXa.1.4.4.<.<.0.0.<.4.0.0.<.<.4.0.0.0.0.0.0.p.i.p.i.0.0.0.0.0.0.0.0.0.0.0.0.0.0.0.0.0.0.0.0.0.0.0.0.0.0.0.0.p.0.0.p.0.4.1.@XVX6X5X6X6X6X6X5X7XhXhX6X:X:X5X6X;X$X6X:X:X6X6X6X6X6X6X6X6X6X6X6X6X6X6X5X6X7X6XhX:X:X:X5X:X:X5X:X:X6X6X6X6X6X6X6X6X6X6X6X6X6X6X6X6X5X7XhXhX:X;X5X5X:X:X5X:X:X5X:X:X-X:X5X6X6X6X6X6X6X6X6X6X6X6X6X6X6X6X5XiX",
"O O O O O O @ c 7X:X6XhXiX:XuXJ.j - - - - - - - - - - - - - - - - - - - - - - - - - - - - - - : - ; ; - - - - - - : - - - - - - - - - - - - - - - - - - - - - - - - - - - - - - j J.uX:XiXBXa.1.4.1.<.4.2.n 4.1.n 2.<.<.4.0.0.i.i.i.p.0.,.0.,.p.0.0.0.0.0.0.0.0.0.0.0.0.0.0.0.0.0.0.0.0.0.0.0.0.0.0.p.1.p.0.p.0.4.1.@XVX6X5X6X6X6X5XiXB.b ,.;XiXhX5X@X5XU.iXhXiX5X6X6X6X6X6X6X6X6X6X6X6X6X5X6X$Xs.-X9.hXhXiX6XhXiX6XhXiX6X6X6X6X6X6X6X6X6X6X6X6X6X6X6X5X7Xa.b M m s.CX5XhXiX6XhX7X7XNXU.,.CX6X5X6X6X6X6X6X6X6X6X6X6X6X6X6X:XiXq.",
"O O O O O O @ c 7X:X6XhXiX:XuXJ.j - - - - - - - - - - - - - - - - - - - - - - - - - - - - - : j : j : : : : j : - : : - - - - - - - - - - - - - - - - - - - - - - - - - - - - - j J.uX:XiXBXa.1.<.2 <.<.2 3 5 5 2 n <.<.4.0.i.n 3 r i.5 5 5 5 i.0.0.0.0.0.0.0.0.0.0.0.0.0.0.0.0.0.0.0.0.0.0.0.0.0.i.2.+ n i.0.0.4.1.@XVX6X5X6X6X6X:XhX3.q.,.q.d.,.s.2 e.f.T.n s.7X5X6X6X6X6X6X6X6X6X6X6X6X5X7XY.n ,.s.s.m q.6X3.9.:X,.q.6X5X6X6X6X6X6X6X6X6X6X6X6X6X6X5X5X6Xn q.e.5 ,.$X3.9.@X,.d.f.,.e.5 M I.7X5X6X6X6X6X6X6X6X6X6X6X6X6X6X6X5 ",
"O O O O O O @ c 7X:X6XhXiX:XuXJ.j - - - - - - - - - - - - - - - - - - - - - - - - - - - - - : j : j : j j : j - - ; : - - - - - - - - - - - - - - - - - - - - - - - - - - - - - j J.uX:XiXBXa.1.<.2 <.1.2 r 3 5 5 1.<.<.<.i.2.2 0.3 n $ 5 $ b i.0.0.0.0.0.0.0.0.0.0.0.0.0.0.0.0.0.0.0.0.0.0.0.0.0.p.3 # 3 0.p.0.4.1.@XVX6X5X6X6X6X:XhXq.3 b -XI.b M M f.m ,.d.b T.7X5X6X6X6X6X6X6X6X6X6X6X5X6X;X% r DX5 s.m ,.b b 5 m 5 d.iX:X6X6X6X6X6X6X6X6X6X6X6X6X6X:XhX3.B.a.,.3.9.5 @XM n r 5 3.I.b s.m hX:X6X6X6X6X6X6X6X6X6X6X6X5XiXd.r ",
"O O O O O O @ c 7X:X6XhXiX:XuXJ.j - - - - - - - - - - - - - - - - - - - - - - - - - - - - - : j ; j : j j : j : ; j : - - - - - - - - - - - - - - - - - - - - - - - - - - - - - j J.uX:XiXBXa.1.<.3 0.4.$ 3 4.5 2 n 4.<.<.i.5 5 f.n 5 5 ,.3 ,.p.0.0.0.0.0.0.0.0.0.0.0.0.0.0.0.0.0.0.0.0.0.0.0.0.p.0.,.<.,.0.p.0.4.1.@XVX6X5X6X6X6X:XhX9.,.m s.m b m ,.Y.m m :Xn U.7X5X6X6X6X6X6X6X6X6X6X6X5X7XT.b m d.m ;X,.m r s.n b q.T.6X5X6X6X6X6X6X6X6X6X6X6X6X6X6X:XhX,.d.q.s.d.,.m BXb n e.@X,.n 3.$Xn hX:X6X6X6X6X6X6X6X6X6X6X6X:XhXM n ",
"O O O O O O @ c 7X:X6XhXiX:XuXJ.j - - - - - - - - - - - - - - - - - - - - - - - - - - - - - ; - - : : - ; : ; ; ; : : - - - - - - - - - - - - - - - - - - - - - - - - - - - - - j J.uX:XiXBXa.1.4.$ 5 n 2 0.p.3 n i.<.<.<.i.n 3 d.3 n 5 <.3 <.p.0.0.0.0.0.0.0.0.0.0.0.0.0.0.0.0.0.0.0.0.0.0.0.0.0.i.3 o 2 0.p.0.4.1.@XVX6X5X6X6X6X:XhXq.d.d.M m m a.m ,.q.d.r 3.7X5X6X6X6X6X6X6X6X6X6X6X6X5X7X@X3.$XM ,.-X3.I.,.9.U.M 9.;X6X5X6X6X6X6X6X6X6X6X6X6X6X6X6X:XiXq.B.s.d.d.q.,.iXB.m e.e.m ,.q.@X,.hX:X6X6X6X6X6X6X6X6X6X6X5X6X;X,.hX",
"O O O O O O @ c 7X:X6XhXiX:XuXJ.j - - - - - - - - - - - - - - - - - - - - - - - - - - - - - - - - - - - - - - - - - - - - - - - - - - - - - - - - - - - - - - - - - - - - - - - j J.uX:XiXBXa.1.0.b 5 n 2.<.4.2.,.4.<.<.4.0.p.5 3 3 p.5 <.5 <.p.0.0.0.0.0.0.0.0.0.0.0.0.0.0.0.0.0.0.0.0.0.0.0.0.0.p.<.$ ,.i.0.0.4.1.@XVX6X5X6X6X6X6X5X6X6X6X7X:X:X7X6X:X6X7X;X7X6X5X6X6X6X6X6X6X6X6X6X6X6X6X5X6X6X6X6X6X6X6X6X5X$X6X:X$X5X6X6X6X6X6X6X6X6X6X6X6X6X6X6X6X6X5X6X6X6X6X6X6X6X5X7X;X-X:X;X7X6X6X6X5X6X6X6X6X6X6X6X6X6X6X6X6X6X5X6X:X",
"O O O O O O @ c 7X:X6XhXiX:XuXJ.j - - - - - - - - - - - - - - - - - - - - - - - - - - - - - - - - - - - - - - - - - - - - - - - - - - - - - - - - - - - - - - - - - - - - - - - j J.uX:XiXBXa.1.4.0.p.0.0.<.<.0.4.<.<.<.4.0.p.i.0.p.p.p.0.p.0.0.0.0.0.0.0.0.0.0.0.0.0.0.0.0.0.0.0.0.0.0.0.0.0.0.0.0.p.0.p.0.p.0.4.1.@XVX6X5X6X6X6X6X6X5X5X5X5X6X6X5X6X6X5X5X6X5X5X6X6X6X6X6X6X6X6X6X6X6X6X6X6X6X5X5X5X5X6X5X5X6X6X5X6X6X6X6X6X6X6X6X6X6X6X6X6X6X6X6X6X6X6X6X5X5X5X5X5X5X5X6X5X6X6X6X6X5X5X6X5X6X6X6X6X6X6X6X6X6X6X6X6X6X6X6X5X5X",
"@ @ @ @ @ @ @ c 7X:X6XhXiX:XpX>.j : : : : : : : : : : : : : : : : : : : : : : : : : : : : : : : : : : : : : : : : : : : : : : : : : : : : : : : : : : : : : : : : : : : : : : : j J.uX:XiXBXa.1.4.<.<.<.<.<.<.<.<.<.<.<.4.0.0.0.p.0.0.0.0.0.0.p.p.p.p.p.p.p.p.p.p.p.p.p.p.p.p.p.p.p.p.p.0.p.0.0.p.p.0.p.0.0.p.0.4.1.@XVX6X5X6X6X6X6X6X6X6X6X6X6X6X6X6X6X6X6X6X6X6X6X6X6X6X6X6X6X6X6X6X6X6X6X6X6X6X6X6X6X6X6X6X6X6X6X6X6X6X6X6X6X6X6X6X6X6X6X6X6X6X6X6X6X6X6X6X6X6X6X6X6X6X6X6X6X6X6X6X6X6X6X6X6X6X6X6X6X6X6X6X6X6X6X6X6X6X6X6X6X",
"c c c c c c c V 7X:X6XhXiX:XyXJ.! ! ! ! ! ! ! ! ! ! ! ! ! ! ! ! ! ! ! ! ! ! ! ! ! ! ! ! ! ! ! ! ! ! ! ! ! ! ! ! ! ! ! ! ! ! ! ! ! ! ! ! ! ! ! ! ! ! ! ! ! ! ! ! ! ! ! ! ! ! ! ! ! J.yX:XiXBXa.1.4.<.<.<.<.<.<.<.<.<.<.<.4.0.0.0.0.0.0.0.0.0.0.0.0.0.0.0.0.0.0.0.0.0.0.0.0.0.0.0.0.0.0.0.0.0.0.0.0.0.0.0.0.0.0.0.4.1.@XVX6X5X6X6X6X6X6X6X6X6X6X6X6X6X6X6X6X6X6X6X6X6X6X6X6X6X6X6X6X6X6X6X6X6X6X6X6X6X6X6X6X6X6X6X6X6X6X6X6X6X6X6X6X6X6X6X6X6X6X6X6X6X6X6X6X6X6X6X6X5X5X5X5X5X5X5X5X5X6X6X6X6X6X6X6X6X6X6X6X6X6X6X6X6X6X6X6X6X6X6X",
"7X7X7X7X7X7X7X7X5X5X6XhXiX5X5X6XyXyXyXyXyXyXyXyXyXyXyXyXyXyXyXyXyXyXyXyXyXyXyXyXyXyXyXyXyXyXyXyXyXyXyXyXyXyXyXyXyXyXyXyXyXyXyXyXyXyXyXyXyXyXyXyXyXyXyXyXyXyXyXyXaXyXyXyXyXyXyXyXyX6X5X5XiXBXa.1.4.<.<.<.<.<.<.<.<.<.<.<.<.<.<.<.<.<.<.<.<.<.<.<.<.<.<.<.<.<.<.<.<.<.<.<.<.<.<.<.<.<.<.<.<.<.<.<.<.<.<.<.<.<.<.<.4.1.@XVX6X5X6X6X6X6X6X6X6X6X6X6X6X6X6X6X6X6X6X6X6X6X6X6X6X6X6X6X6X6X6X6X6X6X6X6X6X6X6X6X6X6X6X6X6X6X6X6X6X6X6X6X6X6X6X6X6X6X6X6X6X6X6X6X6X6X6X5X5X6XfXfX6X6X6X6XfX6X5X5X6X6X6X6X6X6X6X6X6X6X6X6X6X6X6X6X6X6X6X6X",
":X:X:X:X:X:X:X:X6X5X6XhXiX5X6X5X5X5X5X5X4X6X5X5X5X5X5X5X5X5X5X5X5X5X5X5X5X5X5X5X5X5X5X5X5X5X5X5X5X5X:X:X6X:X5X5X5X5X5X5X5X5X5X5X5X5X5X5X5X5X5X5X5X:X5X6X5X5X4X5X7X:X5X5X5X5X5X5X5X5X6X5XiXBXa.1.4.<.<.<.<.<.<.<.<.4.<.<.<.<.<.<.<.<.<.<.<.<.<.<.<.<.<.<.<.<.<.<.<.<.<.<.<.<.<.<.<.<.<.4.<.<.<.<.<.<.<.<.<.<.<.<.4.1.@XVX6X5X6X6X6X6X6X6X6X6X6X6X6X6X6X6X6X6X6X6X6X6X6X6X6X6X6X6X6X6X6X6X6X6X6X6X6X6X6X6X6X6X6X6X6X6X6X6X6X6X6X6X6X6X6X6X6X6X6X6X6X6X6X6X6X6X5X6XfX8X{.[.R Y Y T {.{.fXfX5X5X6X6X6X6X6X6X6X6X6X6X6X6X6X6X6X6X6X6X",
"6X6X5X6X6X6X6X6X6X5X6XhXiX5X6X6X6X6X6X5X6X;X;X5X6X5X6X6X:X6X6X5X6X6X6X6X6X6X6X6X6X6X6X6X6X6X6X6X6X5X6X7X;X7X6X5X6X6X6X6X6X6X6X6X6X6X6X6X6X6X6X6X5X7X5X;X5X6X6X;XI.6X6X6X5X6X6X6X6X6X6X5XiXBXa.1.4.<.<.<.<.<.<.4.<.1.<.<.4.<.4.<.<.4.<.<.<.<.<.<.<.<.<.<.<.<.<.<.<.<.<.<.<.<.<.<.<.<.0.<.<.0.<.<.<.<.<.<.<.<.<.<.4.1.@XVX6X5X6X6X6X6X6X6X6X6X6X5X5X:X:X5X5X6X6X6X6X6X6X6X6X6X6X6X6X6X6X6X6X6X6X6X6X6X6X5X5X5X5X5X5X6X6X6X6X6X6X6X6X6X6X6X6X6X6X6X6X6X6X6X6X5X6X8X[.I K K K K K K K K H C.fX6X5X6X6X6X6X6X6X6X6X6X6X6X6X6X6X6X6X6X",
"6X;X7X5X6X6X6X6X6X5X6XhXiX5X6X6X6X6X:XhX,.r q.7X:X6X:X:XiX:X6X6X5X6X6X6X6X6X6X6X6X6X6X6X6X6X6X6X5X6X:XM b ,.6X5X5X6X6X6X6X6X6X6X6X6X6X6X6X6X6X5X7Xf.b m Y.:X;X6XT.7X:X6X6X5X6X6X6X6X6X5XiXBXa.1.4.<.<.<.<.<.4.1.2 3 2.0.1.4.1.4.0.<.4.<.<.<.<.<.<.<.<.<.<.<.<.<.<.<.<.<.<.<.<.<.<.0.n 2 2 2.0.<.<.<.<.<.<.<.<.<.4.1.@XVX6X5X6X6X6X6X6X6X6X5X5X6XyXhXhXyX6X5X5X6X6X6X6X6X6X6X6X6X6X6X6X6X6X6X6X6X6X5X5X6XyXyXyXyX6X5X5X6X6X6X6X6X6X6X6X6X6X6X6X6X6X6X6X6X5XfX{.I K I T [. X8X8X{.[.I D D H 6X6X5X6X6X6X6X6X6X6X6X6X6X6X6X6X6X6X6X",
"b b d.iX:X6X6X6X6X5X6XhXiX5X6X6X6X6X:XhXm d.hXm m I.M ,.B.n r d.hX:X6X6X6X6X6X6X6X6X6X6X6X6X6X6X:XhXq.M CXn s.hX:X6X6X6X6X6X6X6X6X6X6X6X6X6X5X6X5Xr Y.:X6Xs.n s.q.q.r n ;X6X5X6X6X6X6X5XiXBXa.1.4.<.<.<.<.<.0.,.2 4.,.$ b n 2 n 5 2 2 4.<.<.<.<.<.<.<.<.<.<.<.<.<.<.<.<.<.<.<.<.<.<.2 1.2.2 0.<.<.<.<.<.<.<.<.<.4.1.@XVX6X5X6X6X6X6X6X6X5X6XhX*Xg.u.u.g.:XhX6X5X6X6X6X6X6X6X6X6X6X6X6X6X6X6X6X6X5X6XyX*XOXoXoXOX5XyX6X5X6X6X6X6X6X6X6X6X6X6X6X6X6X6X6X5XfX[.K K T 8XkXkXkXhXkXkXVXiXh.D * H 6X6X5X6X6X6X6X6X6X6X6X6X6X6X6X6X6X6X",
",.I.m hX:X6X6X6X6X5X6XhXiX5X6X6X6X6X:XhXm 5 d.r @Xq.r n 3 U.9.q.hX:X6X6X6X6X6X6X6X6X6X6X6X6X6X6X:XhX,.a.JX3.9.hX:X6X6X6X6X6X6X6X6X6X6X6X6X6X5X7X@Xb hXb q.I.b n ,.M f.,.f.iX5X6X6X6X6X5XiXBXa.1.4.<.<.<.<.<.4.1.$ 3 r 2 p.$ 3 $ 2 <.2 <.4.<.<.<.<.<.<.<.<.<.<.<.<.<.<.<.<.<.<.<.4.,.2 p.<.2 <.<.<.<.<.<.<.<.<.<.4.1.@XVX6X5X6X6X6X6X6X5XyX$X| , < = = = , | #XyX5X6X6X6X6X6X6X6X6X6X6X6X6X6X6X5XyX=X@._ ( ' ' ( X.y.;XyX5X6X6X6X6X6X6X6X6X6X6X6X6X6X5XfX[.K I [.kXhXhXhXhXhXhXhXr r.DX{.E * H 6X6X5X6X6X6X6X6X6X6X6X6X6X6X6X6X5X",
"3.U.m hX:X6X6X6X6X5X6XhXiX5X6X6X6X6X:XhXn B.VXb :Xe.r B.,.q.,.q.hX:X6X6X6X6X6X6X6X6X6X6X6X6X6X6X:XhXs.b ;Xb B.iX5X6X6X6X6X6X6X6X6X6X6X6X6X6X6X5X7Xr f.e.r b b b ,.M Y.,.d.iX5X6X6X6X6X5XiXBXa.1.4.<.<.<.<.<.0.,.2 i.n 3 i.2 5 n 2 n 2 <.<.<.<.<.<.<.<.<.<.<.<.<.<.<.<.<.<.<.<.<.<.4.2 n n 3 0.<.<.<.<.<.<.<.<.<.4.1.@XVX6X5X6X6X6X6X5XyXOX..= < 7 | | F < = , g.yX5X6X6X6X6X6X6X6X6X6X6X6X6X5XyXoX_ ' _ o.@.@.+.( ' X.OXyX5X6X6X6X6X6X6X6X6X6X6X6X5X6X{.I K {.kXhXhXhXhXhXhXVXd.+ e.VXVX8XE * h.kX5X6X6X6X6X6X6X6X6X6X6X6X6X5X7X",
"d.@Xs.iX5X6X6X6X6X5X6XhXiX5X6X6X6X6X:XiXa.Y.iXq.;X6X9.3.@X3.5 e.hX:X6X6X6X6X6X6X6X6X6X6X6X6X6X6X6X5X6Xe.3 b hX:X6X6X6X6X6X6X6X6X6X6X6X6X6X6X6X5X7XT.M m f.9.3.s.d.s.@Xs.Y.7X5X6X6X6X6X5XiXBXa.1.4.<.<.<.<.<.4.1.5 0.,.r 0.2.3 n n 3 $ <.<.<.<.<.<.<.<.<.<.<.<.<.<.<.<.<.<.<.<.<.<.0.,.3 # 2.0.<.<.<.<.<.<.<.<.<.4.1.@XVX6X5X6X6X6X5XyXoX_ ( | =XNXVXVXjX=X| = < g.yX5X6X6X6X6X6X6X6X6X6X6X5XyX_.( ( @.3XhXBXBXhX3Xo.' _ OXyX5X6X6X6X6X6X6X6X6X6X6X5X6XT K [.kXhXhXhXhXhXhXhXBXr 3 hXhXiXVX{.D D &X6X5X6X6X6X6X6X6X6X6X6X6X5X7XS.",
"7X6XiX5X6X6X6X6X6X5X6XhXiX5X6X6X6X6X6X5XiX6X5XiX6X6XhXiX6XCXq.q.hX:X6X6X6X6X6X6X6X6X6X6X6X6X6X6X6X6X5XhX:X9.:X6X5X6X6X6X6X6X6X6X6X6X6X6X6X6X6X6X5X6XhXhX7XiXhXiX7X7X6X7X6X5X6X6X6X6X6X5XiXBXa.1.4.<.<.<.<.<.<.4.0.<.4.0.<.0.0.4.0.p.3 <.4.<.<.<.<.<.<.<.<.<.<.<.<.<.<.<.<.<.<.<.<.<.4.p.n n 0.<.<.<.<.<.<.<.<.<.4.1.@XVX6X5X6X6X5X6X;X..( `.BXR.;XNXhXhXBXVX8.= , #X6X5X6X6X6X6X6X6X6X6X5XyX=X_ _ oXBXjXhXhXhXhXjXjX@.' X.4X6X5X6X6X6X6X6X6X6X6X5X6X{.I I iXhXhXhXhXhXhXhXVXT.# q.CXhXhXhXVXH * h.kX5X6X6X6X6X6X6X6X6X6X5X7X&Xg ",
"5X5X:X6X6X6X6X6X6X5X6XhXiX5X6X6X6X6X6X6X:X5X6X:X:X:X;X:X5X:X;X:X6X5X6X6X6X6X6X6X6X6X6X6X6X6X6X6X6X5X5X;X4X7X5X5X6X6X6X6X6X6X6X6X6X6X6X6X6X6X6X6X6X5X:X:X:X;X;X;X:X:X5X5X5X6X6X6X6X6X6X5XiXBXa.1.4.<.<.<.<.<.<.<.<.<.<.<.<.<.<.<.<.<.1.<.<.<.<.<.<.<.<.<.<.<.<.<.<.<.<.<.<.<.<.<.<.<.<.1.4.4.<.<.<.<.<.<.<.<.<.<.4.1.@XVX6X5X6X6X5XyXy.' o.VX6X# b CXhXhXhXhXVX| = | yX5X6X6X6X6X6X6X6X6X5XyX@.' @.SXhXhXhXhXhXhXfXhXhXo.' `.yX5X6X6X6X6X6X6X6X6X5XfX[.K [.kXhXhXhXhXhXhXhXVXN % 6XNXhXhXhXVX{.D E 5X6X5X6X6X6X6X6X6X6X6X5X7Xk.g ",
":X5X6X6X6X6X6X6X6X5X6XhXiX5X6X6X6X6X6X6X6X5X5XyXpXpXpXyX6X:X6X6X5X6X6X6X6X6X6X6X6X6X6X6X6X6X6X5X5X6XyXpXpXyXyX5X4X6X6X6X6X6X6X6X6X6X6X6X6X6X6X6X6X5X:X6XiXjXjXjXiX6X:X5X6X6X6X6X6X6X6X5XiXBXa.1.4.<.<.<.<.<.<.<.<.<.4.0.0.0.0.0.<.<.4.<.<.<.<.<.<.<.<.<.<.<.<.<.<.<.<.<.<.<.<.<.<.0.0.0.0.0.4.<.<.<.<.<.<.<.<.<.4.1.@XVX6X5X6X5X6X5XX.( OXjXVX9.+ s.VXhXhXhXBX=X< , $X6X5X6X6X6X6X6X6X5X6X*X_ _ 7XjXhXhXhXhXhXVXCXhXBXOX/ X.:X6X5X6X6X6X6X6X6X5X6X6XY K  XkXhXhXhXhXhXhXhXhX% M VXhXhXhXhXhXiXE D {.7X5X6X6X6X6X6X6X6X5X6X&XJ g ",
"iX6X:X6X6X6X6X6X6X5X6XhXiX5X6X6X6X6X6X5X5XyX6XL.t. . .J.=XyX6X:X6X6X6X6X6X6X6X6X6X6X6X6X6X6X5X6XyX=XJ. . .t.K.6XyX5X5X6X6X6X6X6X6X6X6X6X6X6X6X6X5X5XhX;Xg.| | | u.;XjX6X5X6X6X6X6X6X6X5XiXBXa.1.4.<.<.<.<.<.<.<.4.0.1.2.F F F 2.<.0.<.<.<.<.<.<.<.<.<.<.<.<.<.<.<.<.<.<.<.<.<.0.<.2.6 6 6 6 1.0.4.<.<.<.<.<.<.<.4.1.@XVX6X5X6X5XyX=X_ +.fXhXhXNX5 r NXhXhXhXhXhX7 < f.yX5X6X6X6X6X6X6X5XyXoX( o.jXhXhXhXhXhXhXI.M 3 M fX, , #X6X5X6X6X6X6X6X6X5X6X4XI I iXhXhXhXhXhXhXhXhXhX$X;XNXhXhXhXhXhXhXH D C.fX5X6X6X6X6X6X6X6X5X7XA.g J ",
"V 6X7X:X6X6X6X6X6X5X6XhXiX5X6X6X6X6X5X6XyXL.! j h h h h k $.=XyX4X6X6X6X6X6X6X6X6X6X6X6X6X5XyX=X .k h h h h j ! J.yX5X5X6X6X6X6X6X6X6X6X6X6X6X5X6X6X8.< X X X X X > | ;XyX:X6X6X6X6X6X5XiXBXa.1.4.<.<.<.<.<.<.0.<.F 4 4 4 4 4 4 6 F 4.4.<.<.<.<.<.<.<.<.<.<.<.<.<.<.<.<.<.4.0.6 1           & 6 1.0.<.<.<.<.<.<.4.1.@XVX6X5X6X5XyXOX' o.jXhXhXNX5X5XhXhXhXhXhXVX| = g.hX5X6X6X6X6X6X6X4XyXoX^ `.VXhXhXhXhXNX5X% # 3 s.VX7 < OXyX5X6X6X6X6X6X6X5X6X8XI I hXhXhXhXhXhXhXhXhXhXBXNXhXhXhXhXhXhXVXH * h.kX5X6X6X6X6X6X6X6X5XfXS.g k.",
"@ c -X7X:X6X6X6X6X5X6XhXiX5X6X6X6X5X6X6X .j h l $.#.#.$.k h k L.yX:X6X6X6X6X6X6X6X6X6X6X5XyXL.k h j $.#.#. .l h j  .6X6X5X6X6X6X6X6X6X6X6X6X5X6X;Xz X X < |  .| z X X < K.yX:X6X6X6X6X5XiXBXa.1.4.<.<.<.<.<.0.1.6 4 4 6 F | F 6 4 4 6 <.4.<.<.<.<.<.<.<.<.<.<.<.<.<.<.<.4.<.4     1 6 6 6 4 &   1 2.0.<.<.<.<.<.4.1.@XVX6X5X6X5XyXOX' o.jXhXhXhXNXNXhXhXhXhXhXVX| = g.hX:X6X6X6X6X6X6X5XyXoX^ @.BXhXhXhXhXhXhXY.6XVXVXjXF = K.yX5X6X6X6X6X6X6X5X6X8XI I hXhXhXhXhXhXhXhXhXhXhXhXhXhXhXhXhXhXVXH * i.kX5X6X6X6X6X6X6X6X5XfXS.g k.",
"c @ c ;X6X5X6X6X6X5X6XhXiX5X6X6X6X5XyX .h k #.fXVXSXSXVX*X$.j k L.yX4X6X6X6X6X6X6X6X6X5XyXL.k j $.=XBXSXSXSXhXJ.k h  .yX5X6X6X6X6X6X6X6X6X5X6X5X, X < u.hXSXAXSXVXOX, X < #XyX5X6X6X6X5XiXBXa.1.4.<.<.<.<.4.1.4 4 6 1.p.i.i.i.p.2.4 4 6 4.<.<.<.<.<.<.<.<.<.<.<.<.<.<.<.4.4   & 6 0.i.i.i.i.1.4   & 2.0.<.<.<.<.4.1.@XVX6X5X6X5XyXOX_ X.7XhXhXhXhXhXhXhXhXhXhXhXF < K.yX5X6X6X6X6X6X6X5XyXoX/ +.hXhXhXhXhXhXhXVXNXhXhX7X, , #X6X5X6X6X6X6X6X6X5X6X4XI I aXhXhXhXhXhXhXhXhXhXhXhXhXhXhXhXhXhXBXH * f.fX5X6X6X6X6X6X6X6X5XfXA.g J ",
"kXc @ V 7X:X6X6X6X5X6XhXiX5X6X6X5XyXL.j k L.SXhXhXhXhXhXBXSX#.h l *X6X5X6X6X6X6X6X6X5X6X6Xl h  .hXBXhXhXhXhXhXSXOXk j J.yX5X6X6X6X6X6X6X6X:XjX| X < =XAXhXhXhXhXhXVXhXz X , yX5X5X6X6X5XiXBXa.1.4.<.<.<.<.0.6 4 6 0.i.0.0.0.0.0.i.<.6 4 6 0.<.<.<.<.<.<.<.<.<.<.<.<.<.0.6   & 2.i.0.0.0.0.0.i.i.4   1 <.<.<.<.<.4.1.@XVX6X5X6X5X6X6X+./ OXBXhXhXhXhXhXhXhXhXBXOX< , 5X6X5X6X6X6X6X6X6X5X6X;X..( 3XjXhXhXhXhXhXhXhXhXVXg.= F yX5X6X6X6X6X6X6X6X5X5X6XR K  XkXhXhXhXhXhXhXhXhXhXhXhXhXhXhXhXhXiXE D #X6X5X6X6X6X6X6X6X6X5X6X:XJ g ",
"VX>X@ O B.iX:X6X6X5X6XhXiX5X6X5X5X6X! h #.SXfXhXhXhXhXhXhXhXjX$.h  .pX4X6X6X6X6X6X6X4XyXt.h l hXjXhXhXhXhXhXhX7XSXJ.j l 5X6X5X6X6X6X6X6X5X6X#X> X g.AX7XhXhXhXhXhXhXBX4X< X g.yX:X6X6X5XiXBXa.1.4.<.<.<.0.2.4 4 <.p.0.0.0.0.0.0.0.p.1.4 4 1.4.<.<.<.<.<.<.<.<.<.<.<.4.<.1   6 a.0.0.0.0.0.0.0.p.0.1   6 0.<.<.<.4.1.@XVX6X5X6X6X5XyX`.' o.hXjXhXhXhXhXhXhXjXBX| = | yX5X6X6X6X6X6X6X6X6X5XyX@.' @.jXhXhXhXhXhXhXhXBX7X7 = u.yX5X6X6X6X6X6X6X6X6X5XfX[.K [.kXhXhXhXhXhXhXhXhXhXhXhXhXhXhXhXVX{.D E 5X6X5X6X6X6X6X6X6X6X6X5XfXk.g ",
"3 VXb . N hX:X6X6X5X6XhXiX5X6X5XyXOXj k fXhXhXhXhXhXhXVXVXCXFXL.j } 5X6X5X6X6X6X6X5X5XyX$.h J.SXfXhXhXhXhXBXVXCXCXhXl j L.yX5X6X6X6X6X6X:XyXu.X , VXhXhXhXhXhXhXhXhXfXAX| X z yX5X5X6X5XiXBXa.1.4.<.<.<.0.6 4 F i.0.0.0.0.0.p.i.i.i.i.6 4 2.0.<.<.<.<.<.<.<.<.<.<.<.0.2.  1 p.0.0.0.0.0.0.0.0.0.i.6   1 0.<.<.<.4.1.@XVX6X5X6X6X5X6X4XX.' @.hXhXhXhXhXhXhX7X| = , -X6X5X6X6X6X6X6X6X6X6X5X6X*X../ `.hXhXhXhXhXhXhX7X| = F 6X6X5X6X6X6X6X6X6X6X6X5X6X8XI I aXhXhXhXhXhXhXhXhXhXhXhXhXhXhXhXBXH * h.kX5X6X6X6X6X6X6X6X6X6X5X6X&XJ ",
"N NXr.o 3 iX:X6X6X5X6XhXiX5X6X4XyXJ.h $.BXhXhXhXhXhXhXI.e.b 9.fXj : #XyX5X6X6X6X6X5X6X;Xl k *XBXhXhXhXhXhX-Xa.M b yX .;  .pX:X6X6X6X6X6X:XjX| X 8.SXhXhXhXhXhXhXhXhXhXVXL.X , 6X6X5X6X5XiXBXa.1.4.<.<.<.4.6 4 1.p.0.0.0.0.p.4.m r 3 <.2.1 6 0.<.<.<.<.<.<.<.<.<.<.<.0.6   6 i.0.0.0.0.0.0.0.0.0.p.1.  1 <.4.<.<.4.1.@XVX6X5X6X6X6X5XyX=X..^ @.hXhXhXhXhXjX| = , f.yX5X6X6X6X6X6X6X6X6X6X6X5XyXOX_ ^ `.jXhXhXhXhXhX| = , #X6X5X6X6X6X6X6X6X6X6X6X6X5XfXT K T kXhXhXhXhXhXhXhXhXhXhXhXhXiXCX{.D E &X6X5X6X6X6X6X6X6X6X6X6X6X5X7XA.",
"VXVXR.+ % 7X5X6X6X5X6XhXiX5X6X:XpX#.h #.SXhXhXhXhXNX5X% # % N VX< X K.yX5X6X6X6X6X5X6X=Xj l fXhXhXhXhXhXVXN + % 3 yX8.X | jX:X6X6X6X6X6X:XjXz X g.SXhXVXhXhXhXhXhXhXhXBX*X- > 5X6X5X6X5XiXBXa.1.4.<.<.<.4.4 4 <.p.0.0.0.0.i.r o + + M 2.  1 0.<.<.<.<.<.<.<.<.<.<.<.0.6   6 i.0.0.0.i.p.0.0.0.0.p.0.& & 1.4.<.<.4.1.@XVX6X5X6X6X6X6X5XyX=XX.oXyX6X6X6X6XyXg.7 g.yX5X6X6X6X6X6X6X6X6X6X6X6X6X5XyXOXX.OXyX6X6X6X5XyXu.7 OXyX5X6X6X6X6X6X6X6X6X6X6X6X5X6X8XI K [.VXhXhXhXhXhXhXhXhXhXhXhXVX{.D D h.kX5X6X6X6X6X6X6X6X6X6X6X6X6X5XfX",
"hXVXR.+ % 7X5X6X6X5X6XhXiX5X6X:XpXt.h  .SXhXhXhXhXhXhXT.$XhXVXhX< X K.yX5X6X6X6X6X5X6X=Xk k 7XhXhXhXhXhXhX;XT.6XVXAX .X | jX:X6X6X6X6X6X:XjXz X u.SXVX@X3 N VXhXhXhXhXBX*X- < 5X6X5X6X5XiXBXa.1.4.<.<.<.4.6 4 1.p.0.0.0.0.p.<.m 1.4.i.2.  4 0.<.<.<.<.<.<.<.<.<.<.<.0.6   6 i.0.0.p.m 1.p.0.0.0.p.4.& & 1.4.<.<.4.1.@XVX6X5X6X6X6X6X6X5X6X5X6X6X5X5X5X5X6X6X5XyX5X6X6X6X6X6X6X6X6X6X6X6X6X6X6X5XyX5X6X6X5X5X5X5X6X6X5XyX5X6X6X6X6X6X6X6X6X6X6X6X6X6X5XfX{.I K [.hXhXhXhXhXhXhXhXhXhXNX{.D * H 7X5X5X6X6X6X6X6X6X6X6X6X6X6X6X6X5X",
"hXCX9.o b iX:X6X6X5X6XhXiX5X6X5XyXJ.j } hXhXhXhXhXhXhXVXBXhXBX*X- < ;X6X5X6X6X6X6X5X6X;Xl j OXVXhXhXhXhXhXNXVXNXhXVXz X u.yX:X6X6X6X6X6X:XjX| X | AX3.# % e.NXhXhXhXhXVXg.X z yX5X5X6X5XiXBXa.1.4.<.<.<.0.6 4 2.i.0.0.0.0.0.p.i.p.p.i.6   6 0.<.<.<.<.<.<.<.<.<.<.<.0.6   4 i.0.i.,.+ 3 i.0.0.0.i.2.  1 4.<.<.<.4.1.@XVX6X5X6X6X6X6X6X6X5X6X6X6X6X6X6X6X6X5X6X5X6X6X6X6X6X6X6X6X6X6X6X6X6X6X6X6X5X6X5X6X6X6X6X6X6X6X6X5X6X6X6X6X6X6X6X6X6X6X6X6X6X6X6X5XfX{.I K [.kXhXhXhXhXhXhXhXhX{.D D H 5X6X5X6X6X6X6X6X6X6X6X6X6X6X6X6X6X6X",
"hXhX% o q.hX:X6X6X5X6XhXiX5X6X5X6X*Xk j =XBXhXhXhXhXhXhXhXfXSX8.X z jX:X6X6X6X6X6X6X:XpX .h  .SXfXhXhXhXhXhXhXhXBX=X> - #X6X5X6X6X6X6X6X5XyXg.X > NX9.b hXCXhXhXhXhXhXVXz X | jX:X6X6X5XiXBXa.1.4.<.<.<.0.2.4 6 i.0.0.0.0.0.0.0.0.0.0.1   2.0.<.<.<.<.<.<.<.<.<.<.<.0.2.& & <.p.p.2 + <.p.0.0.0.i.6   6 0.<.<.<.4.1.@XVX6X5X6X6X6X6X6X6X6X5X6X6X6X6X6X6X6X6X5X6X6X6X6X6X6X6X6X6X6X6X6X6X6X6X6X6X6X5X6X6X6X6X6X6X6X5X5X6X6X6X6X6X6X6X6X6X6X6X6X6X6X6X6X6X5XfX{.Y {.6X6X7XiXhXiX7X6X6X;XE H 7X6X5X6X6X6X6X6X6X6X6X6X6X6X6X6X6X6X6X",
"JX9.o # $X6X5X6X6X5X6XhXiX5X6X6X5XyX .h $.BXBXhXhXhXhXhXhXAX=X> X u.yX:X6X6X6X6X6X6X5XyXL.j k OXSXhXhXhXhXhXhXhXAXz X z yX5X5X6X6X6X6X6X5X5X6X, ;  .FXVXNXhXhXhXhXhXFXg.X > K.yX5X6X6X5XiXBXa.1.4.<.<.<.4.1.4 4 2.i.0.0.0.0.0.0.0.a.6   1 <.4.<.<.<.<.<.<.<.<.<.<.<.<.0.4   4 a.,.+ 5 i.0.0.0.a.2.  & 2.0.<.<.<.4.1.@XVX6X5X6X6X6X6X6X6X6X6X6X6X6X6X6X6X6X6X6X6X6X6X6X6X6X6X6X6X6X6X6X6X6X6X6X6X6X6X6X6X6X6X6X6X6X6X6X6X6X6X6X6X6X6X6X6X6X6X6X6X6X6X6X6X6X5X6X5X6X6X5X5X5X5X5X5X5X5X6X:X7X6X5X6X6X6X6X6X6X6X6X6X6X6X6X6X6X6X6X6X",
"9.+ + q.hX:X6X6X6X5X6XhXiX5X6X6X5X6X*Xl h $.fXhXhXhXhXhXhXK.< X z yX5X5X6X6X6X6X6X6X6X5XyX .h l OXjXhXhXhXhXhX7X| X > #XyX5X6X6X6X6X6X6X6X5XyXL.k j #.hXhXhXhXhXhXhXu.> X | hX:X6X6X6X5XiXBXa.1.4.<.<.<.<.0.2.4 4 2.p.0.0.0.0.0.0.6     2.0.<.<.<.<.<.<.<.<.<.<.<.<.<.0.2.&   6 0.,.0.p.0.0.p.2.&   6 0.<.<.<.<.4.1.@XVX6X5X6X6X6X6X6X6X6X6X6X6X6X6X6X6X6X6X6X6X6X6X6X6X6X6X6X6X6X6X6X6X6X6X6X6X6X6X6X5X5X6X6X5X5X6X5X5X6X6X6X6X6X6X6X6X6X6X6X6X6X6X6X6X6X6X5X6X6X5X6X6X6X6X6X6X6X6X5X6X5X5X6X6X6X6X6X6X6X6X6X6X6X6X6X6X6X6X6X6X",
"+ o N iX:X6X6X6X6X5X6XhXiX5X6X6X6X5XyXK.k h  .jXhXhXhXhXhX, X , ;X6X5X6X6X6X6X6X6X6X6X5X6X6X$.h l 7XhXhXhXhXBX8.X = u.yX:X6X6X6X6X6X6X6X6X6X:XyXJ.j h L.jXhXhXhXhX;X> X z 6X5X5X6X6X6X5XiXBXa.1.4.<.<.<.<.<.0.6 4 4 1.0.0.0.0.p.2.    6 0.<.<.<.<.<.<.<.<.<.<.<.<.<.<.<.0.2.& & 2.i.0.0.0.0.4.1   4 <.<.<.<.<.<.4.1.@XVX6X5X6X6X6X6X6X6X6X6X6X6X6X6X6X6X6X6X6X6X6X6X6X6X6X6X6X6X6X6X6X6X6X6X6X6X6X6X5X6X6X6X5X6X6X:X6X6X5X6X6X6X6X6X6X6X6X6X6X6X6X6X6X6X6X6X6X5X5X6X6X5X6X6X6X5X6X6X5X6X6X5X6X6X6X6X6X6X6X6X6X6X6X6X6X6X6X6X6X6X",
"N N iX6X5X6X6X6X6X5X6XhXiX5X6X6X6X6X4XyXK.$.=X6X6X6X6X5XyXu.z *XyX5X6X6X6X6X6X6X6X6X6X6X5X6X6X$.t.yX5X6X6X6X6X*Xz u.yX:X6X6X6X6X6X6X6X6X6X6X6X:XpXJ.$.:X6X6X6X6X5XyX| | 6X6X5X6X6X6X6X5XiXBXa.1.4.<.<.<.<.<.<.0.F 6 4.<.4.4.<.<.4.4 6 0.<.<.<.<.<.<.<.<.<.<.<.<.<.<.<.<.<.0.2.6 1.<.<.4.4.<.0.6 4 <.4.<.<.<.<.<.4.1.@XVX6X5X6X6X6X6X6X6X6X6X6X6X6X6X6X6X6X6X6X6X6X6X6X6X6X6X6X6X6X6X6X6X6X6X6X6X6X5X7X-X$X6X6X:X:XiX;X:X6X5X6X6X6X6X6X6X6X6X6X6X6X6X6X6X6X6X6X5X6X$X5X7X@X$X6X6X;X;X7X-X;X7X5X6X6X6X6X6X6X6X6X6X6X6X6X6X6X6X6X6X",
"7XiX5X5X6X6X6X6X6X5X6XhXiX5X6X6X6X6X6X5XyXyX6X5X6X5X5X6X6X6XiX6X5X6X6X6X6X6X6X6X6X6X6X6X6X5X6XyX6X6X6X5X5X6X5X6XiXyX5X6X6X6X6X6X6X6X6X6X6X6X6X6X5XyXyX6X5X5X5X5X6X6X6XyX6X5X6X6X6X6X6X5XiXBXa.1.4.<.<.<.<.<.<.<.0.4.<.<.<.<.<.<.4.4.0.<.<.<.<.<.<.<.<.<.<.<.<.<.<.<.<.<.<.<.0.4.4.<.<.<.<.<.<.4.0.4.<.<.<.<.<.<.4.1.@XVX6X5X6X6X6X6X6X6X6X6X6X6X6X6X6X6X6X6X6X6X6X6X6X6X6X6X6X6X6X6X6X6X6X6X6X6X:X7XI.m d.iX@Xb m I.b m :X6X5X6X6X6X6X6X6X6X6X6X6X6X6X6X6X6X:X6XI.b ,.e.b e.6X;X,.b f.,.b Y.7X5X6X6X6X6X6X6X6X6X6X6X6X6X6X6X6X5X",
"5X:X5X6X6X6X6X6X6X5X6XhXiX5X6X6X6X6X6X6X5X5X5X6X6X6X6X6X6X5X5X5X6X6X6X6X6X6X6X6X6X6X6X6X6X6X5X5X5X6X6X6X6X6X6X5X5X5X6X6X6X6X6X6X6X6X6X6X6X6X6X6X6X5X5X5X6X6X6X6X6X5X5X5X5X6X6X6X6X6X6X5XiXBXa.1.4.<.<.<.<.<.<.<.<.<.<.<.<.<.<.<.<.<.<.<.<.<.<.<.<.<.<.<.<.<.<.<.<.<.<.<.<.<.<.<.<.<.<.<.<.<.<.<.<.<.<.<.<.<.<.<.4.1.@XVX6X5X6X6X6X6X6X6X6X6X5X5X6X6X5X5X6X5X5X6X6X6X6X6X6X6X6X6X6X6X6X6X6X6X6X5XiXNXn n U.hX3.e.s.3 B.3.s.hX:X6X6X6X6X6X6X6X6X6X6X6X6X6X6X5X7XhX-XiXM m b I.6X-XhXq.,.CX3.q.hX:X6X6X6X6X6X6X6X6X6X6X6X6X6X6X6X5X",
"5X5X6X:X5X5X5X6X6X5X6XhXiX5X6X6X6X6X5X6X5X5X6X6X5X5X5X5X6X5X5X6X5X5X6X6X6X6X6X6X6X6X6X6X6X6X6X5X6X5X5X6X6X5X5X6X5X5X6X6X6X6X6X6X6X6X6X6X6X6X5X6X5X5X5X6X6X6X5X5X5X5X5X5X6X5X:X5X5X5X6X5XiXBXa.1.4.<.<.<.<.<.<.<.<.<.<.<.<.<.<.<.<.<.<.<.<.<.<.<.<.<.<.<.<.<.<.<.<.<.<.<.<.<.<.<.<.<.<.<.<.<.<.<.<.<.<.<.<.<.<.<.4.1.@XVX6X5X6X6X6X6X6X6X6X5X6X7X6X5X6X7X:X6X6X5X6X6X6X6X6X6X6X6X6X6X6X6X6X6X5X6Xq.a.b s.b hX9.f.d.2 -Xq.q.hX:X6X6X6X6X6X6X6X6X6X6X6X6X6X5X7Xd.,.hXd.,.6XI.b T.NX:Xn :X;Xn ;X6X5X6X6X6X6X6X6X6X6X6X6X6X6X6X6X6X6X",
"6X5X5XiX6X7X7X5X6X5X6XhXiX5X6X6X6X5X6X5X6X6X5X5X6X6X7X7X6X6X6X6X6X6X5X5X6X6X6X6X6X6X6X6X6X6X6X6X5X6X6X6X5X7X6X:X7X6X5X6X6X6X6X6X6X6X6X6X6X5X6X5X6X7X5X6X6X5X6X7XiX7X6X6X5X6X7X6XiX6X5X5XiXBXa.1.4.<.<.<.4.<.4.0.<.4.0.<.4.4.<.4.4.<.<.4.<.<.4.<.<.<.<.<.<.<.<.<.<.<.<.<.<.<.4.4.<.<.<.0.<.4.0.<.4.0.<.<.<.<.<.<.4.1.@XVX6X5X6X6X6X6X6X6X5X7X$XY.6X6X;X@XiX-X$X7X5X6X6X6X6X6X6X6X6X6X6X6X6X6X6X6XU.$Xm s.m s.q.,.,.n 9.m f.iX5X6X6X6X6X6X6X6X6X6X6X6X6X6X5X6X@XY.B.5 I.T.T.m q.Y.r q.-X5 q.:X6X5X6X6X6X6X6X6X6X6X6X6X6X6X6X6X6X6X",
"5X5XiXa.;XY.Y.7X6X5X6XhXiX5X6X6X5X6X:X6X$X@X7X6X;X5XY.I.5X6X;X5X:X:XiX7X6X5X6X6X6X6X6X6X6X6X6X5X6X5X;X6X7X@X-XiXT.;X6X5X6X6X6X6X6X6X6X6X5X7X;X6X:XY.6X6X5X6X;X@XI.@X5X5XiX@Xd.6XB.-X7X:XiXBXa.1.4.<.<.4.1.4.1.,.0.1.,.0.1.,.0.,.1.4.<.1.<.<.<.0.0.<.<.<.<.<.<.<.<.<.<.<.<.0.,.1.4.4.<.2.0.<.,.0.1.,.4.<.<.<.<.<.4.1.@XVX6X5X6X6X6X6X6X5X7XY.m s.6X-Xn b d.n b T.7X5X6X6X6X6X6X6X6X6X6X6X6X6X6X5X7XiXT.m B.a.$X3.9.6X,.q.7X5X6X6X6X6X6X6X6X6X6X6X6X6X6X6X6X5X6XhXs.m ,.s.m d.f.s.M ,.9.M M d.7X5X6X6X6X6X6X6X6X6X6X6X6X6X6X6X6X6X",
"iX:XT.b s.r m q.iX:X6XhXiX5X6X5X6X:X3 d.m b T.@X3 d.r e.;X6Xn hXs.9.@XY.:X6X5X6X6X6X6X6X6X6X6X:XhXr 3.VXd.r ,.s.r M 6X6X5X6X6X6X6X6X6X:X7Xs.3 6X,.b a.7XhXe.5 d.M 3 @X7X:Xq.,.,.n n T.6X7XBXa.1.4.<.0.5 2 0.3 2 n 3 2 n 2 2 n 2 2 ,.0.3 0.n 5 ,.2.<.<.<.<.<.<.<.<.<.<.<.0.2.2 3 ,.0.3 2 n 3 2 n 3 2 n 0.<.<.<.<.4.1.@XVX6X5X6X6X6X6X6X:XhX,.r d.hXa.3.U.3 s.s.3.hX:X6X6X6X6X6X6X6X6X6X6X6X6X6X6X5X5X6XhX7X7X6XhXhX5XhXhX5X6X6X6X6X6X6X6X6X6X6X6X6X6X6X6X6X6X5X:XiXhXhXiXhX7X7X7XhXhXhXhXhX7X5X6X6X6X6X6X6X6X6X6X6X6X6X6X6X6X6X6X",
"NX,.n 5 a.,.q.,.hX:X6XhXiX5X6X:XiXe.r ,.e.s.3.e.r a.5 s.5X6Xr B.,.,.q.2 $X6X5X6X6X6X6X6X6X6X:XiXI.5 q.VXM I.9.3 $X,.B.iX5X6X6X6X6X6X6XiX7XT.b I.m -Xb iX;Xm n VX$Xm iX@Xn 5 ,.,.s.n I.7X7XBXa.1.4.<.4.n 3 n 3 ,.$ r 2.$ n n $ n r 5 p.2 n 5 3 5 # ,.0.<.<.<.<.<.<.<.<.<.0.5 n r r 1.3 <.$ 3 1.$ 5 2.3 0.<.<.<.<.4.1.@XVX6X5X6X6X6X6X6X5XiXb s.n -Xd.q.@X2 B.f.,.hX:X6X6X6X6X6X6X6X6X6X6X6X6X6X6X6X6X5X:X:X7X6X7X7X5X:X:X6X6X6X6X6X6X6X6X6X6X6X6X6X6X6X6X6X6X6X6X5X:X:X:X:X7X5XiX6X:X:X:X:X5X6X6X6X6X6X6X6X6X6X6X6X6X6X6X6X6X6X6X",
"6Xb hXm a.5 m 9.iX:X6XhXiX5X5XiXd.n m 9.,.b 3 ,.b B.7Xn s.NX5 ,.5 e.I.q.hX:X6X6X6X6X6X6X6X5X6X-Xb ,.,.CXM @Xq.3 6X,.d.iX5X6X6X6X5X6X5X,.s.NXn -X,.n b CXM ,.b 7X,.q.VXq.q.@X,.,.n n Y.7X7XBXa.1.4.<.4.1.3 n 5 1.# n ,.# n 2.# 2.n 5 i.2 3 2 5 2.5 0.<.<.<.<.<.<.<.<.<.<.0.5 n r r <.3 0.$ 5 4.$ 5 ,.3 0.<.<.<.<.4.1.@XVX6X5X6X6X6X6X6X:XhX,.3.,.9.s.m ,.m ,.m s.hX:X6X6X6X6X6X6X6X6X6X6X6X6X6X6X6X6X5X5XhXe.-XI.B.6X6X5X6X6X6X6X6X6X6X6X6X6X6X6X6X6X6X6X6X6X6X6X6X6X5X7X6Xq.:Xd.Y.7X5X6X6X6X6X6X6X6X6X6X6X6X6X6X6X6X6X6X6X6X6X6X",
"NXn q.5 e.m s.b iX:X6XhXiX5X5X7Xf.,.2 3.I.n 3.,.2 9.I.n f.iXr BXs.m 5 s.:X6X5X6X6X6X6X6X6X5X6X@X,.5 5 d.9.M M M ,.n @X6X5X6X6X6X6X6X5X@X-X7Xb ;X@Xm q.a.9.m 2 I.b ;XiXB.n ,.,.M s.n a.hX7XBXa.1.4.<.4.1.2 1.3 3 3 3 3 3 3 3 3 3 3 n 0.2 0.n 3 2 b <.<.<.<.<.<.<.<.<.<.<.0.n 3 3 5 n 3 3 3 3 3 3 3 3 5 0.<.<.<.<.4.1.@XVX6X5X6X6X6X6X6X5X6X:X,.f.f.@Xs.9.7Xe.q.6X5X6X6X6X6X6X6X6X6X6X6X6X6X6X6X6X6X5X6X:XU.b a.r ,.3.iX:X6X6X6X6X6X6X6X6X6X6X6X6X6X6X6X6X6X6X6X6X6X5X6X;Xs.n q.b m s.iX5X6X6X6X6X6X6X6X6X6X6X6X6X6X6X6X6X6X6X6X6X",
"7XY.3.s.$X,.,.@X6X5X6XhXiX5X6X5X7XBXU.$X9.d.hXhXU.T.,.d.7X5Xd.:XT.d.9.3.-X6X5X6X6X6X6X6X6X6X5X6XBX-XY.d.;X9.d.6X3.f.7X5X6X6X6X6X6X6X6X7X6X6Xd.6Xa.q.:Xs.iXiXI.-Xf.7X:X7Xs.3.Y.f.M e.6X5XiXBXa.1.4.<.4.<.n 0.n 5 0.n 5 0.r 5 0.5 r 0.4.n <.,.n 5 5 1.4.<.<.<.<.<.<.<.<.<.<.4.5 n 2.2.2.3 <.m 5 4.n 5 <.4.<.<.<.<.4.1.@XVX6X5X6X6X6X6X6X6X5X6XhX7XiX6XiXhX5XhXhX5X6X6X6X6X6X6X6X6X6X6X6X6X6X6X6X6X6X:XiX,.n 5 s.m q.,.hX:X6X6X6X6X6X6X6X6X6X6X6X6X6X6X6X6X6X6X6X6X5X6X6Xn b n q.3.,.a.iX:X6X6X6X6X6X6X6X6X6X6X6X6X6X6X6X6X6X6X6X6X",
"5X7XhXiX6XhXhX6X5X5X6XhXiX5X6X6X5X:X7X6XhXiX:X:X7X6XhXiX5X6XiX6X6XiXhXhX6X5X6X6X6X6X6X6X6X6X6X5X:X6X7XiX6XhXiX5XhXiX5X6X6X6X6X6X6X6X6X5X6X5XiX5XiXhX6XhX:X:X7X6XiX5X6X5XhXhX7X7XNXhX6X5XiXBXa.1.4.<.<.<.0.<.0.p.<.0.0.<.0.0.<.0.0.<.<.0.<.4.0.p.p.4.<.<.<.<.<.<.<.<.<.<.<.<.0.0.0.0.0.p.<.0.p.<.0.p.<.<.<.<.<.<.4.1.@XVX6X5X6X6X6X6X6X6X6X5X:X5X5X5X:X:X6X:X:X6X6X6X6X6X6X6X6X6X6X6X6X6X6X6X6X6X5X6X:Xb hXM a.r ,.,.7X5X6X6X6X6X6X6X6X6X6X6X6X6X6X6X6X6X6X6X6X6X5X7XI.m hXm q.b m a.iX:X6X6X6X6X6X6X6X6X6X6X6X6X6X6X6X6X6X6X6X6X",
"6X5X:X:X5X:X:X5X6X5X6XhXiX5X6X6X6X6X5X5X:X:X6X6X5X5X:X:X6X6X:X6X5X:X:X:X5X6X6X6X6X6X6X6X6X6X6X6X6X5X5X5X5X:X:X6X:X5X6X6X6X6X6X6X6X6X6X6X6X6X:X6X:X:X5X:X6X5X5X5X:X6X6X6X:X:X5X5X:X:X6X5XiXBXa.1.4.<.<.<.<.<.<.<.<.<.<.<.<.<.<.<.<.<.<.<.<.<.<.<.<.<.<.<.<.<.<.<.<.<.<.<.<.<.<.<.<.<.<.<.<.<.<.<.<.<.<.<.<.<.<.<.4.1.@XVX6X5X6X6X6X6X6X6X6X6X6X6X6X6X6X6X6X6X6X6X6X6X6X6X6X6X6X6X6X6X6X6X6X6X6X6X6X5X7Xm 3.5 e.n a.b 7X5X6X6X6X6X6X6X6X6X6X6X6X6X6X6X6X6X6X6X6X6X5X6X;Xb ,.b 9.,.,.,.hX:X6X6X6X6X6X6X6X6X6X6X6X6X6X6X6X6X6X6X6X6X",
"6X6X6X6X6X6X6X6X6X5X6XhXiX5X6X6X6X6X6X6X6X6X6X6X6X6X6X6X6X6X6X6X6X6X6X6X6X6X6X6X6X6X6X6X6X6X6X6X6X6X6X6X6X6X6X6X6X6X6X6X6X6X6X6X6X6X6X6X6X6X6X6X6X6X6X6X6X6X6X6X6X6X6X6X6X6X6X6X6X6X6X5XiXBXs.<.4.4.4.4.4.4.4.4.4.4.4.4.4.4.4.4.4.4.4.4.4.4.4.4.4.4.4.4.4.4.4.4.4.4.4.4.4.4.4.4.4.4.4.4.4.4.4.4.4.4.4.4.4.4.4.4.4.1.@XVX6X5X6X6X6X6X6X6X6X6X6X6X6X6X6X6X6X6X6X6X6X6X6X6X6X6X6X6X6X6X6X6X6X6X6X6X6X5X6X@Xq.d.-X9.9.$X6X5X6X6X6X6X6X6X6X6X6X6X6X6X6X6X6X6X6X6X6X6X6X5X7XI.q.I.@X,.q.5X6X6X6X6X6X6X6X6X6X6X6X6X6X6X6X6X6X6X6X6X6X6X",
"5X5X5X5X5X5X5X5X5X:X6XhXiX:X5X5X5X5X5X5X5X5X5X5X5X5X5X5X5X5X5X5X5X5X5X5X5X5X5X5X5X5X5X5X5X5X5X5X5X5X5X5X5X5X5X5X5X5X5X5X5X5X5X5X5X5X5X5X5X5X5X5X5X5X5X5X5X5X5X5X5X5X5X5X5X5X5X5X5X5X5X:XiXBXi.1.<.1.1.1.1.1.1.1.1.1.1.1.1.1.1.1.1.1.1.1.1.1.1.1.1.1.1.1.1.1.1.1.1.1.1.1.1.1.1.1.1.1.1.1.1.1.1.1.1.1.1.1.1.1.1.1.<.,.Y.VX6X:X5X5X5X5X5X5X5X5X5X5X5X5X5X5X5X5X5X5X5X5X5X5X5X5X5X5X5X5X5X5X5X5X5X5X5X5X5X6XhXiX6XhXhX6X5X5X5X5X5X5X5X5X5X5X5X5X5X5X5X5X5X5X5X5X5X5X5X5X:X7XhX7X6XhXhX5X5X5X5X5X5X5X5X5X5X5X5X5X5X5X5X5X5X5X5X5X5X5X",
"hXhXhXhXhXhXhXhXhXhXhXhXhXhXhXhXhXhXhXhXhXhXhXhXhXhXhXhXhXhXhXhXhXhXhXhXhXhXhXhXhXhXhXhXhXhXhXhXhXhXhXhXhXhXhXhXhXhXhXhXhXhXhXhXhXhXhXhXhXhXhXhXhXhXhXhXhXhXhXhXhXhXhXhXhXhXhXhXhXhXhXhXhXhX:X$X-X-X-X-X-X-X-X-X-X-X-X-X-X-X-X-X-X-X-X-X-X-X-X-X-X-X-X-X-X-X-X-X-X-X-X-X-X-X-X-X-X-X-X-X-X-X-X-X-X-X-X-X-X-X-X-X-X$X7XhXhXhXhXhXhXhXhXhXhXhXhXhXhXhXhXhXhXhXhXhXhXhXhXhXhXhXhXhXhXhXhXhXhXhXhXhXhXhXhXiX7XiXiX7X7XiXhXhXhXhXhXhXhXhXhXhXhXhXhXhXhXhXhXhXhXhXhXhXhXhXhXiX7XiXiX7X7XhXhXhXhXhXhXhXhXhXhXhXhXhXhXhXhXhXhXhXhXhXhXhX",
"hXhXhXhXhXhXhXhXhXhXhXhXhXhXhXhXhXhXhXhXhXhXhXhXhXhXhXhXhXhXhXhXhXhXhXhXhXhXhXhXhXhXhXhXhXhXhXhXhXhXhXhXhXhXhXhXhXhXhXhXhXhXhXhXhXhXhXhXhXhXhXhXhXhXhXhXhXhXhXhXhXhXhXhXhXhXhXhXhXhXhXhXhXhXNXBXBXBXBXBXBXBXBXBXBXBXBXBXBXBXBXBXBXBXBXBXBXBXBXBXBXBXBXBXBXBXBXBXBXBXBXBXBXBXBXBXBXBXBXBXBXBXBXBXBXBXBXBXBXBXBXBXBXBXhXhXhXhXhXhXhXhXhXhXhXhXhXhXhXhXhXhXhXhXhXhXhXhXhXhXhXhXhXhXhXhXhXhXhXhXhXhXhXhXhXhXhXhXhXhXhXhXhXhXhXhXhXhXhXhXhXhXhXhXhXhXhXhXhXhXhXhXhXhXhXhXhXhXhXhXhXhXhXhXhXhXhXhXhXhXhXhXhXhXhXhXhXhXhXhXhXhXhXhXhXhX",
"6X6X6X6X6X6X6X6X6X6X6X6X6X6X6X6X6X6X6X6X6X6X6X6X6X6X6X6X6X6X6X6X6X6X6X6X6X6X6X6X6X6X6X6X6X6X6X6X6X6X6X6X6X6X6X6X6X6X6X6X6X6X6X6X6X6X6X6X6X6X6X6X6X6X6X6X6X6X6X6X6X6X6X6X6X6X6X6X6X6X6X6X6X6X6X6X6X6X6X6X6X6X6X6X6X6X6X6X6X6X6X6X6X6X6X6X6X6X6X6X6X6X6X6X6X6X6X6X6X6X6X6X6X6X6X6X6X6X6X6X6X6X6X6X6X6X6X6X6X6X6X6X6X6X6X6X6X6X6X6X6X6X6X6X6X6X6X6X6X6X6X6X6X6X6X6X6X6X6X6X6X6X6X6X6X6X6X6X6X6X6X6X6X6X6X6X6X6X6X6X6X6X6X6X6X6X6X6X6X6X6X6X6X6X6X6X6X6X6X6X6X6X6X6X6X6X6X6X6X6X6X6X6X6X6X6X6X6X6X6X6X6X6X6X6X6X6X6X6X6X6X6X6X6X6X6X",
"5X5X5X5X5X5X5X5X5X5X5X5X5X5X5X5X5X5X5X5X5X5X5X5X5X5X5X5X5X5X5X5X5X5X5X5X5X5X5X5X5X5X5X5X5X5X5X5X5X5X5X5X5X5X5X5X5X5X5X5X5X5X5X5X5X5X5X5X5X5X5X5X5X5X5X5X5X5X5X5X5X5X5X5X5X5X5X5X5X5X5X5X5X5X5X5X5X5X5X5X5X5X5X5X5X5X5X5X5X5X5X5X5X5X5X5X5X5X5X5X5X5X5X5X5X5X5X5X5X5X5X5X5X5X5X5X5X5X5X5X5X5X5X5X5X5X5X5X5X5X5X5X5X5X5X5X5X5X5X5X5X5X5X5X5X5X5X5X5X5X5X5X5X5X5X5X5X5X5X5X5X5X5X5X5X5X5X5X5X5X5X5X5X5X5X5X5X5X5X5X5X5X5X5X5X5X5X5X5X5X5X5X5X5X5X5X5X5X5X5X5X5X5X5X5X5X5X5X5X5X5X5X5X5X5X5X5X5X5X5X5X5X5X5X5X5X5X5X5X5X5X5X5X5X5X5X",
"6X6X6X6X6X6X6X6X6X6X6X6X6X6X6X6X6X6X6X6X6X6X6X6X6X6X6X6X6X6X6X6X6X6X6X6X6X6X6X6X6X6X6X6X6X6X6X6X6X6X6X6X6X6X6X6X6X6X6X6X6X6X6X6X6X6X6X6X6X6X6X6X6X6X6X6X6X6X6X6X6X6X6X6X6X6X6X6X6X6X6X6X6X6X6X6X6X6X6X6X6X6X6X6X6X6X6X6X6X6X6X6X6X6X6X6X6X6X6X6X6X6X6X6X6X6X6X6X6X6X6X6X6X6X6X6X6X6X6X6X6X6X6X6X6X6X6X6X6X6X6X6X6X6X6X6X6X6X6X6X6X6X6X6X6X6X6X6X6X6X6X6X6X6X6X6X6X6X6X6X6X6X6X6X6X6X6X6X6X6X6X6X6X6X6X6X6X6X6X6X6X6X6X6X6X6X6X6X6X6X6X6X6X6X6X6X6X6X6X6X6X6X6X6X6X6X6X6X6X6X6X6X6X6X6X6X6X6X6X6X6X6X6X6X6X6X6X6X6X6X6X6X6X6X6X6X",
"6X6X6X6X6X6X6X6X6X6X6X6X6X6X6X6X6X6X6X6X6X6X6X6X6X6X6X6X6X6X6X6X6X6X6X6X6X6X6X6X6X6X6X6X6X6X6X6X6X6X6X6X6X6X6X6X6X6X6X6X6X6X6X6X6X6X6X6X6X6X6X6X6X6X6X6X6X6X6X6X6X6X6X6X6X6X6X6X6X6X6X6X6X6X6X6X6X6X6X6X6X6X6X6X6X6X6X6X6X6X6X6X6X6X6X6X6X6X6X6X6X6X6X6X6X6X6X6X6X6X6X6X6X6X6X6X6X6X6X6X6X6X6X6X6X6X6X6X6X6X6X6X6X6X6X6X6X6X6X6X6X6X6X6X6X6X6X6X6X6X6X6X6X6X6X6X6X6X6X6X6X6X6X6X6X6X6X6X6X6X6X6X6X6X6X6X6X6X6X6X6X6X6X6X6X6X6X6X6X6X6X6X6X6X6X6X6X6X6X6X6X6X6X6X6X6X6X6X6X6X6X6X6X6X6X6X6X6X6X6X6X6X6X6X6X6X6X6X6X6X6X6X6X6X6X6X",
"6X6X6X6X6X6X6X6X6X6X6X6X6X6X6X6X6X6X6X6X6X6X6X6X6X6X6X6X6X6X6X6X6X6X6X6X6X6X6X6X6X6X6X6X6X6X6X6X6X6X6X6X6X6X6X6X6X6X6X6X6X6X6X6X6X6X6X6X6X6X6X6X6X6X6X6X6X6X6X6X6X6X6X6X6X6X6X6X6X6X6X6X6X6X6X6X6X6X6X6X6X6X6X6X6X6X6X6X6X6X6X6X6X6X6X6X6X6X6X6X6X6X6X6X6X6X6X6X6X6X6X6X6X6X6X6X6X6X6X6X6X6X6X6X6X6X6X6X6X6X6X6X6X6X6X6X6X6X6X6X6X6X6X6X6X6X6X6X6X6X6X6X6X6X6X6X6X6X6X6X6X6X6X6X6X6X6X6X6X6X6X6X6X6X6X6X6X6X6X6X6X6X6X6X6X6X6X6X6X6X6X6X6X6X6X6X6X6X6X6X6X6X6X6X6X6X6X6X6X6X6X6X6X6X6X6X6X6X6X6X6X6X6X6X6X6X6X6X6X6X6X6X6X6X6X6X",
"6X6X6X6X6X6X6X6X6X6X6X6X6X6X6X6X6X6X6X6X6X6X6X6X6X6X6X6X6X6X6X6X6X6X6X6X6X6X6X6X6X6X6X6X6X6X6X6X6X6X6X6X6X6X6X6X6X6X6X6X6X6X6X6X6X6X6X6X6X6X6X6X6X6X6X6X6X6X6X6X6X6X6X6X6X6X6X6X6X6X6X6X6X6X6X6X6X6X6X6X6X6X6X6X6X6X6X6X6X6X6X6X6X6X6X6X6X6X6X6X6X6X6X6X6X6X6X6X6X6X6X6X6X6X6X6X6X6X6X6X6X6X6X6X6X6X6X6X6X6X6X6X6X6X6X6X6X6X6X6X6X6X6X6X6X6X6X6X6X6X6X6X6X6X6X6X6X6X6X6X6X6X6X6X6X6X6X6X6X6X6X6X6X6X6X6X6X6X6X6X6X6X6X6X6X6X6X6X6X6X6X6X6X6X6X6X6X6X6X6X6X6X6X6X6X6X6X6X6X6X6X6X6X6X6X6X6X6X6X6X6X6X6X6X6X6X6X6X6X6X6X6X6X6X6X6X",
"6X6X6X6X6X6X6X6X6X6X6X6X6X6X6X6X6X6X6X6X6X6X6X6X6X6X6X6X6X6X6X6X6X6X6X6X6X6X6X6X6X6X6X6X6X6X6X6X6X6X6X6X6X6X6X6X6X6X6X6X6X6X6X6X6X6X6X6X6X6X6X6X6X6X6X6X6X6X6X6X6X6X6X6X6X6X6X6X6X6X6X6X6X6X6X6X6X6X6X6X6X6X6X6X6X6X6X6X6X6X6X6X6X6X6X6X6X6X6X6X6X6X6X6X6X6X6X6X6X6X6X6X6X6X6X6X6X6X6X6X6X6X6X6X6X6X6X6X6X6X6X6X6X6X6X6X6X6X6X6X6X6X6X6X6X6X6X6X6X6X6X6X6X6X6X6X6X6X6X6X6X6X6X6X6X6X6X6X6X6X6X6X6X6X6X6X6X6X6X6X6X6X6X6X6X6X6X6X6X6X6X6X6X6X6X6X6X6X6X6X6X6X6X6X6X6X6X6X6X6X6X6X6X6X6X6X6X6X6X6X6X6X6X6X6X6X6X6X6X6X6X6X6X6X6X6X",
"6X6X6X6X6X6X6X6X6X6X6X6X6X6X6X6X6X6X6X6X6X6X6X6X6X6X6X6X6X6X6X6X6X6X6X6X6X6X6X6X6X6X6X6X6X6X6X6X6X6X6X6X6X6X6X6X6X6X6X6X6X6X6X6X6X6X6X6X6X6X6X6X6X6X6X6X6X6X6X6X6X6X6X6X6X6X6X6X6X6X6X6X6X6X6X6X6X6X6X6X6X6X6X6X6X6X6X6X6X6X6X6X6X6X6X6X6X6X6X6X6X6X6X6X6X6X6X6X6X6X6X6X6X6X6X6X6X6X6X6X6X6X6X6X6X6X6X6X6X6X6X6X6X6X6X6X6X6X6X6X6X6X6X6X6X6X6X6X6X6X6X6X6X6X6X6X6X6X6X6X6X6X6X6X6X6X6X6X6X6X6X6X6X6X6X6X6X6X6X6X6X6X6X6X6X6X6X6X6X6X6X6X6X6X6X6X6X6X6X6X6X6X6X6X6X6X6X6X6X6X6X6X6X6X6X6X6X6X6X6X6X6X6X6X6X6X6X6X6X6X6X6X6X6X6X6X",
"6X6X6X6X6X6X6X6X6X6X6X6X6X6X6X6X6X6X6X6X6X6X6X6X6X6X6X6X6X6X6X6X6X6X6X6X6X6X6X6X6X6X6X6X6X6X6X6X6X6X6X6X6X6X6X6X6X6X6X6X6X6X6X6X6X6X6X6X6X6X6X6X6X6X6X6X6X6X6X6X6X6X6X6X6X6X6X6X6X6X6X6X6X6X6X6X6X6X6X6X6X6X6X6X6X6X6X6X6X6X6X6X6X6X6X6X6X6X6X6X6X6X6X6X6X6X6X6X6X6X6X6X6X6X6X6X6X6X6X6X6X6X6X6X6X6X6X6X6X6X6X6X6X6X6X6X6X6X6X6X6X6X6X6X6X6X6X6X6X6X6X6X6X6X6X6X6X6X6X6X6X6X6X6X6X6X6X6X6X6X6X6X6X6X6X6X6X6X6X6X6X6X6X6X6X6X6X6X6X6X6X6X6X6X6X6X6X6X6X6X6X6X6X6X6X6X6X6X6X6X6X6X6X6X6X6X6X6X6X6X6X6X6X6X6X6X6X6X6X6X6X6X6X6X6X6X",
"6X6X6X6X6X6X6X6X6X6X6X6X6X6X6X6X6X6X6X6X6X6X6X6X6X6X6X6X6X6X6X6X6X6X6X6X6X6X6X6X6X6X6X6X6X6X6X6X6X6X6X6X6X6X6X6X6X6X6X6X6X6X6X6X6X6X6X6X6X6X6X6X6X6X6X6X6X6X6X6X6X6X6X6X6X6X6X6X6X6X6X6X6X6X6X6X6X6X6X6X6X6X6X6X6X6X6X6X6X6X6X6X6X6X6X6X6X6X6X6X6X6X6X6X6X6X6X6X6X6X6X6X6X6X6X6X6X6X6X6X6X6X6X6X6X6X6X6X6X6X6X6X6X6X6X6X6X6X6X6X6X6X6X6X6X6X6X6X6X6X6X6X6X6X6X6X6X6X6X6X6X6X6X6X6X6X6X6X6X6X6X6X6X6X6X6X6X6X6X6X6X6X6X6X6X6X6X6X6X6X6X6X6X6X6X6X6X6X6X6X6X6X6X6X6X6X6X6X6X6X6X6X6X6X6X6X6X6X6X6X6X6X6X6X6X6X6X6X6X6X6X6X6X6X6X6X"
};
