/* XPM */
static char *deesser_stereo[] = {
/* columns rows colors chars-per-pixel */
"256 256 256 2 ",
"   c #030303",
".  c #010B01",
"X  c #07080E",
"o  c #0C0C0C",
"O  c #090607",
"+  c #120A07",
"@  c #021401",
"#  c #091709",
"$  c #0A0B11",
"%  c #050A12",
"&  c #120E14",
"*  c #0E1114",
"=  c #0C1619",
"-  c #131313",
";  c #15161C",
":  c #1A161B",
">  c #16191E",
",  c #1B1B1C",
"<  c #1A1915",
"1  c #15120E",
"2  c #2A1818",
"3  c #1D231A",
"4  c #112514",
"5  c #22231D",
"6  c #2F3713",
"7  c #1B1C22",
"8  c #1C1D2C",
"9  c #151825",
"0  c #1C1D34",
"q  c #1D1E3A",
"w  c #131C31",
"e  c #0C1034",
"r  c #221B25",
"t  c #311332",
"y  c #1F2026",
"u  c #18232D",
"i  c #1B2432",
"p  c #1A2936",
"a  c #0F2B33",
"s  c #232324",
"d  c #292A25",
"f  c #24252A",
"g  c #262B2C",
"h  c #2B2B2C",
"j  c #292627",
"k  c #3A2B2B",
"l  c #27352B",
"z  c #35342B",
"x  c #262A32",
"c  c #2B2C32",
"v  c #242A38",
"b  c #2D3334",
"n  c #2B3638",
"m  c #323535",
"M  c #3A3A35",
"N  c #343539",
"B  c #333A3A",
"V  c #3A3C3C",
"C  c #373635",
"Z  c #362C35",
"A  c #47191A",
"S  c #433333",
"D  c #493B37",
"F  c #4D332D",
"G  c #6E322D",
"H  c #5E152F",
"J  c #3A4415",
"K  c #3B4439",
"L  c #3D4526",
"P  c #174A39",
"I  c #49570E",
"U  c #546900",
"Y  c #526506",
"T  c #45473C",
"R  c #584536",
"E  c #4B4C2E",
"W  c #69442D",
"Q  c #684834",
"!  c #734B33",
"~  c #725237",
"^  c #667321",
"/  c #18194B",
"(  c #14314D",
")  c #293849",
"_  c #3C3D42",
"`  c #343E49",
"'  c #343946",
"]  c #32314F",
"[  c #1D1D6F",
"{  c #143171",
"}  c #35184D",
"|  c #4A1252",
" . c #49354C",
".. c #5C0E66",
"X. c #63166D",
"o. c #6A1377",
"O. c #58306A",
"+. c #683070",
"@. c #732B4D",
"#. c #124757",
"$. c #2B434A",
"%. c #3C4343",
"&. c #32414E",
"*. c #3B4648",
"=. c #374655",
"-. c #2E4E59",
";. c #11556E",
":. c #2E536C",
">. c #336D72",
",. c #14677A",
"<. c #424545",
"1. c #444549",
"2. c #44494A",
"3. c #4A4B4D",
"4. c #4A4844",
"5. c #4B4D53",
"6. c #4B5354",
"7. c #535355",
"8. c #5B5B5D",
"9. c #55575A",
"0. c #555248",
"q. c #6C5449",
"w. c #6E6852",
"e. c #5E5F63",
"r. c #535763",
"t. c #474F6C",
"y. c #536A6B",
"u. c #636465",
"i. c #6A6A6C",
"p. c #65666A",
"a. c #6C6D71",
"s. c #6F7072",
"d. c #68777C",
"f. c #727274",
"g. c #75767A",
"h. c #7A7B7E",
"j. c #757A7B",
"k. c #726E6B",
"l. c #595D57",
"z. c #8D2D2E",
"x. c #A52727",
"c. c #D82726",
"v. c #9B4F36",
"b. c #9D124E",
"n. c #F8016C",
"m. c #D2055C",
"M. c #93685C",
"N. c #D46348",
"B. c #758F1F",
"V. c #6B9468",
"C. c #95952C",
"Z. c #98A81D",
"A. c #AAD309",
"S. c #DAE805",
"D. c #A49060",
"F. c #D0B067",
"G. c #DFA65E",
"H. c #FED774",
"J. c #F3CB6F",
"K. c #E0D654",
"L. c #121293",
"P. c #0E0EB0",
"I. c #2323B1",
"U. c #172E8E",
"Y. c #732187",
"T. c #134694",
"R. c #0C6F90",
"E. c #094CB0",
"W. c #087CA3",
"Q. c #2F668E",
"!. c #7C7C82",
"~. c #6C7687",
"^. c #526195",
"/. c #1111CF",
"(. c #2424D0",
"). c #2626F1",
"_. c #1919E9",
"`. c #0169FB",
"'. c #0362ED",
"]. c #0658D4",
"[. c #5E76C7",
"{. c #9C0EAE",
"}. c #A218B4",
"|. c #A505B9",
" X c #861B9A",
".X c #B707CC",
"XX c #DB1BF3",
"oX c #D303ED",
"OX c #EE03FC",
"+X c #DA1EF2",
"@X c #8E61AA",
"#X c #1C8E93",
"$X c #318F90",
"%X c #0D8CAF",
"&X c #2FAEB0",
"*X c #249FAD",
"=X c #4E8F91",
"-X c #768688",
";X c #4DAEAE",
":X c #64A3AA",
">X c #0599C9",
",X c #0DACD3",
"<X c #06B7ED",
"1X c #2FB5CD",
"2X c #57ADE1",
"3X c #2FD0D4",
"4X c #0ACDFC",
"5X c #2BD8E9",
"6X c #1AFAFC",
"7X c #19E9EC",
"8X c #27E8E8",
"9X c #25F6F8",
"0X c #31EBED",
"qX c #1CD5D7",
"wX c #48D0D1",
"eX c #4FDEEB",
"rX c #6DD0B1",
"tX c #838384",
"yX c #8B8C8C",
"uX c #86898A",
"iX c #8D8E91",
"pX c #8C9393",
"aX c #939394",
"sX c #999A9C",
"dX c #95999A",
"fX c #92908B",
"gX c #9D9EA1",
"hX c #8A97AA",
"jX c #9FA0A4",
"kX c #95A1A7",
"lX c #8CA8AB",
"zX c #A3A3A4",
"xX c #ABACAC",
"cX c #A6A8AA",
"vX c #ADB2B2",
"bX c #B2B3B5",
"nX c #BCBDBD",
"mX c #B5BABA",
"MX c #ADACB0",
"NX c #A3A29A",
"BX c #D1B09C",
"VX c #A7CFAC",
"CX c #DACE91",
"ZX c #B9BDC3",
"AX c #BDC3C3",
"SX c #B0C1D2",
"DX c #C3C4C4",
"FX c #C5C6C9",
"GX c #C7CBCB",
"HX c #CCD2D2",
"JX c #D5D9D9",
"KX c #CECFD1",
"LX c #E6E7E9",
"PX c #F8F9FA",
"IX c #EEEFF1",
"UX c #DDE1E2",
/* pixels */
"7 7 7 7 7 7 7 7 7 7 7 7 7 7 7 7 7 7 7 7 7 7 7 7 7 7 7 7 7 7 7 7 7 7 7 7 7 7 7 7 7 7 7 7 7 7 7 7 7 7 7 7 7 7 7 7 7 7 7 7 7 7 7 7 7 7 7 7 7 7 7 7 7 7 7 7 7 7 7 7 7 7 7 7 7 7 7 7 7 7 7 7 7 7 7 7 7 7 7 7 7 7 7 7 7 7 7 7 7 7 7 7 7 7 7 7 7 7 7 7 7 7 7 7 7 7 7 7 7 7 7 7 7 7 7 7 7 7 7 7 7 7 7 7 7 7 7 7 7 7 7 7 7 7 7 7 7 7 7 7 7 7 7 7 7 7 7 7 7 7 7 7 7 7 7 7 7 7 7 7 7 7 7 7 7 7 7 7 7 7 7 7 7 7 7 7 7 7 7 7 7 7 7 7 7 7 7 7 7 7 7 7 7 7 7 7 7 7 7 7 7 7 7 7 7 7 7 7 7 7 7 7 7 7 7 7 7 7 7 7 7 7 7 7 7 7 7 7 7 7 7 7 7 7 7 7 ",
"7 7 7 7 7 7 7 7 7 7 7 7 7 7 7 7 7 7 7 7 7 7 7 7 7 7 7 7 7 7 7 7 7 7 7 7 7 7 7 7 7 7 7 7 7 7 7 7 7 7 7 7 7 7 7 7 7 7 7 7 7 7 7 7 7 7 7 7 7 7 7 7 7 7 7 7 7 7 7 7 7 7 7 7 7 7 7 7 7 7 7 7 7 7 7 7 7 7 7 7 7 7 7 7 7 7 7 7 7 7 7 7 7 7 7 7 7 7 7 7 7 7 7 7 7 7 7 7 7 7 7 7 7 7 7 7 7 7 7 7 7 7 7 7 7 7 7 7 7 7 7 7 7 7 7 7 7 7 7 7 7 7 7 7 7 7 7 7 7 7 7 7 7 7 7 7 7 7 7 7 7 7 7 7 7 7 7 7 7 7 7 7 7 7 7 7 7 7 7 7 7 7 7 7 7 7 7 7 7 7 7 7 7 7 7 7 7 7 7 7 7 7 7 7 7 7 7 7 7 7 7 7 7 7 7 7 7 7 7 7 7 7 7 7 7 7 7 7 7 7 7 7 7 7 7 7 ",
"7 7 7 7 7 7 7 7 7 7 7 7 7 7 7 7 7 7 7 7 7 7 7 7 7 7 7 7 7 7 7 7 7 7 7 7 7 7 7 7 7 7 7 7 7 7 7 7 7 7 7 7 7 7 7 7 7 7 7 7 7 7 7 7 7 7 7 7 7 7 7 7 7 7 7 7 7 7 7 7 7 7 7 7 7 7 7 7 7 7 7 7 7 7 7 7 7 7 7 7 7 7 7 7 7 7 7 7 7 7 7 7 7 7 7 7 7 7 7 7 7 7 7 7 7 7 7 7 7 7 7 7 7 7 7 7 7 7 7 7 7 7 7 7 7 7 7 7 7 7 7 7 7 7 7 7 7 7 7 7 7 7 7 7 7 7 7 7 7 7 7 7 7 7 7 7 7 7 7 7 7 7 7 7 7 7 7 7 7 7 7 7 7 7 7 7 7 7 7 7 7 7 7 7 7 7 7 7 7 7 7 7 7 7 7 7 7 7 7 7 7 7 7 7 7 7 7 7 7 7 7 7 7 7 7 7 7 7 7 7 7 7 7 7 7 7 7 7 7 7 7 7 7 7 7 7 ",
"7 7 7 7 7 7 7 7 7 7 7 7 7 7 7 7 7 7 7 7 7 7 7 7 7 7 7 7 7 7 7 7 7 7 7 7 7 7 7 7 7 7 7 7 7 7 7 7 7 7 7 7 7 7 7 7 7 7 7 7 7 7 7 7 7 7 7 7 7 7 7 7 7 7 7 7 7 7 7 7 7 7 7 7 7 7 7 7 7 7 7 7 7 7 7 7 7 7 7 7 7 7 7 7 7 7 7 7 7 7 7 7 7 7 7 7 7 7 7 7 7 7 7 7 7 7 7 7 7 7 7 7 7 7 7 7 7 7 7 7 7 7 7 7 7 7 7 7 7 7 7 7 7 7 7 7 7 7 7 7 7 7 7 7 7 7 7 7 7 7 7 7 7 7 7 7 7 7 7 7 7 7 7 7 7 7 7 7 7 7 7 7 7 7 7 7 7 7 7 7 7 7 7 7 7 7 7 7 7 7 7 7 7 7 7 7 7 7 7 7 7 7 7 7 7 7 7 7 7 7 7 7 7 7 7 7 7 7 7 7 7 7 7 7 7 7 7 7 7 7 7 7 7 7 7 7 ",
"7 7 7 7 7 7 7 7 7 7 7 7 7 7 7 7 7 7 7 7 7 7 7 7 7 7 7 7 7 7 7 7 7 7 7 7 7 7 7 7 7 7 7 7 7 7 7 7 7 7 7 7 7 7 7 7 7 7 7 7 7 7 7 7 7 7 7 7 7 7 7 7 7 7 7 7 7 7 7 7 7 7 7 7 7 7 7 7 7 7 7 7 7 7 7 7 7 7 7 7 7 7 7 7 7 7 7 7 7 7 7 7 7 7 7 7 7 7 7 7 7 7 7 7 7 7 7 7 7 7 7 7 7 7 7 7 7 7 7 7 7 7 7 7 7 7 7 7 7 7 7 7 7 7 7 7 7 7 7 7 7 7 7 7 7 7 7 7 7 7 7 7 7 7 7 7 7 7 7 7 7 7 7 7 7 7 7 7 7 7 7 7 7 7 7 7 7 7 7 7 7 7 7 7 7 7 7 7 7 7 7 7 7 7 7 7 7 7 7 7 7 7 7 7 7 7 7 7 7 7 7 7 7 7 7 7 7 7 7 7 7 7 7 7 7 7 7 7 7 7 7 7 7 7 7 7 ",
"7 7 7 7 7 7 7 7 7 7 7 7 7 7 7 7 7 7 7 7 7 7 7 7 7 7 7 7 7 7 7 7 7 7 7 7 7 7 7 7 7 7 7 7 7 7 7 7 7 7 7 7 7 7 7 7 7 7 7 7 7 7 7 7 7 7 7 7 7 7 7 7 7 7 7 7 7 7 7 7 7 7 7 7 7 7 7 7 7 7 7 7 7 7 7 7 7 7 7 7 7 7 7 7 7 7 7 7 7 7 7 7 7 7 7 7 7 7 7 7 7 7 7 7 7 7 7 7 7 7 7 7 7 7 7 7 7 7 7 7 7 7 7 7 7 7 7 7 7 7 7 7 7 7 7 7 7 7 7 7 7 7 7 7 7 7 7 7 7 7 7 7 7 7 7 7 7 7 7 7 7 7 7 7 7 7 7 7 7 7 7 7 7 7 7 7 7 7 7 7 7 7 7 7 7 7 7 7 7 7 7 7 7 7 7 7 7 7 7 7 7 7 7 7 7 7 7 7 7 7 7 7 7 7 7 7 7 7 7 7 7 7 7 7 7 7 7 7 7 7 7 7 7 7 7 7 ",
"7 7 7 7 7 7 7 7 7 7 7 7 7 7 7 7 7 7 7 7 7 7 7 7 7 7 7 7 7 7 7 7 7 7 7 7 7 7 7 7 7 7 7 7 7 7 7 7 7 7 7 7 7 7 7 7 7 7 7 7 7 7 7 7 7 7 7 7 7 7 7 7 7 7 7 7 7 7 7 7 7 7 7 7 7 7 7 7 7 7 7 7 7 7 7 7 7 7 7 7 7 7 7 7 7 7 7 7 7 7 7 7 7 7 7 7 7 7 7 7 7 7 7 7 7 7 7 7 7 7 7 7 7 7 7 7 7 7 7 7 7 7 7 7 7 7 7 7 7 7 7 7 7 7 7 7 7 7 7 7 7 7 7 7 7 7 7 7 7 7 7 7 7 7 7 7 7 7 7 7 7 7 7 7 7 7 7 7 7 7 7 7 7 7 7 7 7 7 7 7 7 7 7 7 7 7 7 7 7 7 7 7 7 7 7 7 7 7 7 7 7 7 7 7 7 7 7 7 7 7 7 7 7 7 7 7 7 7 7 7 7 7 7 7 7 7 7 7 7 7 7 7 7 7 7 7 ",
"7 7 7 7 7 7 7 7 7 7 7 7 7 7 7 7 7 7 7 7 7 7 7 7 7 7 7 7 7 7 7 7 7 7 7 7 7 7 7 7 7 7 7 7 7 7 7 7 7 7 7 7 7 7 7 7 7 7 7 7 7 7 7 7 7 7 7 7 7 7 7 7 7 7 7 7 7 7 7 7 7 7 7 7 7 7 7 7 7 7 7 7 7 7 7 7 7 7 7 7 7 7 7 7 7 7 7 7 7 7 7 7 7 7 7 7 7 7 7 7 7 7 7 7 7 7 7 7 7 7 7 7 7 7 7 7 7 7 7 7 7 7 7 7 7 7 7 7 7 7 7 7 7 7 7 7 7 7 7 7 7 7 7 7 7 7 7 7 7 7 7 7 7 7 7 7 7 7 7 7 7 7 7 7 7 7 7 7 7 7 7 7 7 7 7 7 7 7 7 7 7 7 7 7 7 7 7 7 7 7 7 7 7 7 7 7 7 7 7 7 7 7 7 7 7 7 7 7 7 7 7 7 7 7 7 7 7 7 7 7 7 7 7 7 7 7 7 7 7 7 7 7 7 7 7 7 ",
"7 7 7 7 7 7 7 7 7 7 7 7 7 7 7 7 7 7 7 7 7 7 7 7 7 7 7 7 7 7 7 7 7 7 7 7 7 7 7 7 7 7 7 7 7 7 7 7 7 7 7 7 7 7 7 7 7 7 7 7 7 7 7 7 7 7 7 7 7 7 7 7 7 7 7 7 7 7 7 7 7 7 7 7 7 7 7 7 7 7 7 7 7 7 7 7 7 7 7 7 7 7 7 7 7 7 7 7 7 7 7 7 7 7 7 7 7 7 7 7 7 7 7 7 7 7 7 7 7 7 7 7 7 7 7 7 7 7 7 7 7 7 7 7 7 7 7 7 7 7 7 7 7 7 7 7 7 7 7 7 7 7 7 7 7 7 7 7 7 7 7 7 7 7 7 7 7 7 7 7 7 7 7 7 7 7 7 7 7 7 7 7 7 7 7 7 7 7 7 7 7 7 7 7 7 7 7 7 7 7 7 7 7 7 7 7 7 7 7 7 7 7 7 7 7 7 7 7 7 7 7 7 7 7 7 7 7 7 7 7 7 7 7 7 7 7 7 7 7 7 7 7 7 7 7 7 ",
"7 7 7 7 7 7 7 7 7 7 7 7 7 7 7 7 7 7 7 7 7 7 7 7 7 7 7 7 7 7 7 7 7 7 7 7 7 7 7 7 7 7 7 7 7 7 7 7 7 7 7 7 7 7 7 7 7 7 7 7 7 7 7 7 7 7 7 7 7 7 7 7 7 7 7 7 7 7 7 7 7 7 7 7 7 7 7 7 7 7 7 7 7 7 7 7 7 7 7 7 7 7 7 7 7 7 7 7 7 7 7 7 7 7 7 7 7 7 7 7 7 7 7 7 7 7 7 7 7 7 7 7 7 7 7 7 7 7 7 7 7 7 7 7 7 7 7 7 7 7 7 7 7 7 7 7 7 7 7 7 7 7 7 7 7 7 7 7 7 7 7 7 7 7 7 7 7 7 7 7 7 7 7 7 7 7 7 7 7 7 7 7 7 7 7 7 7 7 7 7 7 7 7 7 7 7 7 7 7 7 7 7 7 7 7 7 7 7 7 7 7 7 7 7 7 7 7 7 7 7 7 7 7 7 7 7 7 7 7 7 7 7 7 7 7 7 7 7 7 7 7 7 7 7 7 7 ",
"7 7 7 7 7 7 7 7 7 7 7 7 7 7 7 7 7 7 7 7 7 7 7 7 7 7 7 7 7 7 7 7 7 7 7 7 7 7 7 7 7 7 7 7 7 7 7 7 7 7 7 7 7 7 7 7 7 7 7 7 7 7 7 7 7 7 7 7 7 7 7 7 7 7 7 7 7 7 7 7 7 7 7 7 7 7 7 7 7 7 7 7 7 7 7 7 7 7 7 7 7 7 7 7 7 7 7 7 7 7 7 7 7 7 7 7 7 7 7 7 7 7 7 7 7 7 7 7 7 7 7 7 7 7 7 7 7 7 7 7 7 7 7 7 7 7 7 7 7 7 7 7 7 7 7 7 7 7 7 7 7 7 7 7 7 7 7 7 7 7 7 7 7 7 7 7 7 7 7 7 7 7 7 7 7 7 7 7 7 7 7 7 7 7 7 7 7 7 7 7 7 7 7 7 7 7 7 7 7 7 7 7 7 7 7 7 7 7 7 7 7 7 7 7 7 7 7 7 7 7 7 7 7 7 7 7 7 7 7 7 7 7 7 7 7 7 7 7 7 7 7 7 7 7 7 7 ",
"7 7 7 7 7 7 7 7 7 7 7 7 7 7 7 7 7 7 7 7 7 7 7 7 7 7 7 7 7 7 7 7 7 7 7 7 7 7 7 7 7 7 7 7 7 7 7 7 7 7 7 7 7 7 7 7 7 7 7 7 7 7 7 7 7 7 7 7 7 7 7 7 7 7 7 7 7 7 7 7 7 7 7 7 7 7 7 7 7 7 7 7 7 7 7 7 7 7 7 7 7 7 7 7 7 7 7 7 7 7 7 7 7 7 7 7 7 7 7 7 7 7 7 7 7 7 7 7 7 7 7 7 7 7 7 7 7 7 7 7 7 7 7 7 7 7 7 7 7 7 7 7 7 7 7 7 7 7 7 7 7 7 7 7 7 7 7 7 7 7 7 7 7 7 7 7 7 7 7 7 7 7 7 7 7 7 7 7 7 7 7 7 7 7 7 7 7 7 7 7 7 7 7 7 7 7 7 7 7 7 7 7 7 7 7 7 7 7 7 7 7 7 7 7 7 7 7 7 7 7 7 7 7 7 7 7 7 7 7 7 7 7 7 7 7 7 7 7 7 7 7 7 7 7 7 7 ",
"7 7 7 7 7 7 7 7 7 7 7 7 7 7 7 7 7 7 7 7 7 7 7 7 7 7 7 7 7 7 7 7 7 7 7 7 7 7 7 7 7 7 7 7 7 7 7 7 7 7 7 7 7 7 7 7 7 7 7 7 7 7 7 7 7 7 7 7 7 7 7 7 7 7 7 7 7 7 7 7 7 7 7 7 7 7 7 7 7 7 7 7 7 7 7 7 7 7 7 7 7 7 7 7 7 7 7 7 7 7 7 7 7 7 7 7 7 7 7 7 7 7 7 7 7 7 7 7 7 7 7 7 7 7 7 7 7 7 7 7 7 7 7 7 7 7 7 7 7 7 7 7 7 7 7 7 7 7 7 7 7 7 7 7 7 7 7 7 7 7 7 7 7 7 7 7 7 7 7 7 7 7 7 7 7 7 7 7 7 7 7 7 7 7 7 7 7 7 7 7 7 7 7 7 7 7 7 7 7 7 7 7 7 7 7 7 7 7 7 7 7 7 7 7 7 7 7 7 7 7 7 7 7 7 7 7 7 7 7 7 7 7 7 7 7 7 7 7 7 7 7 7 7 7 7 7 ",
"7 7 7 7 7 7 7 7 7 7 7 7 7 7 7 7 7 7 7 7 7 7 7 7 7 7 7 7 7 7 7 7 7 7 7 7 7 7 7 7 7 7 7 7 7 7 7 7 7 7 7 7 7 7 7 7 7 7 7 7 7 7 7 7 7 7 7 7 7 7 7 7 7 7 7 7 7 7 7 7 7 7 7 7 7 7 7 7 7 7 7 7 7 7 7 7 7 7 7 7 7 7 7 7 7 7 7 7 7 7 7 7 7 7 7 7 7 7 7 7 7 7 7 7 7 7 7 7 7 7 7 7 7 7 7 7 7 7 7 7 7 7 7 7 7 7 7 7 7 7 7 7 7 7 7 , 7 7 7 7 7 7 7 7 7 7 7 7 7 7 7 7 7 7 7 7 7 7 7 7 7 7 7 7 7 7 7 7 7 7 7 ; ; 7 7 7 7 y 7 7 7 7 7 7 > 7 7 7 7 7 7 7 7 7 7 7 7 7 7 7 7 7 7 > 7 7 7 7 7 7 7 7 7 7 7 7 7 7 7 7 7 7 7 7 7 7 7 7 7 7 7 7 7 7 7 7 ",
"7 7 7 7 7 7 7 7 7 7 7 7 7 7 7 7 7 7 7 7 7 7 7 7 7 7 7 7 7 7 7 7 7 7 7 7 7 7 7 7 7 7 7 7 7 7 7 7 7 7 7 7 7 7 7 7 7 7 7 7 7 7 7 7 7 7 7 7 7 7 7 7 7 7 7 7 7 7 7 7 7 7 7 7 7 7 7 7 7 7 7 7 7 7 7 7 7 7 7 7 7 7 7 7 7 7 7 7 7 7 7 7 7 7 7 7 7 7 7 7 7 7 7 7 7 7 7 7 7 7 7 7 7 7 7 7 7 7 7 7 7 7 7 7 7 7 7 7 7 7 7 7 7 7 7 i 7 7 7 7 7 7 7 7 7 7 7 7 7 7 7 7 7 7 7 7 7 7 7 7 7 7 7 7 7 7 7 7 7 7 f 9.9.s ; ; f e.; > > 7 ; ; N y 7 7 ; ; > > ; 7 > > > ; > 7 > ; f m > 7 7 7 7 7 7 7 7 7 7 7 7 7 7 7 7 7 7 7 7 7 7 7 7 7 7 7 7 7 7 7 ",
"7 7 7 7 7 7 7 7 7 7 7 7 7 7 7 7 7 7 7 7 7 7 7 7 7 7 7 7 7 7 7 7 7 7 7 7 7 7 7 7 7 7 7 7 7 7 7 7 7 7 7 7 7 7 7 7 7 7 7 7 7 7 7 7 7 7 7 7 7 7 7 7 7 7 7 7 7 7 7 7 7 7 7 7 7 7 7 7 7 7 7 7 7 7 7 7 7 7 7 7 7 7 7 7 7 7 7 7 7 7 7 7 7 7 7 7 7 7 7 7 7 7 7 7 7 7 7 7 7 7 7 7 7 7 7 7 7 7 7 7 7 7 7 7 7 7 7 7 7 7 7 7 7 , #.( , 7 7 7 7 7 7 7 7 7 7 7 7 7 7 7 7 7 7 7 7 7 7 7 7 7 7 7 7 7 7 7 7 - 9.e.f s 3.9.N e.c e._ f u.5.tX8.; c 8.u.c _ e.N 5.7.c 8.5.f 9.1.9.tXc > 7 7 7 7 7 7 7 7 7 7 7 7 7 7 7 7 7 7 7 7 7 7 7 7 7 7 7 7 7 7 ",
"7 7 7 7 7 7 7 7 7 7 7 7 7 7 7 7 7 7 7 7 7 7 7 7 7 7 7 7 7 7 7 7 7 7 7 7 7 7 7 7 7 7 7 7 7 7 7 7 7 7 7 7 7 7 7 7 7 7 7 7 7 7 7 7 7 7 7 7 7 7 7 7 7 7 7 7 7 7 7 7 7 7 7 7 7 7 7 7 7 7 7 7 7 7 7 7 7 7 7 7 7 7 7 7 7 7 7 7 7 7 7 7 7 7 7 7 7 7 7 7 7 7 7 7 7 7 7 7 7 7 7 7 7 7 7 7 7 7 7 7 7 7 7 7 7 7 7 7 7 7 7 7 : #.#.< 7 7 7 7 7 7 7 7 7 7 7 7 7 7 7 7 7 7 7 7 7 7 7 7 7 7 7 7 7 7 7 7 7 > c a.%._ f.i.i.9.i.u.g.i.<.y p.c - _ i.N e.u.2.3.s.a.a.i.f 8.i.f.u.7.> 7 7 7 7 7 7 7 7 7 7 7 7 7 7 7 7 7 7 7 7 7 7 7 7 7 7 7 7 7 7 7 ",
"7 7 7 7 7 7 7 7 7 7 7 7 7 7 7 7 7 7 7 7 7 7 7 7 7 7 7 7 7 7 7 7 7 7 7 7 7 7 7 7 7 7 7 7 7 7 7 7 7 7 7 7 7 7 7 7 7 7 7 7 7 7 7 7 7 7 7 7 7 7 7 7 7 7 7 7 7 7 7 7 7 7 7 7 7 7 7 7 7 7 7 7 7 7 7 7 7 7 7 7 7 7 7 7 7 7 7 7 7 7 7 7 7 7 7 7 7 7 7 7 7 7 7 7 7 7 7 7 7 7 7 7 7 7 7 7 7 7 7 7 7 7 7 7 7 7 7 7 7 7 7 7 , i ;.p , 7 7 7 7 7 7 7 7 7 7 7 7 7 7 7 7 7 7 7 7 7 7 7 7 7 7 7 7 7 7 7 7 7 > ; p.a.p.m _ e.f.3.c i.c $ p.f - V 8.7 p.e.g 7.u.N g V u.a.9.c 3.7.- 7 7 7 7 7 7 7 7 7 7 7 7 7 7 7 7 7 7 7 7 7 7 7 7 7 7 7 7 7 7 7 ",
"7 7 7 7 7 7 7 7 7 7 7 7 7 7 7 7 7 7 7 7 7 7 7 7 7 7 7 7 7 7 7 7 7 7 7 7 7 7 7 7 7 7 7 7 7 7 7 7 7 7 7 7 7 7 7 7 7 7 7 7 7 7 7 7 7 7 7 7 7 7 7 7 7 7 7 7 7 7 7 7 7 7 7 7 7 7 7 7 7 7 7 7 7 7 7 7 7 7 7 7 7 7 7 7 7 7 7 7 7 7 7 7 7 7 7 7 7 7 7 7 7 7 7 7 7 7 7 7 7 7 7 7 7 7 7 7 7 7 7 7 7 7 7 7 7 7 7 7 7 7 7 7 7 : p ( , 7 7 7 7 7 7 7 7 7 7 7 7 7 7 7 7 7 7 7 7 7 7 7 7 7 7 7 7 7 7 7 7 > _ e.e.N e.9._ 9.<.p.%._ s.%.9.8.; N h.p.<.7.N g p.5._ 9.e._ p.3.N a.c > 7 7 7 7 7 7 7 7 7 7 7 7 7 7 7 7 7 7 7 7 7 7 7 7 7 7 7 7 7 7 ",
"7 7 7 7 7 7 7 7 7 7 7 7 7 7 7 7 7 7 7 7 7 7 7 7 7 7 7 7 7 7 7 7 7 7 7 7 7 7 7 7 7 7 7 7 7 7 7 7 7 7 7 7 7 7 7 7 7 7 7 7 7 7 7 7 7 7 7 7 7 7 7 7 7 7 7 7 7 7 7 7 7 7 7 7 7 7 7 7 7 7 7 7 7 7 7 7 7 7 7 7 7 7 7 7 7 7 7 7 7 7 7 7 7 7 7 7 7 7 7 7 7 7 7 7 7 7 7 7 7 7 7 7 7 7 7 7 7 7 7 7 7 7 7 7 7 7 7 7 7 7 7 7 7 7 , : 7 7 7 7 7 7 7 7 7 7 7 7 7 7 7 7 7 7 7 7 7 7 7 7 7 7 7 7 7 7 7 7 7 7 7 c s ; 7 c 7 7 > g g > f f 7 g ; V e.7 7 7 7 > f c 7 c 7 ; f c 7 f f 7 7 7 7 7 7 7 7 7 7 7 7 7 7 7 7 7 7 7 7 7 7 7 7 7 7 7 7 7 7 7 ",
"7 7 7 7 7 7 7 7 7 7 7 7 7 7 7 7 7 7 7 7 7 7 7 7 7 7 7 7 7 7 7 7 7 7 7 7 7 7 7 7 7 7 7 7 7 7 7 7 7 7 7 7 7 7 7 7 7 7 7 7 7 7 7 7 7 7 7 7 7 7 7 7 7 7 7 7 7 7 7 7 7 7 7 7 7 7 7 7 7 7 7 7 7 7 7 7 7 7 7 7 7 7 7 7 7 7 7 7 7 7 7 7 7 7 7 7 7 7 7 7 7 7 7 7 7 7 7 7 7 7 7 7 7 7 7 7 7 7 7 7 7 7 7 7 7 7 7 7 7 7 7 7 7 7 7 7 7 7 7 7 7 7 7 7 7 7 7 7 7 7 7 7 7 7 7 7 7 7 7 7 7 7 7 7 7 7 7 7 7 7 7 > 7 7 7 > 7 7 7 > > 7 > 7 7 7 ; N 3.; 7 7 7 7 7 > 7 > 7 7 7 > 7 7 7 7 7 7 7 7 7 7 7 7 7 7 7 7 7 7 7 7 7 7 7 7 7 7 7 7 7 7 7 7 7 7 ",
"y y y y y y y y y y y y y y y y y y y y y y y y y y y y y y y y y y y y y y y y y y y y y y y y y y y y y y y y y y y y y y y y y y y y y y y y y y y y y y y y y y y y y y y y y y y y y y y y y y y y y y y y y y y y y y y y y y y y y y y y y y y y y y y y y y y y y y y y y y y y y y y y y y y y y y y y y y y y y y y y y y y y y y y y y y y y y y y y y y y y y y y y y y y y y y y y y y y y y y y y y y y y y y y 7 7 s y y y y y y y y y y y y y y y y y y y y y y y y y y y y y y y y y y y y y y y y y y y y y y ",
"X X X X X X X X X X X X X X X X X X X X X X X X X X X X X X X X X X X X X X X X X X X X X X X X X X X X X X X X X X X X X X X X X X X X X X X X X X X X X X X X X X X X X X X X X X X X X X X X X X X X X X X X X X X X X X X X X X X X X X X X X X X X X X X X X X X X X X X X X X X X X X X X X X X X X X X X X X X X X X X X X X X X X X X X X X X X X X X X X X X X X X X X X X X X X X X X X X X X X X X X X X X X X X X X X X X X X X X X X X X X X X X X X X X X X X X X X X X X X X X X X X X X X X X X X X X X X X X X ",
"sXsXsXsXsXsXsXsXsXsXsXsXsXsXsXsXsXsXsXsXsXsXsXsXsXsXsXsXsXsXsXsXsXsXsXsXsXsXsXsXsXsXsXsXsXsXsXsXsXsXsXsXsXsXsXsXsXsXsXsXsXsXsXsXsXsXsXsXsXsXsXsXsXsXsXsXsXsXsXsXsXsXsXsXsXsXsXsXsXsXsXsXsXsXsXsXsXsXsXsXsXsXsXsXsXsXsXsXsXsXsXsXsXsXsXsXsXsXsXsXsXsXsXsXsXsXsXsXsXsXsXsXsXsXsXsXsXsXsXsXsXsXsXsXsXsXsXsXsXsXsXsXsXsXsXsXsXsXsXsXsXsXsXsXsXsXsXsXsXsXsXsXsXsXsXsXsXsXsXsXsXsXsXsXsXsXsXsXsXsXsXsXsXsXsXsXsXsXsXsXsXsXsXsXsXsXsXsXsXsXsXsXsXsXsXsXsXsXsXsXsXsXsXsXsXsXsXsXsXsXsXsXsXsXsXsXsXsXsXsXsXsXsXsXsXsXsXsXsXsXsXsXsXsXsXsX",
"h.h.h.h.h.h.h.h.h.h.h.h.h.h.h.h.h.h.h.h.h.h.h.h.h.h.h.h.h.h.h.h.h.h.h.h.h.h.h.h.h.h.h.h.h.h.h.h.h.h.h.h.h.h.h.h.h.h.h.h.h.h.h.h.h.h.h.h.h.h.h.h.h.h.h.h.h.h.h.h.h.h.h.h.h.h.h.h.h.h.h.h.h.h.h.h.h.h.h.h.h.h.h.h.h.h.h.h.h.h.h.h.h.h.h.h.h.h.h.h.h.h.h.h.h.h.h.h.h.h.h.h.h.h.h.h.h.h.h.h.h.h.h.h.h.h.h.h.h.h.h.h.h.h.h.h.h.h.h.h.h.h.h.h.h.h.h.h.h.h.h.h.h.h.h.h.h.h.h.h.h.h.h.h.h.h.h.h.h.h.h.h.h.h.h.h.h.h.h.h.h.h.h.h.h.h.h.h.h.h.h.h.h.h.h.h.h.h.h.h.h.h.h.h.h.h.h.h.h.h.h.h.h.h.h.h.h.h.h.h.h.h.h.h.h.h.h.h.h.h.h.h.h.h.h.h.",
"$ $ $ $ $ $ $ $ $ $ $ $ $ $ $ $ $ $ $ $ $ $ $ $ $ $ $ $ $ $ $ $ $ $ $ $ $ $ $ $ $ $ $ $ $ $ $ $ $ $ $ $ $ $ $ $ $ $ $ $ $ $ $ $ $ $ $ $ $ $ $ $ $ $ $ $ $ $ $ $ $ $ $ $ $ $ $ $ $ $ $ $ $ $ $ $ $ $ $ $ $ $ $ $ $ $ $ $ $ $ $ $ $ $ $ $ $ $ $ $ $ $ $ $ $ $ $ $ $ $ $ $ $ $ $ $ $ $ $ $ $ $ $ $ X $ $ $ $ $ $ $ $ $ $ $ $ $ $ $ $ $ $ $ $ $ $ $ $ $ $ $ $ $ $ $ $ $ $ $ $ $ $ $ $ $ $ $ $ $ $ $ $ $ $ $ $ $ $ $ $ $ $ $ $ $ $ $ $ $ $ $ $ $ $ $ $ $ $ $ $ $ $ $ $ $ $ $ $ $ $ $ $ $ $ $ $ $ $ $ $ $ $ $ $ $ $ $ $ $ $ $ $ $ $ $ ",
"7 7 7 7 7 7 7 7 7 7 7 7 7 7 7 7 7 7 7 7 7 7 7 7 7 7 7 7 7 7 7 7 7 7 7 7 7 7 7 7 7 7 7 7 7 7 7 7 7 7 7 7 7 7 7 7 7 7 7 7 7 7 7 7 7 7 7 7 7 7 7 7 7 7 7 7 7 7 7 7 7 7 7 7 7 7 7 7 7 7 7 7 7 7 7 7 7 7 7 7 7 7 7 7 7 7 7 7 7 7 7 7 7 7 7 7 7 7 7 7 7 7 7 7 7 7 7 7 7 7 7 7 7 7 7 7 7 7 7 7 7 7 7 7 7 7 7 7 7 7 7 7 7 7 7 7 7 7 7 y y 7 7 7 7 7 7 7 y s y y s y y s y 7 y 7 y 7 y y y s y y y 7 y y 7 y y y y 7 7 7 7 7 7 7 7 7 7 7 7 7 7 7 7 7 7 7 7 7 7 7 7 7 7 7 7 7 7 7 7 7 7 7 7 7 7 7 7 7 7 7 7 7 7 7 7 7 7 7 7 7 7 7 7 7 7 7 ",
"7 7 7 7 7 7 7 7 7 7 7 7 7 7 7 7 7 7 7 7 7 7 7 7 7 7 7 7 7 7 7 7 7 7 7 7 7 7 7 7 7 7 7 7 7 7 7 7 7 7 7 7 7 7 7 7 7 7 7 7 7 7 7 7 7 7 7 7 7 7 7 7 7 7 7 7 7 7 7 7 7 7 7 7 7 7 7 7 7 7 7 7 7 7 7 7 7 7 7 7 7 7 7 7 7 7 7 7 7 7 7 7 7 7 7 7 7 7 7 7 7 7 7 7 7 7 7 7 7 7 7 7 7 7 7 7 7 7 c g 7 g c 7 7 7 7 7 7 7 7 7 7 7 7 7 7 7 7 7 > 7 7 7 7 7 7 7 7 ; > 7 ; ; > ; > 7 > 7 > 7 > ; ; ; ; ; > 7 ; > 7 > 7 7 7 7 7 7 7 7 7 7 7 7 7 7 7 7 7 7 7 7 7 7 7 7 7 7 7 7 7 7 7 7 7 7 7 7 7 7 7 7 7 7 7 7 7 7 7 7 7 7 7 7 7 7 7 7 7 7 7 7 7 7 ",
"7 7 7 7 7 7 7 7 7 7 7 7 7 7 7 7 7 7 7 7 7 7 7 7 7 7 7 7 7 7 7 7 7 7 7 7 7 7 7 7 7 7 7 7 7 7 7 7 7 7 7 7 7 7 7 7 7 7 7 7 7 7 7 7 7 7 7 7 7 7 7 7 7 7 7 7 7 7 7 7 7 7 7 7 7 7 7 7 7 7 7 7 7 7 7 7 7 7 7 7 7 7 7 7 7 7 7 7 7 7 7 7 7 7 7 7 7 7 7 7 7 7 7 7 7 7 7 7 7 7 7 7 7 7 7 7 > m p.u.dXe.e.3.; 7 7 7 7 7 7 7 7 7 ; > 7 7 7 s g 7 7 7 7 7 7 7 f <.f 7 _ N g %.g > g 7 g > x _ N V V N c > V b ; g 7 y f 7 7 7 7 7 7 7 7 7 7 7 7 7 7 7 7 7 7 7 7 7 7 7 7 7 7 7 7 7 7 7 7 7 7 7 7 7 7 7 7 7 7 7 7 7 7 7 7 7 7 7 7 7 7 7 7 7 7 7 ",
"7 7 7 7 7 7 7 7 7 7 7 7 7 7 7 7 7 7 7 7 7 7 7 7 7 7 7 7 7 7 7 7 7 7 7 7 7 7 7 7 7 7 7 7 7 7 7 7 7 7 7 7 7 7 7 7 7 7 7 7 7 7 7 7 7 7 7 7 7 7 7 7 7 7 7 7 7 7 7 7 7 7 7 7 7 7 7 7 7 7 7 7 7 7 7 7 7 7 7 7 7 7 7 7 7 7 7 7 7 7 7 7 7 7 7 7 7 7 7 7 7 7 7 7 7 7 7 7 7 7 7 7 7 7 7 7 ; m i.aXg.iX5.2.; 7 7 7 7 7 7 7 7 7 9.a._ > 7 7 c ; 7 > 7 7 7 - 8.i.u.7.g.c i.p.i.<.p.- p.1.s.9.2.tXe.i.9.5.p.s.N h.e.m 9.; 7 7 7 7 7 7 7 7 7 7 7 7 7 7 7 7 7 7 7 7 7 7 7 7 7 7 7 7 7 7 7 7 7 7 7 7 7 7 7 7 7 7 7 7 7 7 7 7 7 7 7 7 7 7 7 7 7 7 ",
"7 7 7 7 7 7 7 7 7 7 7 7 7 7 7 7 7 7 7 7 7 7 7 7 7 7 7 7 7 7 7 7 7 7 7 7 7 7 7 7 7 7 7 7 7 7 7 7 7 7 7 7 7 7 7 7 7 7 7 7 7 7 7 7 7 7 7 7 7 7 7 7 7 7 7 7 7 7 7 7 7 7 7 7 7 7 7 7 7 7 7 7 7 7 7 7 7 7 7 7 7 7 7 7 7 7 7 7 7 7 7 7 7 7 7 7 7 7 7 7 7 7 7 7 7 7 7 7 7 7 7 7 7 7 7 7 > g bX3.  9.aX_ ; 7 7 7 7 7 7 7 ; 5.u.f y V p.1.1.9.g.5.; 7 7 - 8.i.e.7.f.g p.f _ f.u.; e.g._ $ $ 8.g 1.5.a.; m p.9.!.7.5.; 7 7 7 7 7 7 7 7 7 7 7 7 7 7 7 7 7 7 7 7 7 7 7 7 7 7 7 7 7 7 7 7 7 7 7 7 7 7 7 7 7 7 7 7 7 7 7 7 7 7 7 7 7 7 7 7 7 7 ",
"7 7 7 7 7 7 7 7 7 7 7 7 7 7 7 7 7 7 7 7 7 7 7 7 7 7 7 7 7 7 7 7 7 7 7 7 7 7 7 7 7 7 7 7 7 7 7 7 7 7 7 7 7 7 7 7 7 7 7 7 7 7 7 7 7 7 7 7 7 7 7 7 7 7 7 7 7 7 7 7 7 7 7 7 7 7 7 7 7 7 7 7 7 7 7 7 7 7 7 7 7 7 7 7 7 7 7 7 7 7 7 7 7 7 7 7 7 7 7 7 7 7 7 7 7 7 7 7 7 7 7 7 7 7 7 7 > h aX!.f iXaX_ ; 7 7 7 7 7 7 7 - p.m 1.p.m f.f.9.i.N a.> 7 7 - 9.!.e.<.s.7 i.f 1.a.p.$ p.s.<.$ ; u.N 3.3.a.7 B p.9.1.aX7.; 7 7 7 7 7 7 7 7 7 7 7 7 7 7 7 7 7 7 7 7 7 7 7 7 7 7 7 7 7 7 7 7 7 7 7 7 7 7 7 7 7 7 7 7 7 7 7 7 7 7 7 7 7 7 7 7 7 7 ",
"7 7 7 7 7 7 7 7 7 7 7 7 7 7 7 7 7 7 7 7 7 7 7 7 7 7 7 7 7 7 7 7 7 7 7 7 7 7 7 7 7 7 7 7 7 7 7 7 7 7 7 7 7 7 7 7 7 7 7 7 7 7 7 7 7 7 7 7 7 7 7 7 7 7 7 7 7 7 7 7 7 7 7 7 7 7 7 7 7 7 7 7 7 7 7 7 7 7 7 7 7 7 7 7 7 7 7 7 7 7 7 7 7 7 7 7 7 7 7 7 7 7 7 7 7 7 7 7 7 7 7 7 7 7 7 7 ; N 7.s.dXmXPXe.$ 7 7 7 7 7 7 7 ; 1.i._ h.g.g.g.8.p.h s.7 7 7 - 9.N 9.e.g._ p.f.a.g 8.a.9.c g.e.s 9.b u.9.<.a.s.c e.7 s.e.- 7 7 7 7 7 7 7 7 7 7 7 7 7 7 7 7 7 7 7 7 7 7 7 7 7 7 7 7 7 7 7 7 7 7 7 7 7 7 7 7 7 7 7 7 7 7 7 7 7 7 7 7 7 7 7 7 7 7 ",
"7 7 7 7 7 7 7 7 7 7 7 7 7 7 7 7 7 7 7 7 7 7 7 7 7 7 7 7 7 7 7 7 7 7 7 7 7 7 7 7 7 7 7 7 7 7 7 7 7 7 7 7 7 7 7 7 7 7 7 7 7 7 7 7 7 7 7 7 7 7 7 7 7 7 7 7 7 7 7 7 7 7 7 7 7 7 7 7 7 7 7 7 7 7 7 7 7 7 7 7 7 7 7 7 7 7 7 7 7 7 7 7 7 7 7 7 7 7 7 7 7 7 7 7 7 7 7 7 7 7 7 7 7 7 7 7 > c p.3.7.9.jX2.; 7 7 7 7 7 7 7 7 > 1.u.V <.5.V N V f _ 7 7 7 7 7 7 7 f c c f N s 7 y m 7 7 f m s s y g g 7 c g 7 f 7 7 f 7 7 7 7 7 7 7 7 7 7 7 7 7 7 7 7 7 7 7 7 7 7 7 7 7 7 7 7 7 7 7 7 7 7 7 7 7 7 7 7 7 7 7 7 7 7 7 7 7 7 7 7 7 7 7 7 7 7 7 ",
"$ $ $ $ $ $ $ $ $ $ $ $ $ $ $ $ $ $ $ $ $ $ $ $ $ $ $ $ $ $ $ $ $ $ $ $ $ $ $ $ $ $ $ $ $ $ $ $ $ $ $ $ $ $ $ $ $ $ $ $ $ $ $ $ $ $ $ $ $ $ $ $ $ $ $ $ $ $ $ $ $ $ $ $ $ $ $ $ $ $ $ $ $ $ $ $ $ $ $ $ $ $ $ $ $ $ $ $ $ $ $ $ $ $ $ $ $ $ $ $ $ $ $ $ $ $ ; y 7 7 7 7 7 7 7 7 7 7 7 y 7 7 $ > 7 7 7 7 7 7 7 7 7 7 ; * ; ; ; ; > ; 7 ; 7 7 7 7 7 7 7 $ X X X X X $ X X $ $ X X X X X X X $ X X $ X $ $ X $ $ $ $ $ $ $ $ $ $ $ $ $ $ $ $ $ $ $ $ $ $ $ $ $ $ $ $ $ $ $ $ $ $ $ $ $ $ $ $ $ $ $ $ $ $ $ $ $ $ $ $ $ $ $ $ $ $ $ ",
"u.u.u.u.u.u.u.u.u.u.u.u.u.u.u.u.u.u.u.u.u.u.u.u.u.u.u.u.u.u.u.u.u.u.u.u.u.u.u.u.u.u.u.u.u.u.u.u.u.u.u.u.u.u.u.u.u.u.u.u.u.u.u.u.u.u.u.u.u.u.u.u.u.u.u.u.u.u.u.u.u.u.u.u.u.u.u.u.u.u.u.u.u.u.u.u.u.u.u.u.u.u.u.u.u.u.u.u.u.u.u.u.u.u.u.u.u.u.u.u.u.u.u.u.u.8.N X 7 7 7 7 7 7 7 7 7 7 7 7 7 c V y 7 7 7 7 7 7 7 7 7 7 7 7 7 7 7 7 7 7 7 7 7 7 7 7 7 * ; 7.p.u.p.p.p.u.p.p.p.u.p.p.p.u.u.p.p.u.p.p.u.u.u.u.u.u.u.u.u.u.u.u.u.u.u.u.u.u.u.u.u.u.u.u.u.u.u.u.u.u.u.u.u.u.u.u.u.u.u.u.u.u.u.u.u.u.u.u.u.u.u.u.u.u.u.u.u.u.u.u.u.u.u.u.",
"jXzXzXzXzXjXzXzXzXzXzXzXzXzXzXzXzXzXzXzXzXzXzXzXzXzXzXzXzXzXzXzXzXzXzXzXzXzXzXzXzXzXzXzXzXzXzXzXzXzXzXzXzXzXzXzXzXzXzXzXzXzXzXzXzXzXzXzXzXzXzXzXzXzXzXzXzXzXzXzXzXzXzXzXzXzXzXzXzXzXzXzXzXzXzXzXzXcXcXzXcXcXcXcXcXcXcXcXcXcXcXcXcXcXcXcXcXcXcXcXcXcXcXcXcXcXDXdX; 7 7 7 7 7 7 7 7 > 5.~.-XcXMXN ; 7 7 7 7 7 7 7 7 7 7 7 7 7 7 7 7 7 7 7 7 7 7 7 $ 3.DXcXsXsXsXsXsXsXsXsXsXsXsXsXsXsXsXsXsXsXsXsXsXsXsXgXgXgXsXsXgXgXgXgXgXgXgXgXzXzXzXzXzXzXzXzXzXzXzXzXzXzXzXzXzXzXzXzXzXzXgXzXzXzXzXzXzXzXzXzXzXzXzXzXzXzXzXzXzXzXzXzXzXzXzXzX",
"                                                      O                   O O O O O O O O O O O O O O O O O O O O O O O O o o O O O o o o o o o o o o o o o o o o o o o o o o o o o o o - $ o o - o o - o o o o * * * * * o - - - - - - - - - - - - - - - < j xXaXX 7 7 7 7 7 7 7 > r.FXJXLXcXc > 7 7 7 7 7 7 7 7 7 7 7 7 7 s 7 7 7 7 s 7 7 7 ; N KX1.                                                                                                                O O   & o   O O O O O O O O O o O O O O O O o o o o o o o ",
"< : : : : m , : , , , m : , : , m : , , m , : j h < j m : , , , , , , , , , , , , , , , , , s , m j , 5 y A j y s s s s , m h , s s s s s 7 E z 7 s s s s C j s s s s M s s s h m s j s V ) s h M s h V s j j j j j j j j j j j j j j j j j h j C C j h j j s s GXV ; 7 7 7 7 7 7 > r.AXKXJX-X7 7 7 7 7 7 7 7 7 9 6 S.S.S.S.Z.S.S.S.S.^ 9 7 7 X aXs.  - - - - - - - - - - - - - h < - - - - - - - - - < < - s j - < < < : : : < : < < < , m , , , , , , , , , , , , : h h # }.X.# r , , , , , , , s C , s s s s s s s s s s s , ",
"- - - - - h - - - - : h - < - , h - < : h < - s j - s h - : : : : : : : : , , , , , , , , , , < h s : , > A 2 , , , , , , h j , , , , , , > L z > 5 , s , m s , , s , C s s , h m , s 5 C ) , j C , j V s s s s s s s s s s s s s s s s s s s s m m s j s s h - cXi.X 7 7 7 7 7 7 > r.ZXGXKX~.7 7 7 7 7 7 7 7 7 9 z C.C.C.C.^ C.C.C.C.E 9 7 7 - mXm O o o o o o o o o o o o o o j - o - - - - - - - - - - o s s o - - - - - - - - : : : - h < - - - : - - - < : < < - h j @ }.X.# , , , , , , , , , m , , , , , , , , , , , s < ",
"- - - - - h - - - - : h - < - , h - < : h < - s j - s h - : : : : : : : : , , , , , , , , , , < h s : , > A 2 , , , , , , h j , , , , , , > L z > , , s , m s , , s , C s s , h m , s 5 C ) , j m , j V s s s s s s s s s s s s s s s s s s s s m m s j s s j - zXp.X 7 7 7 7 7 7 > r.FXKXKX~.7 7 7 7 7 7 7 7 7 , / _._._._.I._._._._.[ < 7 7 - ZXj   o o o o o o o o o o o o o j - o - - - - - - - - - - o s s o - - - - - - - - r  XX.| Z - : : : - : r ..r - r < }  .Z | {.X.# , , , , , , , , , m , , , , , , , , , , , s < ",
"- - - - - h - - - - : h - < - , h - < : h < - s j - s h - : : : : : : : : , , , , , , , , , , < h s : , > A 2 , , , , , , h j , , , , , , > L z > , , s , m s , , s , C s s , h m , s 5 C ) , j m , j V s s s s s s s s s s s s s s s s s s s s m m s j s s j - zXp.X 7 7 7 7 7 7 > r.vXbXZX~.7 7 7 7 7 7 7 7 7 , / I.I.I.I.U.I.I.I.I.[ , 7 7 - nXh   o o o o o o o o o o o - o j - o - - - - - - - - - - o s s o - - - - - - - : # ..t o. X| o.|  Xo.Y.t Y.Y.} X.X.| o. X..{.o.# , , , , , , , , , m , , , , , , , , , , , s < ",
"- - - - - h - - - - : h - < - , h - < : h < - s j - s h - : : : : : : : : , , , , , , , , , , < h s : , > A 2 , , , , , , h j , , , , , , > L z > , , s , m s , , s , C s s , h m , s 5 C ) , j m , j V s s s s s s s s s s s s s s s s s s s s m m s j s s j - zXp.X 7 7 7 7 7 7 > %.1.' *.5.y 7 7 7 7 7 7 7 7 , / (.).(.).I.(.).(.).[ < 7 7 - nXh   o o o o o o o o o o o - o j - o - - - - - - - - - - o s s o - - - - - - - ; # ..} ..O.o.| | Y.| ..| ..| Y.| ..X. X| | {.X.# , , , , , , , , , m , , , , , , , , , , , s < ",
"- - - - - h - - - - : h - < - , h - < : h < - s j - s h - : : : : : : : : , , , , , , , , , , < h s : , > A 2 , , , , , , h j , , , , , , > L z > , , s , m s , , s , C s s , h m , s 5 C ) , j m , j V s s s s s s s s s s s s s s s s s s s s m m s j s s j - zXp.X 7 7 7 7 7 7 ; 8.m   < u.7 7 7 7 7 7 7 7 7 , / I.I.I.I.U.I.I.I.I.[ , 7 7 - nXh   o o o o o o o o o o o - o j - o - - - - - - - - - - o s s o - - - - - - - - # | t | O.| } r o.} X.| | | | X...} X.Y.| {.X.# , , , , , , , , , m , , , , , , , , , , , s < ",
"- - - - - h - - - - : h - < - , h - < : h < - s j - s h - : : : : : : : : : , , , , , , , , , < h s : , > A 2 , , , , , , h j , , , , , , > L z > , , s , m s , , s , C s s , h m , s 5 C ) , j m , j V s s s s s s s s s s s s s s s s s s s s m m s j s s j - zXp.X 7 7 7 7 7 7 ; e.C   , i.7 7 7 7 7 7 7 7 7 , / (.(.(.(.I.(.(.(.).[ < 7 7 - nXh   o o o o o o o o o o o - o j - o - - - - - - - - - - o s s o - - - - - - - - - - - - h - - - : : : - - < - < < - d j @ }.X.# , , , , , , , , , m , , , , , , , , , , , s < ",
"- - - - - h - - - - : h - < - , h - < : h < - s j - s h - : : : : : : : : : , , , , , , , , , < h s : , > A 2 , , , , , , h j , , , , , 3 > L z > , , s , m s , , s , C s s , h m , s 5 C ) , j m , j V s s s s s s s s s s s s s s s s s s s s m m s s s s j - zXp.X 7 7 7 7 7 7 ; e.C   , i.7 7 7 7 7 7 7 7 7 , / I.I.I.(.U.I.(.I.(.[ < 7 7 - nXh   o o o o o o o o o o o - o j - o - - - - - - - - - - o s s o - - - - - - - - - - - - h < < < - < < : < < : < : - h j @ }.X.# , , , , , , , , , m , , , , , , , , , , , s < ",
"- - - - - h - - - - : h - < - : h - < : h < - s j - s h - : : : : : : : : , , , , , , , , , , < h s : , > A 2 , , , , , , h j , , , , , 3 > L z > , , s , m s , , , , C s s , h m , s s C ) , j m , j V s s s s s s s s s s s s s s s s s s s s m m s s s s j - zXp.X 7 7 7 7 7 7 ; e.C   , i.7 7 7 7 7 7 7 7 7 , / (.(.(.(.I.I.(.(.(.[ < 7 7 - nXh   o o o o o o o o o o o - o j - o - - - - - - - - - - o s s o - - - - - - - - - - - - h - < - - < < < < < : : : - h j @ }.X.# , , , , , , , , , m , , , , , , , , , , , , < ",
"- - - - - h - - - - : h - < - , h - < : h < - s j - s h - : : : : : : : : : , , , , , , , , , < h s : , > A 2 , , , , , , h j , , , , , 3 > L z > , , s , m s , , , , C s s , h m , s s C ) , j m , j V s s s s s s s s s s s s s s s s s s s s m m s s s s j - zXp.X 7 7 7 7 7 7 ; e.C   , i.7 7 7 7 7 7 7 7 7 , / (.(.(.(.I.(.(.(.(.[ < 7 7 - nXh   o o o o o o o o o o o - o j - o - - - - - - - - - - o s s o - - - - - - - - - - - - h - < - - < < < < < < : : - h j @ }.X.# , , , , , , , , , m , , , , , , , , , , , , - ",
"- - - - - h - - - - : h - < - , h - < : h < - s j - s h - : : : : : : : : : , , , , , , , , , < h s : , > A 2 , , , , , , h j , , , , , 3 > L z > , , , , m s , , , , C s s , h m , s s C ) , j m , j V s s s s s s s s s s s s s s s s s s s s m m s s s s j - zXp.X 7 7 7 7 7 7 ; e.C   , i.7 7 7 7 7 7 7 7 7 , / I.I.I.I.U.I.I.I.(.[ , 7 7 - nXh   o o o o o o o o o o o - o j - o - - - - - - - - - - o s s o - - - - - - - - - - - - h - < - - < < < < < < : : - h j @ }.X.# , , , , , , , , , m , , , , , , , , , , , s - ",
"- - - - - h - - - - : h - < - : h - < : h < - s j - s h - : : : : : : : : : , , , , , , , , , < h s : , > A 2 , , , , , , h j , , , , , , > L z > , , , , m s , , , , C s s , h m , s 5 C ) , j m , s V s s s s s s s s s s s s s s s s s s s s m m s s s s j - zXp.X 7 7 7 7 7 7 ; u.C   , i.7 7 7 7 7 7 7 7 7 , / (.(.(.(.I.(.(.(.).[ < 7 7 - nXh   o o o o o o o o o o o - o j - o - - - - - - - - - - o s s o - - - - - - - - - - - - h - < - - < < < < < < : : - h j @ }.X.# , , , , , , , , , m , , , , , , , , , , , s - ",
"- - - - - h < - - - : h - < - , h - < , h < - s j - s h - , : , , , , , , , , , , , , , , , , : h s , , > A 2 , , , , , , h j , , , , , 5 > L z > 3 , , , m s , s s , C s s , h m , s s C ) , j m , j V s s s s s s s s s s s s s s s s s s s s m m s s s s j - zXp.X 7 7 7 7 7 7 ; u.C   , i.7 7 7 7 7 7 7 7 7 , / I.I.I.I.U.I.I.I.I.[ , 7 7 - nXh   o o o o o o o o o o o - o j - o - - - - - - - - - - o s s o - - - - - - - - - - - - h - < < < < < < < < < : : - h j @ }.X.# , , , , , , , , , m , , , , , , , , , , , s < ",
"o - - - - h - - - - - h - - - < h - - - h - - s s o s h - - - - < < < < < < < < < < < < < < : - h s - : ; 2 2 ; , : : , - h j < , , , , , ; L z ; , , , , m s , , , , m , , , j h , , , C ) , j m , s C , s , , , , , , s s s s s s s s s s s , h m , s s s s - zXp.X 7 7 7 7 7 7 ; u.M   , i.7 7 7 7 7 7 7 7 7 , / ).).).).I.(.).).).[ < 7 7 - nXh   o O o o o o o o o o o o o s o o o o o o o o o o o - o , s o - - - - - - - - - - - - h - - - - - - - - - - - - - j j @ }.X.@ : < < < < : : < , h < , : : , , , , , , , , - ",
", s s s s m s s s s s m s s s s m s s s m s s h m s h C s s s s j j j j j s j j j j j j j j j s C h j j f F k f j j j j j C m j h h h h h f E L f h h h j V h h h h h V h h h m M h h h V ) h m V h m <.h h h h h h h h h h h h h h h h h h h h M V h m m m m - zXi.X 7 7 7 7 7 7 ; u.M   , i.7 7 7 7 7 7 7 7 7 , 8 [ / / / / / / / [ / , 7 7 - ZXj o , : , , , , , , , , , , , h , , , , , , , , , , , , , h h , s s s s s s s s s s s s m s s s s s s s s s s s s s m Z 4 }.o.4 j j j j j j j j h C j j j j j h h h h h h h s ",
"s s s s s m s s s s j C s j s j C s j j C j s m m s h C s j j j j j j j j j j h h h h h h h h j C m j h g F k h h h h h j C m h h h h h h f E E f h h h h V m h h h h V m h h C V h m h V ` h C V h m <.h m m m m m m m m m m m m m m m m m m m V V m m m m C - zXi.X 7 7 7 7 7 7 ; u.M   , i.7 7 7 7 7 7 7 7 7 7 7 0 0 0 0 8 0 0 0 0 7 7 7 7 - ZXj o , , , , , , , , , , , , , h s , s s s s s s s s s s s h h , s s s s s s s s s s s s m s j j j j j j j j j j j s C m 4 }.+.3 h h h h h h h h h M h h h h h h h h h h h h j ",
"o - - - - h - - - - - h - - - < h - - - h - - s s o , h - - - - - - - - - - - < < < < < < < < - h s - : ; 2 2 ; : : : , - h j < , , : , 5 5 E E 5 3 , , : m s , , , , m , , , j h , , , m ) , j m , s C , , , , , , , , , , , s s s s s s s s , h h , s s s s o zXp.X 7 7 7 7 7 7 ; u.M   , s.7 7 7 7 7 7 7 7 7 7 7 0 q 0 q 0 0 q 0 q 8 7 7 7 - nXh   o O O o o o o o o o o o o s o o o o o o o o o o o o o , s o - - - - - - - - - - - - h - - - - - - - - - - - - - j s @ }.X.@ : < < < < < < < , h - , : : : : , , , , , , - ",
"- - - - - h < - - - : h - < - , h - < , h < - s j - s h - , : : , , , , , , , , , , , , , , , : h s , , > A 2 , , , , , , h j , , , 5 6 L J ^ I L z 5 , , m s , s s , C s s , h m , s , C ) , j m , j M , s s s s s s s s s s s s s s s s s s s m m s s s s j o zXi.X 7 7 7 7 7 7 ; u.M   , f.7 7 7 7 7 7 7 7 7 7 7 0 q q q 8 0 q q q 8 7 7 7 - nXh   o o o o o o o o o o o o o j - o - - - - - - - - - - o s s o - - - - - - - - - - - - h - < < < < < < < < < < , - h j @ }.X.# , , , , , , , , , m , , , , , , , , , , , s < ",
"- - - - - h - - - - : h - < - , h - < : h < - s j - s h - : : < : : : : : : : , , , , , , , , < h s : , > 2 2 , , , , , : h j , , , 6 E I ^ C.C.I I L 5 , m s , , , , C s , , h m , s , C ) , j m , s M , s s s s s s s s s s s s s s s s s s s m m s s s s j o zXi.X 7 7 7 7 7 7 ; u.V   , f.7 7 7 7 7 7 7 7 7 7 7 0 q q q 0 0 q q q 8 7 7 7 - nXh   o o o o o o o o o o o o o j - o - - - - - - - - - - o s s o - - - - - - - - - - - - h - - - - - - < < < < < : - h j @ }.X.# , : , , , , , , , m : , , , , , , , , , , , - ",
"- - - - - h - - - - : h - < - , h - < : h < - s j - s h - : : < : : : : : : : : , , , , , , , < h s : , > 2 2 , , , , , : h j , , 5 J I C.K.K.K.Z.^ I 6 , m s , , , , C s , , h m , s , C ) , j m , s M , s s s s s s s s s s s s s s s s s s s m m s s s s j o zXi.X 7 7 7 7 7 7 ; p.V   , f.7 7 7 7 7 7 7 7 7 7 7 0 0 0 0 8 0 0 0 0 8 7 7 7 - nXh   o o o o o o o o o o o o o j - o o - - - - - - - - - o s s o - - - - - - - - - - - - h - - - - - - < < < < < : - h j @ }.X.# , : , , , , , , , m : , , , , , , , , , , , - ",
"- - - < - h < - < - < h - < < , h - < , h < - s j - s h - , < < < , , , , , , , , , , , , , , < h s , , > A 2 , , , , , , h d , 5 6 I Z.K.C.^ B.K.F.I L 5 m s , 5 5 , C s 5 , h m , s 5 C ) , d m , j M 5 s s s s s s s s s s s s s s s s s s s m m s s s s j o zXi.X 7 7 7 7 7 7 ; p.V   , f.7 7 7 7 7 7 7 7 7 7 7 q q q q 0 q q q q 8 7 7 7 - nXh   o o o o o o o o o o o o o j - o o - - - - - - - - - o s s o - - - - - - - - - - - - h - - - < - - - < < < < < - h j @ }.X.# , : , , , , , , , m : , , , , , , , , , , , - ",
"$ * * & * g - & - * - h * - - ; g $ - ; h - & r s $ 7 h * ; ; - ; ; ; ; ; ; ; ; ; ; ; ; ; ; ; - h r ; : ; 2 2 ; : : : > ; g f : ; E F.K.C.^ A.Z.B.K.C.J 5 c 7 > , , > m 7 , > f c > 7 , m ( > f b > s N , 7 7 7 7 7 7 7 7 7 7 7 7 7 7 7 7 7 7 7 c c 7 7 7 7 s o zXi.X 7 7 7 7 7 7 ; p.V   , f.7 7 7 7 7 7 7 7 7 7 7 0 0 0 0 8 0 0 0 0 8 7 7 7 - nXj   o o o o o o o o o o o o o j - o o - - - - - - - - - o s s o - - - - - - - - - - - - h - - - < - - - < < < < < - h j @ }.X.# , : : , , , , , , m : , , , , , , , , , , , - ",
"6 6 6 6 6 E 6 6 6 6 6 E 6 6 6 J E 6 6 J E 6 6 E E 6 L E 6 J 6 6 6 J J J J J J J J J J J J J J 6 E E J J J E E J J J J J J E E 6 E F.K.C.B.B.A.Z.B.Z.K.C.J E E J L L L E L L J E E L E L E *.J E E J E E L E L L L L L E E E E E E E E E E E E L E E L E E E E 1 zXi.X 7 7 7 7 7 7 ; p.V   , f.7 7 7 7 7 7 7 7 7 7 7 q q q q 0 q q q q 8 7 7 7 - nXj   o o o o o o o o o o o o o j - o o - - - - - - - - o o s s o - - - - - - - - - - - - h - - - - - - - < - - < < - h j @ }.X.# , : : , : : < < , m : , , , , , , , , , , , - ",
"< < < < < z 3 < < < 5 z < 3 3 5 z < 3 5 z 3 < d d < d z < 5 5 5 5 5 5 5 5 5 5 5 5 5 5 5 5 5 5 3 z d 5 5 5 A d 5 5 5 5 5 5 h d w.H.F.^ ^ A.C.^ ^ Z.Z.C.H.~ h d 5 5 5 5 M d 5 5 z C 5 3 3 K ) d z M 5 d T 5 d d d d d d d d d d d d d d d d d d 5 z C 5 d d d h * zXi.X 7 7 7 7 7 7 ; p.V   , f.7 7 7 7 7 7 7 7 7 7 7 0 0 0 0 8 0 0 0 0 8 7 7 7 - nXj   - O O o o o o o - , - , o j - o o o - - - - o - - , - , s o - - - - - - - s , - s < h - - - - < - < - , j < : , h j @ }.X.# , : , : , , s s , m : , , , , , , , , , , , - ",
"- - - - - h - - - - ; h - - - : h - - ; h - - s s $ r h - ; ; ; ; ; ; ; ; ; ; ; ; : : : : : : - h s : 2 2 A A 2 2 < < - % D F.H.D.F E Z.Z.Z.Z.Z.C.Z.Z.F.H.w.= , , , , m 7 , , h h , w.w.) { p v m , s N , r 7 7 7 7 7 7 7 r s s r s s s s s s , h c , s r r s o zXi.X 7 7 7 7 7 7 ; i.V   , f.7 7 7 7 7 7 7 7 7 7 7 q q q q 0 q q q q 8 7 7 7 - nXj O , , , o o o o O h j j V , s - o o o - - - - o M C C m s s o - - - - - - - h V m m - h - - - - - - < - s V j m C s j @ }.X.# , : : - <.m j <.j h , , , , , , , , , , , , - ",
"- - - - - h - - - - < h - < - , h - < : h < - s j - s h - : < < < < : , , , , , , , , , , , , < h j 2 A A H H A A v ( ) D.H.CX^.T.^.=XV.V.V.V.B.v.^ ^ Z.K.H.w.; > s 5 C s 5 5 j c D.CXBXd.{ ) ) ` y s M , s s s s s s s s s s s s s s s s s s , h m , s s s j o zXi.X 7 7 7 7 7 7 ; i.V   , g.7 7 7 7 7 7 7 7 7 7 7 0 0 0 0 8 0 0 0 0 8 7 7 7 - ZXj O C C m < o o o - V h m < h s - o o o - - - - s V h V m , s o - - - - - - - , V <.C , h - - - - - - < , - j C <.h j j @ }.X.# , : , : h h - C s h : , , , , , , , , , , , - ",
"- - - - - h - - - - : h - < - , h - ; : h ; - s j - s h - , : > > > , , , , < < < < < < 1 1 < - k S H G G z.@.+.O.^.-XCXJ.M.) *.B.C.T T 0.w.V.V.=Xy.&.E Z.K.H.D.z * ; m s , ; f D.CX:.~.kXT.:.:.-.p f M , s s s s s s s s s s s s s s s s s s , h m , s s s j o zXi.X 7 7 7 7 7 7 ; i.V   , g.7 7 7 7 7 7 7 7 7 7 7 0 q q q 0 0 q q q 8 7 7 7 - ZXj O V j j , O o - h m h V h j s - o o o - - - j h V 4.m C s s o - - - - - , h : M <.m h j - - - - - - < h h V j <.<.j j @ }.X.# , < h j h h C M , m < , , , , , , , , , , , - ",
"- - - - - h < - - - < h - < - < h 1 - < h 1 1 5 5 + 5 d 1 1 1 1 1 1 1 1 < < > 7 8 i ( ( { { T.T.Q.^.+.@.z.z.z.G v.G.J.D.E ^ B.B.E Q Q R L ~ ^ E ! t.Q.T.:.V.Z.H.J.D.E M 7 7 R F.CX^.{ Q.:XQ.T.T.:.( v C , s s s s s s s s s s s s s s s s s s s m m 5 s s s j o zXi.X 7 7 7 7 7 7 ; i.V   , g.7 7 7 7 7 7 7 7 7 7 7 0 q q q 8 0 q q q 8 7 7 7 - nXj O s , , - o o o O , h < m - s - - - - - - - o o - , h s , s o - - - - - - - m j , m : h - < < < < < < - h V s : s j j @ }.X.# , , : < s s C C s h : , , , , , , , , , , , - ",
"o & * * $ g - - ; = ; x = 9 9 9 v 9 9 w ) w w ( ( w ( { ( ( { { { { U.T.T.T.T.T.T.T.T.T.T.:.:.-.3.G G x.H z.G N.N.G.C.B.B.B.E g c W ! R K Q ~ K =XK l $.:.Q.T.>.D.J.H.J.F.F.H.CXd.:.Q.T.:.T.:.Q.:.) n B , 3 3 , , , , , > > > > > > > > 7 7 7 ; g g ; 7 7 7 7 X zXp.X 7 7 7 7 7 7 ; i.V   , g.7 7 7 7 7 7 7 7 7 7 7 0 0 0 0 8 0 0 0 0 8 7 7 7 - nXh           O O O O     O     s o O O O O o o o o o O O   , , O o o o o o o o O o o O o j o o o o o - - - o o - - o s r . }.X.@ - - - - - - o o < h - - - - - - - - < < < : o ",
"Q.Q.Q.Q.Q.^.Q.Q.Q.Q.Q.^.Q.^.^.^.=X=X=X=X=X=X=X=X=X=X=X=X=X=X-XV.V.V.V.rXV.V.V.B.B.B.B.C.C.C.C.C.C.v.v.v.x.c.x.v.v.! Q T V 4.*.K K w.~ ~ ~ ! v.q.;Xq.G G z.M.q.^.^.^.hXzXBXBXD.M.D.V.=X:.E.`.T.^.-XV.C.C.C.C.C.C.C.C.C.C.C.C.C.C.C.C.C.C.C.C.C.C.C.C.C.C.C.C.C.I gXi.X 7 7 7 7 7 7 ; i.V   , j.7 7 7 7 7 7 7 7 7 7 7 q q q q 0 q q q q 8 7 7 7 - ZXs h 8.7.7.7.7.7.7.7.7.7.7.9.7.8.9.7.7.7.7.9.9.9.9.9.9.9.9.8.8.9.9.9.9.9.9.9.9.8.8.8.8.8.8.9.8.8.8.8.8.8.8.8.8.8.8.8.u.e.l.}.@Xl.8.8.8.8.8.8.8.8.8.u.8.8.8.8.8.8.8.8.8.8.8.8.8.",
"0.0.<.4.4.7.4.4.4.4.4.0.T T T R 0.E R R ~ R R Q Q E Q ~ E R E E R E W rXy.F R R R R R R R R D D G G z.v.z.c.z.z.z.G G D D v.v.v.z.M.v.x.v.v.v.v.yXv.z.G k.:XG G G  . .@. .t.:Xv.t.t.Q.T.T.].:.Q.^.t.r.8.0.0.0.0.0.0.0.0.l.l.l.l.l.l.l.l.l.l.l.0.w.w.0.l.l.l.w.z gXi.X 7 7 7 7 7 7 ; i.V   , j.7 7 7 7 7 7 7 7 7 7 7 0 0 0 0 8 0 0 0 0 8 7 7 7 - ZXj - s s s s s s s s s s s s s C j s j j j j j j j j j j s m C s j j j j j h h h h h h h V h h h h h h h h h h h h h V M 3 }.+.5 c h h h h h h h m <.h m m m m m m m m m m h <.",
"c.x.j k k D k k k k k D k k k k D k k k V z.x.C S k S D k Z Z k c.G Z wX>.k Z k k k k k F k S k F v.N.N.x.G z.x.z.z.z.z.z.N.v.x.G :Xl.F ! G ~ w.8Xy.S k $X9Xn b n d C :XK >.9X=X=.:.t.Q.Q.Q.Q.Q.Q.:.=.=.) ) ) ) ) ) ) ) ) ) ) ) ) ) ) ) ) ) ) ) =.=.) ) ) ) ` 9 zXi.X 7 7 7 7 7 7 ; i.T   , h.7 7 7 7 7 7 7 7 7 7 7 q q q q 0 q q q q 8 7 7 7 - nXj   O O O O O O O O O O O O O s o O o o o o o o o o o o O , , O o o o o o o o o o o o o j o o - - - - - - - - - - o j r . }.X.@ - - - - - - - - < h - - - - - - - - - < - h M ",
"M.x.k k k D k k k k k D k k k S D k k S D k.M.S D k S T k F k F c.z.S wX$XA S S F S M 6.;Xy.k D D.G.G.M.z.x.x.x.x.x.z.-X=X3Xk.x.B 3X:X$XW ;Xk.~ 0XV.G W =X0X%.m m $X-.3X$.>.0X:X;X>.^.^.^.:X:XQ.Q.-.=.6.' ` ` ` ` ` ` ` ` ` ` ` ` ` ` ` ` ` &.` 2.2.` &.` ` =.7 gXi.X 7 7 7 7 7 7 ; i.T   , h.7 7 7 7 7 7 7 7 7 7 7 0 0 0 0 8 0 0 0 0 8 7 7 7 - nXj   o o o o o o o o o o o o o j - o - - - - - - - - - - o s s o - - - - - - - - - - - - h - - - - - - - < < < < < - h j @ }.X.# , : : : , , , : , m : , , , , , , , , : h 1.: ",
"3XM.A k k D k k k k k D k k k k D k k k F &X3XD D k S D S =XV F c.z.6.eX>.A S y.:XD &X=X0X&XM.G.CXM.M.-Xx.x.x.z.G S j &X&X3X;X:X<.3XeX&XR 0XV.q.0X=XG G ;X0X*.h >.0Xy.eX-.>.3X;XwXM.1XM.:X:XdX:.M.@.$.6.' ' ' ` ` ` ` ` ` ` ` ` ` ` ` ` ` ` ` ' =.=.' ` ` ` =.7 gXi.X 7 7 7 7 7 7 ; a.<.  , h.7 7 7 7 7 7 7 7 7 7 7 q q q q 0 q q q q 8 7 7 7 - nXj   o o o o o o o o o o o o o s - o o o o o o - - - - - o s s o - - - - - - - - - - - - h - - - - - - - - - - - < - h j @ }.X.# : < : < : : : : , h < , , , , , , , < h <.s - ",
"5XyXH z k D k k k k k D k k k S D k k k D ;X3X3.S k D 9.%.3X>.G c.v.3XeX$X<.A >.3X3.wX1XwXCXJ.VXwXa.M.M.z.G F D M m k ;X3X3X3X3X0.3X9X&X$.0X=Xl.9X=XG F ;X0X-.H :X0Xy.0X6.-X&X3X0X:X3XwX5X;XBXt.:X=X' 6.) 5.u.' ` ` ` ` ` ` ` ` ` ` ` ` ` ` ` ' =.=.' ` ` ` =.7 gXi.X 7 7 7 7 7 7 ; a.<.  , h.7 7 7 7 7 7 7 7 7 7 7 0 0 0 0 8 0 0 0 0 8 7 7 7 - nXj   o o o o o o o o o o o o o j - o o o o o o - - - - - o s s o - - - - - - - - - - - - h - - - - - - - - - < - < - j j @ }.X.# : : < : < : : : , h < , , , , , , < h <.s , - ",
"3X:XG z k D k k k k k D k k k k D k k k D ;XwX6.F k D ;Xy.wX>.7.:XuX5XwX0X;XA y.wX6.3XVXJ.CXq.-XfXM.:X;Xn F F &X>.j k ;X3X3X0X3Xw.8X0X3Xy.0X=X6.9X;XQ =XwX0X-.q.rX3X=X0X=XwX=X$X9X9X0X0X8XwXCXw.&X3X' 6.Z >.1XN ` ` ` ` ` ` ` ` ` ` ` ` ` ` ` ` =.=.` ` ` ` =.7 gXi.X 7 7 7 7 7 7 ; s.<.  , h.7 7 7 7 7 7 7 7 7 7 7 q q q q 0 0 q q q 8 7 7 7 - nXj   o o o o o o o o o o o o o j - o o o o o o o - - - - o s s o - - - - - - - - - - - - h - - - - - - - - - - < < - j j @ }.X.# : : < < : < : : , h < , , , , , < j 4.s < , - ",
";X;X0.k k D k k k k k D k k k S D k k k 4.;X;X6.z.G M wX>.wXy.y.9X3XwXwX5XwXF >.wXM.CXJ.D.-Xz.tXwX3X&X&X$.F C 3X$X$.k ;XwX3X9X3Xl.0X3X3X:X0X;X6.0X8XM.0X0XwX>.3X:X;X=X0X0XtXQ $X0X3X9X3X0X0XCXD.&X3X_ 5.Q.$X1X .` ' ' ' ' ' ' ' ' ' ' ` ` ` ` ' =.=.' ` ` ` *.7 gXi.X 7 7 7 7 7 7 ; s.<.  , h.7 7 7 7 7 7 7 7 7 7 7 0 q q q 8 0 q 0 q 8 7 7 7 - nXj   o o o o o o o o o o o o o j - o o o o o o o - - - - o , s o - - - - - - - - - - - - h - - - - - - - - - - - < - j j @ }.X.# : < : < < < : < , h < , : , , < j 4.s < , , - ",
"M.;X9.k <.;XM k k k k D k k M M D k C k 3.;X;X=X:Xy.C 3X-XwX=X=XwX=Xy.0XwXwX=Xy.rXJ.F.lXM.M.9.5X0X0X;X&X-.F %.3X9X3Xy.;X9X0X0X3X=X0X&X=XwX0X;X$XwX;XfXwX-X;X$X;Xc.;X:X0X0Xw.R y.y.M.rX$X0X8XVXG.;X5X:X&X3X1X&X=X>.' &.` ` ` ` ` ` ` ` ` ` ` ` ` =.=.` &.` ` =.7 gXi.X 7 7 7 7 7 7 ; f.<.  5 !.7 7 7 7 7 7 7 7 7 7 7 0 0 0 0 8 0 0 0 0 8 7 7 7 - nXj   o o o o o o o o o o o o o j - o o o o o o o - - - - o , s o - - - - - - - - - - - - h - - - - - - - - - - - < - j j @ }.X.# : < < : < : : < , h < , : , - j 3.j < , , , - ",
"8X6X7XqX8X6X7X7X7X7X7X7X7X7X7XqX7X7XqX7X7X6X6X6X9X7XqX6X0X6X7X8X8X7X7X6X9X6X6X7X9X0X9X8X0X6X7X6X6X9X6X9XqXqX5X6X9X6X6X6X6X6X6X9X9X9X9X7X6X6X9X9X9X0X0X0XeX9X8X9X0X9X9X9X9X9X8X8X8X0X0X9X9X9X9X0X9X9X9X9X9X9X9X9X8X8XqX8X8X8X8X8X8X8X8X8X8X8X8X8X8X8X8X8X8X8X9X,.aXi.X 7 7 7 7 7 7 ; f.<.  5 !.7 7 7 7 7 7 7 7 7 7 7 q q q q 0 q q q q 8 7 7 7 - nXj   o o o o o o o o o o o o o s - o o o o o o o o - - - o , s o - - - - - - - - - - - - h - - - - - - - - - - - < - j j @ }.X.# : < < < : < : < , h < , , - s 4.j < , , , , - ",
"#X3X8X7X8X8X1X#X#X#X#X*X#X*X7XqX-X:X6X#X&X3X3X9X8X9XqX8X6X3XwX6X*X$X&X3X7XrXVXrX:X;XqX6X&X3XqXwX:X6X3X8X6X6X9X3X6X0XwXwX3X7X#X&X6X6XqX*X6X3X3X6XqXqX9XqX#XqX6X3X$XqX6X3X9X*X*X&X*X;X:X*X5X9X&XVXeX,X8X6X6X6X8X8X6X&X6X&X#X*X#X#X*X*X*X*X*X*X*X#X*X*X#X*X*X#X*X#.sXi.X 7 7 7 7 7 7 ; f.<.  s tX7 7 7 7 7 7 7 7 7 7 7 0 0 0 0 8 0 0 0 0 8 7 7 7 - nXj   o o o o o o o o o o o o o s - o o o o o o o o - - - o , s o - - - - - - - - - - - - h - - - - - - - - - - - < - j j @ }.X.# : < < < : : : < , h < , - s 1.j - , , , , , - ",
"A $X5X8X=X&X8X2 + 2 A A + j 8X8XM.-X8X$X=X&XA &X0X8X;X$X3X=XM.8XF F A 3.VXJ.G.N.:X>.$.6Xl.;X0XV.z.9Xy.&X6X6X8Xw.3XD.x.H :X3X2 k yX-X>.k 6X$X$X0Xz.#X6X*.2 *X6X$X2 &X3Xy.8XC k S D S F j 6.9X0.G.CX,.qX9XqX6X3X5X9X:.6XQ.v r ) ) r r r r r r r 7 c c 7 r r r r $ zXi.X 7 7 7 7 7 7 ; f.<.  s tX7 7 7 7 7 7 7 7 7 7 7 q q q q 0 q q q q 8 7 7 7 - nXj   o o o o o o o o o o o o o s - o o o o o o o o o - - o , s o - - - - - - - - - - - - h - - - - - - - - - - - - - j j @ }.X.# : < < < < : : < , h < < s 1.j - , , , , , , - ",
"k y.3X9X=X$X0X:.+ m ;XD >.>.8X8X8X0X8X9X9X&XA q.wX8X0X&X-.>.v.d.M Z q.J.J.N.-X5X7X>.n 6Xl.=X6Xl.! &X0.&X6X6X8XF F F l A :XqXk n c.c.c V 8X#XT N.G y.d.z B 2.wX$Xj &X3Xy.3XV B *.2.B $.C 6.3X0.N.CX:.qX6X=XeX8X5X9X$X9X7X*X: *X*Xr v v v v v v p ) ) p v v v v = zXi.X 7 7 7 7 7 7 - f.<.  s tX7 7 7 7 7 7 7 7 7 7 7 0 0 0 0 8 0 0 0 0 8 7 7 7 - nXj   o o o o o o o o o o o o o s - o o o o o o o o o - - o , s o - - - - - - - - - - - - h - - - - - - - - - - - - - j j @ }.X.@ : < < < < < : < , h - , 1.j - , : : , , , , - ",
"C F c.0X=XG pX#X+ $X9X3X8X3X8X0X8X8X3X8X3X2.C x.N.6X0X=XA S S A Z M.H.G.x.F 7X#Xb h 2.8Xl.v.M.G ~ G F &X8X&X8XD n n n F :X3Xk B m D B B >.-.G c.n F A B B <.z.D k *XqX4.R V B %.<.B V B 3.w.Q v.H.w.,X6Xr.t.5X0X9X&X9X6X1X7 *X*Xr v v v v v v i ) ) i v v v v * zXi.X 7 7 7 7 7 7 - f.<.  s tX7 7 7 7 7 7 7 7 7 7 7 q q q q 0 q q q q 8 7 7 7 - nXj   o o o o o o o o o o o o o s - o o o o o - - - - - - o , s o - - - - - - - - - - - - h - - - - - - - - - - - < - j j @ }.X.# : < < < < < : < , h , 4.h - , , , , , , , , - ",
"k k H uXq.A s.&X$X0X3X0X8X9X$X$X9X8XwX0X3XS k F 8.3X3XD S S Z R F.H.N.z.k n *Xb h m Q 8X6.G A W ~ ! F &X=Xy.8XC m n B h #X3XZ B n n m B k c T Q b n f B m 2.n n k *X&XD M B B %.%.N B B 3.q.W q.CXD.#X9X:.) 5X6X9X9XqX9X9X$.#X*X7 p i i i i i i ) ) i i i i v * zXi.X 7 7 7 7 7 7 - f.<.  s tXy 7 7 7 7 7 7 7 7 7 7 0 0 0 0 8 0 0 0 0 8 7 7 7 - nXj   O O O O O O O O O O O o O s o o o o o o o o o o o o O , , O o o o o o o o o o o o - j o - o - - - - - - - - - o j s . }.X.@ - - - - - - - - < m <.j - - - - - - - - - : o ",
"D D V c.x.D >.9X6XM.M.6X8X9Xy.$X8X3X&X8X&XD D 4.4.3.y.0.D S M.H.J.v.D ~ R %.C D R T q.8Xl.Q <.~ q.~ R y.w.V.5X<.%.%.%.%.*.6.2.%.%.%.%.%.2.%.0.2.%.<.D <.%.3.2.2.S *X&X4.*.<.%.2.3.<.2.<.6.9.~ -.VXJ.6.5X>.=.5X9X3X5X3X9X5X;X3X&XZ ' ' ' ' ' ' ' &.&.' ' ' ' ` = zXi.X 7 7 7 7 7 7 - g.<.  s tXy 7 7 7 7 7 7 7 7 7 7 q q q q 0 0 q q q 8 7 7 7 - ZXj o s , , , , , , , , , , s , h s s s s s s s s s s s s s h h s s s s s s s s s s s s s C s j j j j j j j j j j j s m m 4 }.o.3 h j h h h h h j j 3.V j h h h h h h h h h h s ",
"S S M z.z.D 0.:XeX0.x.pX8X0Xr.$X3X3X&X&XD D D D D S F D D F.H.G.G m K ! R B B T ! D ~ ;X6.Q R Q 0.~ T R G =X3XM V V V %.B <.*.V V V V V %.V 0.4.V %.%.%.V 2.%.%.V >.>.1.%.%.V <.2.%.%.%.3.7.Q 6.eXH.i.qX>.=.3XwX1X6.$X6X1X6X9X*Xx n n n v n n v ' ' v n n n ) = zXi.X 7 7 7 7 7 7 - g.<.  s tXy 7 7 7 7 7 7 7 7 7 7 0 q 0 q 8 0 q 0 q 8 7 7 7 - nXj O - - - - - - - - - - - < - h : < < < < < < : : : : : < j j < , , , , , , , , , , , , h , , , , , , , , , , , , , h h # }.X.4 r , , s s s , s 3.M , s s s s s s s s s s s , ",
"k k k C k D S A q.V x.N.3X6.F $X3X*.$X&XF S S D D k k M.J.J.v.S n n C W D n n D W S W W D R R R 4.Q M R F 9.-Xm B m m B b %.V m B N N N B b T T m B B B m <.V B B C z 2.B B B %.%.B B B 2.=.R 0.qXJ.D.,X-.&.3X:X1Xc Q.9X*X9X6X;Xt p i i i i i i ) ) i i i i v * zXi.X 7 7 7 7 7 7 - g.<.  s tXy 7 7 7 7 7 7 7 7 7 7 0 0 0 0 8 0 0 0 q 8 7 7 7 - nXj   O O O O O O O o o o o o O s o o o o o o o o o o o o o , s o o o o o o o o o - - - - j - - - - - - - - - - - - o j s . }.X.@ - - - - - - : V m h - < - - - - - < < < < : o ",
"k S S k k D S h 2 z G c.v.S A $X3XA >.&XF S S D S k D.H.G.G c n M m C ! D n n D ! D Q ! D R ! D <.T m D M G c.n B B B B m %.%.m B B B B B n T T N B B B B <.V B B B B 2.B B B %.%.B V B 2.-.R 0.:.D.J.5.&.=.$X*X1X' Q.9X$X9X6X0X=.u v p v v v i ) ) i v v v v * zXi.X 7 7 7 7 7 7 - g.1.  s uXy 7 7 7 7 7 7 7 7 7 7 q q q q 0 q q q q 8 7 7 7 - nXj   o o o o o o o o o o o o o s - o o o o o o o o o o - o , s o - - - - - - - - - - - - h - - - - - - - - - - - - - j s @ }.X.@ : < < < - , V h < h - : : : : : : : : : , , - ",
"k S S S S D S S k k S D S S A $X&XA *.>.D S S Z q.F.H.N.S n B m R M D ! R D n D ! Q Q ! D D ! C %.V n B n G z.n B B B B m %.%.m B B B B B n T T N B B B B <.V B B B B 2.B B B %.%.B B B 2.=.T Q N q.H.u.) =.' -.:.' -.qXQ.9X9X6X>.r v v p i v i ) ) u v p i v * zXi.X 7 7 7 7 7 7 - g.4.  s uXy 7 7 7 7 7 7 7 7 7 7 0 0 0 0 8 0 0 0 0 8 7 7 7 - nXj   o o o o o o o o o o o o o s - o o o o o o o o o o - o , s o - - - - - - - - - - - - h - - - - - - - - - - - - - j s @ }.X.@ : - < - < V m - , h - < < : : < < : < : : , - ",
"k S S S S D S S C S C <.C S A $X&XA S S 4.k k M.H.J.v.N n B m m R D R ! W ! D D ! ! R W D B M b %.V m B n D T B B B B B m %.%.m B B B B B n T T N B B B B <.V B B B B 2.B B B %.%.B B B 2.=.D Q 3.V J.D.) &.&.` ' O.Y.+.t.6X6X6XQ.7 p u x ] u i n n } p v ] p * zXi.X 7 7 7 7 7 7 - g.4.  s uXy 7 7 7 7 7 7 7 7 7 7 q q q q 0 q q q q 8 7 7 7 - nXj   o o o o o o o o o o o o o s - o o o o o o o o o o - o , s o - - - - - - - - - - - - h - - - - - - - - - - - - - j s @ }.X.@ : < - - V m - < , h - < < < < : < < : < < , - ",
"k S S S S D S S S S S D S S S :.$XA S S D D D.H.D.F n %.b n b C R R W W W ! R D ! W R Q D n B b %.V m B n D D B B B B B m %.%.m B B B B B n T T N B B B B <.V B B B B 2.B B B %.%.B B B 2.=.V Q q.C D.J.&.&.&.&.&.=. XO. X2X0X2X=X.. .+.:. XO.v Y. .O.O. XO.a * zXi.X 7 7 7 7 7 7 - j.4.  s uXy 7 7 7 7 7 7 7 7 7 7 0 0 0 0 8 0 0 0 0 8 7 7 7 - nXj   o o o o o o o o o o o o o s - o o o o o o o o o o - o , s o - - - - - - - - - - - - h - - - - - - - - - - - - - j s @ }.X.@ : - < <.3.b b g s h - < < < < < : < < : : , o ",
"k S S S S D S S S S S D S S S S D S S k M.J.J.M.Z b V %.b D m C R Q R R W R R R ! D M W M n B b %.V m B n D M B B B B B m %.%.m B B B B B n T T m B B B B <.V B B B B 2.B B B %.%.B B B 2.=.B Q ~ D q.H.l.) &.&.&.$.Y.t.Y.^.2X2X2X}.o.^.2XY.+.Y.O.Y.o.Y.O.O.a * zXi.X 7 7 7 7 7 7 - j.4.  s uXy 7 7 7 7 7 7 7 7 7 7 q q q q 0 q q q q 8 7 7 7 - nXj   o o o o o o o o o o o o o s o o o o o o o o o o o - o , s o - - - - - - - - - - - - h - - - - - - - - - - - - - j s @ }.X.@ - , 3.9.6.6.6.=.*.%.; < < < < < : : , , , , * ",
"k S S S S D S S S S S D S S S S 4.k S D.H.G.D n %.b B %.m W M D W W S R W D Q Q R M m W M n B n %.V m B n D M B B B B B m %.%.m B B B B B n T T m B B B B <.V B B B B 2.B B B %.%.B B B 2.=.B R ~ R B J.D.) =.&.&.&.Y.O.+.^.2X5X2X[.^.[.2XO.O.+.Y.Y.+.Y.Y.O.a * zXi.X 7 7 7 7 7 7 - h.4.  s yXy 7 7 7 7 7 7 7 7 7 7 0 0 0 0 8 0 0 0 0 8 7 7 7 - nXj   o o o o o o o o o o o o o s o o o o o o o o o o o o o , s o - - - - - - - - - - - - h - - - - - - - - - - - - - j s @ }.X.@ : 4.e.r.y.=X=Xy.y.6.i > > : : < - - 1 1 + 1 O ",
"S S S S S D S S S S S D S S S S S Q F.H.M.x x V _ b V %.C ! D D W S M R Q M Q W M N C Q M n N m %.V m B n D M B B B B B N %.%.N B B B B B N T T N B B B B 1.V B B B B 2.B B B %.<.B V B 2.=.B R ~ Q n D.J.=.&.&.&.&. .=. .Q.5X*X9XeX0XeX5X) } v O.] v ] O.v v $ zXi.X 7 7 7 7 7 7 - h.4.  s yXy 7 7 7 7 7 7 7 7 7 7 q q q q 0 q q q q 8 7 7 7 - nXj   o o o o o o o o o o o o o s o o o o o o o o o o o o o , s o - - - - - - - - - - - - h - - - - - - - - - - - - - j s @ }.X.@  .8.r.d.=X;X=X=Xy.y.n 1 + 1 1 - > p ( #.;.R.W.",
"k k k k k D k k k k z D k k k S D.H.F.R n l z B K l B R z W D R F b m D W m W E m b b R m b b b K B b n n S C n n n n n b K K b n n n m m b T K b m m m b %.B m m B m *.B m n K %.m B m *.=.n R ~ Q n w.H.w.) &.$.$.$.$.n Q.qX-.6X#XqX6X7Xp u u p n u u u u p $ gXi.X 7 7 7 7 7 7 - h.3.  s yXy 7 7 7 7 7 7 7 7 7 7 0 0 0 0 8 0 0 0 q 8 7 7 7 - nXj   o o o o o o o o o o o o o s o o o o o o o o o o o o o , s o - o - - - - - - - - - - j - - - - - - - - - - - - - j s @ }...d 0.5.y.=X$X#X#X=X;X=XQ.R.W.%X,X<X4X4X4X4X4X<X,X",
" . . . . . . . . . . . . . . .F.H.D._ ] 5. . . . .'  .q. .q. .Q  ._ '  .q. .Q  ._  . . . . . ._  . . . .'  . . . . . . . . . . . . . . . . .7.3. . . . . .5. . . . . .5. . . . .5. . . .5.t. .0.M.q. .5.F.D.]  . . . .t. .Q.&Xt.5Xt.1X0X5X] } ] ] ] } ] ] ] ] * sXi.X 7 7 7 7 7 7 - h.3.  s yXy 7 7 7 7 7 7 7 7 7 7 0 0 0 q 8 0 q 0 q 8 7 7 7 - nXj   o o o o o o o o o o o o o s o o o o o o o o o o o o o , s o - o - - - - - - - - - - j - - - - - - - - - - - - o j s @ {.Y.z Z 7.d.;X#X6X7X$XwX1X1X<X,X>X%XR.,.;.#.p > , o ",
"XXXXXXXXXXXXXXXXXXXXXXXXoXXX+X+XXXoXXXXXXXXXXXXXXXXXXXXXXXXXXXXXXXXXXXXXXXXXXXXXXXXXXXXXXXXXXXXXXXXXXXXXXXXXXXXXXXXXXXXXXXXXXXXXXXXXXXXXXXXXXXXXXXXXXXXXXXXXXXXXXXXXXXXXXXXXXXXXXXXXXXXXXXXXXXXX+X+XXXXX+X+XXX+XXXXX+X+X+X+XXX+X+X+X+X+X+XXXXXXXXXXXXXXXXXXX+X8 sXi.X 7 7 7 7 7 7 - h.3.  s yXy 7 7 7 7 7 7 7 7 7 7 q q q q 0 0 q q q 8 7 7 7 - nXj   o o o o o o o o o o o o o s o o o o o o o o o o o o o , s o - o o - - - - - - - - - j - - - - - - - - - - - - o j s @ }.+.+ k y.:X;X#X7X7X$X;X=X-.g - 1 + + + + 1 - - < o ",
"+.+.+.+.+.+.+.+.+.+.X.+.BXBXM.O.+.O.O.O.+.+.b.+.+.O.O.M.+.M.M.b.O.O.O.O.O.O.O.O.O.O.O.O.O.O.O.O.+.+.O.O.O.+.+.O.O.O.O.O.O.+.+.O.O.O.O.O.O.O.+.+.O.O.O.O.O.+.+.O.O.O.O.+.O.O.O.+.+.O.O.O.+.Y.O.+.M.M.+.+.+.BXtXO.+.+.+.+.+.+.+.^.2X^.2XeX2XO.O.O.O.O.O.O.O.O.O.; gXi.X 7 7 7 7 7 7 - h.3.  s yXy 7 7 7 7 7 7 7 7 7 7 0 0 0 0 8 0 0 0 0 8 7 7 7 - nXj   o o o o o o o o o o o o o s o o o o o o o o o o o o o , s o - - - - - - - - - - - - j - - - - - - - - - - - - - j r 5 .X..#.1X2X;X:X$X>.$X;X=Xy.*.u - : > > > > > : : , * ",
"z z z z z D z z z d Q J.J.w.l l K l l l K E W M E z l ! W E E E l l l l l l l l l l l l l l l l K l l l l z z l l l l l l K K l l l l l l l K K l l l l l K l l l l l K l l l K K l l l K $.l K ~ E R *.l F.F.) $.$.$.$.$.$.P $.*X$.&X6X6X#.4 u v v 4 4 4 4 u $ zXi.X 7 7 7 7 7 7 - h.3.  s yXy 7 7 7 7 7 7 7 7 7 7 q q q q 0 q q q q 8 7 7 7 - nXj   O   O O O O O O O O O O O s o O O O O o o o o o o o O , , O o o o o o o o o o o o o j o o o o o o o o o o - - o s M d ^.2X4X*X6.9.y.=X;X;X=Xy.y.n > - - - - - - - - - - o ",
"D  . . .D 0.4.D D D.H.F.0.' %.<.2.%.%.%.3.Q ~ 4.q.R 1.q.Q 4.<.<.%.<.<.<.<.<.<.<.<.<.<.<.<.<.<.<.3.2.<.1.*.4.4.<.1.1.1.1.<.3.3.1.1.1.1.1.2.*.0.0.1.2.1.2.1.5.2.1.1.1.1.6.2.2.1.3.5.1.2.2.6.t.1.3.q.0.q.l.` M.H.e.=.6.6.6.=.t.Y.t.+.t.r.@X2X^.o.` &.&.O.O.+. .&.* sXi.X 7 7 7 7 7 7 - !.3.  s iXy 7 7 7 7 7 7 7 7 7 7 0 0 0 0 8 0 0 0 0 8 7 7 7 - ZXs - s s s s s s s s s s s s s m j s s s s s s s s s j j s h m s j j j j j j j j j j j j C j j j j h h h h h h h h j k 6.%X4X1X:.j S 7.y.d.=X=Xy.y.9.B h h h h h h h h h h h j ",
"S S S S S 4.k Q J.H.M._ b B m B %.m B B <.R R Q Q R T Q D M B B B B B B B B B B B B B B B B B B *.%.B B B D V B B B B V B %.%.B V V V V V B 4.4.B V V V B 2.%.V V V V 2.V V V %.<.V V V 2.=.V %.0.V ~ q.B <.J.D.) =.=.=.&.5.Y.Y. X5.$. X2X[.X.O.'  XY.Y. X+.v * sXi.X 7 7 7 7 7 7 - !.3.  s aXy 7 7 7 7 7 7 7 7 7 7 q q q q 0 q q q q 8 7 7 7 - nXj O - - - - - - - - - - - - - j - - - - - - - - - - - - - s s - < < < < < < < < < < < < h < : : : : : , : : : , < k Q.4X<X@X..@ , 5 k <.3.6.6.*.%.B , , , , , , , , , , , , - ",
"k k k S k S M.H.F.T x %.b b b b %.b b b <.R F Q ! G R Q b b b b b b b b b b b b b b b b b n n b %.B b m n D M n m m m m b %.V n B B B B B b T T n B B B m <.B m B B m <.B B m %.%.m B B 2.=.m V R C Q ~ B v D.F.) &.&.` O.&.Y.&.Y.` $.O.[.[.Y.O.O.O.X.X.Y.O.i $ sXi.X 7 7 7 7 7 7 - !.3.  s aXy 7 7 7 7 7 7 7 7 7 7 0 0 0 0 8 0 0 0 0 8 7 7 7 - nXj   O O O O O O O O O O O o O s o o o o o o o o o o o o O , , O o o o o o o o o o o o o j o o o o o o - - - - + g *X4X%X@ {.X.@ - - - , j h g y , h - - - - - - - - - - - - o ",
"k S S k D F.H.D.b g m %.b b b b %.b b b 4.R M Q ! W ! Q b m b b b b b b m m m m m m m m m m m b %.V b m n D M n B B B B n %.V n B B B B B n T T n B B B m <.V B B B B 2.B B B %.%.B B B 2.=.B V 0.B R q.B n w.H.l.) &.` O. X X=.Y.O.O.O.[.;Xo.] O.Y.o.+.Y.X.p $ sXi.X 7 7 7 7 7 7 - -X3.  s aXy 7 7 7 7 7 7 7 7 7 7 q q q q 0 q q q q 8 7 7 7 - nXj   o O O O o o o o o o o o o s o o o o o o o o o o o o o , s o o o o o o o o - - - - - j - - - - - - - - - + v <X<X:.2 . }.X.@ - - - - - - - - < h - - - - - - - - < < < < o ",
"S k k M.J.J.q.u b b b %.b b b b %.b b b 4.R b R ! F Q R b m b b b b b b b m m m m m m m m m m b %.B b m n D M n B B B B n %.V n B B B B B n T T n B B B m <.V B B B B 2.B B m %.%.B B B 2.=.B V <.n R ~ M B V J.D.) &.&.$.O.O.` =.` =.O.Q.1Xt u ) O.v ] | v p $ sXi.X 7 7 7 7 7 7 * tX3.  s aXy 7 7 7 7 7 7 7 7 7 7 0 0 0 0 8 0 0 0 0 8 7 7 7 - nXj   o O O O O o o o o o o o O s o o o o o o o o o o o o o , s o o o o o o o o o - - - - j - - - - - - - - + #.4X,Xu 2 f @ }.X.@ - - - - - - - - < h - - - - - - - - - - < < o ",
"k S F.H.D.<.g m b b b %.b b b b %.b b b R R c T R z R <.b m b b b b b b b m m m m m m m m m m b %.B b m n D C n B B B B n %.V n B B B B B n T T n B B B m <.V B B B B 2.B B m %.%.m B B 2.=.B V <.n R ~ R V v D.J.=.` &.&.$.$.&.&.&.&.n $X*X; p n n u i u i v $ sXi.X 7 7 7 7 7 7 * tX3.  s aXy 7 7 7 7 7 7 7 7 7 7 0 q 0 q 8 0 q 0 q 8 7 7 7 - nXj   o O O O O O o o o o o o O s o o o o o o o o o o o o o , s o o o o o o o o o o - - - j - - - - - - - + ;.4X%X- + f r . }.X.@ - - - - - - - - < h - - - - - - - - - - - < o ",
"~ J.J.q.g _ m b b b b %.b b b b %.b D b Q D c T T b R %.b b b b b b b b b b m m m m m m m m m b %.B b m n D C n m B B B n %.V n B B B B B n T T n B B B m <.B B B B B 2.B B m %.%.m B B 2.=.B V <.m D ~ ! R M 0.H.w.) &.&.&.&.&.&.&.&.' Q.&Xr i n ) i i i i v $ sXi.X 7 7 7 7 7 7 * tX3.  s aXy 7 7 7 7 7 7 7 7 7 7 q q q q 0 0 q q q 8 7 7 7 - nXj   O O O O O O o o o o o o O s o o o o o o o o o o o o o , s o o o o o o o o o o o - - j - - - - - - + R.4XR.+ - * s r . }.X.@ - - - - - - - - < h - - - - - - - - - - - < o ",
"H.F.K i b %.b b b b b %.b b m m %.C W F Q C b V V b D %.b b b b b b b b b b b m m m m m m m m b %.B b m n D C n m m B B b %.V n B B B B B n T T n B B B m <.B B B B B 2.B B m %.%.m B B 2.=.B V <.m V q.Q R Q n F.F.) &.&.&.&.&.&.&.&.' Q.1X8 i n ) i i i i v $ sXi.X 7 7 7 7 7 7 * tX3.  s aXy 7 7 7 7 7 7 7 7 7 7 0 0 0 0 8 0 0 0 0 8 7 7 7 - nXj   O O O O O O O o o o o o O s o o o o o o o o o o o o o , , o o o o o o o o o o o o - j - - - - - + R.4XR.+ - - o s r . {.X.@ - - - - - - - - < h - - - - - - - - - - - < o ",
"M.g x b b %.b b b b b %.b b F C 4.D W W Q m b V V b B %.b b b b b b b b b b b b m m m m m m m b %.B b m n D C n m m m B b %.V n B B B B B n T T n B B B m <.B B B B B 2.B B m %.%.m B B 2.=.m V <.m V 0.R Q Q v M.H.6.) &.&.&.&.&.&.&.' Q.,X7 i ) n i i i i v $ sXi.X 7 7 7 7 7 7 * tX3.  s aXy 7 7 7 7 7 7 7 7 7 7 q q q q 0 q q q q 8 7 7 7 - nXj   O O O O O O O O o o o o O s o o o o o o o o o o o o o , , O o o o o o o o o o o o - j - - - - + R.4X;.+ - - - o s r . {.X.@ - - - - - - - - < h - - - - - - - - - - - < o ",
"i b b b b %.b b b b b %.b m W F R R W W R b b V V b B %.b b b b b b b b b b b b m m m m m m m b %.B b m n D C n m m m B n %.V n B B B B B b T T n B B B m <.B B B B B 2.B B m %.%.m B B 2.=.m V *.m V 0.R Q Q N K J.D.) &.&.&.&.&.&.&.' Q.1X#X#.v ) u i i i v $ sXi.X 7 7 7 7 7 7 * tX3.  j aXy 7 7 7 7 7 7 7 7 7 7 0 0 0 0 8 0 0 0 0 8 7 7 7 - nXj   O O O O O O O O o o o o O s o o o o o o o o o o o o o , , O o o o o o o o o o o o o j * - - + R.4X;.+ - - - - o s r . {.X.@ - - - - - - - - < h - - - - - - - - - - - < o ",
"b b b b b %.b b b b b %.b C W W ~ W W W 4.b b V V b B %.b b b b b b b b b b b b b m m m m m m b %.B b m n D C n m m m m b %.V n B B B B B b T T n B B B m <.B B B B B <.B B m %.%.m B B 2.=.m V *.m V 0.R ! Q B v D.F.) &.&.&.&.&.&.&.' >.1X8X#Xx ) u i i i v % sXi.X 7 7 7 7 7 7 * tX3.  j dXy 7 7 7 7 7 7 7 7 7 7 q q q q 0 q q q q 8 7 7 7 - nXj   O O O O O O O O O o o o O s o o o o o o o o o o o o o , , O o o o o o o o o o o o o j $ - + R.4X,.+ - - - - - o s r . {.X.@ - - - - - - - - < h - - - - - - - - - - - < o ",
"C C b b b %.b b b b b %.c C W W ! W F D %.b b B V b B %.b b b b b b b b b b b b b b m m m m m b %.B b m n D C n m m m m b %.V n B B B B B b T T n B B B m <.B B B B B <.B B m %.%.m B B 2.=.m V *.m B 0.D ! Q V n w.H.8.) &.&.&.&.&.&.' >.5XwXqX' n i i i i v $ sXi.X 7 7 7 7 7 7 * tX5.  j dXy 7 7 7 7 7 7 7 7 7 7 0 0 0 0 8 0 0 0 0 8 7 7 7 - nXs   o O O O O O O O O o o o O s o o o o o o o o o o o o O , , O o o o o o o o o o o o o j * + ,.4XR.+ - - - - - - o s r . {.X.@ - - - - - - - - < h - - - - - - - - - - - - o ",
"D D b b b %.b b b b b %.b S W W ! W F D %.b b B V b B %.b b b b b b b b b b b b b b b m m m m b %.B b m n D C n m m m m b %.V n B B B B B b T T n B B B m <.B B B B B <.B B m %.%.m B B 2.=.m V *.m B 4.B R Q B B V J.D.) &.&.&.&.&.&.' >.6X;X5X&Xx i i i i v $ sXi.X 7 7 7 7 7 7 * tX7.  j dXy 7 7 7 7 7 7 7 7 7 7 q q q q 0 q q q q 8 7 7 7 - nXs   o O O O O O O O O O o o O s o o o o o o o o o o o o O , , O o o o o o o o o o o o * j O ,.4XR.+ - - - - - - - o s r . {.X.@ - - - - - - - - < h - - - - - - - - - - - - o ",
"F D b b b K b b b b m %.S G D D ! F S S %.b b B V b B %.b b b b b b b b b b b b b b b m m m m b %.B b m n D M n m m m B b %.V b B B B B B n T T n B B B m <.B B B B B <.B B m %.%.m B B 2.=.B V *.m V 2.n D Q B B v D.J.&.&.&.&.&.&.&.' :.6X$X3X3Xx i i i i v $ sXi.X 7 7 7 7 7 7 * uX7.  j sXy 7 7 7 7 7 7 7 7 7 7 0 0 0 0 8 0 0 0 0 8 7 7 7 - nXs   o O O O O O o o o o o o O s o o o o o o o o o o o o O , , o o o o o o o o o o o o - 2 ;.4XR.+ - - - - - - - - o s r . {.X.@ - - - - - - - - < h - - - - - - - - - - - < o ",
"G F b x z Q b b b z R T F W M D Q S m b %.b b B B g B %.b b b b b b b b b b b b b b b b b b b b %.B b m b S C n b b b n b %.V b n n m m m b T K b m m m b %.B m m B m <.B m b V %.b B m <.=.m V %.b B 2.n M R R D c 0.H.w.) &.` ` ` &.' :.6XQ.qX3Xx u i i i p % sXi.X 7 7 7 7 7 7 * uX7.  j sXy 7 7 7 7 7 7 7 7 7 7 0 q q q 8 0 q q q 8 7 7 7 - nXs   O O O O O O O O O O O O O s o O O O O O O O O o o o O : , O o o o o o o o o o o o O ;.4XR.O o o o o o o o o o o s r . {.... & - - - - - - o - j o - - - - - - - - - - - O ",
"Q Q <.%.R ~ T %.%.T ! Q ! ! T R ~ %.%.%.2.%.%.<.<.%.*.2.%.%.%.%.%.%.%.%.%.%.%.%.%.%.%.%.%.%.%.%.2.<.%.%.%.4.<.%.%.%.%.%.%.2.2.%.%.%.%.*.<.%.0.0.%.<.*.<.%.3.2.<.<.<.<.3.<.<.*.2.3.*.<.<.3.=.<.2.3.*.2.6.*.2.q.~ 0.*.*.J.F.=.=.=.=.=.=.=.>.6XQ.3XqX' ) ' ' ' ` $ sXi.X 7 7 7 7 7 7 * uX7.  j sXy 7 7 7 7 7 7 7 7 7 7 q q q q 0 0 q q q 8 7 7 7 - nXs o s , s , , , s s s s s s s h s s s s s s s s s s s s s h h s s s s s s s s s s f 2 ;.4X#X2 j j j j j j j j j j s m Z 4 }.o.3 j j j j j j j j h C j h h h h h h h h h h h s ",
"F F M m W Q F C b F W ~ W C b D Q b b m %.b b V V b B %.b m m m m m m m m m m m m m m m m m B m %.V m B n D M B B B B B m %.%.m B B B B B n T T N B B B B <.V B B B B 2.B B B %.%.B B B 2.=.B %.<.B V 2.B V Q ! T B n D.H.2.` &.&.&.&.` :.7X>.3X5Xc i p i i v % sXi.X 7 7 7 7 7 7 * uX7.  j sXy 7 7 7 7 7 7 7 7 7 7 0 0 0 0 8 0 0 0 0 8 7 7 7 - nXs   o o o o o o o o o o o o o s - o o o o o o o o o o - o , s o - - - - - - - - - + #.4X%X+ - - - - - - - - - - - - s s @ }.X.@ : - - - - - - - : h - - < < < < < < < < < : o ",
"F F S S F R G z z F R ! W b b M R b b b %.b b B V h B %.b b b b b b b b b b b b b b b b b b b b %.B b m n S C b m b n m b %.V b m n n n m b T T b B m B b %.B m m B m <.B B m %.%.n B m <.=.m V %.b B 2.m B Q ! R B n 4.H.k.) &.&.&.&.' :.7X:.*X5Xx u i i i p % sXi.X 7 7 7 7 7 7 * uX7.  j sXy 7 7 7 7 7 7 7 7 7 7 q q q q 0 q q q q 8 7 7 7 - nXs   O O O O O O O O O O O O O s o O O O O o o o o o o o O , , O o o o o o o o $ O #.4XW.2 o o o o o o o o o o o - o s r . {...@ - - - - - - - - - j o - - - - - - - - - - - O ",
"S F F G F T W S S R D Q R b b C T b b b %.b b B V h B %.b b b b b b b b b b b b b b b b b b b b %.B b m n D C n m m m m b %.V b m m m m m b T T n B B B n %.B m B B m <.B B m %.%.m B B <.=.m V %.n B 2.m B R ! ! V B b F.F.) &.&.&.&.' :.7X:.-.qXv u i i i p % sXi.X 7 7 7 7 7 7 * uX7.  j sXy 7 7 7 7 7 7 7 7 7 7 0 0 0 0 8 0 0 0 0 8 7 7 7 - nXs   O O O O O O O O O O O o O s o o o o o o o o o o o o O , , O o o o o o o * O ( 4X%X+ s o o o o o o o o o o - - o s r . {...@ - - - - - - - - - j - - - - - - - - - - - - o ",
"C F W W F ' D F F S M R M b b b %.b b b %.b b B V h B %.b b b b b b b b b b b b b b b b b b b b %.B b m n D C n m m m m b %.V b m m m m m b T T n B B B n %.B m B B m <.B B m %.%.m B B <.=.m V %.n B 2.m B R ! ! V B x w.H.5.) &.&.&.` -.7X:.-.qXn u i i i p % sXi.X 7 7 7 7 7 7 $ yX7.  j sXy 7 7 7 7 7 7 7 7 7 7 q q q q 0 q q q q 8 7 7 7 - nXs   O O O O O O O O O O O o O s o O o o o o o o o o o o O , , O o o o o o * O ( 4X%XO o j o o o o o o o o o o o - o s r . {...@ - - - - - - - - - j - - - - - - - - - - - - o ",
"b z W W D ' C W W C C R b b b b %.b b b %.b b B V h B %.b b b b b b b b b b b b b b b b b b b b %.B b m n D C n m m m m b %.V b m m m m m b T T b B B B n %.B m B B m <.B B n %.%.m B B <.=.m V %.n B 2.m B D Q ! D B m T J.M.) &.&.&.` -.5X-.-.3X) u i i i p % sXi.X 7 7 7 7 7 7 $ yX7.  j sXy 7 7 7 7 7 7 7 7 7 7 0 0 0 0 8 0 0 0 0 8 7 7 7 - nXs   O O O O O O O O O O O o O s o O o o o o o o o o o o O , , O o o o o * O a 4X%Xo o * j o o o o o o o o o o o - o s r . {...@ - - - - - - - - - j o - - - - - - - - - - - o ",
"c b C D M %.m D W m b T b b b b %.b b b %.b b B V h B %.b b b b b b b b b b b b b b b b b b b b %.B b m n D C n m m m m b %.V b m m m m m b T T b m m B n %.B m B B m <.B B n V %.n B B <.=.m V %.n B 2.m B B R ! D n B v F.F.) &.&.&.` -.5X-.-.3X) 8 i i i p % sXi.X 7 7 7 7 7 7 $ yX7.  j sXy 7 7 7 7 7 7 7 7 7 7 q q q q 0 q q q q 8 7 7 7 - nXs   O O O O O O O O O O O O O s o O O o o o o o o o o o O , , O o o o $ O a 4X%Xo o o o j o o o o o o o o o o o - o s r . {...@ - - - - - - - - - j o - - - - - - - - - - - o ",
"b b x S M %.b b S b b %.b b b b %.b b b %.b b B V h B %.b b b b b b b b b b b b b b b b b b b b %.B b m n D C n m m m m b %.V b m m m m m b T T b m m m n %.B m B B m <.B B n V %.b B m <.=.m V %.n B 2.m B n D ! R D B v w.H.5.) &.&.` -.qX-.-.3X) 8 i i i p % sXi.X 7 7 7 7 7 7 $ yX7.  j gXy 7 7 7 7 7 7 7 7 7 7 0 0 0 0 8 0 0 0 0 8 7 7 7 - nXs   O O O O O O O O O O O O O s o O O O o o o o o o o o O , , O o o $ O a 4X%Xo o $ o o s o o o o o o o o o o o - o s r . {...@ - - - - - - - - - j o - - - - - - - - - - - O ",
"b b b M C _ b b b b b %.b b b b %.b b b %.b b B V h B %.b b b b b b b b b b b b b b b b b b b b %.B b m n S C n m m m m b %.V b m m m m m b T T b m m m b %.B m B B m <.B B n V %.n B m <.=.m V %.n B 2.m B n D ! Q ! M n K J.M.) &.` ` ` :.&.-.3X$.8 i i i p % sXi.X 7 7 7 7 7 7 $ yX7.  j zXy 7 7 7 7 7 7 7 7 7 7 0 q q q 8 0 q q q 8 7 7 7 - nXs   O O O O O O O O O O O O O s o O O O O o o o o o o o O , , O o $ O a <X>Xo o $ o o o s o o o o o o o o o o o - o s r . {...@ - - - - - - - - - j o - - - - - - - - - - - O ",
"b b b b b %.b b b b b %.b b b b %.b b b %.b b B V h B %.b b b b b b b b b b b b b b b b b b b b %.B b m n S C n m m m m b %.V b m m m m m b T T b m m m b %.B m B B m <.B B n V %.n B m <.=.n V %.n B 2.m B n T Q Q ! D B v F.F.) &.` ` ` ' ` -.3X$.8 i i i p % sXi.X 7 7 7 7 7 7 $ yX7.  j zXy 7 7 7 7 7 7 7 7 7 7 0 q q q 8 0 q q q 8 7 7 7 - nXs   O O O O O O O O O O O O O s o O O O O O o o o o o o O , , O $ O w <X>X* O o o o o o s o o o o o o o o o o o - o s r . {...@ - - - - - - - o - j o - - - - - - - - - - - O ",
"b b b b b %.b b b b b %.b b b b %.b b b %.b b B B h B %.b b b b b b b b b b b b b b b b b b b b %.B b m n S C b m m m m b %.V b m m m m m b T T b m m m b %.B n m B m <.B B n V %.n B m <.=.n V %.b B 2.m B B M D Q ! D B c w.H.5.) &.` ` ` ` &.3X#.9 i i i p % sXi.X 7 7 7 7 7 7 $ iX7.  j zXy 7 7 7 7 7 7 7 7 7 7 0 0 0 0 8 0 0 0 0 8 7 7 7 - nXs   O O O O O O O O O O O O O s o O O O O O o o o o o o O , , X O w <X,X= O o o o o o o s o o o o o o o o o o o o o s r . {.... - - - - - - - o - j o - - - - - - - - - - - O ",
"b b b b b %.b b b b b %.b b b b %.b b b %.b b B B h B %.b b b b b b b b b b b b b b b b b b b b %.B b m n S C b b m m m b %.V b m m m m m b T T b m m m b %.B n m m m <.B B n V %.n B m <.=.n V %.b B <.m B B B B R Q D n n T J.M.) &.` ` ` ` &.3X#.9 i i i p % sXi.X 7 7 7 7 7 7 $ iX7.  j zXy 7 7 7 7 7 7 7 7 7 7 q q q q 0 q q q q 8 7 7 7 - nXs   O O O O O O O O O O O O O s o O O O O O O o o o o o O : y   9 <X,X= O o o o o o o o s o o o o o o o o o o o o o s r . {.... & o - - - - - o - j o - - - - - - - - - - - O ",
"b b b b b %.b b b b b %.b b b b %.b b b %.b b B B h B %.b b b b b b b b b b b b b b b b b b b b %.B b m n S C b b b m m b %.V b m m m m m b T T b m m m b %.B n m m n %.B B n V %.b B m <.=.n V %.b B <.n B B B B B R R M B v F.F.) &.` ` &.` &.3X#.9 i i i p % sXi.X 7 7 7 7 7 7 $ iX9.  h zXy 7 7 7 7 7 7 7 7 7 7 0 0 0 0 8 0 0 0 0 8 7 7 7 - nXs   O O O O O O O O O O O O O s o O O O O O O O o o o o O , < = <X<X9 O o o o o o o o o s o o o o o o o o o o o o o s r . {.... & o o o - - - o - j o - - - - - - - - - - - O ",
"b b b b b %.b b b b b %.b b b b %.b b b %.b b B B h B %.b b b b b b b b b b b b b b b b b b b b %.B b m n S C b b b b m b %.V b m m m m m b T K b m m m b %.B n m m n %.B m b V %.n B m <.=.m V %.b B <.m B B B B n R ! R B c w.H.2.) &.` ` ` ` 3X#.9 i i i p % sXi.X 7 7 7 7 7 7 $ iX9.  h zXy 7 7 7 7 7 7 7 7 7 7 q q q q 0 q q q q 8 7 7 7 - nXs   O O O O O O O O O O O O O s o O O O o O O o O o o o X < u >X<X9 O o o o o o o o o o s o o o o o o o o o o o o o s 7 . {.... & o o o o - - o - j o - - - - - - - - - - - O ",
"g b b b b %.b b b b b %.b b b b %.b b b %.b b B B g B V h b b b b b b b b b b b b b b b b b b b %.B b b b S C b b b b b b %.V b m b b b m b T K b m n m b %.B b n m b %.m n b V %.b B n *.=.b B %.b B <.b B m m m n D ! R n b T H.k.) &.` ` ` ` 3X#.9 i u u p % sXi.X 7 7 7 7 7 7 $ iX9.  h zXy 7 7 7 7 7 7 7 7 7 7 0 0 0 0 8 0 0 0 0 8 7 7 7 - nXs   O           O O O O O O   , o O O O O O O O O O O o   ; ,X<X=   o o o o o o o o o o s o o o o o o o o o o o o O s , . {.... & o o o o o o o - j o - o o o o o o o - - - O ",
"%.%.%.%.%.2.%.%.%.%.%.2.%.%.%.%.2.%.%.%.2.%.%.<.2.%.<.2.%.%.%.%.%.%.%.%.%.%.%.%.%.%.%.%.%.%.%.%.2.2.%.<.*.4.4.*.*.*.*.*.%.2.2.%.<.<.<.<.<.%.0.0.%.<.<.<.<.3.2.<.<.<.<.3.<.<.<.2.3.*.<.<.5.=.<.2.3.<.2.6.<.2.2.2.2.*.0.~ q.*.2.*.F.F.=.=.=.=.=.=.3X>.N ` ' ' ` $ sXi.X 7 7 7 7 7 7 $ aX9.  h zXy 7 7 7 7 7 7 7 7 7 7 q q q q 0 q q q q 8 7 7 7 - nXs o s s s s s s s s s s s s s m s s s s s s s s s s f s f >X<Xn 5 g j j j j j j j j j j m j j j j j j j j j j j h j m m 4 }.o.3 h h h h h h h j h C h h h h h h h h h h h h s ",
"b b b b b %.b b b b b %.b b b b %.b b b %.b b B V h B %.b b b b b b b b b b b b b b b b b b b b %.B b m n S C n m m m m b %.V b m m m m m b T T b m m m b %.B m B B m *.B B n V %.b B m *.=.m V %.n B 2.m B B B B n D ! R B B v D.H.*.) ` ` &.' 3X;.9 i i i p % sXi.X 7 7 7 7 7 7 $ aX9.  h cXy 7 7 7 7 7 7 7 7 7 7 0 0 0 0 8 0 0 0 0 8 7 7 7 - nXs   O O O O O O O O O O O O O s o O O O O O o o o o O o >X4Xa   $ o o o o o o o o o o o s o o o o o o o o o o o o o s r . {.... & - - - - - - o - j o - - - - - - - - - - - O ",
"g b b b b %.b b b b b %.b b b b %.b b b %.b b B B h B %.b b b b b b b b b b b b b b b b b b b b %.B b b b S C b b b b b b %.V b b m m m m b T K b m m m b %.B b m m n %.B m b V %.b m n *.=.b B %.b B <.n B B B B n D ! Q M B b 0.H.l.) &.` ` ' 3X;.9 i i u p % sXi.X 7 7 7 7 7 7 $ aX9.  h cXy 7 7 7 7 7 7 7 7 7 7 q q q q 0 0 q q q 8 7 7 7 - nXs   O     O O O O O O O O O   , o O O O O O O O o O o >X4Xp < X o o o o o o o o o o o o s o o o o o o o o o o o o O s , . {.... & o o o o o o o - j o o o o - - - - - - - - O ",
"g b b b b V b h b b b %.b b b b %.b b b %.b b B B h N V h b b b b b b b b b b b b b b b b b b b V B b b b S C b b b b b b %.V b b b m m m b T K b b b m b %.B b m m n %.B m b V %.b B b %.&.b B %.b B <.n B B B B n D ! Q D n B n J.D.) &.` &.N 3X;.9 i i i p % sXi.X 7 7 7 7 7 7 $ aX9.  h cXy 7 7 7 7 7 7 7 7 7 7 0 q q q 8 0 q q q 8 7 7 7 - nXs   O       O O O O O O O O   , o O O O O O O X O O %X4Xa 1 7 O o o o o o o o o o o o o s o o o o o o o o o o o o O s , . {.... & o o o o o o o - j o - o o o o - - - - - - O ",
"g b b b b 3.%.V %.b b %.b b b b %.b b b %.b b B V g B 6.B V %.b b b b b b b b b b b b b b b b b 2.3.%.2.*.S C b b b b b b %.V b b b b b m b 0.0._ 2.B m b %.B b m m b %.B m b V %.b n V 9.=.<.2.%.b B <.b m m B B n M Q Q D n B x D.J.) ` ` &.N 3X;.9 i i i p % sXi.X 7 7 7 7 7 7 $ aX9.  h cXy 7 7 7 7 7 7 7 7 7 7 0 0 0 0 8 0 0 0 0 8 7 7 7 - nXs   O         O O O O O O O   , o O O O O O X O O %X4X(   , , O o o o o o o o o o o o o s o o o o o o o o o o o o O s , . {.... & o o o o o o o - j o - o o o o o o - - - - O ",
"g b b g V 6.h 2.%.h b %.b b b b %.b b b %.b b B B g 5.<.b 6.V b b b b b b b b b b b b b b b b B 9.B b %.*.S C b b b b b b %.V b b b b b b %.l.K 1.6.V b b %.B b m m b %.m m b V %.b m 3.2.=.2.6.2.b B <.b m m m m n B R R D n B x w.H.5.) ` &.N 1X,.9 i i i p % sXi.X 7 7 7 7 7 7 $ aX8.  h cXy 7 7 7 7 7 7 7 7 7 7 q q q q 0 q q q q 8 7 7 7 - nXs   O         O O O O O O O   , o O O O O O O   %X4X(   X < ,   o o o o o o o o o o o o s o o o o o o o o o o o o O s , . {.... & o o o o o o o - j o - o o o o o o o o o - O ",
"g b b g %.2.g b %.V b %.b b b b %.b b b %.b b B B h 6.V m 2.2.B b b b b b b b b b b b b b b b B 7.b b 2.B S C b b b b m b %.V b b b b m b *.0.K *.6.V b b %.B b m m b %.m m b V %.b B 3.%.&.%.9.<.b B <.b m m m m m m n D R n m n V H.M.) &.&.N 1X,.9 i i i p % sXi.X 7 7 7 7 7 7 $ aX8.  h xXy 7 7 7 7 7 7 7 7 7 7 0 0 0 0 8 0 0 0 0 8 7 7 7 - nXs   O           O O O O O O   , o O O O O O   W.4X(   o O : ,   o O o o o o o o o o o o s o o o o o o o o o o o o O s , . {.... & o o o o o o o - s o o o o o o o o o o o - O ",
"g b b g n 6.V B <.B b %.b b b b %.b b b %.b b B B g <.6.B <.2.b b b b b b b b b b b b b b b b b 6.2.B 2.b S C b b b b b b %.V b b b b b b B l.4.*.3.%.b b %.B b m m b %.m m b V %.b b <.9.=.%.3.%.b B <.b m m m m m m n D R M M n b F.F.) ` &.N 1X,.9 i i i p % sXi.X 7 7 7 7 7 7 $ aX8.  h xXs 7 7 7 7 7 7 7 7 7 7 q q q q 0 q q q q 8 7 7 7 - nXs                 O O O O O   , o O O O O   W.4X(   o O   : ,   o O O o o o o o o o o o s o o o o o o o o o o o o O s , . {.... & o o o o o o o - s o o o o o o o o o o o - O ",
"h b b b b %.m n n b b %.b b b b %.b b b %.b b B B g B <.b m b b b b b b b b b b b b b b b b b b %.%.m m b S C b b m b m b V V b b b m m m b T T n B b B b %.B m B B b %.B m b V %.b m m 2.=.B V %.n B <.m B B B m B B n D Q Q R B x D.J.&.) &.N 1X,.9 i u u i % sXi.X 7 7 7 7 7 7 $ dX8.  h xXs 7 7 7 7 7 7 7 7 7 7 0 0 0 0 8 0 0 0 0 8 7 7 7 - nXs                   O O O O   , o O O O   R.4X(   o O O   < ,   o O O O o o o o o o o o s o o o o o o o o o o o o O , , . {.... & o o o o o o o - s o o o o o o o o o o o - O ",
"g f g b g B f s g b g B b g f g B h b g B b g b B g b B s g b g f b b g g g g b h g b b g g b h B b f b b S h b b g g g h %.b g m b g b m g K K g b b g h *.b g h h b %.g b b B B b m h V ) g V V g B <.g b g b B b g c M ! Q R n x 0.H.8.) ) c &X,.& i u u i % sXi.X 7 7 7 7 7 7 $ dX8.  h xXs 7 7 7 7 7 7 7 7 7 7 q q q q 0 q q q q 8 7 7 7 - nXs                     O O O   , O O O   R.4X#.  o O O O   < ,   o O O O O o o o o o o o s o o o o o o o o o o o o O , , . {.... & o o o o o o o - s o o o o o o o o o o o - O ",
"%.xXs.> j.tXpXjXb %.xXj., s.dXdXjXb %.xX-Xy s.vX3.h pXj.cXh.y i.vX3.g aXpXcX-Xy i.vX6.g dXdXg 9.pX-XvX7.g fXaXb 6.jXpXxX9.g dXsXb 3.vXs.y !.D.dXgXb 2.vXs.f h.dXsXjXm 3.vXj.y j.vX2.B aXh.lXj.s j.vX3.B dXpXcXh.y s.xXpX%.R ! D 3.9.8.J.D.t.y.r.1X*X5.i u u i % sXi.X 7 7 7 7 7 7 $ dX8.  h xXs 7 7 7 7 7 7 7 7 7 7 0 0 0 0 8 0 0 0 0 8 7 7 7 - nXs                       O O   , o O   R.4X;.  X O O O O   < ,   o O O O O O o o o o o o s o o o o o o o o o o o o O , , . {.... & o o o o o o o - s o o o o o o o o o o o - O ",
"3.UXpX= dXjXmXHXb 2.UXaX; pXAXDXGXn <.UXdX; uXLX6.b mXaXJXsX; uXLX9.g nXmXJXjX> -XLX8.f AXAXf p.mXjXUXe.g xXnXg e.GXmXUXp.y nXGXg 9.LXyX> jXNXnXGXb 7.LXpX> dXAXGXGXm 6.UXaX, pXUX6.B nXdXSXdX> pXLX7.b AXmXJXsX, iXUXmX*.S ! F r.gXgXJ.CXhXlXgXwXeXtXu u u i % sXi.X 7 7 7 7 7 7 $ dX8.  h xXs 7 7 7 7 7 7 7 7 7 7 q q q q 0 0 q q q 8 7 7 7 - nXs                         O   , o   R.4X;.  X O O O O O   < ,   O O O O O O O O o o o o s o o o o o o o o o o o o O , , . {.... $ o o o o o o o - s o o o o o o o o o o o -   ",
"2.JXuX; pXsXvXAXb 2.JXpX; uXmXmXAXn *.HXpX> -XJX6.b vXiXHXdX> -XJX7.g bXvXKXdX> h.JX9.g mXmXf u.vXdXJX8.g NXbXg 8.AXvXHXu.f bXAXh 7.JXuX, dXNXmXAXb 6.JXuX, aXmXAXAXb 5.JXyX, yXJX5.B bXpXZXpX, uXJX6.b mXvXHXaXy uXHXvX*.D ! F 9.gXgXBXJ.hXlXcX2XeX!.u u u i % sXi.X 7 7 7 7 7 7 $ dX8.  h xXs 7 7 7 7 7 7 7 7 7 7 0 q 0 q 8 0 q 0 q 8 7 7 7 - nXs                         O   y   R.4X;.  O O O O O O O   < ,   O O O O O O O O O o o o s o o o o o o o o o o o o O , , . {.... o o o o o o o o - s o o o o o o o o o o o -   ",
"2.JXyX- pXsXvXFXb 2.JXpX; yXnXnXDXn *.JXpX; tXJX6.b vXpXHXdX> -XJX9.g mXvXHXsX> h.JX9.f nXnXf u.vXdXJXe.g NXbXg 8.AXvXJXu.f mXAXh 7.JXuX> sXNXmXAXb 6.JXuX, aXnXAXAXb 5.JXiX, iXJX5.B bXpXSXpX, yXJX6.b mXvXHXdX, uXJXvX*.S ! F 9.sXkXNXH.D.y.iX:XeX!.u u u i % sXi.X 7 7 7 7 7 7 $ sX8.  h MXs 7 7 7 7 7 7 7 7 7 7 0 0 0 0 8 0 0 0 q 8 7 7 7 - nXs                             < ;.4X,.  O O O O O O O O   < ,   O O O O O O O O O O O o s o o o o o o o o o o o o O , , . {.... o o o o o o o o - s o o o o o o o o o o o o   ",
"2.JXuX- pXsXvXFXb 2.JXpX; yXnXnXDXn *.JXpX; tXJX6.b vXpXHXdX> -XJX9.g mXvXHXsX> h.JX9.f nXnXf u.vXdXJXe.g NXbXg 8.AXvXJXu.f mXAXh 7.JXuX> dXNXmXAXb 6.JXuX, aXnXAXAXb 5.JXiX, iXJX5.B bXpXSXpX, yXJX6.b mXvXHXdX, uXJXvX*.S ! F 9.sXjXuXJ.BXhX!.:XeX!.u i i p % sXi.X 7 7 7 7 7 7 $ sX8.  h MXs 7 7 7 7 7 7 7 7 7 7 q q q q 0 q q q q 8 7 7 7 - nXs   O             O O O O X   ;.4X,.  X O O O O O O O O   < ,   o O O O o o o o o o o o s o o o o o o o o o o o o O , , . {.... & o o o o o o o - s o o o o o o o o o o o - O ",
"2.JXyX; pXsXvXFXb 2.JXpX; yXnXnXDXB 2.JXpX> tXJX6.b vXpXHXdX> -XJX9.g mXvXHXsX, -XJX8.g nXnXg u.vXdXJXe.g NXbXg 8.AXvXJXu.f mXAXb 9.JXuX, sXNXmXAXb 7.JXyXy dXnXAXAXm 6.JXpXy pXJX6.B bXpXSXaXy yXJX7.m mXvXHXdXy uXJXvX6.T ~ Q e.sXsXd.F.CX-X~.-XeX!.) ) ) ' % sXi.X 7 7 7 7 7 7 $ sX8.  h bXs 7 7 7 7 7 7 7 7 7 7 0 0 0 0 8 0 0 0 0 8 7 7 7 - nX7 o , , , , , , , , , , y 1 ;.4XR.< y 7 , , , , , , , s , j h , s s s s s s s s s s s s h s s s s s s s s s s s s s h h 4 }.o.4 j s s s s s s s j m s s s s s s s s s s s j , ",
"%.JXuXX yXsXvXDXg %.JXyXX uXnXnXDXg V JXpXo -XJX3.y vXpXHXdX* h.JX6.y bXvXHXdX* j.UX7., mXmX, 8.vXdXJX9.y NXbXy 7.DXvXJXe.> bXAXs 3.JX-X* dXNXmXAXg 2.JXuX* pXnXAXAXg 2.JXyX* uXJX2.h bXpXSXpX* uXJX3.g mXvXHXaX* tXJXvX*.M ! W 8.dXzXa.D.CXy.r.:XeX!.w w 8 i X sXi.X 7 7 7 7 7 7 $ sX8.  h bXs 7 7 7 7 7 7 7 7 7 7 q q q q 0 q q q q 8 7 7 7 - nXs                         #.4XR.                O O O O   - :   O O O O O O O O O O O O s O O O O O O O O O O o o O , : . {.... o o o o o o o o o s O o o o o o o o o o o o   ",
"pXHXzXs.bXdXbXFXj.pXHXcXs.vXbXAXFXj.iXHXcXs.xXHXuX-XmXiXKXxXs.xXHXuX-XAXvXGXxXs.cXHXyX-XDXAXs.jXxXsXJXyX-XxXmXj.sXAXbXHXpXh.AXAXj.dXHXjXf.mXaXmXFXj.aXHXzXf.bXbXAXDXj.aXHXcXf.vXHXuXuXmXpXZXcXf.vXHXuXuXAXvXHXxXf.vXHXbX*.M ! W w.dXgXpXD.H.j.iX:XeX~.w u u i X sXi.X 7 7 7 7 7 7 $ sX8.  h bXs 7 7 7 7 7 7 7 7 7 7 0 0 0 0 8 0 0 0 0 8 7 7 7 - nXs                   O   #.4XR.1 X     O O O O O O O O O   < ,   O O O O O O O O O o O o s O O o o o o o o o o o o O , , . {.... o o o o o o o o - s o o o o o o o o o o o o   ",
"KXFXmXAXHXpXbXGXbXHXGXnXAXHXvXAXFXmXHXGXnXAXHXFXbXGXAXyXGXnXAXHXFXmXGXFXxXGXAXAXHXFXmXGXGXAXmXJXzXjXHXbXHXbXnXmXHXmXbXGXmXGXGXAXmXHXGXmXAXHXfXmXGXmXHXGXnXAXHXvXAXFXmXHXGXnXAXHXFXmXHXAXpXZXnXAXHXFXmXKXFXvXGXnXAXHXFXbX*.C ! W w.dXsXgXNXH.BXhX:XeX~.8 u u i X sXi.X 7 7 7 7 7 7 $ sX8.  h bXs 7 7 7 7 7 7 7 7 7 7 q q q q 0 q q q q 8 7 7 7 - nXs                 O   #.4XW.  , O       O O O O O O O O   < ,   O O O O O O O O O O O o s O O O O O o o o o o o o O , , . {.... o o o o o o o o - s o o o o o o o o o o o o   ",
"DXGXmXvXHXpXbXGXxXAXGXmXvXGXvXAXFXxXAXGXmXvXGXGXMXAXAXyXGXmXvXGXGXvXAXFXxXGXnXvXGXGXvXnXGXAXxXKXcXjXHXMXAXbXnXvXGXmXbXHXvXnXGXAXxXFXGXmXbXHXfXmXGXxXFXGXmXbXGXvXAXFXMXFXGXmXbXGXGXvXAXAXpXZXmXbXGXGXvXAXFXvXGXmXbXGXGXbX<.C R W w.dXsXgXkXJ.CXhX:XeX~.8 u u i X sXi.X 7 7 7 7 7 7 $ sX8.  h bXs 7 7 7 7 7 7 7 7 7 7 0 0 0 0 8 0 0 0 0 8 7 7 7 - nXs               O   ( 4XW.    , O         O O O O O O O   < ,   O O O O O O O O O O O O s O O O O O O o o o o o o O , : . {.... o o o o o o o o - s o o o o o o o o o o o o   ",
"DXGXmXvXKXpXvXFXxXDXGXmXbXGXvXnXFXxXAXGXmXbXGXFXvXAXAXyXGXmXbXGXFXvXAXDXxXGXmXvXGXFXvXAXGXAXxXKXcXsXHXvXAXbXnXvXGXmXbXGXvXnXGXAXvXFXGXmXmXHXfXmXFXMXFXGXmXmXGXvXAXFXvXFXGXmXmXGXGXvXDXnXpXZXmXbXGXGXvXAXDXvXGXmXbXGXFXbX<.b n F q.s.s.s.a.F.J.d.=X5Xy.u u u i X sXi.X 7 7 7 7 7 7 $ sXe.  h bXs 7 7 7 7 7 7 7 7 7 7 q q q q 0 0 q q q 8 7 7 7 - nXs                 a 4X%X      , O           O O O O O O   - ,   O O O O O O O O O O O O s O O O O O O O O o o o o O , : . {.... o o o o o o o o o s o o o o o o o o o o o o   ",
"%.%.V V %.2.V %.V %.%.3.V %.V %.3.V %.%.3.%.%.2.2.V 2.2.%.%.%.%.%.%.%.%.%.%.%.%.%.%.%.%.%.%.%.%.2.%.%.%.%.4.<.%.%.%.%.<.%.3.2.%.%.%.%.%.%.%.0.0.%.%.<.<.%.5.2.%.%.<.%.6.<.%.%.3.5.%.<.%.3.=.%.2.6.%.<.6.%.%.<.%.%.<.<.%.m b n D R n m m x w.H.` -.3Xp 9 u u i X sXi.X 7 7 7 7 7 7 $ gXu.  h bXs 7 7 7 7 7 7 7 7 7 7 0 0 0 q 8 0 q 0 q 8 7 7 7 - nXs               a 4X%X        , O               O O O O   - :   O O O O O O O O O O O O s O O O O O O O O O O o o O , : . {.... o o o o o o o o o s O o o o o o o o o o o o   ",
"g g g g g B g g g g g B g g g g B g g g B g g b m f b B g g g g g g g g g g g g g g g g g g h g B b g h g S c g h h h h g B m g b h h h c g T K g b b b h V b b b b b V b b h m B h b b %.` h m V g b %.h b b b b b b b b m b D R b m m x 0.H.l.-.3X) f w u i X sXi.X 7 7 7 7 7 7 $ gXu.  h bXs 7 7 7 7 7 7 7 7 7 7 0 0 0 0 8 0 0 0 q 8 7 7 7 - nXs             a 4X%X          , O                 O O O   - :   O O O O O O O O O O O O s O O O O O o O o o o O o O , : . {.... o o o o o o o o o s O o o o o o o o o o o o   ",
"g b b b b V b b b g b V g b b b %.h b b %.b b B B g B %.g b b b b b b b b b b b b b b b b b b b V B b b c S C b b b b b b V B b b b b b b c T K b b b b b %.B b m b b %.m b b V V b m b %.&.b B %.b B <.b b b b b b m m b m b D R n m m b M J.M.$.3X5X,.; u i X sXi.X 7 7 7 7 7 7 $ gXu.  h mXs 7 7 7 7 7 7 7 7 7 7 q q q q 0 q q q q 8 7 7 7 - nXs           a 4X%X            , O                   O O   - :   O O O O O O O O O O O O 5 O . . O O O o O O O o o   , , . {.... o o o o o o o o o s O o o o o o o o o o o o   ",
"g h g g g V b 2.B %.<.2.2.b g b V g b b V h g B B g m V b 2.B V g b b b b b b b b b b b b b b b V m %.2.%.D m b b b b b b V V <.<.%.b b b c T K c b b b b %.m 3.%.%.m %.b b b B V b b b %.&.b B %.b B %.b 3.B 2.2.%.m b b m b M R n b b m c F.D.) 5X8X>.x *.' ; sXi.X 7 7 7 7 7 7 $ gXu.  h mXs 7 7 7 7 7 7 7 7 7 7 0 0 0 0 8 0 0 0 0 8 7 7 7 - nXs         a <X%X              , O                     O   - :   O O O O O O O O O O O O | o.t ..r . | ..t X.t . o | | o.t {.... o o o o o o o o o s O o o o o o o o o o o o   ",
"g h g g g V b 3.B %.%.9.B %.g b V g b b V h g B B g m V b 2.V 3.V b b b b b b b b b b b b b b b V B b <.3.3.M b b b b b b V B %.3.3.<.b b c T K c b b b b %.B 6.V 2.2.<.b b b B V b b b %.&.b B %.b B %.b 3.<.<.2.7.2.B b m b M W D b b m x D.F.` 3X6X$X .v 5.y dXi.X 7 7 7 7 7 7 $ jXu.  h mXs 7 7 7 7 7 7 7 7 7 7 q q q q 0 q q q q 8 7 7 7 - nX7       w <X>XX               , O                     O   - :   O O O O O O O O O O O . < } | ..t . ..| | ....& o.o.|  X| {.... o o o o o o o O o s O o o o o o o o o o o o   ",
"g h g g g V b b 5.%.V 9.m %.g b V g b b V h g B B g m V g %.V 8.B g b b b b b b b b b b b b b b V m B %.<.8.m b b b b b b V B m 3.8.1.b b c T K c b b b b %.m m 2.9.6.%.b b b B V b b b %.&.b B %.b m %.b <.1.%.<.8.3.b m b b C W W m b m i M.J.1.qX5X>.Z v 5.s dXi.X 7 7 7 7 7 7 $ zXu.  h mXs 7 7 7 7 7 7 7 7 7 7 0 0 0 0 8 0 0 0 0 8 7 7 7 - nXy     w <X>X%                 , O                     O   - :   O O O O O O O O O O o | Z ..  | t . o | | | ..t | | ..| | {.... o o o o o o o O o s O o o o o o o o o o o o   ",
"g h g g g V b %.%.%.2.3.3.m g b V g b b V h g B B g m V g %.B <.%.b b b b b b b b b b b b b b b V m 3.2.%.4.V b b b b b b B V <.2.<.2.m b c T K c b b b b %.m <.2.<.2.2.b b b B V b b b %.&.b B %.b m %.b %.B 2.2.<.2.B b m b C W W m b m x q.J.9.f.d.>.c *.` > sXi.X 7 7 7 7 7 7 $ zXu.  h mXs 7 7 7 7 7 7 7 7 7 7 q q q q 0 q q q q 8 7 7 7 - nXy   = <X,X%                   , O                     O   - <   O O O O O O O O O O O o X.Y.: t t t t ..t ..t & o...| Y.t {.... o O O o o o o O o s O o o o o o o o o o o o   ",
"g g g g g V h b g g b B g g g b V g h b V g g B B g b V g b b h b b b b b b b b b b b b b b b h V m b b b S C b b b b b h V B b b b b b b c T K c b b b b %.m b b b b %.b b b B V b b b %.&.b B %.b m %.b b b b b b b b b b b m F W C b m b T H.k.x.=X#X: i i % sXu.$ 7 7 7 7 7 7 $ zXu.  m mXs 7 7 7 7 7 7 7 7 7 7 0 0 0 0 8 0 0 0 0 8 7 7 7 - AX5 % ,X,X%                     , O                     O   - <   O O O O O O O O O O O   r $ o   O o $ $ O &   O o   , r   {.... o O O O o o o O o s O o o o o o o o o o o o   ",
"b b b b b %.b b n b n %.b n b m %.b n m *.n b _ %.b V %.b B m m m m m m m m m m B B B B B B B n %.V n B n D M B B B B B m %.%.b B B B B B n T T n B B B m <.V B B B B 2.B B B %.%.B B B 2.=.B %.<.B V 2.B B B B B B B B B B B B R Q R B B B B J.D.x.:X%X: p w 9 nXV ; 7 7 7 7 7 7 $ zXu.  h mXf 7 7 7 7 7 7 7 7 7 7 q q q q 0 q q q q 8 7 7 7 X zXu.W.<X=   X O O O O O O O O O s o O O O O O O O O O O o O : ,   o o o o o o o o o o o o s o o o o o o o o o o o o O s , . {.... & o o o o o o o - j o o o o o o o o o o o - O ",
"X X X X X o X X o o o o o o o o o o o o o o o o o o o o o o o o o o o o o o o o o o o o o o o o * * o o o o o o * o o * o * * o * * * o * $ - * * * * * * * * * * * * * * * * * * * * * - * * * - * * - * * * * * * * * * * * * - 1 2 * * * $ ~ R A #.#.  % = gXsX$ 7 7 7 7 7 7 7 $ dXuX  3.bX7 7 7 7 7 7 7 7 7 7 7 0 0 0 0 8 0 0 0 q 8 7 7 7 - _ KX:.%                                                                                                                     O O                                                 ",
"aXaXaXaXaXaXaXaXaXaXaXaXaXaXaXaXaXaXaXaXaXaXaXaXaXaXaXaXaXaXaXaXaXaXaXaXaXaXaXaXaXaXaXaXaXaXaXaXaXaXaXaXaXaXaXaXaXaXaXaXaXaXaXaXaXaXaXaXaXaXaXaXaXaXaXaXaXaXaXaXaXaXaXaXaXaXaXaXaXaXaXaXaXaXaXaXaXaXaXaXaXaXaXaXaXaXaXaXaXaXaXaXaXaXaXaXaXaXaXiXiXpXfXfXdXaXnXcX- 7 7 7 7 7 7 7 7 ; _ mXsXDXi.- 7 7 7 7 7 7 7 7 7 7 0 q 0 q 8 0 q 0 q 8 7 7 7 7 $ 7.nXdXyXyXyXyXyXyXyXyXyXyXyXyXyXyXyXyXyXyXyXyXyXyXyXyXyXiXyXyXiXiXiXiXiXiXiXiXiXiXiXiXiXiXaXaXaXaXaXaXaXaXaXaXaXaXaXaXaXaXyXiXaXaXaXaXaXaXaXaXaXaXaXaXaXaXaXaXaXaXaXaXaXaXaXaX",
"s.s.s.s.s.s.s.s.s.s.s.s.s.s.s.s.s.s.s.s.s.s.s.s.s.s.s.s.s.s.s.s.s.s.s.s.s.s.s.s.s.s.s.s.s.s.s.s.s.s.s.s.s.s.s.s.s.s.s.s.s.s.s.s.s.s.s.s.s.s.s.s.s.s.s.s.s.s.s.s.s.s.s.s.s.s.s.s.s.s.s.s.s.s.s.s.s.s.s.s.s.s.s.s.s.s.s.s.s.s.s.s.s.s.f.s.s.s.s.f.f.s.s.s.s.i.<.$ 7 7 7 7 7 7 7 7 7 7 ; c s.3.; 7 7 7 7 7 7 7 7 7 7 7 q q q q 0 0 q q q 8 7 7 7 7 7 $ > e.f.s.f.f.f.f.f.f.f.f.f.f.f.f.f.f.f.f.f.f.f.f.f.f.f.f.f.f.s.f.f.f.f.s.s.s.s.s.s.s.s.f.s.s.s.s.s.s.s.s.s.s.s.s.s.f.s.s.f.f.s.s.s.s.s.s.s.s.s.s.s.s.s.s.s.s.s.s.s.s.s.s.s.s.",
"X X X X X X X X X X X X X X X X X X X X X X X X X X X X X X X X X X X X X X X X X X X X X X X X X X X X X X X X X X X X X X X X X X X X X X X X X X X X X X X X X X X X X X X X X X X X X X X X X X X X X X X X X X X X X X X X X X X X X X X X X X X X X X - 7 7 7 7 7 7 7 7 7 7 > 7 > $ * 7 7 7 7 7 7 7 7 7 7 7 7 0 0 0 0 8 0 0 0 0 8 7 7 7 7 7 7 7 $ X X X X X X X X X X X X X X X X X X X X X X X X X X X X X X X X X X X X X X X X X X X X X X X X X X X X X X X X X X X X X X X X X X X X X X X X X X X X X X X X X X X X ",
"y y y y y y y y y y y y y y y y 7 8 8 8 8 8 8 8 8 8 8 8 8 8 8 8 8 8 8 8 8 7 7 7 7 7 7 7 7 7 7 7 7 y y y f 7 y y y s s s s s s s s s s s s s s s s s s s s s s s s s s s s s s s s s s s s s s s s s s s s s s s s s s s s s s s s s s s s s s s s s s s s s 7 7 7 7 7 7 7 7 7 7 > f 7 7 7 f 7 7 f > 7 7 7 7 7 7 7 7 q q q q 0 q q q q 8 7 7 7 7 7 7 7 y s s s s s s s s s s s s s s s s s s s s s y y s s s s s s s s s s s s s s s s s s s s s s s s s s s y y y y y y y y y y y y y y y y y y y y y y y y y y y y y y y y y y ",
"7 7 7 7 7 7 7 7 7 7 7 7 7 7 7 7 7 , , , , , , , , , , , , , , , , , , , , , , , , , , , , , , , 7 7 7 7 x 7 7 7 7 > > > > > > > > > > > > > > > > > > > > > > > > > > > > > > > > > > > > > > > > > > > > > > > > > > > ; > > > ; ; > ; ; ; ; ; ; ; ; ; ; ; 7 7 7 7 7 7 7 7 7 ; 1.h.5.* %.!.5.7.h.V ; 7 7 7 7 7 7 7 8 8 8 8 8 8 8 8 8 7 7 7 7 7 7 7 7 > > > > > > > > > > > > > > > > > > > > > > 7 7 > > > > > > > > > > > > > > > > > > > > > > > > > > > 7 7 7 7 7 7 7 7 7 7 7 7 7 7 7 7 7 7 7 7 7 7 7 7 7 7 7 7 7 7 7 7 7 7 ",
"7 7 7 7 7 7 7 7 7 7 7 7 7 7 7 7 w / / / / / / / / / / / / / / / / e e e e e e e e e e e e e e e e 7 7 7 x 7 7 > N 8.8.8.8.8.8.8.8.8.8.8.8.8.e.e.u.u.u.u.u.u.u.u.u.u.u.u.u.u.u.u.u.u.u.p.p.p.p.p.p.p.p.i.i.i.i.i.i.i.i.i.i.i.i.i.i.i.i.i.i.i.i.i.i.i.s.f.i.f.8.7 7 7 7 7 7 7 7 > p.b i.7 p.c f.a.m p.; 7 7 7 7 7 7 7 7 , < , 7 < , , < 7 7 7 7 7 7 7 f m c b m m m m m m m m m m m m m N N N N N N 7 7 m c c c b m m m m m m m m m m m m m m m N N N N N N V f 7 7 7 7 7 7 7 7 7 7 7 7 7 7 7 7 7 7 7 7 7 7 7 7 7 7 7 7 7 7 7 7 7 ",
"7 7 7 7 7 7 7 7 7 7 7 7 7 7 7 , e /._././././././././././././././././.P.P.P.P.P.P.P.P.P.P.P.P.L.e , 7 7 x 7 7 > _ zXxXxXxXxXxXxXxXxXxXxXbXbXbXbXbXbXbXbXbXbXbXmXmXmXmXmXmXmXnXnXnXnXnXnXnXnXnXDXDXDXDXDXDXDXDXDXDXDXFXFXFXFXGXGXGXGXGXGXGXKXKXKXKXKXKXKXKXJXtX> 7 7 7 7 7 7 7 7 p.f i.> u.f f.i.f i.; 7 7 7 7 7 7 7 7 0 / q 7 / 0 / / 7 7 7 7 7 7 > N iXsXsXsXsXsXzXzXzXzXcXcXxXxXxXxXxXbXbXbXnXi.; 7 f.sXdXsXsXsXsXsXzXzXzXzXzXzXcXxXxXxXxXxXxXbXbXbXbXnXaXs 7 7 7 7 7 7 7 7 7 7 7 7 7 7 7 7 7 7 7 7 7 7 7 7 7 7 7 7 7 7 7 7 7 ",
"7 7 7 7 7 7 7 7 7 7 7 7 7 7 7 , e /.).).).).).).).).).)._._._._._._./././././././././././././.P.e , 7 7 x 7 7 > V sXcXzXzXcXcXcXcXcXcXcXxXxXxXxXxXxXxXxXxXxXbXbXbXbXbXbXbXbXbXbXbXnXmXmXmXmXnXmXnXnXnXnXnXnXnXnXnXnXnXDXDXDXDXDXDXDXDXDXDXFXFXFXFXFXGXGXFXKXh.> 7 7 7 7 7 7 7 ; 5.f.e.3.5.f.e.e.f.3.; 7 7 7 7 7 7 7 , 8 [ [ , [ [ / U.8 7 7 7 7 7 > m sXbXbXnXbXnXnXnXDXDXnXDXDXDXGXGXKXGXKXKXKXp.; 7 j.bXxXmXbXmXmXnXmXnXDXnXDXDXDXDXDXDXGXFXKXKXKXKXKXJXdX7 7 7 7 7 7 7 7 7 7 7 7 7 7 7 7 7 7 7 7 7 7 7 7 7 7 7 7 7 7 7 7 7 7 ",
"7 7 7 7 7 7 7 7 7 7 7 7 7 7 7 , e /.)._.I.(.I.I.I.I.I.I.(.I.I./.L.P./.P.L.P.L.P.P./.P.L.L.L.P.P.e , 7 7 x 7 7 > V sXcXzXcXcXcXcXcXcXxXxXxXxXxXxXxXxXxXxXbXbXbXbXbXbXbXbXj.bXsXi.iXp.nXuXdXdXyXsXDXnXnXnXnXnXnXnXnXDXDXDXDXDXDXDXDXDXDXFXFXFXFXFXFXGXGXGXFXKXh.> 7 7 7 7 7 7 7 7 7 _ f c 7 _ s f _ 7 7 7 7 7 7 7 7 , / 8 / q < / [ 8 [ , 7 7 7 7 7 > m sXbXaXh.cXuXyXxXuXsXnXsXxXbXsXzXaXnXxXDXKXp.; 7 g.bXzXtXyXyXaXh.cXzXtXxXdXyXzXnXxXnXzXmXsXsXxXnXbXKXaXy 7 7 7 7 7 7 7 7 7 7 7 7 7 7 7 7 7 7 7 7 7 7 7 7 7 7 7 7 7 7 7 7 7 ",
"7 7 7 7 7 7 7 7 7 7 7 7 7 7 7 , e /.).I.I.).U.(.U.(.L.I.I.L.I.L.I.L./.L.P.P.L.L.L.P.L.L.L.L./.P.e , 7 7 x 7 7 > V sXcXzXcXcXcXcXcXcXxXxXxXxXxXxXxXxXxXxXxXbXbXbXbXbXbXbXi.bXcXh.dX5.aXtXdX9.uXnXmXnXnXnXnXnXnXnXnXDXDXDXDXDXDXDXDXDXDXDXFXFXFXFXFXGXGXGXFXKXh.> 7 7 7 7 7 7 7 7 7 ; 7 ; 7 ; 7 7 ; 7 7 7 7 7 7 7 7 7 0 0 [ 7 / [ [ / / , 7 7 7 7 7 > m sXbXj.g.h.h.h.!.i.zXGXs.tXdXi.iXuX!.yXFXGXp.; 7 g.bXtXs.zXa.g.uXh.h.g.dXg.bXh.aXj.bXe.cXuXtXe.gXsXJXaXy 7 7 7 7 7 7 7 7 7 7 7 7 7 7 7 7 7 7 7 7 7 7 7 7 7 7 7 7 7 7 7 7 7 ",
"7 7 7 7 7 7 7 7 7 7 7 7 7 7 7 , e /.).).U.(.I.(.U.(.L.[ (.L.I.L._.L.P./.L.L.[ P.L./.P.P.L.P./.P.e , 7 7 x 7 7 > V sXcXzXcXcXcXcXcXcXxXxXxXxXxXxXxXxXxXxXxXbXbXbXbXbXbXbXf.nXxXtXaXuXu.h.sX3.tXDXnXnXDXnXnXnXnXnXnXDXDXDXDXDXDXDXDXDXDXDXFXFXFXFXFXFXGXGXFXKXh.> 7 7 7 7 7 7 7 7 7 7 7 f f ; > > 7 7 7 7 7 7 7 7 7 7 , 7 7 7 8 0 7 7 7 7 7 7 7 7 7 > m sXbXg.i.sXi.a.dXf.cXcXtXg.h.yXdXbXi.dXKXFXp.; 7 g.bXzXg.uXuX!.bXtXg.uXuXaXJXtXh.g.dXe.uXsXsX!.u.zXKXaXy 7 7 7 7 7 7 7 7 7 7 7 7 7 7 7 7 7 7 7 7 7 7 7 7 7 7 7 7 7 7 7 7 7 ",
"7 7 7 7 7 7 7 7 7 7 7 7 7 7 7 , e /.).).I.I.I.(.U.(.I.I.I.L.(.L.L.L././.L.[ P./.[ L.L.L.L.P./.P.e , 7 7 x 7 7 > V sXcXzXcXcXcXcXcXcXxXxXxXxXxXxXxXxXxXxXxXbXbXbXbXbXbXbXe.uXiXi.uXdXyX7.dXyX!.tXaXaXaXzXDXnXnXnXnXDXDXDXDXDXDXDXDXDXDXDXDXFXFXFXFXFXFXFXFXKXh.> 7 7 7 7 7 7 7 7 7 7 $ 9.5.u.i._ > 7 7 7 7 7 7 7 7 7 7 7 7 7 7 7 , 7 7 7 7 7 7 7 7 > m sXbXg.sXbXf.tXtXg.zXsXyXs.g.aXuXj.iXtXnXFXu.; 7 g.bXzXtXi.s.f.g.tXtXtXsXs.zXtXbXaXf.tXj.f.tXcXu.yXJXiXy 7 7 7 7 7 7 7 7 7 7 7 7 7 7 7 7 7 7 7 7 7 7 7 7 7 7 7 7 7 7 7 7 7 ",
"7 7 7 7 7 7 7 7 7 7 7 7 7 7 7 , e /.).(.(.).(.).(.(.(._.(.I.I._.I././.P.P./././.P.L.P.P.P.P.P.P.e , 7 7 x 7 7 > V sXcXzXzXcXcXcXcXcXcXxXxXxXxXxXxXxXxXxXxXbXbXbXbXbXbXbXsXuXsXsXcXxXmXzXbXxXbXzXxXxXcXbXnXnXnXnXnXnXDXDXDXDXDXDXDXDXDXDXDXDXDXFXFXFXFXFXFXKXh.> 7 7 7 7 7 7 7 7 7 f p.tX7.p.3.p.; 7 7 7 7 7 7 7 7 7 , 0 U.[ 7 [ / [ / , 7 7 7 7 7 > m sXxXsXxXxXzXxXzXaXgXDXxXxXMXbXcXgXnXbXnXDXu.; 7 g.xXsXuXzXdXsXyXxXcXyXxXzXdXxXbXxXcXFXbXgXxXnXmXbXGXyXy 7 7 7 7 7 7 7 7 7 7 7 7 7 7 7 7 7 7 7 7 7 7 7 7 7 7 7 7 7 7 7 7 7 ",
"7 7 7 7 7 7 7 7 7 7 7 7 7 7 7 , e _.).).).).).).).).).).).)._._._._._._._././././././././././.P.e , 7 7 x 7 7 > V sXcXzXcXcXcXcXcXcXxXxXxXxXxXxXxXxXxXxXxXbXbXbXbXbXbXbXnXnXnXnXmXmXmXnXnXnXnXDXnXnXDXnXnXnXnXnXnXDXDXDXDXDXDXDXDXDXDXDXDXDXFXFXFXFXFXFXFXKXh.> 7 7 7 7 7 7 7 7 ; 7.2.5.7.f.s.9.; 7 7 7 7 7 7 7 7 7 0 , / / < [ [ [ / , 7 7 7 7 7 > m sXbXbXbXbXmXmXnXDXDXnXDXDXDXDXFXGXDXGXFXGXu.; 7 j.bXbXmXbXmXmXnXmXnXDXnXDXDXDXDXDXFXDXFXKXGXFXGXGXKXaX7 7 7 7 7 7 7 7 7 7 7 7 7 7 7 7 7 7 7 7 7 7 7 7 7 7 7 7 7 7 7 7 7 7 ",
"7 7 7 7 7 7 7 7 7 7 7 7 7 7 7 , / /./././././././././././.P.P.P.P.P.P.P.P.P.P.P.P.P.P.L.L.L.L.L.e , 7 7 x 7 7 > _ gXzXzXzXcXcXcXcXcXcXcXxXxXxXxXxXxXxXxXxXxXMXbXbXbXbXbXbXbXbXbXbXbXmXbXmXmXmXmXmXmXnXnXnXnXnXnXnXnXnXnXDXDXDXDXDXDXDXDXDXDXDXDXDXFXFXFXDXKXh.> 7 7 7 7 7 7 7 7 ; <.e.i.9.i.1.f.> 7 7 7 7 7 7 7 7 , / q [ 8 8 [ [ / U.8 7 7 7 7 7 > m tXuXuXuXyXyXyXyXyXiXaXaXaXaXaXaXaXdXdXdXsX8.> y i.yXtXuXuXuXyXyXyXyXyXiXaXaXaXaXaXaXdXdXdXdXsXsXdXsXh.s 7 7 7 7 7 7 7 7 7 7 7 7 7 7 7 7 7 7 7 7 7 7 7 7 7 7 7 7 7 7 7 7 7 ",
"7 7 7 7 7 7 7 7 7 7 7 7 7 7 7 7 8 e e e e e e e e e e e e e e e e e e e e e e e e e e e 9 9 9 e 9 7 7 7 x 7 7 7 m 3.1.1.2.2.2.2.2.3.3.3.3.3.3.3.3.3.3.3.3.3.3.3.3.3.3.3.3.3.3.3.3.3.5.5.5.5.5.7.7.7.7.7.7.7.7.7.7.7.7.7.7.7.7.7.7.7.7.7.7.7.7.7.7.7.7.7.7.9.3.7 7 7 7 7 7 7 7 7 7 7 3.6.g 5.e.c > 7 7 7 7 7 7 7 7 7 , 8 q 7 / / q / / , 7 7 7 7 7 7 s f s s s s s f f f f f f f f f f f f f f f g 7 7 f s s s s s s f f f f f f f f f f f f f f f f f f f g y 7 7 7 7 7 7 7 7 7 7 7 7 7 7 7 7 7 7 7 7 7 7 7 7 7 7 7 7 7 7 7 7 7 ",
"7 7 7 7 7 7 7 7 7 7 7 7 7 7 7 7 7 , 3 3 3 3 3 3 3 3 y 7 7 7 7 7 7 7 7 7 7 7 7 7 7 7 7 7 7 7 7 7 7 7 7 7 x 7 7 7 7 > > > > > > > > > > > > > > > > > > > > > > > > > > > > > > > > > > > > > > > > > > > > > > > > > > > > > > > > > > ; ; ; ; ; ; ; ; ; ; ; > 7 7 7 7 7 7 7 7 7 7 7 ; ; 7 ; - 7 7 7 7 7 7 7 7 7 7 7 7 7 , 7 , , , , , 7 7 7 7 7 7 7 7 7 7 7 7 7 7 7 7 7 7 7 7 7 7 7 7 7 7 7 7 7 7 7 7 7 7 7 7 7 7 7 7 7 7 7 7 7 7 7 7 7 7 7 7 7 7 7 7 7 7 7 7 7 7 7 7 7 7 7 7 7 7 7 7 7 7 7 7 7 7 7 7 7 7 7 7 7 7 7 7 7 7 7 7 7 ",
"> > > > > > > > > > > > > > > > > > > > > > > > > > ; ; ; ; ; ; ; ; ; ; ; ; ; ; ; ; ; ; ; ; ; ; ; > > > 7 ; > ; > > > > > > > > > > > > > > > > > > > > > > > > > > > > > > > > > > > > > > > > > > > > > > > > > > > > > > > > > > > > > > > > > > > > > > > ; > > > > > > > > > > > > > > > > ; > 7 7 7 7 7 7 > > > > 9 > 9 9 9 9 9 > > > > > > > > > > > > > > > > > > > > > > > > > > > > > > > > > > > > > > > > > > > > > > > > > > > > > > > > > > > > > > > > > > > > > > > > > > > > > > > > > > > > > > > > > > > > > ",
"b b b b b b b b b b b b b b b b b b b b b b b b b b b b b b b b b b b b b b b b b b b b b b b b b b b b b b b b b b b b b b b b b b b b b b b b b b b b b b b b b b b b b b b b b b b b b b b b b b b b b b b b b b b b b b b b b b b b b b b b b b b b b b b b b b b b b b b b b b b b b b b b b c ; $ 7 7 7 f c g g g g g g g g g g g g g g g g g g g g g g g g c m b b b b b b b b b b b b b b b b b b b b b b b b b b b b b b b b b b b b b b b b b b b b b b b b b b b b b b b b b b b b b b b b b b b b b b b b b b b b b ",
"FXFXFXFXFXFXFXFXFXFXFXFXFXFXFXFXFXFXFXFXFXFXFXFXFXFXFXFXFXFXFXFXFXFXFXFXFXFXFXFXFXFXFXFXFXFXFXFXFXFXFXFXFXFXFXFXFXFXFXFXFXFXFXFXFXFXFXFXFXFXFXFXFXFXFXFXFXFXFXFXFXFXFXFXFXFXFXFXFXFXFXFXFXFXFXFXFXFXFXFXFXFXFXFXFXFXFXFXFXFXFXFXFXFXFXFXFXFXFXFXFXFXFXFXFXFXFXFXFXFXFXFXFXFXFXFXFXFXFXFXFXFXFXFXFXZXnXp.* s $ uXIXUXUXUXLXLXLXLXLXLXLXLXLXLXLXLXLXLXLXLXLXLXLXLXLXJXDXFXFXFXFXFXFXFXFXFXFXFXFXFXFXFXFXFXFXFXFXFXFXFXFXFXFXFXFXFXFXFXFXFXFXFXFXFXFXFXFXFXFXFXFXFXFXFXFXFXFXFXFXFXFXFXFXFXFXFXFXFXFXFXFXFXFXFXFXFXFXFXFXFXFXFXFXFX",
"7 7 7 7 7 7 7 7 7 7 7 7 7 7 7 7 7 7 7 7 7 7 7 7 7 7 7 7 7 7 7 7 7 7 7 7 7 7 7 7 7 7 7 7 7 7 7 7 7 7 7 7 7 7 7 7 7 7 7 7 7 7 7 7 7 7 7 7 7 7 7 7 7 7 7 7 7 7 7 7 7 7 7 7 7 7 7 7 7 7 7 7 7 7 7 7 7 7 7 7 7 7 7 7 7 7 7 7 7 7 7 7 7 7 7 7 7 7 7 7 7 7 7 7 7 7 7 7 7 7 7 7 7 7 7 7 7 7 7 7 7 7 7 7 7 g 8.GXj.; $ iXPXLXPXPXIXIXIXIXIXIXIXIXIXIXIXIXIXIXIXIXIXIXIXIXPXjX$ f 7 7 7 7 7 7 7 7 7 7 7 7 7 7 7 7 7 7 7 7 7 7 7 7 7 7 7 7 7 7 7 7 7 7 7 7 7 7 7 7 7 7 7 7 7 7 7 7 7 7 7 7 7 7 7 7 7 7 7 7 7 7 7 7 7 7 7 7 7 7 7 7 7 7 7 7 ",
"7 7 7 7 7 7 7 7 7 7 7 7 7 7 7 7 7 7 7 7 7 7 7 7 7 7 7 7 7 7 7 7 7 7 7 7 7 7 7 7 7 7 7 7 7 7 7 7 7 7 7 7 7 7 7 7 7 7 7 7 7 7 7 7 7 7 7 7 7 7 7 7 7 7 7 7 7 7 7 7 7 7 7 7 7 7 7 7 7 7 7 7 7 7 7 7 7 7 7 7 7 7 7 7 7 7 7 7 7 7 7 7 7 7 7 7 7 7 7 7 7 7 7 7 7 7 7 7 7 7 7 7 7 7 7 7 7 7 7 7 7 7 7 7 7 7 $ f GX2.  iXPXLXnXcXJXIXPXIXIXPXIXPXPXIXPXIXPXIXIXPXIXLXIXLXPXgX$ 7 7 7 7 7 7 7 7 7 7 7 7 7 7 7 7 7 7 7 7 7 7 7 7 7 7 7 7 7 7 7 7 7 7 7 7 7 7 7 7 7 7 7 7 7 7 7 7 7 7 7 7 7 7 7 7 7 7 7 7 7 7 7 7 7 7 7 7 7 7 7 7 7 7 7 7 7 ",
"7 7 7 7 7 7 7 7 7 7 7 7 7 7 7 7 7 7 7 7 7 7 7 7 7 7 7 7 7 7 7 7 7 7 7 7 7 7 7 7 7 7 7 7 7 7 7 7 7 7 7 7 7 7 7 7 7 7 7 7 7 7 7 7 7 7 7 7 7 7 7 7 7 7 7 7 7 7 7 7 7 7 7 7 7 7 7 7 7 7 7 7 7 7 7 7 7 7 7 7 7 7 7 7 7 7 7 7 7 7 7 7 7 7 7 7 7 7 7 7 7 7 7 7 7 7 7 7 7 7 7 7 7 7 7 7 7 7 7 7 7 7 7 7 7 7 f $ !.dX  pXPXLXh.mXtXLXbXKXLXcXUXnXmXGXxXUXMXJXGXbXLXIXIXLXPXgX$ y 7 7 7 7 7 7 7 7 7 7 7 7 7 7 7 7 7 7 7 7 7 7 7 7 7 7 7 7 7 7 7 7 7 7 7 7 7 7 7 7 7 7 7 7 7 7 7 7 7 7 7 7 7 7 7 7 7 7 7 7 7 7 7 7 7 7 7 7 7 7 7 7 7 7 7 7 ",
"7 7 7 7 7 7 7 7 7 7 7 7 7 7 7 7 7 7 7 7 7 7 7 7 7 7 7 7 7 7 7 7 7 7 7 7 7 7 7 7 7 7 7 7 7 7 7 7 7 7 7 7 7 7 7 7 7 7 7 7 7 7 7 7 7 7 7 7 7 7 7 7 7 7 7 7 7 7 7 7 7 7 7 7 7 7 7 7 7 7 7 7 7 7 7 7 7 7 7 7 7 7 7 7 7 7 7 7 7 7 7 7 7 7 7 7 7 7 7 7 7 7 7 7 7 7 7 7 7 7 7 7 7 7 7 7 7 7 7 7 7 7 7 7 7 7 7 $ e.bX  aXPXLXiXPXcX!.uXtXtXuX!.h.FXtXbXcX!.uXg.mXIXIXIXLXPXdX$ y 7 7 7 7 7 7 7 7 7 7 7 7 7 7 7 7 7 7 7 7 7 7 7 7 7 7 7 7 7 7 7 7 7 7 7 7 7 7 7 7 7 7 7 7 7 7 7 7 7 7 7 7 7 7 7 7 7 7 7 7 7 7 7 7 7 7 7 7 7 7 7 7 7 7 7 7 ",
"7 7 7 7 7 7 7 7 7 7 7 7 7 7 7 7 7 7 7 7 7 7 7 7 7 7 7 7 7 7 7 7 7 7 7 7 7 7 7 7 7 7 7 7 7 7 7 7 7 7 7 7 7 7 7 7 7 7 7 7 7 7 7 7 7 7 7 7 7 7 7 7 7 7 7 7 7 7 7 7 7 7 7 7 7 7 7 7 7 7 7 7 7 7 7 7 7 7 7 7 7 7 7 7 7 7 7 7 7 7 7 7 7 7 7 7 7 7 7 7 7 7 7 7 7 7 7 7 7 7 7 7 7 7 7 7 7 7 7 7 7 7 7 7 7 7 7 $ e.bX  aXPXLXuXIXiX-XuXmXf.sXnXGXuXKXdXf.iXmXuXLXIXIXIXLXPX!.$ 7 7 7 7 7 7 7 7 7 7 7 7 7 7 7 7 7 7 7 7 7 7 7 7 7 7 7 7 7 7 7 7 7 7 7 7 7 7 7 7 7 7 7 7 7 7 7 7 7 7 7 7 7 7 7 7 7 7 7 7 7 7 7 7 7 7 7 7 7 7 7 7 7 7 7 7 7 ",
"7 7 7 7 7 7 7 7 7 7 7 7 7 7 7 7 7 7 7 7 7 7 7 7 7 7 7 7 7 7 7 7 7 7 7 7 7 7 7 7 7 7 7 7 7 7 7 7 7 7 7 7 7 7 7 7 7 7 7 7 7 7 7 7 7 7 7 7 7 7 7 7 7 7 7 7 7 7 7 7 7 7 7 7 7 7 7 7 7 7 7 7 7 7 7 7 7 7 7 7 7 7 7 7 7 7 7 7 7 7 7 7 7 7 7 7 7 7 7 7 7 7 7 7 7 7 7 7 7 7 7 7 7 7 7 7 7 7 7 7 7 7 7 7 7 7 7 $ e.bX  aXPXLXuXuXbXLXaXnXDXaXDXzXdXMXaXZXdXZXcXLXIXLXLXIXLX_ ; 7 7 7 7 7 7 7 7 7 7 7 7 7 7 7 7 7 7 7 7 7 7 7 7 7 7 7 7 7 7 7 7 7 7 7 7 7 7 7 7 7 7 7 7 7 7 7 7 7 7 7 7 7 7 7 7 7 7 7 7 7 7 7 7 7 7 7 7 7 7 7 7 7 7 7 7 7 ",
"7 7 7 7 7 7 7 7 7 7 7 7 7 7 7 7 7 7 7 7 7 7 7 7 7 7 7 7 7 7 7 7 7 7 7 7 7 7 7 7 7 7 7 7 7 7 7 7 7 7 7 7 7 7 7 7 7 7 7 7 7 7 7 7 7 7 7 7 7 7 7 7 7 7 7 7 7 7 7 7 7 7 7 7 7 7 7 7 7 7 7 7 7 7 7 7 7 7 7 7 7 7 7 7 7 7 7 7 7 7 7 7 7 7 7 7 7 7 7 7 7 7 7 7 7 7 7 7 7 7 7 7 7 7 7 7 7 7 7 7 7 7 7 7 7 7 7 $ e.bX  aXPXIXIXIXPXIXIXLXPXIXIXIXIXIXIXPXIXLXIXIXIXIXPXPXf.- 7 7 7 7 7 7 7 7 7 7 7 7 7 7 7 7 7 7 7 7 7 7 7 7 7 7 7 7 7 7 7 7 7 7 7 7 7 7 7 7 7 7 7 7 7 7 7 7 7 7 7 7 7 7 7 7 7 7 7 7 7 7 7 7 7 7 7 7 7 7 7 7 7 7 7 7 7 7 ",
"7 7 7 7 7 7 7 7 7 7 7 7 7 7 7 7 7 7 7 7 7 7 7 7 7 7 7 7 7 7 7 7 7 7 7 7 7 7 7 7 7 7 7 7 7 7 7 7 7 7 7 7 7 7 7 7 7 7 7 7 7 7 7 7 7 7 7 7 7 7 7 7 7 7 7 7 7 7 7 7 7 7 7 7 7 7 7 7 7 7 7 7 7 7 7 7 7 7 7 7 7 7 7 7 7 7 7 7 7 7 7 7 7 7 7 7 7 7 7 7 7 7 7 7 7 7 7 7 7 7 7 7 7 7 7 7 7 7 7 7 7 7 7 7 7 7 7 $ e.bX  aXPXUXLXLXLXLXLXLXLXLXLXLXLXLXLXLXLXLXLXLXLXJXnXe.; 7 7 7 7 7 7 7 7 7 7 7 7 7 7 7 7 7 7 7 7 7 7 7 7 7 7 7 7 7 7 7 7 7 7 7 7 7 7 7 7 7 7 7 7 7 7 7 7 7 7 7 7 7 7 7 7 7 7 7 7 7 7 7 7 7 7 7 7 7 7 7 7 7 7 7 7 7 7 7 ",
"7 7 7 7 7 7 7 7 7 7 7 7 7 7 7 7 g 7 7 7 7 7 7 7 7 7 7 7 7 7 7 7 7 7 7 7 7 7 7 7 7 7 7 7 7 7 7 7 7 7 7 7 7 7 7 7 7 7 7 7 7 7 7 7 7 7 7 7 7 7 7 7 7 7 7 7 7 7 7 7 7 7 7 7 7 7 7 7 7 7 7 7 x 7 7 7 7 7 7 7 7 7 7 7 7 7 7 7 7 7 7 7 7 7 7 7 7 7 7 7 7 7 7 7 7 7 7 7 7 7 7 7 7 7 7 7 7 7 7 7 7 7 7 7 7 7 7 $ e.bX  gX!.> c x x x x x x x x x x x x x x x x x c f > - 7 7 7 7 7 7 7 7 7 7 7 7 7 7 7 7 7 7 7 7 7 7 7 7 7 7 7 7 7 7 7 7 7 7 7 7 7 7 7 7 7 7 7 7 7 7 7 7 7 7 7 7 7 7 7 7 7 7 7 7 7 7 7 7 7 7 7 7 7 7 7 7 7 7 7 7 7 7 7 7 ",
"> > > > > > > > > > > > , 7 7 7 x 7 7 7 7 > > > > > > > > > > > > > > > > > > > > > > > > > > > > > > > > > > > > > > > > > > > > > > > > > > > > > > > > > > > > > > > > > > , 7 7 7 7 x 7 7 7 7 7 7 7 7 7 7 7 7 7 7 7 - $ * * * * * * * * * * * * * * * * * * * * * * * * * * $ - ; $ * $ $ ; 7 7 7 $ e.bX  jXg.X 7 > > > > > > > > > > > > > > > > > > > 7 7 7 7 7 7 7 7 7 7 7 7 7 7 7 7 7 7 7 7 7 7 7 7 7 7 7 7 7 7 7 7 7 7 7 7 7 7 7 7 7 7 7 7 7 7 7 7 7 7 7 7 7 7 7 7 7 7 7 7 7 7 7 7 7 7 7 7 7 7 7 7 7 7 7 7 7 7 7 7 7 7 ",
"J J J J J J J J 6 6 6 6 < 7 7 7 x 7 7 7 s V V V V V V V V <.<.<.<.<.<.<.<.<.<.1.4.4.4.4.3.3.3.3.3.3.3.3.3.3.3.7.7.7.7.7.7.7.7.7.7.9.9.9.9.9.9.8.8.8.8.8.8.8.8.8.8.8.u.u.u.u.u.u.C > 7 7 x 7 7 7 7 7 7 7 7 7 7 7 7 7 7 > e.cXbXbXbXbXbXbXbXbXbXbXbXbXbXbXbXbXbXbXbXbXbXbXbXbXbXbXmXdX!.ZXvXbXMX7.; 7 7 $ e.bX  jXg.$ y 7 7 7 7 7 y 7 7 7 7 7 7 7 7 7 7 7 7 7 7 7 7 7 7 7 7 7 7 7 7 7 7 7 7 7 7 7 7 7 7 7 7 7 7 7 7 7 7 7 7 7 7 7 7 7 7 7 7 7 7 7 7 7 7 7 7 7 7 7 7 7 7 7 7 7 7 7 7 7 7 7 7 7 7 7 7 7 7 7 7 7 7 7 7 7 7 7 7 7 7 7 ",
"U U U U U U U U Y Y Y I < 7 7 7 x 7 7 7 j 8.8.8.8.u.u.u.u.u.u.p.p.p.i.i.i.i.i.i.i.i.f.f.f.f.f.f.g.h.h.h.h.h.h.h.D.tXtXtXtXtXtXtXtXtXuXuXuXuXyXyXyXyXyXyXaXaXaXaXaXaXaXdXdXdXsXaXV > 7 7 x 7 7 7 ; 7 7 - - 7 ; - > 7 ; N LXPXPXPXPXPXPXPXPXPXPXPXPXPXPXPXPXPXPXPXPXPXPXPXPXPXPXPXPXKXxXPXPXPXPXUXc > y $ e.bX  jXg.$ 7 7 7 7 7 > * ; 7 7 7 7 7 f 7 7 7 7 7 7 7 7 7 7 7 7 7 7 7 ; 7 ; 7 7 7 7 7 7 7 7 7 7 7 7 7 7 7 7 7 7 7 7 7 ; * - 7 7 7 7 7 7 7 7 7 7 7 7 7 7 7 7 7 7 7 7 7 7 7 7 7 > ; 7 7 7 7 7 7 7 7 7 7 7 7 7 7 7 7 7 7 7 ",
"U U U U U U Y Y Y Y Y J < 7 7 7 x 7 7 7 j 9.8.8.8.8.8.8.8.u.u.u.u.u.u.u.u.p.p.i.i.i.i.i.i.i.i.i.f.8.8.p.8.i.p.f.p.i.f.8.g.h.h.h.h.h.tXtXtXtXtXtXtXuXuXuXuXyXyXyXyXyXyXyXaXaXaXyXV > 7 7 x 7 7 > _ f > 8.e.f 5.p.N 7 * 8.PXKXJXIXLXLXLXLXPXGXJXJXKXIXLXLXIXIXLXIXIXIXIXLXLXLXLXLXIXDXgXPXnXe.LXPX5.- s $ e.bX  jXg.$ 7 7 7 7 ; _ i.<.> ; ; f 7 b > ; ; 7 7 7 7 7 7 7 7 7 7 7 > _ f 1.y * ; 7 ; > > ; > 7 7 7 7 7 7 7 7 7 7 7 > _ i.9.p.f - > ; 7 ; ; > $ V 5.X 7 7 7 7 7 7 7 7 7 7 7 > N <.> f 7 f > ; > 7 X 9.B $ 7 7 7 7 7 7 7 ",
"U U U U U U Y Y Y Y Y J < 7 7 7 x 7 7 7 j 9.8.8.8.8.8.8.8.u.u.u.u.u.u.u.p.p.i.i.i.i.i.i.i.i.f.f.f.9.7.7.8.e.7.u.1.g.h.e.p.tXh.h.tXtXtXtXtXtXtXtXuXuXuXuXyXyXyXyXyXyXyXaXaXaXaXyXV > 7 7 x 7 7 ; a.b y f.9.p.i.V s 7 $ e.IXsXuXLXbX!.PXLXJXiXvXuXdXmXKXxXUXKXPXJXGXgXKXIXIXIXIXLXPXFXzXPX<.  uXPX5.- s $ e.bX  jXg.$ 7 7 7 7 * u.5.s.N 8.%.!.e._ x i.1.> 7 7 7 7 7 7 7 7 7 7 ; u.p.7.V i.5.7 e.<.c u.m > 7 7 7 7 7 7 7 7 7 7 7 y g.1.u.g.1.N u.c 5.5.V 8.5.!.8.f 7 7 7 7 7 7 7 7 7 7 ; u.s.m uXp.tXc e._ B e.p.1.1.7 7 7 7 7 > g ",
"U U U U U U Y Y Y Y Y J < 7 7 7 x 7 7 7 j 9.8.8.8.8.8.8.8.u.u.u.u.u.u.u.p.p.i.i.i.i.i.i.i.i.i.f.f.3.9.8.8.7.1.9.1.g.j.8.g.h.h.h.h.tXtXtXtXtXtXtXuXuXuXuXyXyXyXyXyXyXyXyXaXaXaXyXV > 7 7 x 7 7 ; p.c 7 -Xi.N f.i.c 7 * 8.PXPXdXDXgXdXPXDXiXh.bXiXsXmXvXvXaXiXDXiXvXi.mXIXLXIXIXLXPXFXzXIXnXFXZXPX5.- s $ e.bX  jXg.$ 7 7 7 7 - 9.uXe.7 8.f.a.V p.u._ i.x > 7 7 7 7 7 7 7 7 7 - p.cX; e.9.e.p.g.g.!.s.f.; 7 7 7 7 7 7 7 7 7 7 7 - 8.c e.5.e.u.8._ !.f.h.8.1.u.9.3.- 7 7 7 7 7 7 7 7 7 f g.g.1.e.<.e.7 e.g.s.f 8.aXm > 7 7 7 7 7 s ",
"U U U U U U Y Y Y Y Y J < 7 7 7 x 7 7 7 j 9.8.8.8.8.8.8.8.u.u.u.u.u.u.u.p.p.p.i.i.i.i.i.i.i.i.f.f.e.f.u.7.u.i.8.u.i.i.3.f.h.h.h.h.tXtXtXtXtXtXtXtXuXuXuXyXyXyXyXyXyXyXyXyXyXaXyXV > 7 7 x 7 7 ; a.V f g.7 ; g.g 7 7 $ 9.PXnXmXcX-Xg.IXgXKXvXxXiXcXsXcXcXnXKXh.cXPXaXIXIXIXIXIXLXPXFXcXLXs.p.dXPX5.- s $ e.bX  jXg.$ 7 7 7 7 - e.9.u.e.g.f.a._ p.p._ i.x > 7 7 7 7 7 7 7 7 7 - u.e.e.e.N 9.a.g._ h.u._ 7 7 7 7 7 7 7 7 7 7 7 7 ; p.N u.c e.p.B B tX3.c e.!.1.1.7.- 7 7 7 7 7 7 7 7 ; 3.a.e.i.e._ e.9.g.!.f.y e.iX<.; 7 7 7 7 > g ",
"U U U U U U Y Y Y Y Y J < 7 7 7 x 7 7 7 j 9.8.8.8.8.8.8.8.u.u.u.u.u.u.u.u.p.p.i.i.i.i.i.i.i.i.f.f.f.f.f.f.g.g.j.j.j.h.h.h.h.h.h.h.h.tXtXtXtXtXtXtXuXuXuXuXyXyXyXyXyXyXyXyXyXaXyXM > 7 7 x 7 7 ; 7.g.3.1.7 7 5.y 7 7 $ e.LXe.zXDXbXg.IXFXyX!.mXtXzX!.bXUXuXiXGXyXbXaXMXPXLXIXIXLXPXFXjXPXa.X bXPX5.- s $ e.bX  jXg.$ 7 7 7 7 ; 1.h <.7.e.1.1.8.1.c a.1.> 7 7 7 7 7 7 7 7 7 7 ; 2.f 1.7.g 1.c 9.2.b u.V > 7 7 7 7 7 7 7 7 7 7 7 > 1.g 1.h <.1.N ; 9.7.<.e.3.B N _ ; 7 7 7 7 7 7 7 7 ; 1.f > 5.9.<.8.5.e.1.<.p.5.m 7.7 7 7 7 7 7 f ",
"U U U U U U U Y Y Y Y J < 7 7 7 x 7 7 7 j 9.8.8.8.8.8.8.u.u.u.u.u.u.u.p.p.p.i.i.i.i.i.i.i.i.f.f.f.f.f.f.f.g.g.g.j.j.h.h.h.h.h.h.tXtXtXtXtXtXtXtXuXuXuXuXyXyXyXyXyXyXyXyXyXyXaXyXN > 7 7 x 7 7 7 ; ; > ; 7 7 ; 7 7 7 * 7.IXKXFXLXPXLXIXIXJXJXLXKXGXLXLXIXJXJXIXJXKXLXJXLXLXLXLXLXIXDXgXPXJXcXIXPX3.- s $ e.bX  jXg.$ 7 7 7 7 7 ; 7 > ; ; ; ; ; > > ; ; 7 7 7 7 7 7 7 7 7 7 7 7 ; 7 ; ; 7 > > ; > > ; 7 7 7 7 7 7 7 7 7 7 7 7 7 7 ; 7 > 7 > ; > 7 ; > > ; ; > > > 7 7 7 7 7 7 7 7 7 7 ; 7 7 ; ; > ; ; ; ; ; ; ; > ; 7 7 7 7 7 7 7 ",
"U U U U U Y Y Y Y Y Y J < 7 7 7 x 7 7 7 j 7.9.9.9.8.8.8.8.8.8.8.e.u.u.u.u.u.u.u.p.p.p.i.i.i.i.i.i.i.i.f.f.f.f.f.f.f.g.g.g.j.j.h.h.h.h.h.h.h.tXtXtXtXtXtXtXtXtXuXuXuXuXuXuXuXyXuXV > 7 7 x 7 7 7 7 7 7 7 7 7 7 7 7 7 7 y ZXPXPXPXPXPXPXPXPXPXPXPXPXPXPXPXPXPXPXPXPXPXPXPXPXPXPXPXPXKXxXPXPXPXPXMX7 7 7 $ e.bX  jXg.$ 7 7 7 7 7 7 7 7 7 7 7 7 7 7 7 7 7 7 7 7 7 7 7 7 7 7 7 7 7 7 7 7 7 7 7 7 7 7 7 7 7 7 7 7 7 7 7 7 7 7 7 7 7 7 7 7 7 7 7 7 7 7 7 7 7 7 7 7 7 7 7 7 7 7 7 7 7 7 7 7 7 7 7 7 7 7 7 7 7 7 7 7 7 7 7 7 7 7 7 7 7 7 ",
"6 6 6 6 3 3 3 3 3 3 3 4 < 7 7 7 x 7 7 7 y j f j j j j j j j j j j h h h h h h h h h h h h h h h h h c c c c c b m m m m m m m m m m m m m m m m m m N N N N N N N N N N N N N V h 7 7 7 x 7 7 7 7 7 7 7 7 7 7 7 7 7 7 > f 9.8.8.e.8.e.e.8.8.e.8.8.8.e.e.8.8.e.8.8.8.8.e.e.e.e.8.e.5.1.e.8.8.9.7 > 7 7 $ e.bX  jXg.$ 7 7 7 7 7 7 7 7 7 7 7 7 7 7 7 7 7 7 7 7 7 7 7 7 7 7 7 7 7 7 7 7 7 7 7 7 7 7 7 7 7 7 7 7 7 7 7 7 7 7 7 7 7 7 7 7 7 7 7 7 7 7 7 7 7 7 7 7 7 7 7 7 7 7 7 7 7 7 7 7 7 7 7 7 7 7 7 7 7 7 7 7 7 7 7 7 7 7 7 7 7 7 ",
"7 7 7 7 7 7 7 7 7 7 7 7 7 7 7 7 x 7 7 7 7 7 7 7 7 7 7 7 7 7 7 7 7 7 7 7 7 7 7 7 7 7 7 7 7 7 7 7 7 7 7 > > 7 7 7 > > > > > > > > > > > > > > > > > > > > > > > > > > > > > > > > 7 7 7 7 x 7 7 7 7 7 7 7 7 7 7 7 7 7 7 7 7 * $ $ $ $ $ $ $ $ $ $ $ $ $ $ $ $ $ $ $ $ $ $ $ $ * $ $ - ; $ $ $ * 7 7 7 7 $ e.bX  jXg.$ 7 7 7 7 7 7 7 7 7 7 7 7 7 7 7 7 7 7 7 7 7 7 7 7 7 7 7 7 7 7 7 7 7 7 7 7 7 7 7 7 7 7 7 7 7 7 7 7 7 7 7 7 7 7 7 7 7 7 7 7 7 7 7 7 7 7 7 7 7 7 7 7 7 7 7 7 7 7 7 7 7 7 7 7 7 7 7 7 7 7 7 7 7 7 7 7 7 7 7 7 7 7 ",
"> 7 7 7 7 7 7 7 7 7 7 7 7 7 7 7 x 7 7 7 7 7 7 7 7 > > 7 7 7 7 7 7 7 7 7 7 7 7 7 7 7 7 7 7 7 7 7 7 7 7 7 7 7 > 7 7 7 7 7 7 7 7 7 7 7 7 7 7 7 7 7 7 7 7 > 7 7 7 7 7 7 7 7 7 7 7 7 7 7 7 7 x 7 7 7 7 7 7 7 7 7 > ; > 7 7 7 7 7 y y 7 7 7 7 7 7 7 7 7 7 7 7 7 7 7 7 7 7 7 7 y 7 > 7 y 7 7 7 7 7 7 7 7 7 7 $ e.bX  jXg.$ 7 7 7 7 7 7 7 7 7 7 7 7 7 7 7 7 7 7 7 7 7 7 7 7 7 7 7 7 7 7 7 7 7 7 7 7 7 7 7 7 7 7 7 7 7 7 7 7 7 7 7 7 7 7 7 7 > = 7 7 r r 7 > = > 7 7 7 7 7 7 7 7 7 7 7 7 7 7 7 7 7 7 7 7 7 7 7 7 7 7 7 7 7 7 7 7 7 7 7 7 ",
"f ; ; f c ; ; 7 7 7 7 7 7 7 7 7 x 7 7 7 7 7 7 7 7 m c > > 7 ; 7 7 ; 7 7 7 7 7 7 7 7 7 7 7 7 7 7 7 7 7 7 7 7 m f > 7 7 7 7 7 7 7 7 7 7 7 7 7 7 7 7 7 7 N g > ; 7 c > ; 7 7 7 7 7 7 7 7 7 x 7 7 7 7 7 7 7 7 7 c _ g ; > 7 ; 7 ; ; 7 7 7 7 7 7 7 7 7 7 7 7 7 7 7 7 7 7 7 7 > y _ y > 7 7 7 7 7 7 7 7 7 7 $ e.bX  jXg.$ 7 7 7 7 7 7 7 7 7 7 7 7 7 7 7 7 7 7 7 7 7 7 7 7 7 7 7 7 7 7 7 7 7 7 7 7 7 7 7 7 7 7 7 7 7 7 7 7 7 7 7 7 7 7 > > t ..o.oX|.{.oXo...t > 7 7 7 7 7 7 7 7 7 7 7 7 7 7 7 7 7 7 7 7 7 7 7 7 7 7 7 7 7 7 7 7 7 7 7 ",
"c c _ f c h <.f 7 7 7 7 7 7 7 7 x 7 7 7 7 7 7 ; _ 9.c f b 7 N s y N f 7 7 7 7 7 7 7 7 7 7 7 7 7 7 7 7 7 7 5.3.9.f 7 7 7 7 7 7 7 7 7 7 7 7 7 7 7 7 s 9.1.c f N s g f N g 7 7 7 7 7 7 7 7 x 7 7 7 7 7 7 7 7 > g.9.c m c f _ ; N _ s 7 7 7 7 7 7 7 7 7 7 7 7 7 7 7 7 7 7 7 s a.e.a.s 7 7 7 7 7 7 7 7 7 7 $ e.bX  jXg.$ 7 7 7 7 7 7 7 7 : : < : : , : 7 7 7 7 7 7 7 7 7 7 7 7 7 7 7 7 : : : : : : : , 7 7 7 7 7 7 7 7 7 7 7 7 7 7 > r | oXOXoXOX.X.XOXoXOXoX..7 > 7 7 7 7 7 7 7 7 7 7 7 7 7 7 7 9 7 = > = > > 7 7 7 7 7 7 7 7 7 7 7 ",
"m N f.u.9.s.i.u.; 7 7 7 7 7 7 7 x 7 7 7 7 7 7 ; _ 9.s e.<._ 8.7.5.7.8.; 7 7 7 7 7 7 7 7 7 7 7 7 7 7 7 > c 9.$ _ 1.; 7 7 7 7 7 7 7 7 7 7 7 7 7 7 ; _ <.f m f 7.5.1.5.7.7.7 7 7 7 7 7 7 7 x 7 7 7 7 7 7 7 7 > g.1.V uXN i.f.p.u.h.3.- 7 7 7 7 7 7 7 7 7 7 7 7 7 7 7 7 7 ; 1.u.  u.1.; 7 7 7 7 7 7 7 7 7 $ e.bX  jXg.$ 7 7 7 7 7 7 : u ( #.%X;.R.( p 7 , 7 7 7 7 7 7 7 7 7 7 7 7 , : p ( W.R.W.R.( p : 7 7 7 7 7 7 7 7 7 7 7 7 > } oX.X.XoX|.Y.| | o.{.oX.X|.oX| = 7 7 7 7 7 7 7 7 7 7 7 7 7 7 t H b.@.b.H t r 9 7 7 7 7 7 7 7 7 7 ",
"g.6.g.f.9.u.f a.; 7 7 7 7 7 7 7 x 7 7 7 7 7 7 ; _ 9.f 9.> 7.9.5.9.7 9.> 7 7 7 7 7 7 7 7 7 7 7 7 7 7 7 > c 9.$ %.1.; 7 7 7 7 7 7 7 7 7 7 7 7 7 7 ; _ 1.f e.<.7.8.1.5.f 5.f 7 7 7 7 7 7 7 x 7 7 7 7 7 7 7 7 > g.3.1.e.> iX9.!._ 1.5.- 7 7 7 7 7 7 7 7 7 7 7 7 7 7 7 7 7 ; <.p.  u.<.; 7 7 7 7 7 7 7 7 7 $ e.bX  jXg.$ 7 7 7 7 7 7 p W.<X>X4XW.>XW.%X;.u , 7 7 7 7 7 7 7 7 7 7 7 u #.<X>X4X>X,X<X,X,X( 7 7 7 7 7 7 7 7 7 7 7 > t  XOXoX..t @ . . . . @ t | oXOX Xt > 7 7 7 7 7 7 7 7 7 7 7 r @.n.m.n.b.n.m.n.b.t 7 7 7 7 7 7 7 7 7 ",
"p.s.a.p.7.8.c p.; 7 7 7 7 7 7 7 x 7 7 7 7 7 7 ; _ N $ 7.7 N 9.b 1.9.9.; 7 7 7 7 7 7 7 7 7 7 7 7 7 7 7 7 > 3.9.e.s 7 7 7 7 7 7 7 7 7 7 7 7 7 7 7 7 y 7.5.5.7.9.5.1.2.g 3.f 7 7 7 7 7 7 7 x 7 7 7 7 7 7 7 7 7 p.; m e.- u.e.V i.tX1.; 7 7 7 7 7 7 7 7 7 7 7 7 7 7 7 7 7 7 7 p.f.s.7 7 7 7 7 7 7 7 7 7 7 $ e.bX  jXg.$ 7 7 7 7 1 ;.<XW.<X,XW.#.R.%X%X,.%X( : 7 7 7 7 7 7 7 7 : y ,X>X>X<X%X;.R.>X4X%XW.R., , 7 7 7 7 7 7 7 > t oXoXoX..# . - , s s 5 - O . | |.|.|.t > 7 7 7 7 7 7 7 7 = t n.b.m.n.b.H b.m.n.b.n.b.= 7 7 7 7 7 7 7 ",
"7 f g 7 7 7 7 7 7 7 7 7 7 7 7 7 x 7 7 7 7 7 7 7 7 7 7 7 7 > g f 7 c 9.> 7 7 7 7 7 7 7 7 7 7 7 7 7 7 7 7 7 > m 7.7 7 7 7 7 7 7 7 7 7 7 7 7 7 7 7 7 7 7 c 7 7 f 7 7 7 7 7 7 7 7 7 7 7 7 7 x 7 7 7 7 7 7 7 7 7 y 7 7 7 7 7 N y > e.5.- 7 7 7 7 7 7 7 7 7 7 7 7 7 7 7 7 7 7 7 > 3.p.> 7 7 7 7 7 7 7 7 7 7 $ e.bX  jXg.$ 7 7 7 : R.W.4X%Xp > + o + 9 p R.>XR.#.: 7 7 7 7 7 7 : ( W.>X4X#.u + O + & a ;.>XW.,.u 7 7 7 7 7 7 7 > X.oXOX| . o s m M V K K M j C # t |.|...> 7 7 7 7 7 7 7 > H b.n.m.t r % X X ; t b.n.m.b.7 7 7 7 7 7 7 ",
"7 , , 7 7 7 7 7 7 7 7 7 7 7 7 7 x 7 7 7 7 7 7 7 7 7 7 7 7 7 7 7 7 7 c 7 7 7 7 7 7 7 7 7 7 7 7 7 7 7 7 7 7 7 > 7 7 7 7 7 7 7 7 7 7 7 7 7 7 7 7 7 7 7 7 > 7 7 7 7 7 7 7 7 7 7 7 7 7 7 7 7 x 7 7 7 7 7 7 7 7 7 7 7 7 7 7 7 9 7 ; c c > 7 7 7 7 7 7 7 7 7 7 7 7 7 7 7 7 7 7 7 7 ; 8 7 7 7 7 7 7 7 7 7 7 7 $ e.bX  jXg.$ 7 7 , i ,X4X%X7 O o , i.b O O u R.>XW.7 7 7 7 7 7 7 : R.4X<X#.+ O - , < - , & #.>X>X#.: 7 7 7 7 7 > | .X X..# o d M M V V K T M dXnXj . | o. X| > 7 7 7 7 7 7 7 b.n.m.t X o - < < o . ; b.n.n.t > 7 7 7 7 7 ",
"9 9 9 9 9 7 7 7 7 7 7 7 7 7 7 7 x 7 7 7 7 7 7 7 7 7 7 7 > > > > 7 7 > 7 7 7 7 7 7 7 7 7 7 7 7 7 7 7 7 7 7 > 7 > 7 7 7 7 7 7 7 7 7 7 7 7 7 7 7 7 7 7 7 7 7 > > > > 7 7 7 7 7 7 7 7 7 7 7 x 7 7 7 7 7 7 7 7 7 7 7 7 , < , < , 7 9 7 7 7 7 7 7 7 7 7 7 7 7 7 7 7 7 7 7 7 7 , < , < , 7 7 7 7 7 7 7 7 7 7 $ e.bX  jXg.$ 7 7 7 %X%XW.u O > d 4.LXi.d , O p ,.R.,.: 7 7 7 7 : ;.>XW.;.O o s m M m dXyXo + ;.;.R.p , 7 7 7 7 = Y.OX.X; o s C M M M V T z yXPXuXs & *  X.XY.> 7 7 7 7 7 > b.m.b.t . - d C M M m 5 O : b.b.m.r 7 7 7 7 : ",
"6 Y I Y J 9 9 7 7 7 7 7 7 7 7 7 x 7 7 7 7 7 7 7 7 7 > 7 c m c m y > 7 7 7 7 7 7 7 7 7 7 7 7 7 7 7 7 > 7 f m c N f 7 > 7 7 7 7 7 7 7 7 7 7 7 7 7 7 7 7 > y m c m c 7 > 7 7 7 7 7 7 7 7 7 x 7 7 7 7 7 7 7 7 7 7 , , i { ( { ( 7 < 7 7 7 7 7 7 7 7 7 7 7 7 7 7 7 7 7 7 , , ( { ( { p , , 7 7 7 7 7 7 7 7 $ e.bX  jXg.$ y , u >X4X#.O ; z C 7.IXk.M M - O #.>XW.7 7 7 7 7 < ,.4X>X+ o s C V C u.PXD., o : W.>X#.: 7 7 7 7 7 Y.oX X. - z M M M M V C g.PXdXC K , . ..|.o.r 7 7 7 7 7 9 b.n.b.# 1 h M V V T 4.K 5 X t n.n.t > 7 7 7 : ",
"B.S.Z.S.Z.A.B.9 9 7 7 7 7 7 7 7 x 7 7 7 7 7 7 7 > 7 3.1.9.8.7.u.1.7.f > 7 7 7 7 7 7 7 7 7 7 7 7 7 > V 7.2.i.3.i.3.7.N > 7 7 7 7 7 7 7 7 7 7 7 7 7 > g 7.<.u.7.e.9.3.2.7 7 7 7 7 7 7 7 7 x 7 7 7 7 7 7 7 7 , < ( ].T.`.E.'.].E.T., : 7 7 7 7 7 7 7 7 7 7 7 7 7 7 , , T.E.E.`.E.`.E.].( < , 7 7 7 7 7 7 $ e.bX  jXg.$ y : ;.,X<Xu O d M z 8.IXp.C <.h O p %XR.( : 7 7 , i %X<XR.O < m M M M JXFXM M - + R.%X;.7 7 7 7 > t oXOX| . 5 C C C M V C 8.IXzXC T T h . t |.|.} > 7 7 7 > t m.n.H . 5 C M M V M z C d O ; m.m.H > 7 7 : P ",
"S.A.B.A.S.S.Z.Z.I 9 7 7 7 7 7 7 x 7 7 7 7 7 7 > _ 3.7.i.u.5.2.u.p.8.1.3.7 7 7 7 7 7 7 7 7 7 7 > c 7.1.i.u.8.<.8.u.i.1.5.h > 7 7 7 7 7 7 7 7 7 7 7 3.1.8.p.u.1.7.u.i.7.3.N > 7 7 7 7 7 7 x 7 7 7 7 7 7 7 , i E.E.'.`.'.T.].'.`.E.E.{ < 7 7 7 7 7 7 7 7 7 7 7 7 < { ].E.`.`.].T.'.`.`.T.E.i , 7 7 7 7 7 $ e.bX  jXg.$ y < R.4X%X& * h C C <.s.4.V T C * ; R.>X#.: 7 7 : p <X<X( O s C C M V aXu.C T 3 O #.>XR.7 7 7 7 > } oXoXt . s C C C M M M T f.T V K T z o 7 {.|.| > 7 7 7 > H n.m.r o d C C M C 9.aXdXaX4.% b.n.b.= 7 7 : P ",
"I 3 ; , I ^ Z.S.B.6 9 7 7 7 7 7 x 7 7 7 7 7 7 c 5.i.<.N f ; ; 7 N V u.u.V 7 7 7 7 7 7 7 7 7 7 g _ i.7.V c > ; > c V 7.i.1.f 7 7 7 7 7 7 7 7 7 s N 8.u.V N 7 ; ; f V <.8.<.g 7 7 7 7 7 7 x 7 7 7 7 7 7 , i { '.].{ { w ; 9 ( { T.`.E.( , 7 7 7 7 7 7 7 7 7 7 7 ( T.`.E.{ ( 9 ; 9 { { ].`.T.i , 7 7 7 7 $ e.bX  jXg.$ y : ;.%XR.+ - h C C C z M V V C * - ;.R.( : 7 7 , i W.%Xp O s C C M M z M V V s O ( R.;.7 7 7 7 > t {.{.r O j C C C C M M M z V V V K z o 9 o.Y.t > 7 7 7 > t b.b.: o d C C M z k.LXJXKX8.o H b.H 9 7 7 : P ",
"X o o o O X J Z.A.Z.y 7 7 7 7 7 x 7 7 7 7 > c p.u.5.7 X O o o O O ; <.8.i._ ; 7 7 7 7 7 7 7 7 9.u.8.b $ O O o O   $ m 8.p.9.7 7 7 7 7 7 7 7 ; _ i.8.<.; O O o o O   7 %.3.3.f 7 7 7 7 7 x 7 7 7 7 7 7 < E.`.'.U.1 O o o o O + ( ].`.'.i , 7 7 7 7 7 7 7 7 , i '.`.].( + O o o o O 1 { '.`.E.< 7 7 7 7 $ e.bX  jXg.$ y 1 R.4X>X& o h C C C M M M V h o > %X>X#.: 7 7 : p <X4X#.O , m C C M M M M M , O ;.>XW.7 7 7 7 > } OXOX} . s m m C C C M M V V V V V h o r |..X| > 7 7 7 = H n.n.r X s m C C M M T V m 1 * b.m.H > 7 7 : P ",
"5 h C h M 0.% 6 Z.^ I 9 7 7 7 7 x 7 7 7 7 s <.3.7.> O 1 , s j s - O $ 2.5.1.f 7 7 7 7 7 7 7 V 2.9.c O o < s d s , o O m 9.1.N > 7 7 7 7 7 7 h 1.7.1.$ O - 5 j s s V - > <.V N 7 7 7 7 7 x 7 7 7 7 7 , ( E.].T.+ o , h m m d ; O i ].E.T.7 7 7 7 7 7 7 7 7 7 T.E.].p O * s z m c s o + U.].E.( , 7 7 7 $ e.bX  jXg.$ y , ( %X<Xp O 3 z m C C C M C 3 O ( >XR.p , 7 7 7 7 ,.<XW.+ * h m C C C M M h o & W.%X#., 7 7 7 > t |.OXX.. , z m m C C C M M M M M M s . } |. Xt > 7 7 7 7 r b.n.H . < z m C C C C C j o r b.b.t 7 7 7 7 u ",
"C V M T KXcX1 % J Z.Z.5 9 7 7 7 x 7 7 7 > c i.9.s O - s h h z z h , O ; 1.i.<.; 7 7 7 7 7 7 8.u.N o o 3 d h h z m s o $ N u.8.7 7 7 7 7 7 ; <.i.2.; O < d h h d -XdX, O y <.5.g 7 7 7 7 x 7 7 7 7 7 < E.`.T.1 o s C V V T T h o O ( ].].p , 7 7 7 7 7 7 , i '.'.( + - h M V K T T h o 1 U.`.E.: 7 7 7 $ e.bX  jXg.$ y 7 u <X<X#.+ o s z m C C C s o & #.%XW.7 7 7 7 7 < R.4X%X: O < h m C C C h - O u R.>X( : 7 7 7 7 > Y.OX|.# o d m m C C C C M M M M m - o o..Xo.> 7 7 7 7 7 > b.n.b.= O , h m C C C h 1 o t b.m.t 7 7 7 7 : ",
"M M M xXIX8.s o 5 Z.B.6 9 7 7 7 x 7 7 7 7 N 9.9.- o 5 h h h h z m h - X <.u._ 7 7 7 7 7 7 h 3.u.g   < d h h h d d d < O g u.3.f 7 7 7 7 7 y _ u.<.X * s h h d u.mX8.5 o - <.1.h 7 7 7 7 x 7 7 7 7 , i T.`.{ O , m M M V C K h.iXm ; E.T.( , 7 7 7 7 7 7 , ( ].'.w O s M M M V T T K y O { `.T.i , 7 7 $ e.bX  jXg.$ 7 7 : ;.%X,X#.O o , s d s , o + #.W.R.( : 7 7 7 7 , p W.>X%X+ O - 5 d d 5 - O 7 W.R.;.7 7 7 7 7 7 = o.OX.Xr O < h m m m C C C C M C 5 O > Y..Xo.> 7 7 7 7 7 > H b.m.b.# O < s d d , o X t b.b.H 7 7 7 7 7 : ",
"M C 4.JXh.m M - * B.A.Y 9 7 7 7 x 7 7 7 7 9.i._ X - j d d h h d d h , O c p.e.f 7 7 7 7 ; _ i.9.- o 5 d d h d 4.p.h.h.h ; 3.9.m > 7 7 7 7 g u.u.h O < d d h d yXj.d h - o N 7._ 7 7 7 7 x 7 7 7 7 < ( `.'.i O s C C M C s.JXPXbXh + U.].U., 7 7 7 7 7 7 < E.`.E.+ - h C M M V M T T h o w '.`.( < 7 7 $ e.bX  jXg.$ 7 7 7 7 ,X4X,X;.& o O o o o - #.%X%XR.: 7 7 7 7 7 7 < ,.4X<X%X7 o O o o o o u R.%X>X( : 7 7 7 7 7 > t  X{.{.- O , h m m C C C C z 5 O # o.Y.o.t > 7 7 7 7 7 7 = b.n.n.b.; o O o o o * t b.m.b.r 7 7 7 7 7 7 ",
"C M M <.V K M < $ I B.I 9 7 7 7 x 7 7 7 7 _ 3.c O - d d d d h i.8.m , O s 2.1.f 7 7 7 7 > m 3._ $ o s d d h s f.MXaXf.s - m V g 7 7 7 7 7 f 1.1.7 O , d d h d z h h h < X h V m 7 7 7 7 x 7 7 7 7 , ( E.T.9 o d C C M z s.nXe.C - o ( T.{ , 7 7 7 7 7 7 , { E.{ + - z C C M M 0.M M m o 9 T.E.( , 7 7 $ e.bX  jXg.$ 7 7 7 : p W.4X%X: 7 > ; > 7 , R.>X;.u 7 7 7 7 7 7 7 7 7 ;.<X4Xp , 7 ; ; 7 : ( >XR.( 7 7 7 7 7 7 7 7 = | OXOX X# O - 5 d h h h s - O # ...X.X| = 7 7 7 7 7 7 7 7 r b.n.m.7 7 > ; > 7 9 H m.H t 7 7 7 7 7 7 7 ",
"C C M C M V C - $ B.A.Y 9 7 7 7 x 7 7 7 7 7.p.B O - s d d d m aXbXcX9.o g u.8.f 7 7 7 7 > _ i.5.- o 5 d d d d h m d , O ; <.3.c > 7 7 7 7 f u.u.f O < d d d h d h h h - X m 3._ 7 7 7 7 x 7 7 7 7 < ( `.'.w O s m C C M C z C C < o { ].U., 7 7 7 7 7 7 < E.`.T.+ - h C C m 4.LXbX<.d o w ].`.( < 7 7 $ e.bX  jXg.$ 7 7 7 7 : ( >Xp : 7 7 7 7 7 : ( R.p : 7 7 7 7 7 7 7 7 7 : W.R.< 7 7 7 7 7 7 : R.;.: 7 7 7 7 7 7 7 7 7 > {..XoX{.7 o O o * 1 o O o 7 o.|. XY.7 7 7 7 7 7 7 7 7 7 7 r m.H = 7 7 7 7 7 7 r b.A > 7 7 7 7 7 7 7 ",
"m C C M M M d o 3 Z.B.I 9 7 7 7 x 7 7 7 7 V 8.3.$ o 5 d d d d d <.p.3.- V u.2.s 7 7 7 7 > c 7.8.7 O , d d d d d d h , O y 3._ g 7 7 7 7 7 s 1.u.B O - s d d d d h h s o $ <.1.m 7 7 7 7 x 7 7 7 7 , p E.`.( O , z m C C M M V h o ; E.E.( , 7 7 7 7 7 7 , { ].].; o d m C C M j.IXJXM   { `.E.( , 7 7 $ e.bX  jXg.$ 7 7 7 7 7 : : 7 7 7 7 7 7 7 7 7 , , 7 7 7 7 7 7 7 7 7 7 7 : 7 7 7 7 7 7 7 7 7 , : 7 7 7 7 7 7 7 7 7 7 7 = Y.OXoX} , 7 ; - - - > 7 r |..Xo.> 7 7 7 7 7 7 7 7 7 7 7 7 > 7 7 7 7 7 7 7 7 7 7 7 7 7 7 7 7 7 7 7 ",
"m C C C M z < X 6 A.Z.5 9 7 7 7 x 7 7 7 > c p.8.> O - s d d d d s - O - V 7.N > 7 7 7 7 7 7 9.i.b O o 3 d d d d h s o o h 5.<.7 7 7 7 7 7 > <.i.3.$ O < s d d d d d - O 7 1.3.g 7 7 7 7 x 7 7 7 7 7 : E.`.T.+ o s m C C C M z < O i E.E.p , 7 7 7 7 7 7 , p '.`.p O - h m C C d 4.dX3.+ T.`.E., 7 7 7 $ e.bX  jXg.$ 7 7 7 7 7 7 7 7 7 7 7 7 7 7 7 7 7 7 7 7 7 7 7 7 7 7 7 7 7 7 7 7 7 7 7 7 7 7 7 7 7 7 7 7 7 7 7 7 7 7 7 7 7 7  XY.= 7 7 7 7 7 7 7 7 > | Y.7 7 7 7 7 7 7 7 7 7 7 7 7 7 7 7 7 7 7 7 7 7 7 7 7 7 7 7 7 7 7 7 7 7 ",
"s h z h d <   5 ^ ^ ^ 7 7 7 7 7 x 7 7 7 7 f 5.2.<.-   - , s s s < o o c N V g 7 7 7 7 7 7 7 <.3.2.s   o , s s s , o O s B V N 7 7 7 7 7 7 > m 5.2.N X O < 5 s s 5 - O ; N N _ s 7 7 7 7 x 7 7 7 7 7 < { E.E.( O o 5 h z h d < O 9 { { T.7 7 7 7 7 7 7 7 7 7 E.E.T.9   - s h z z , o + ( T.E.{ < 7 7 7 $ e.bX  jXg.$ 7 7 7 7 7 7 7 7 7 7 7 7 7 7 7 7 7 7 7 7 7 7 7 7 7 7 7 7 7 7 7 7 7 7 7 7 7 7 7 7 7 7 7 7 7 7 7 7 7 7 7 7 7 7 > 7 7 7 7 7 7 7 7 7 7 7 > > 7 7 7 7 7 7 7 7 7 7 7 7 7 7 7 7 7 7 7 7 7 7 7 7 7 7 7 7 7 7 7 7 7 7 ",
"o o - 1 o o 5 B.A.Z.s 9 7 7 7 7 x 7 7 7 7 > m p.p._ ; X O o o o O - c 3.7.m > 7 7 7 7 7 7 7 7 8.i.7.y o O o o o O o y <.7.<.7 7 7 7 7 7 7 7 > <.i.8.b * O O o o O X ; N 3.3.f 7 7 7 7 7 x 7 7 7 7 7 7 , E.`.].( o o o - - o o 9 U.].E.i , 7 7 7 7 7 7 7 7 , / '.`.E.9 o o * - o o & p E.'.E., 7 7 7 7 $ e.bX  jXg.$ 7 7 7 7 7 7 7 7 7 7 7 7 7 7 7 7 7 7 7 7 7 7 7 7 7 7 7 7 7 7 7 7 7 7 7 7 7 7 7 7 7 7 7 7 7 7 7 7 7 7 7 7 7 7 7 7 7 7 7 7 7 7 7 7 7 7 7 7 7 7 7 7 7 7 7 7 7 7 7 7 7 7 7 7 7 7 7 7 7 7 7 7 7 7 7 7 7 7 7 7 7 7 ",
"> - $ - > 9 ^ A.^ I 9 7 7 7 7 7 x 7 7 7 7 7 7 <.7.i.N > ; $ $ - > f 3.<.N f 7 7 7 7 7 7 7 7 7 N 5.p.5.7 > - $ - > 7 _ 3.B h 7 7 7 7 7 7 7 7 7 f 3.8.u.f > - $ * ; > c 7.V m 7 7 7 7 7 7 x 7 7 7 7 7 7 , ( E.'.'.u > - $ - ; < { ].U.{ 7 7 7 7 7 7 7 7 7 7 7 , T.E.`.T.< ; * $ - > 7 E.E.{ ( , 7 7 7 7 $ e.bX  jXg.$ 7 7 7 7 7 7 7 7 7 7 7 7 7 7 7 7 7 7 7 7 7 7 7 7 7 7 7 7 7 7 7 > ; 7 7 > ; 7 7 > 7 7 7 7 7 7 7 7 7 7 7 7 7 7 7 7 > ; 7 7 > 7 7 > ; 7 > ; 7 7 7 7 7 7 7 7 7 7 7 7 7 7 7 7 > 7 7 ; 7 7 7 ; 7 7 7 7 7 7 7 7 7 7 ",
"y 7 7 7 7 9 6 A.I 9 7 7 7 7 7 7 x 7 7 7 7 7 7 > 3.8.7 7 7 7 7 7 7 7 V <.7 7 7 7 7 7 7 7 7 7 7 > m u.m > 7 7 7 7 7 > c 3.g > 7 7 7 7 7 7 7 7 7 7 s 8.3.> 7 7 7 7 7 7 7 1.B > 7 7 7 7 7 7 x 7 7 7 7 7 7 7 < ( '.T.< 7 7 7 7 7 , i E.{ < 7 7 7 7 7 7 7 7 7 7 7 7 < T.'.( , 7 7 7 7 7 < { E.i < 7 7 7 7 7 $ e.bX  jXg.$ 7 7 7 7 7 7 7 7 7 7 7 7 7 7 7 7 7 7 7 7 7 7 7 7 7 7 7 7 7 7 > g _ 7 7 c 1.g > c 7 7 7 7 7 7 7 7 7 7 7 7 7 7 7 7 g <.7 7 c 7 7 c 1.s m N > 7 7 7 7 7 7 7 7 7 7 7 7 7 7 7 c 7 f _ 7 7 f _ 7 7 7 7 7 7 7 7 7 7 ",
"7 7 7 7 7 7 7 d 7 7 7 7 7 7 7 7 x 7 7 7 7 7 7 7 7 f 7 7 7 7 7 7 7 7 7 y 7 7 7 7 7 7 7 7 7 7 7 7 7 f 7 7 7 7 7 7 7 7 7 s 7 7 7 7 7 7 7 7 7 7 7 7 7 y s 7 7 7 7 7 7 7 7 s 7 7 7 7 7 7 7 7 x 7 7 7 7 7 7 7 7 , i 8 , 7 7 7 7 7 7 , i 7 7 7 7 7 7 7 7 7 7 7 7 7 7 7 , p , 7 7 7 7 7 7 7 7 i , 7 7 7 7 7 7 $ e.bX  jXg.$ 7 7 7 7 7 7 7 7 7 7 7 7 7 7 7 7 7 7 7 7 7 7 7 7 7 7 7 7 7 > 7 u.i.1.$ j.e.7 c dXf 7 7 7 7 7 7 7 7 7 7 7 7 7 7 ; _ p.9.7.!.; > h.7.V p.p.b > 7 7 7 7 7 7 7 7 7 7 7 7 > c aXc e.f.1.- u.f.3.; 7 7 7 7 7 7 7 7 ",
"7 7 7 7 7 7 7 9 7 7 7 7 7 7 7 7 x 7 7 7 7 7 7 7 7 7 7 7 7 7 7 7 7 7 7 7 7 7 7 7 7 7 7 7 7 7 7 7 7 7 7 7 7 7 7 7 7 7 7 7 7 7 7 7 7 7 7 7 7 7 7 7 7 7 7 7 7 7 7 7 7 7 7 7 7 7 7 7 7 7 7 7 x 7 7 7 7 7 7 7 7 7 , 7 7 7 7 7 7 7 7 7 , 7 7 7 7 7 7 7 7 7 7 7 7 7 7 7 7 , 7 7 7 7 7 7 7 7 7 , 7 7 7 7 7 7 7 $ e.bX  jXg.$ 7 7 7 7 7 7 7 7 7 7 7 7 7 7 7 7 7 7 7 7 7 7 7 7 7 7 7 7 7 f b i.1.i.$ u.i.B 5.a.f 7 7 7 7 7 7 7 7 7 7 7 7 7 f g $ N u.f i.> > u.u.e.9.8.5.- 7 7 7 7 7 7 7 7 7 7 7 7 7 > e.<.8.g u.7 p.f i.; 7 7 7 7 7 7 7 7 ",
"7 7 7 7 7 7 7 7 7 7 7 7 7 7 7 7 x 7 7 7 7 7 7 7 7 7 7 7 7 7 7 7 7 7 7 7 7 7 7 7 7 7 7 7 7 7 7 7 7 7 7 7 7 7 7 7 7 7 7 7 7 7 7 7 7 7 7 7 7 7 7 7 7 7 7 7 7 7 7 7 7 7 7 7 7 7 7 7 7 7 7 7 x 7 7 7 7 7 7 7 7 7 7 7 7 7 7 7 7 7 7 7 7 7 7 7 7 7 7 7 7 7 7 7 7 7 7 7 7 7 7 7 7 7 7 7 7 7 7 7 7 7 7 7 7 7 7 $ e.bX  jXg.$ 7 7 7 7 7 7 7 ; > 7 - > 7 7 > ; 7 7 7 7 7 7 7 7 7 7 7 7 7 9._ V h.8.> * m aXf.iXV ; 7 7 7 7 7 7 7 7 7 7 7 > 1.5.f p.7 y a.> f $ _ i.1.tX_ ; 7 7 7 7 7 7 7 7 7 7 7 7 7 * u._ e.N p.7 p.m i.; 7 7 7 7 7 7 7 7 ",
"7 > ; 7 7 7 7 > > - > 7 7 7 7 7 x 7 7 7 7 7 ; > 7 ; 7 > > 7 ; 7 7 7 7 7 7 7 7 7 7 7 7 7 7 7 7 7 7 7 7 7 7 7 7 ; 7 7 ; 7 7 7 7 7 7 7 7 7 7 7 7 > > 7 7 ; 7 7 ; 7 7 7 7 > 7 ; > 7 7 7 7 7 x 7 7 7 7 7 7 > ; 7 ; > 7 - > 7 > 7 7 > 7 > 7 7 7 7 7 7 7 7 7 7 7 7 7 7 7 7 ; ; 7 7 > ; 7 ; ; 7 7 7 7 7 7 7 7 $ e.bX  jXg.$ 7 7 7 7 7 7 > 7.V f i.V > > N 5.; 7 7 7 7 7 7 7 7 7 7 7 7 ; ; 1.u._ 7.5.s.1.c f.c > 7 7 7 7 7 7 7 7 7 7 7 7 > $ i.!.1.f e.b 7.5.f.V 5.e.7 7 7 7 7 7 7 7 7 7 7 7 7 7 7 ; e.c 7.g.5.3.5.h._ ; 7 7 7 7 7 7 7 7 ",
"7 g _ > 7 ; 7 3.g 5.c > 7 7 7 7 x 7 7 7 7 7 m g f N > c c > N f > f f 7 f ; ; 7 7 7 7 7 7 7 7 7 7 7 7 f f > y N 7 g N 7 7 7 7 7 7 7 7 7 7 7 > c b 7 7 N f 7 N 7 7 7 ; _ f V c 7 7 7 7 7 x 7 7 7 7 7 > m _ 7 1.c f 3.b ; c f 7 c 7 g s * ; 7 7 7 7 7 7 7 7 7 7 7 7 7 V %.7 > h _ f 1.1.f 7 7 7 7 7 7 7 $ e.bX  jXg.$ 7 7 7 7 7 7 7 g.5.7.9.p.y ; s.g.* 7 7 7 7 7 7 7 7 7 7 7 7 7 7 g s 7 7 f f ; ; > 7 7 7 7 7 7 7 7 7 7 7 7 7 7 7 7 y g g 7 7 7 7 f f > c 7 7 7 7 7 7 7 7 7 7 7 7 7 7 7 7 7 7 7 7 f > 7 7 f > 7 7 7 7 7 7 7 7 7 ",
"8.u.s.<.- c e.p.e.8.s.f 7 7 7 7 x 7 7 7 ; V 7.g 5.7.1.7.5.1.9.5.; %.B 7 7.N _ s 7 7 7 7 7 7 7 7 7 7 > p.<.- 3.9.1.5.9.m > 7 7 7 7 7 7 7 7 > c 9.c ; N 9.3.3.9.<.; f _ 9.<.5.7.m > 7 7 7 x 7 7 7 7 > g a.p.7.9.u.a.i.g 7 aXV - s.* 5.7.1._ > 7 7 7 7 7 7 7 7 7 7 7 7 <.i.2.> p.u.9._ tX%.; 7 7 7 7 7 7 $ e.bX  jXg.$ 7 7 7 7 7 7 ; _ 5.8.s p.7 1.u.e.; 7 7 7 7 7 7 7 7 7 7 7 7 7 7 > 7 7 ; 7 ; 7 7 7 7 7 7 7 7 7 7 7 7 7 7 7 7 7 7 7 7 > > 7 > 7 > ; 7 7 > 7 7 7 7 7 7 7 7 7 7 7 7 7 7 7 7 7 7 7 7 7 7 7 7 7 7 7 7 7 7 7 7 7 7 7 ",
"!.e.c u.; a.u.p.e.i.a.7 7 7 7 7 x 7 7 7 > 9.7.3.1.s s.c B i.7 5.7 V 8.3.7.c i.f 7 7 7 7 7 7 7 7 7 > N 7.N > 7.7 p.<.c 3.; 7 7 7 7 7 7 7 7 ; 3.8.<.; 3.g 3.e.7 7.; 3.3.9.%.9.7.c > 7 7 7 x 7 7 7 7 7 7 f.!.f > i.7.a.<.1.a.N $ j.8.h.<.p.i.- 7 7 7 7 7 7 7 7 7 7 7 > c j.V 7 a.1.p.$ p.7 7 7 7 7 7 7 7 $ e.bX  jXg.$ 7 7 7 7 7 7 - 3.7.5.9.i._ e.!.iX> 7 7 7 7 7 7 7 7 7 7 7 7 7 7 7 > f N 7 c 7 7 7 7 7 7 7 7 7 7 7 7 7 7 7 7 7 7 7 7 7 7 ; N f f g > 7 7 7 7 7 7 7 7 7 7 7 7 7 7 7 7 7 7 7 7 > > > 7 7 > > 7 7 7 7 7 7 7 7 7 7 ",
"h.e._ e.7 i.f p.e.5.a.b > 7 7 7 x 7 7 7 > 9.g e.5.c i.N _ p.g 7.7 _ 5.N 5.V N ; 7 7 7 7 7 7 7 7 7 s e.u.9.7 5.g u.1.N 1.; 7 7 7 7 7 7 7 7 ; 5.m 7.f 1.m 3.e.g 7.> 9.s 5.1.1.3.V ; 7 7 7 x 7 7 7 7 > m e.8.3.9._ $ 7 yXh.uXe.$ j._ i.1.9.7 7 7 7 7 7 7 7 7 7 7 7 7 7 y e.8.; _ h.7.1.8.- 7 7 7 7 7 7 7 $ e.bX  jXg.$ 7 7 7 7 7 7 > m N s p.V 1.7 s <.> 7 7 7 7 7 7 7 7 7 7 7 7 7 7 7 7 5.e.e.i.u.7 7 7 7 7 7 7 7 7 7 7 7 7 7 7 7 7 7 7 7 7 s i.5.s.p.1.; 7 7 7 7 7 7 7 7 7 7 7 7 7 7 7 7 7 7 7 g g g f ; c c 7 7 7 7 7 7 7 7 7 7 ",
"1.9.j.N ; 8.g.9.9.s.p.f 7 7 7 7 x 7 7 7 > N 8._ 1.8.m 7.5.m 8.1.; V N 7 3.e.5.s 7 7 7 7 7 7 7 7 7 7 f 1.3._ V e.N 1.8.g 7 7 7 7 7 7 7 7 7 > c 9.1.<.m 8.1.B e.V ; _ 9.7.V 9.7.c > 7 7 7 x 7 7 7 7 7 f p.u.u.uX9.5.s.5.f p.<.; u.; %.i.-X1.> 7 7 7 7 7 7 7 7 7 7 7 f 9.p.9.3._ i.f e.c > 7 7 7 7 7 7 7 $ e.bX  jXg.$ 7 7 7 7 7 7 7 > > 7 - > ; 7 7 ; 7 7 7 7 7 7 7 7 7 7 7 7 7 7 7 7 p.h.e.u.7.a.7 7 7 7 7 7 7 7 7 7 7 7 7 7 7 7 7 7 7 ; _ a.!.5.p.8.9.; 7 7 7 7 7 7 7 7 7 7 7 7 7 7 7 7 7 ; N !.g.f.u.<.!.V > 7 7 7 7 7 7 7 7 7 ",
"> 7 s > 7 7 f 7 7 g 7 > 7 7 7 7 x 7 7 7 7 7 y 7 7 y > 7 7 > y 7 7 7 7 7 7 7 f 7 7 7 7 7 7 7 7 7 7 7 > > 7 7 7 y > 7 7 7 7 7 7 7 7 7 7 7 7 7 7 y 7 7 7 7 7 > y 7 7 7 y 7 7 f 7 > 7 7 7 7 x 7 7 7 7 7 > 7 f 7 f f s f > > > > 7 7 7 7 7 f f 7 7 7 7 7 7 7 7 7 7 7 7 7 f f > 7 f y > 7 7 7 7 7 7 7 7 7 7 $ e.bX  jXg.$ 7 7 7 7 7 7 7 7 7 7 7 7 7 7 7 7 7 7 7 7 7 7 7 7 7 7 7 7 7 7 ; N e.g e.p.e.i.s 7 7 7 7 7 7 7 7 7 7 7 7 7 7 7 7 7 7 - e.m 5.7.s.e.9.; 7 7 7 7 7 7 7 7 7 7 7 7 7 7 7 7 7 ; _ 9.3.<.9._ 8.1.> 7 7 7 7 7 7 7 7 7 ",
"7 7 7 7 7 7 7 7 7 > 7 7 7 7 7 7 x 7 7 7 7 7 7 7 7 7 7 7 7 7 7 7 7 7 7 7 7 7 7 7 7 7 7 7 7 7 7 7 7 7 7 7 7 7 7 7 7 7 7 7 7 7 7 7 7 7 7 7 7 7 7 7 7 7 7 7 7 7 7 7 7 7 7 7 7 7 7 7 7 7 7 7 x 7 7 7 7 7 7 7 7 7 7 7 7 7 7 7 7 7 7 7 7 7 7 7 7 7 7 7 7 7 7 7 7 7 7 7 7 7 7 7 7 7 7 7 7 7 7 7 7 7 7 7 7 7 7 $ e.bX  jXg.$ 7 7 7 7 7 7 7 7 7 7 7 7 7 7 7 7 7 7 7 7 7 7 7 7 7 7 7 7 7 7 7 s i.f.e.p.9.s.f 7 7 7 7 7 7 7 7 7 7 7 7 7 7 7 7 7 7 ; <.i.j.5.s.8.e.; 7 7 7 7 7 7 7 7 7 7 7 7 7 7 7 7 7 ; _ 9.5.1.8.V e.s.; 7 7 7 7 7 7 7 7 7 ",
"7 7 7 7 7 7 7 7 7 7 7 7 7 7 7 7 x 7 7 7 7 7 7 7 7 7 7 7 7 7 7 7 7 7 7 7 7 7 7 7 7 7 7 7 7 7 7 7 7 7 7 7 7 7 7 7 7 7 7 7 7 7 7 7 7 7 7 7 7 7 7 7 7 7 7 7 7 7 7 7 7 7 7 7 7 7 7 7 7 7 7 7 x 7 7 7 7 7 7 7 7 7 7 7 7 7 7 7 7 7 7 7 7 7 7 7 7 7 7 7 7 7 7 7 7 7 7 7 7 7 7 7 7 7 7 7 7 7 7 7 7 7 7 7 7 7 7 $ i.cX  aX!.$ 7 7 7 7 7 7 7 7 7 7 7 7 7 7 7 7 7 7 7 7 7 7 7 7 7 7 7 7 7 7 7 > g _ s c 1.g > 7 7 7 7 7 7 7 7 7 7 7 7 7 7 7 7 7 7 7 > N N 7 _ _ 7 7 7 7 7 7 7 7 7 7 7 7 7 7 7 7 7 7 7 7 s f f f f f _ f 7 7 7 7 7 7 7 7 7 7 ",
"7 7 7 7 7 7 7 7 7 7 7 7 7 7 7 y c 7 7 7 7 7 7 7 7 7 7 7 7 7 7 7 7 7 7 7 7 7 7 7 7 7 7 7 7 7 7 7 7 7 7 7 7 7 7 7 7 7 7 7 7 7 7 7 7 7 7 7 7 7 7 7 7 7 7 7 7 7 7 7 7 7 7 7 7 7 7 7 7 7 7 7 c y 7 7 7 7 7 7 7 7 7 7 7 7 7 7 7 7 7 7 7 7 7 7 7 7 7 7 7 7 7 7 7 7 7 7 7 7 7 7 7 7 7 7 7 7 7 7 7 7 7 7 7 7 y X zX!.  a.vXX y 7 7 7 7 7 7 7 7 7 7 7 7 7 7 7 7 7 7 7 7 7 7 7 7 7 7 7 7 7 7 7 7 > 7 7 ; 7 7 7 7 7 7 7 7 7 7 7 7 7 7 7 7 7 7 7 7 7 7 > > 7 > ; 7 7 7 7 7 7 7 7 7 7 7 7 7 7 7 7 7 7 7 7 7 7 7 7 7 7 ; 7 7 7 7 7 7 7 7 7 7 7 ",
"$ $ $ $ $ $ $ $ $ $ $ $ $ $ $ $ ; $ $ $ $ $ $ $ $ $ $ $ $ $ $ $ $ $ $ $ $ $ $ $ $ $ $ $ $ $ $ $ $ $ $ $ $ $ $ $ $ $ $ $ $ $ $ $ $ $ $ $ $ $ $ $ $ $ $ $ $ $ $ $ $ $ $ $ $ $ $ $ $ $ $ $ ; $ $ $ $ $ $ $ $ $ $ $ $ $ $ $ $ $ $ $ $ $ $ $ $ $ $ $ $ $ $ $ $ $ $ $ $ $ $ $ $ $ $ $ $ $ $ $ $ $ $ $ $ $ X u.KXg > 7 ZXf.X $ $ $ $ $ $ $ $ $ $ $ $ $ $ $ $ $ $ $ $ $ $ $ $ $ $ $ $ $ $ $ $ $ $ $ $ $ $ $ $ $ $ $ $ $ $ $ $ $ $ $ $ $ $ $ $ $ $ $ $ $ $ $ $ $ $ $ $ $ $ $ $ $ $ $ $ $ $ $ $ $ $ $ $ $ $ $ $ $ $ $ $ $ $ $ $ $ $ $ $ $ ",
"e.e.e.e.e.e.e.e.e.e.e.e.e.e.e.e.e.e.e.e.e.e.e.e.e.e.e.e.e.e.e.e.e.e.e.e.e.e.e.e.e.e.e.e.e.e.e.e.e.e.e.e.e.e.e.e.e.e.e.e.e.e.e.e.e.e.e.e.e.e.e.e.e.e.e.e.e.e.e.e.e.e.e.e.e.e.e.e.e.e.e.e.e.e.e.e.e.e.e.e.e.e.e.e.e.e.e.e.e.e.e.e.e.e.e.e.e.e.e.e.e.e.e.e.e.e.e.e.e.e.e.e.e.e.e.e.e.e.e.e.e.e.e.e.e.i.zXJX1.; y ; m DXxXp.e.e.e.e.e.e.e.e.e.e.e.e.e.e.e.e.e.e.e.e.e.e.e.e.e.e.e.e.e.e.e.e.e.e.e.e.e.e.e.e.e.e.e.e.e.e.e.e.e.e.e.e.e.e.e.e.e.e.e.e.e.e.e.e.e.e.e.e.e.e.e.e.e.e.e.e.e.e.e.e.e.e.e.e.e.e.e.e.e.e.e.e.e.e.e.e.e.e.e.e.",
"bXbXbXbXbXbXbXbXbXbXbXbXbXbXbXbXbXbXbXbXbXbXbXbXbXbXbXbXbXbXbXbXbXbXbXbXbXbXbXbXbXbXbXbXbXbXbXbXbXbXbXbXbXbXbXbXbXbXbXbXbXbXbXbXbXbXbXbXbXbXbXbXbXbXbXbXbXbXbXbXbXbXbXbXbXbXbXbXbXbXbXbXbXbXbXbXbXbXbXbXbXbXbXbXbXbXbXbXbXbXbXbXbXbXbXbXbXbXbXbXbXbXbXbXbXbXbXbXbXbXbXbXbXbXbXbXbXbXbXbXbXbXbXbXbXcXtXc ; f 7 f > f f.cXbXbXbXbXbXbXbXbXbXbXbXbXbXbXbXbXbXbXbXbXbXbXbXbXbXbXbXbXbXbXbXbXbXbXbXbXbXbXbXbXbXbXbXbXbXbXbXbXbXbXbXbXbXbXbXbXbXbXbXbXbXbXbXbXbXbXbXbXbXbXbXbXbXbXbXbXbXbXbXbXbXbXbXbXbXbXbXbXbXbXbXbXbXbXbXbXbXbXbXbX",
"                                                                                                                                                                                                                                                                                                      X $ X X X $ X                                                                                                                                                                                                             ",
"jXjXjXjXjXjXjXjXjXjXjXjXjXjXjXjXjXjXjXjXjXjXjXjXjXjXjXjXjXjXjXjXjXjXjXjXjXjXjXjXjXjXjXjXjXjXjXjXjXjXjXjXjXjXjXjXjXjXjXjXjXjXjXjXjXjXjXjXjXjXjXjXjXjXjXjXjXjXjXjXjXjXjXjXjXjXjXjXjXjXjXjXjXjXjXjXjXjXjXjXjXjXjXjXjXjXjXjXjXjXjXjXjXjXjXjXjXjXjXjXjXjXjXjXjXjXjXjXjXjXjXjXjXjXjXjXjXjXjXjXjXjXjXjXjXjXjXgXgXgXgXgXgXgXjXjXjXjXjXjXjXjXjXjXjXjXjXjXjXjXjXjXjXjXjXjXjXjXjXjXjXjXjXjXjXjXjXjXjXjXjXjXjXjXjXjXjXjXjXjXjXjXjXjXjXjXjXjXjXjXjXjXjXjXjXjXjXjXjXjXjXjXjXjXjXjXjXjXjXjXjXjXjXjXjXjXjXjXjXjXjXjXjXjXjXjXjXjXjXjXjXjXjXjXjXjX",
"g.g.g.g.g.g.g.g.g.g.g.g.g.g.g.g.g.g.g.g.g.g.g.g.g.g.g.g.g.g.g.g.g.g.g.g.g.g.g.g.g.g.g.g.g.g.g.g.g.g.g.g.g.g.g.g.g.g.g.g.g.g.g.g.g.g.g.g.g.g.g.g.g.g.g.g.g.g.g.g.g.g.g.g.g.g.g.g.g.g.g.g.g.g.g.g.g.g.g.g.g.g.g.g.g.g.g.g.g.g.g.g.g.g.g.g.g.g.g.g.g.g.g.g.g.g.g.g.g.g.g.g.g.g.g.g.g.g.g.g.g.g.g.g.g.g.g.g.g.g.g.g.g.g.g.g.g.g.g.g.g.g.g.g.g.g.g.g.g.g.g.g.g.g.g.g.g.g.g.g.g.g.g.g.g.g.g.g.g.g.g.g.g.g.g.g.g.g.g.g.g.g.g.g.g.g.g.g.g.g.g.g.g.g.g.g.g.g.g.g.g.g.g.g.g.g.g.g.g.g.g.g.g.g.g.g.g.g.g.g.g.g.g.g.g.g.g.g.g.g.g.g.g.g.g.g.",
"$ $ $ $ $ $ $ $ $ $ $ $ $ $ $ $ $ $ $ $ $ $ $ $ $ $ $ $ $ $ $ $ $ $ $ $ $ $ $ $ $ $ $ $ $ $ $ $ $ $ $ $ $ $ $ $ $ $ $ $ $ $ $ $ $ $ $ $ $ $ $ $ $ $ $ $ $ $ $ $ $ $ $ $ $ $ $ $ $ $ $ $ $ $ $ $ $ $ $ $ $ $ $ $ $ $ $ $ $ $ $ $ $ $ $ $ $ $ $ $ $ $ $ $ $ $ $ $ $ $ $ $ $ $ $ $ $ $ $ $ $ $ $ $ $ $ $ $ $ $ $ $ $ $ $ $ $ $ $ $ $ $ $ $ $ $ $ $ $ $ $ $ $ $ $ $ $ $ $ $ $ $ $ $ $ $ $ $ $ $ $ $ $ $ $ $ $ $ $ $ $ $ $ $ $ $ $ $ $ $ $ $ $ $ $ $ $ $ $ $ $ $ $ $ $ $ $ $ $ $ $ $ $ $ $ $ $ $ $ $ $ $ $ $ $ $ $ $ $ $ $ $ $ $ $ $ ",
"7 7 7 7 7 7 7 7 7 7 7 7 7 7 7 7 7 7 7 7 7 7 7 7 7 7 7 7 7 7 7 7 7 7 7 7 7 7 7 7 7 7 7 7 7 7 7 7 7 7 7 7 7 7 7 7 7 7 7 7 7 7 7 7 7 7 7 7 7 7 7 7 7 7 7 7 7 7 7 7 7 7 7 7 7 7 7 7 7 7 7 7 7 7 7 7 7 7 7 7 7 7 7 7 7 7 7 7 7 7 7 7 7 7 7 7 7 7 7 7 7 7 7 7 7 7 7 7 7 7 7 7 7 7 7 7 7 7 7 7 7 7 7 7 7 7 7 7 7 7 7 7 7 7 7 7 7 7 7 7 7 7 7 7 7 7 7 7 7 7 7 7 7 7 7 7 7 7 7 7 7 7 7 7 7 7 7 7 7 7 7 7 7 7 7 7 7 7 7 7 7 7 7 7 7 7 7 7 7 7 7 7 7 7 7 7 7 7 7 7 7 7 7 7 7 7 7 7 7 7 7 7 7 7 7 7 7 7 7 7 7 7 7 7 7 7 7 7 7 7 7 7 7 7 7 7 ",
"7 7 7 7 7 7 7 7 7 7 7 7 7 7 7 7 7 7 7 7 7 7 7 7 7 7 7 7 7 7 7 7 7 7 7 7 7 7 7 7 7 7 7 7 7 7 7 7 7 7 7 7 7 7 7 7 7 7 7 7 7 7 7 7 7 7 7 7 7 7 7 7 7 7 7 7 7 7 7 7 7 7 7 7 7 7 7 7 7 7 7 7 7 7 7 7 7 7 7 7 7 7 7 7 7 7 7 7 7 7 7 7 7 7 7 7 7 7 7 7 7 7 7 7 7 7 7 7 7 7 7 7 7 7 7 7 7 7 7 7 7 7 7 7 7 7 7 7 7 7 7 7 7 7 7 7 7 7 7 7 7 7 7 7 7 7 7 7 7 7 7 7 7 7 7 7 7 7 7 7 7 7 7 7 7 7 7 7 7 7 7 7 7 7 7 7 7 7 7 7 7 7 7 7 7 7 7 7 7 7 7 7 7 7 7 7 7 7 7 7 7 7 7 7 7 7 7 7 7 7 7 7 7 7 7 7 7 7 7 7 7 7 7 7 7 7 7 7 7 7 7 7 7 7 7 7 ",
"7 7 7 7 7 7 7 7 7 7 7 7 7 7 7 7 7 7 7 7 7 7 7 7 7 7 7 7 7 7 7 7 7 7 7 7 7 7 7 7 7 7 7 7 7 7 7 7 7 7 7 7 7 7 7 7 7 7 7 7 7 7 7 7 7 7 7 7 7 7 7 7 7 7 7 7 7 7 7 7 7 7 7 7 7 7 7 7 7 7 7 7 7 7 7 7 7 7 7 7 7 7 7 7 7 7 7 7 7 7 7 7 7 7 7 7 7 7 7 7 7 7 7 7 7 7 7 7 7 7 7 7 7 7 7 7 7 7 7 7 7 7 7 7 7 7 7 7 7 7 7 7 7 7 7 7 7 7 7 7 7 7 7 7 7 7 7 7 7 7 7 7 7 7 7 7 7 7 7 7 7 7 7 7 7 7 7 7 7 7 7 7 7 7 7 7 7 7 7 7 7 7 7 7 7 7 7 7 7 7 7 7 7 7 7 7 7 7 7 7 7 7 7 7 7 7 7 7 7 7 7 7 7 7 7 7 7 7 7 7 7 7 7 7 7 7 7 7 7 7 7 7 7 7 7 7 ",
"7 7 7 7 7 7 7 7 7 7 7 7 7 7 7 7 7 7 7 7 7 7 7 7 7 7 7 7 7 7 7 7 7 7 7 7 7 7 7 7 7 7 7 7 7 7 7 7 7 7 7 7 7 7 7 7 7 7 7 7 7 7 7 7 7 7 7 7 7 7 7 7 7 7 7 7 7 7 7 7 7 7 7 7 7 7 7 7 7 7 7 7 7 7 7 7 7 7 7 7 7 7 7 7 7 7 7 7 7 7 7 7 7 7 7 7 7 7 7 7 7 7 7 7 7 7 7 7 7 7 7 7 7 7 7 7 7 7 7 7 7 7 7 7 7 7 7 7 7 7 7 7 7 7 7 7 7 7 7 7 7 7 7 7 7 7 7 7 7 7 7 7 7 7 7 7 7 7 7 7 7 7 7 7 7 7 7 7 7 7 7 7 7 7 7 7 7 7 7 7 7 7 7 7 7 7 7 7 7 7 7 7 7 7 7 7 7 7 7 7 7 7 7 7 7 7 7 7 7 7 7 7 7 7 7 7 7 7 7 7 7 7 7 7 7 7 7 7 7 7 7 7 7 7 7 7 ",
"7 7 7 7 7 7 7 7 7 7 7 7 7 7 7 7 7 7 7 7 7 7 7 7 7 7 7 7 7 7 7 7 7 7 7 7 7 7 7 7 7 7 7 7 7 7 7 7 7 7 7 7 7 7 7 7 7 7 7 7 7 7 7 7 7 7 7 7 7 7 7 7 7 7 7 7 7 7 7 7 7 7 7 7 7 7 7 7 7 7 7 7 7 7 7 7 7 7 7 7 7 7 7 7 7 7 7 7 7 7 7 7 7 7 7 7 7 7 7 7 7 7 7 7 7 7 7 7 7 7 7 7 7 7 7 7 7 7 7 7 7 7 7 7 7 7 7 7 7 7 7 7 7 7 7 7 7 7 7 7 7 7 7 7 7 7 7 7 7 7 7 7 7 7 7 7 7 7 7 7 7 7 7 7 7 7 7 7 7 7 7 7 7 7 7 7 7 7 7 7 7 7 7 7 7 7 7 7 7 7 7 7 7 7 7 7 7 7 7 7 7 7 7 7 7 7 7 7 7 7 7 7 7 7 7 7 7 7 7 7 7 7 7 7 7 7 7 7 7 7 7 7 7 7 7 7 ",
"7 7 7 7 7 7 7 7 7 7 7 7 7 7 7 7 7 7 7 7 7 7 7 7 7 7 7 7 7 7 7 7 7 7 7 7 7 7 7 7 7 7 7 7 7 7 7 7 7 7 7 7 7 7 7 7 7 7 7 7 7 7 7 7 7 7 7 7 7 7 7 7 7 7 7 7 7 7 7 7 7 7 7 7 7 7 7 7 7 7 7 7 7 7 7 7 7 7 7 7 7 7 7 7 7 7 7 7 7 7 7 7 7 7 7 7 7 7 7 7 7 7 7 7 7 7 7 7 7 7 7 7 7 7 7 7 7 7 7 7 7 7 7 7 7 7 7 7 7 7 7 7 7 7 7 7 7 7 7 7 7 7 7 7 7 7 7 7 7 7 7 7 7 7 7 7 7 7 7 7 7 7 7 7 7 7 7 7 7 7 7 7 7 7 7 7 7 7 7 7 7 7 7 7 7 7 7 7 7 7 7 7 7 7 7 7 7 7 7 7 7 7 7 7 7 7 7 7 7 7 7 7 7 7 7 7 7 7 7 7 7 7 7 7 7 7 7 7 7 7 7 7 7 7 7 7 ",
"7 7 7 7 7 7 7 7 7 7 7 7 7 7 7 7 7 7 7 7 7 7 7 7 7 7 7 7 7 7 7 7 7 7 7 7 7 7 7 7 7 7 7 7 7 7 7 7 7 7 7 7 7 7 7 7 7 7 7 7 7 7 7 7 7 7 7 7 7 7 7 7 7 7 7 7 7 7 7 7 7 7 7 7 7 7 7 7 7 7 7 7 7 7 7 7 7 7 7 7 7 7 7 7 7 7 7 7 7 7 7 7 7 7 7 7 7 7 7 7 7 7 7 7 7 7 7 7 7 7 7 7 7 7 7 7 7 7 7 7 7 7 7 7 7 7 7 7 7 7 7 7 7 7 7 7 7 7 7 7 7 7 7 7 7 7 7 7 7 7 7 7 7 7 7 7 7 7 7 7 7 7 7 7 7 7 7 7 7 7 7 7 7 7 7 7 7 7 7 7 7 7 7 7 7 7 7 7 7 7 7 7 7 7 7 7 7 7 7 7 7 7 7 7 7 7 7 7 7 7 7 7 7 7 7 7 7 7 7 7 7 7 7 7 7 7 7 7 7 7 7 7 7 7 7 7 ",
"7 7 7 7 7 7 7 7 7 7 7 7 7 7 7 7 7 7 7 7 7 7 7 7 7 7 7 7 7 7 7 7 7 7 7 7 7 7 7 7 7 7 7 7 7 7 7 7 7 7 7 7 7 7 7 7 7 7 7 7 7 7 7 7 7 7 7 7 7 7 7 7 7 7 7 7 7 7 7 7 7 7 7 7 7 7 7 7 7 7 7 7 7 7 7 7 7 7 7 7 7 7 7 7 7 7 7 7 7 7 7 7 7 7 7 7 7 7 7 7 7 7 7 7 7 7 7 7 7 7 7 7 7 7 7 7 7 7 7 7 7 7 7 7 7 7 7 7 7 7 7 7 7 7 7 7 7 7 7 7 7 7 7 7 7 7 7 7 7 7 7 7 7 7 7 7 7 7 7 7 7 7 7 7 7 7 7 7 7 7 7 7 7 7 7 7 7 7 7 7 7 7 7 7 7 7 7 7 7 7 7 7 7 7 7 7 7 7 7 7 7 7 7 7 7 7 7 7 7 7 7 7 7 7 7 7 7 7 7 7 7 7 7 7 7 7 7 7 7 7 7 7 7 7 7 7 ",
"7 7 7 7 7 7 7 7 7 7 7 7 7 7 7 7 7 7 7 7 7 7 7 7 7 7 7 7 7 7 7 7 7 7 7 7 7 7 7 7 7 7 7 7 7 7 7 7 7 7 7 7 7 7 7 7 7 7 7 7 7 7 7 7 7 7 7 7 7 7 7 7 7 7 7 7 7 7 7 7 7 7 7 7 7 7 7 7 7 7 7 7 7 7 7 7 7 7 7 7 7 7 7 7 7 7 7 7 7 7 7 7 7 7 7 7 7 7 7 7 7 7 7 7 7 7 7 7 7 7 7 7 7 7 7 7 7 7 7 7 7 7 7 7 7 7 7 7 7 7 7 7 7 7 7 7 7 7 7 7 7 7 7 7 7 7 7 7 7 7 7 7 7 7 7 7 7 7 7 7 7 7 7 7 7 7 7 7 7 7 7 7 7 7 7 7 7 7 7 7 7 7 7 7 7 7 7 7 7 7 7 7 7 7 7 7 7 7 7 7 7 7 7 7 7 7 7 7 7 7 7 7 7 7 7 7 7 7 7 7 7 7 7 7 7 7 7 7 7 7 7 7 7 7 7 7 ",
"7 7 7 7 7 7 7 7 7 7 7 7 7 7 7 7 7 7 7 7 7 7 7 7 7 7 7 7 7 7 7 7 7 7 7 7 7 7 7 7 7 7 7 7 7 7 7 7 7 7 7 7 7 7 7 7 7 7 7 7 7 7 7 7 7 7 7 7 7 7 7 7 7 7 7 7 7 7 7 7 7 7 7 7 7 7 7 7 7 7 7 7 7 7 7 7 7 7 7 7 7 7 7 7 7 7 7 7 7 7 7 7 7 7 7 7 7 7 7 7 7 7 7 7 7 7 7 7 7 7 7 7 7 7 7 7 7 7 7 7 7 7 7 7 7 7 7 7 7 7 7 7 7 7 7 7 7 7 7 7 7 7 7 7 7 7 7 7 7 7 7 7 7 7 7 7 7 7 7 7 7 7 7 7 7 7 7 7 7 7 7 7 7 7 7 7 7 7 7 7 7 7 7 7 7 7 7 7 7 7 7 7 7 7 7 7 7 7 7 7 7 7 7 7 7 7 7 7 7 7 7 7 7 7 7 7 7 7 7 7 7 7 7 7 7 7 7 7 7 7 7 7 7 7 7 7 ",
"7 7 7 7 7 7 7 7 7 7 7 7 7 7 7 7 7 7 7 7 7 7 7 7 7 7 7 7 7 7 7 7 7 7 7 7 7 7 7 7 7 7 7 7 7 7 7 7 7 7 7 7 7 7 7 7 7 7 7 7 7 7 7 7 7 7 7 7 7 7 7 7 7 7 7 7 7 7 7 7 7 7 7 7 7 7 7 7 7 7 7 7 7 7 7 7 7 7 7 7 7 7 7 7 7 7 7 7 7 7 7 7 7 7 7 7 7 7 7 7 7 7 7 7 7 7 7 7 7 7 7 7 7 7 7 7 7 7 7 7 7 7 7 7 7 7 7 7 7 7 7 7 7 7 7 7 7 7 7 7 7 7 7 7 7 7 7 7 7 7 7 7 7 7 7 7 7 7 7 7 7 7 7 7 7 7 7 7 7 7 7 7 7 7 7 7 7 7 7 7 7 7 7 7 7 7 7 7 7 7 7 7 7 7 7 7 7 7 7 7 7 7 7 7 7 7 7 7 7 7 7 7 7 7 7 7 7 7 7 7 7 7 7 7 7 7 7 7 7 7 7 7 7 7 7 7 "
};
