/* XPM */
static char *deesser_mono[] = {
/* columns rows colors chars-per-pixel */
"256 256 256 2 ",
"   c #030303",
".  c #0B0403",
"X  c #07080E",
"o  c #0C0C0C",
"O  c #070808",
"+  c #130A08",
"@  c #091608",
"#  c #13120E",
"$  c #0A0B11",
"%  c #050A13",
"&  c #160C16",
"*  c #0E1215",
"=  c #071717",
"-  c #141414",
";  c #1A1515",
":  c #14151C",
">  c #1B151B",
",  c #16191D",
"<  c #1B1B1B",
"1  c #171A16",
"2  c #221D1D",
"3  c #2B1B1B",
"4  c #271515",
"5  c #341919",
"6  c #250D09",
"7  c #19261B",
"8  c #082F18",
"9  c #25221D",
"0  c #352719",
"q  c #1B1C22",
"w  c #1B1A27",
"e  c #1C1D35",
"r  c #1D1E3A",
"t  c #111D32",
"y  c #0C1929",
"u  c #251A25",
"i  c #2D1430",
"p  c #1E2025",
"a  c #1B2B2B",
"s  c #162827",
"d  c #183726",
"f  c #1A2835",
"g  c #193538",
"h  c #0A2B2C",
"j  c #232324",
"k  c #24252A",
"l  c #252A2C",
"z  c #2B2B2B",
"x  c #2A2625",
"c  c #362827",
"v  c #27352A",
"b  c #33332D",
"n  c #232934",
"m  c #2B2C32",
"M  c #232C3A",
"N  c #2F3035",
"B  c #273836",
"V  c #333433",
"C  c #393A36",
"Z  c #34353A",
"A  c #3B3C3B",
"S  c #353938",
"D  c #342B33",
"F  c #511818",
"G  c #701918",
"H  c #47291B",
"J  c #57281E",
"K  c #4C312E",
"L  c #6E2B2C",
"P  c #651D2A",
"I  c #19452D",
"U  c #025925",
"Y  c #104F2E",
"T  c #294635",
"R  c #37443B",
"E  c #264B33",
"W  c #006829",
"Q  c #00732E",
"!  c #037A33",
"~  c #106B38",
"^  c #0B5026",
"/  c #41423D",
"(  c #514F31",
")  c #646036",
"_  c #1D1E4F",
"`  c #1A3844",
"'  c #132E4D",
"]  c #263847",
"[  c #3B3C42",
"{  c #293A54",
"}  c #342C4D",
"|  c #123471",
" . c #341953",
".. c #4C1454",
"X. c #6B1377",
"o. c #592265",
"O. c #1B4244",
"+. c #134657",
"@. c #25434A",
"#. c #334C4B",
"$. c #12556E",
"%. c #096565",
"&. c #116870",
"*. c #27797B",
"=. c #266158",
"-. c #434344",
";. c #4A4B4C",
":. c #45464A",
">. c #4C4D52",
",. c #525354",
"<. c #5B5B5D",
"1. c #55565A",
"2. c #4F5050",
"3. c #5E5F63",
"4. c #515364",
"5. c #495468",
"6. c #5D6265",
"7. c #577476",
"8. c #636366",
"9. c #656669",
"0. c #696B6D",
"q. c #67696C",
"w. c #6E6F71",
"e. c #6A6D7F",
"r. c #6F7072",
"t. c #6D767B",
"y. c #727275",
"u. c #75767A",
"i. c #7A7B7F",
"p. c #77787B",
"a. c #6D6F6C",
"s. c #696150",
"d. c #901918",
"f. c #B11818",
"g. c #92241D",
"h. c #8D2927",
"j. c #AF2B2B",
"k. c #AB2120",
"l. c #D01A19",
"z. c #E81A1A",
"x. c #FE1C1C",
"c. c #F91818",
"v. c #CB221D",
"b. c #D02929",
"n. c #F02A2A",
"m. c #E61D26",
"M. c #9C1555",
"N. c #F7026B",
"B. c #D3115D",
"V. c #936C59",
"C. c #EC634E",
"Z. c #F14C37",
"A. c #018636",
"S. c #00973C",
"D. c #00A13F",
"F. c #0E9245",
"G. c #03A746",
"H. c #01B74A",
"J. c #0BB853",
"K. c #248E5C",
"L. c #00C54E",
"P. c #02C952",
"I. c #04D759",
"U. c #00FC69",
"Y. c #05EA63",
"T. c #0FDE61",
"R. c #6CC266",
"E. c #A59A60",
"W. c #E6A663",
"Q. c #F7D074",
"!. c #E3D274",
"~. c #B6C229",
"^. c #0A3C89",
"/. c #26269F",
"(. c #6F298C",
"). c #761488",
"_. c #12738C",
"`. c #24798A",
"'. c #074BB1",
"]. c #175E9B",
"[. c #7C7D81",
"{. c #6E7A8D",
"}. c #4A6197",
"|. c #0251CB",
" X c #0167F8",
".X c #0C62E2",
"XX c #2928ED",
"oX c #9B10AE",
"OX c #A41AB5",
"+X c #A506BA",
"@X c #A822BA",
"#X c #8A1794",
"$X c #BE15D4",
"%X c #B809CF",
"&X c #A727C5",
"*X c #C116D7",
"=X c #F000FE",
"-X c #D309E9",
";X c #C73EC5",
":X c #1C9C9C",
">X c #158A94",
",X c #219D9D",
"<X c #28868C",
"1X c #0C88B0",
"2X c #24A1A5",
"3X c #4F8C8F",
"4X c #75898B",
"5X c #5994AA",
"6X c #0598C7",
"7X c #0CA7D6",
"8X c #09B7EB",
"9X c #2E98CF",
"0X c #0ACDFD",
"qX c #62DBDD",
"wX c #59AADC",
"eX c #8C8C8C",
"rX c #848486",
"tX c #8D8E91",
"yX c #939494",
"uX c #999A9C",
"iX c #999596",
"pX c #978F90",
"aX c #A29495",
"sX c #B2948F",
"dX c #9E9EA1",
"fX c #8296AD",
"gX c #9FA0A4",
"hX c #9AAAAC",
"jX c #A3A4A4",
"kX c #ABACAC",
"lX c #A7A7A9",
"zX c #B2B3B5",
"xX c #BCBDBD",
"cX c #B7B6B8",
"vX c #B0AFB1",
"bX c #ABA79B",
"nX c #D3B4A6",
"mX c #E6CC97",
"MX c #BEBEC1",
"NX c #84EDE9",
"BX c #8EF9F0",
"VX c #ABECE5",
"CX c #C4C4C4",
"ZX c #C5C6C9",
"AX c #CBCACB",
"SX c #D8D8D9",
"DX c #D0CFCF",
"FX c #D9EAE8",
"GX c #E2E3E4",
"HX c #EBEBED",
"JX c #E7E7E8",
"KX c #FEFEFE",
"LX c #F4F5F6",
"PX c #EDF0F2",
"IX c #E0DADF",
"UX c #D2BDC4",
/* pixels */
"q q q q q q q q q q q q q q q q q q q q q q q q q q q q q q q q q q q q q q q q q q q q q q q q q q q q q q q q q q q q q q q q q q q q q q q q q q q q q q q q q q q q q q q q q q q q q q q q q q q q q q q q q q q q q q q q q q q q q q q q q q q q q q q q q q q q q q q q q q q q q q q q q q q q q q q q q q q q q q q q q q q q q q q q q q q q q q q q q q q q q q q q q q q q q q q q q q q q q q q q q q q q q q q q q q q q q q q q q q q q q q q q q q q q q q q q q q q q q q q q q q q q q q q q q q q q q q q q ",
"q q q q q q q q q q q q q q q q q q q q q q q q q q q q q q q q q q q q q q q q q q q q q q q q q q q q q q q q q q q q q q q q q q q q q q q q q q q q q q q q q q q q q q q q q q q q q q q q q q q q q q q q q q q q q q q q q q q q q q q q q q q q q q q q q q q q q q q q q q q q q q q q q q q q q q q q q q q q q q q q q q q q q q q q q q q q q q q q q q q q q q q q q q q q q q q q q q q q q q q q q q q q q q q q q q q q q q q q q q q q q q q q q q q q q q q q q q q q q q q q q q q q q q q q q q q q q q q q ",
"q q q q q q q q q q q q q q q q q q q q q q q q q q q q q q q q q q q q q q q q q q q q q q q q q q q q q q q q q q q q q q q q q q q q q q q q q q q q q q q q q q q q q q q q q q q q q q q q q q q q q q q q q q q q q q q q q q q q q q q q q q q q q q q q q q q q q q q q q q q q q q q q q q q q q q q q q q q q q q q q q q q q q q q q q q q q q q q q q q q q q q q q q q q q q q q q q q q q q q q q q q q q q q q q q q q q q q q q q q q q q q q q q q q q q q q q q q q q q q q q q q q q q q q q q q q q q q q q ",
"q q q q q q q q q q q q q q q q q q q q q q q q q q q q q q q q q q q q q q q q q q q q q q q q q q q q q q q q q q q q q q q q q q q q q q q q q q q q q q q q q q q q q q q q q q q q q q q q q q q q q q q q q q q q q q q q q q q q q q q q q q q q q q q q q q q q q q q q q q q q q q q q q q q q q q q q q q q q q q q q q q q q q q q q q q q q q q q q q q q q q q q q q q q q q q q q q q q q q q q q q q q q q q q q q q q q q q q q q q q q q q q q q q q q q q q q q q q q q q q q q q q q q q q q q q q q q q q q ",
"q q q q q q q q q q q q q q q q q q q q q q q q q q q q q q q q q q q q q q q q q q q q q q q q q q q q q q q q q q q q q q q q q q q q q q q q q q q q q q q q q q q q q q q q q q q q q q q q q q q q q q q q q q q q q q q q q q q q q q q q q q q q q q q q q q q q q q q q q q q q q q q q q q q q q q q q q q q q q q q q q q q q q q q q q q q q q q q q q q q q q q q q q q q q q q q q q q q q q q q q q q q q q q q q q q q q q q q q q q q q q q q q q q q q q q q q q q q q q q q q q q q q q q q q q q q q q q q q ",
"q q q q q q q q q q q q q q q q q q q q q q q q q q q q q q q q q q q q q q q q q q q q q q q q q q q q q q q q q q q q q q q q q q q q q q q q q q q q q q q q q q q q q q q q q q q q q q q q q q q q q q q q q q q q q q q q q q q q q q q q q q q q q q q q q q q q q q q q q q q q q q q q q q q q q q q q q q q q q q q q q q q q q q q q q q q q q q q q q q q q q q q q q q q q q q q q q q q q q q q q q q q q q q q q q q q q q q q q q q q q q q q q q q q q q q q q q q q q q q q q q q q q q q q q q q q q q q q q ",
"q q q q q q q q q q q q q q q q q q q q q q q q q q q q q q q q q q q q q q q q q q q q q q q q q q q q q q q q q q q q q q q q q q q q q q q q q q q q q q q q q q q q q q q q q q q q q q q q q q q q q q q q q q q q q q q q q q q q q q q q q q q q q q q q q q q q q q q q q q q q q q q q q q q q q q q q q q q q q q q q q q q q q q q q q q q q q q q q q q q q q q q q q q q q q q q q q q q q q q q q q q q q q q q q q q q q q q q q q q q q q q q q q q q q q q q q q q q q q q q q q q q q q q q q q q q q q q q q ",
"q q q q q q q q q q q q q q q q q q q q q q q q q q q q q q q q q q q q q q q q q q q q q q q q q q q q q q q q q q q q q q q q q q q q q q q q q q q q q q q q q q q q q q q q q q q q q q q q q q q q q q q q q q q q q q q q q q q q q q q q q q q q q q q q q q q q q q q q q q q q q q q q q q q q q q q q q q q q q q q q q q q q q q q q q q q q q q q q q q q q q q q q q q q q q q q q q q q q q q q q q q q q q q q q q q q q q q q q q q q q q q q q q q q q q q q q q q q q q q q q q q q q q q q q q q q q q q q q ",
"q q q q q q q q q q q q q q q q q q q q q q q q q q q q q q q q q q q q q q q q q q q q q q q q q q q q q q q q q q q q q q q q q q q q q q q q q q q q q q q q q q q q q q q q q q q q q q q q q q q q q q q q q q q q q q q q q q q q q q q q q q q q q q q q q q q q q q q q q q q q q q q q q q q q q q q q q q q q q q q q q q q q q q q q q q q q q q q q q q q q q q q q q q q q q q q q q q q q q q q q q q q q q q q q q q q q q q q q q q q q q q q q q q q q q q q q q q q q q q q q q q q q q q q q q q q q q q q q ",
"q q q q q q q q q q q q q q q q q q q q q q q q q q q q q q q q q q q q q q q q q q q q q q q q q q q q q q q q q q q q q q q q q q q q q q q q q q q q q q q q q q q q q q q q q q q q q q q q q q q q q q q q q q q q q q q q q q q q q q q q q q q q q q q q q q q q q q q q q q q q q q q q q q q q q q q q q q q q q q q q q q q q q q q q q q q q q q q q q q q q q q q q q q q q q q q q q q q q q q q q q q q q q q q q q q q q q q q q q q q q q q q q q q q q q q q q q q q q q q q q q q q q q q q q q q q q q q q q ",
"q q q q q q q q q q q q q q q q q q q q q q q q q q q q q q q q q q q q q q q q q q q q q q q q q q q q q q q q q q q q q q q q q q q q q q q q q q q q q q q q q q q q q q q q q q q q q q q q q q q q q q q q q q q q q q q q q q q q q q q q q q q q q q q q q q q q q q q q q q q q q q q q q q q q q q q q q q q q q q q q q q q q q q q q q q q q q q q q q q q q q q q q q q q q q q q q q q q q q q q q q q q q q q q q q q q q q q q q q q q q q q q q q q q q q q q q q q q q q q q q q q q q q q q q q q q q q q q q ",
"q q q q q q q q q q q q q q q q q q q q q q q q q q q q q q q q q q q q q q q q q q q q q q q q q q q q q q q q q q q q q q q q q q q q q q q q q q q q q q q q q q q q q q q q q q q q q q q q q q q q q q q q q q q q q q q q q q q q q q q q q q q q q q q q q q q q q q q q q q q q q q q q q q q q q q q q q q q q q q q q q q q q q q q q q q q q q q q q q q q q q q q q q q q q q q q q q q q q q q q q q q q q q q q q q q q q q q q q q q q q q q q q q q q q q q q q q q q q q q q q q q q q q q q q q q q q q q q q ",
"q q q q q q q q q q q q q q q q q q q q q q q q q q q q q q q q q q q q q q q q q q q q q q q q q q q q q q q q q q q q q q q q q q q q q q q q q q q q q q q q q q q q q q q q q q q q q q q q q q q q q q q q q q q q q q q q q q q q q q q q q q q q q q q q q q q q q q q q q q q q q q q q q q q q q q q q q q q q q q q q q q q q q q q q q q q q q q q q q q q q q q q q q q q q q q q q q q q q q q q q q q q q q q q q q q q q q q q q q q q q q q q q q q q q q q q q q q q q q q q q q q q q q q q q q q q q q q q q ",
"q q q q q q q q q q q q q q q q q q q q q q q q q q q q q q q q q q q q q q q q q q q q q q q q q q q q q q q q q q q q q q q q q q q q q q q q q q q q q q q q q q q q q q q q q q q q q q q q q q q q q q q q q q q q q q q q q q q q q q q q q q q q q q q q q q q q q q q q q q q q q q q q q q q q q q q q q q q < q q q q q q q q q q q q q q q q q q q q q q q q q q q q q q q q q q q : : q q q q p q q q q q q , q q q q q q q q q q q q q q q q q q , q q q q q q q q q q q q q q q q q q q q q q q q q q q q q q q q ",
"q q q q q q q q q q q q q q q q q q q q q q q q q q q q q q q q q q q q q q q q q q q q q q q q q q q q q q q q q q q q q q q q q q q q q q q q q q q q q q q q q q q q q q q q q q q q q q q q q q q q q q q q q q q q q q q q q q q q q q q q q q q q q q q q q q q q q q q q q q q q q q q q q q q q q q q q q q q f q q q q q q q q q q q q q q q q q q q q q q q q q q q q q q q q q q k 1.1.j : : l 6.: , , q : : Z p q q : : , , : q , , , : , q , : l V , q q q q q q q q q q q q q q q q q q q q q q q q q q q q q q q ",
"q q q q q q q q q q q q q q q q q q q q q q q q q q q q q q q q q q q q q q q q q q q q q q q q q q q q q q q q q q q q q q q q q q q q q q q q q q q q q q q q q q q q q q q q q q q q q q q q q q q q q q q q q q q q q q q q q q q q q q q q q q q q q q q q q q q q q q q q q q q q q q q q q q q q q q q q q < +.` < q q q q q q q q q q q q q q q q q q q q q q q q q q q q q q q q - 1.3.k j ;.1.Z 3.m 3.[ k 8.>.rX<.: m <.8.m [ 3.Z >.,.m <.>.k 1.:.1.rXm , q q q q q q q q q q q q q q q q q q q q q q q q q q q q q q ",
"q q q q q q q q q q q q q q q q q q q q q q q q q q q q q q q q q q q q q q q q q q q q q q q q q q q q q q q q q q q q q q q q q q q q q q q q q q q q q q q q q q q q q q q q q q q q q q q q q q q q q q q q q q q q q q q q q q q q q q q q q q q q q q q q q q q q q q q q q q q q q q q q q q q q q q q q > +.+.; q q q q q q q q q q q q q q q q q q q q q q q q q q q q q q q q q , m w.#.[ y.0.0.1.0.8.u.0.-.p 9.m - [ 0.Z 6.9.:.;.w.w.w.0.k <.0.y.8.,., q q q q q q q q q q q q q q q q q q q q q q q q q q q q q q q ",
"q q q q q q q q q q q q q q q q q q q q q q q q q q q q q q q q q q q q q q q q q q q q q q q q q q q q q q q q q q q q q q q q q q q q q q q q q q q q q q q q q q q q q q q q q q q q q q q q q q q q q q q q q q q q q q q q q q q q q q q q q q q q q q q q q q q q q q q q q q q q q q q q q q q q q q q q < f $.f < q q q q q q q q q q q q q q q q q q q q q q q q q q q q q q q q q , : 9.w.9.V [ 6.y.;.m 0.m $ 9.k - A <.q 9.3.l ,.8.Z l A 8.w.1.m >.,.- q q q q q q q q q q q q q q q q q q q q q q q q q q q q q q q ",
"q q q q q q q q q q q q q q q q q q q q q q q q q q q q q q q q q q q q q q q q q q q q q q q q q q q q q q q q q q q q q q q q q q q q q q q q q q q q q q q q q q q q q q q q q q q q q q q q q q q q q q q q q q q q q q q q q q q q q q q q q q q q q q q q q q q q q q q q q q q q q q q q q q q q q q q q q > f ` < q q q q q q q q q q q q q q q q q q q q q q q q q q q q q q q q , [ 3.3.Z 3.1.[ 1.-.9.#.[ r.#.1.<.: Z i.q.-.,.Z l 9.>.[ 1.3.[ 9.;.Z w.m , q q q q q q q q q q q q q q q q q q q q q q q q q q q q q q ",
"q q q q q q q q q q q q q q q q q q q q q q q q q q q q q q q q q q q q q q q q q q q q q q q q q q q q q q q q q q q q q q q q q q q q q q q q q q q q q q q q q q q q q q q q q q q q q q q q q q q q q q q q q q q q q q q q q q q q q q q q q q q q q q q q q q q q q q q q q q q q q q q q q q q q q q q q q q < > q q q q q q q q q q q q q q q q q q q q q q q q q q q q q q q q q q q m j : q m q q , l l , k k q l : A 3.q q q q , k m q m q : k m q k k q q q q q q q q q q q q q q q q q q q q q q q q q q q q q q q ",
"q q q q q q q q q q q q q q q q q q q q q q q q q q q q q q q q q q q q q q q q q q q q q q q q q q q q q q q q q q q q q q q q q q q q q q q q q q q q q q q q q q q q q q q q q q q q q q q q q q q q q q q q q q q q q q q q q q q q q q q q q q q q q q q q q q q q q q q q q q q q q q q q q q q q q q q q q q q q q q q q q q q q q q q q q q q q q q q q q q q q q q q q q q q q q q q , q q q , q q q , , q , q q q : Z ;.: q q q q q , q , q q q , q q q q q q q q q q q q q q q q q q q q q q q q q q q q q q q q q q ",
"p p p p p p p p p p p p p p p p p p p p p p p p p p p p p p p p p p p p p p p p p p p p p p p p p p p p p p p p p p p p p p p p p p p p p p p p p p p p p p p p p p p p p p p p p p p p p p p p p p p p p p p p p p p p p p p p p p p p p p p p p p p p p p p p p p p p p p p p p p p p p p p p p p p p p p p p p p p p p p p p p p p p p p p p p p p p p p p p p p p p p p p p p p p p p p p p p p p p p p p p p p p p p p p q q j p p p p p p p p p p p p p p p p p p p p p p p p p p p p p p p p p p p p p p p p p p p p p p ",
"X X X X X X X X X X X X X X X X X X X X X X X X X X X X X X X X X X X X X X X X X X X X X X X X X X X X X X X X X X X X X X X X X X X X X X X X X X X X X X X X X X X X X X X X X X X X X X X X X X X X X X X X X X X X X X X X X X X X X X X X X X X X X X X X X X X X X X X X X X X X X X X X X X X X X X X X X X X X X X X X X X X X X X X X X X X X X X X X X X X X X X X X X X X X X X X X X X X X X X X X X X X X X X X X X X X X X X X X X X X X X X X X X X X X X X X X X X X X X X X X X X X X X X X X X X X X X X X X ",
"uXuXuXuXuXuXuXuXuXuXuXuXuXuXuXuXuXuXuXuXuXuXuXuXuXuXuXuXuXuXuXuXuXuXuXuXuXuXuXuXuXuXuXuXuXuXuXuXuXuXuXuXuXuXuXuXuXuXuXuXuXuXuXuXuXuXuXuXuXuXuXuXuXuXuXuXuXuXuXuXuXuXuXuXuXuXuXuXuXuXuXuXuXuXuXuXuXuXuXuXuXuXuXuXuXuXuXuXuXuXuXuXuXuXuXuXuXuXuXuXuXuXuXuXuXuXuXuXuXuXuXuXuXuXuXuXuXuXuXuXuXuXuXuXuXuXuXuXuXuXuXuXuXuXuXuXuXuXuXuXuXuXuXuXuXuXuXuXuXuXuXuXuXuXuXuXuXuXuXuXuXuXuXuXuXuXuXuXuXuXuXuXuXuXuXuXuXuXuXuXuXuXuXuXuXuXuXuXuXuXuXuXuXuXuXuXuXuXuXuXuXuXuXuXuXuXuXuXuXuXuXuXuXuXuXuXuXuXuXuXuXuXuXuXuXuXuXuXuXuXuXuXuXuXuXuX",
"i.i.i.i.i.i.i.i.i.i.i.i.i.i.i.i.i.i.i.i.i.i.i.i.i.i.i.i.i.i.i.i.i.i.i.i.i.i.i.i.i.i.i.i.i.i.i.i.i.i.i.i.i.i.i.i.i.i.i.i.i.i.i.i.i.i.i.i.i.i.i.i.i.i.i.i.i.i.i.i.i.i.i.i.i.i.i.i.i.i.i.i.i.i.i.i.i.i.i.i.i.i.i.i.i.i.i.i.i.i.i.i.i.i.i.i.i.i.i.i.i.i.i.i.i.i.i.i.i.i.i.i.i.i.i.i.i.i.i.i.i.i.i.i.i.i.i.i.i.i.i.i.i.i.i.i.i.i.i.i.i.i.i.i.i.i.i.i.i.i.i.i.i.i.i.i.i.i.i.i.i.i.i.i.i.i.i.i.i.i.i.i.i.i.i.i.i.i.i.i.i.i.i.i.i.i.i.i.i.i.i.i.i.i.i.i.i.i.i.i.i.i.i.i.i.i.i.i.i.i.i.i.i.i.i.i.i.i.i.i.i.i.i.i.i.i.i.i.i.i.i.i.i.i.i.i.",
"$ $ $ $ $ $ $ $ $ $ $ $ $ $ $ $ $ $ $ $ $ $ $ $ $ $ $ $ $ $ $ $ $ $ $ $ $ $ $ $ $ $ $ $ $ $ $ $ $ $ $ $ $ $ $ $ $ $ $ $ $ $ $ $ $ $ $ $ $ $ $ $ $ $ $ $ $ $ $ $ $ $ $ $ $ $ $ $ $ $ $ $ $ $ $ $ $ $ $ $ $ $ $ $ $ $ $ $ $ $ $ $ $ $ $ $ $ $ $ $ $ $ $ $ $ $ $ $ $ $ $ $ $ $ $ $ $ $ $ $ $ $ $ $ X $ $ $ $ $ $ $ $ $ $ $ $ $ $ $ $ $ $ $ $ $ $ $ $ $ $ $ $ $ $ $ $ $ $ $ $ $ $ $ $ $ $ $ $ $ $ $ $ $ $ $ $ $ $ $ $ $ $ $ $ $ $ $ $ $ $ $ $ $ $ $ $ $ $ $ $ $ $ $ $ $ $ $ $ $ $ $ $ $ $ $ $ $ $ $ $ $ $ $ $ $ $ $ $ $ $ $ $ $ $ $ ",
"q q q q q q q q q q q q q q q q q q q q q q q q q q q q q q q q q q q q q q q q q q q q q q q q q q q q q q q q q q q q q q q q q q q q q q q q q q q q q q q q q q q q q q q q q q q q q q q q q q q q q q q q q q q q q q q q q q q q q q q q q q q q q q q q q q q q q q q q q q q q q q q q q q q q q q q q q q q q q q q p p q q q q q q q p j p p j p p j p q p q p q p p p j p p p q p p q p p p p q q q q q q q q q q q q q q q q q q q q q q q q q q q q q q q q q q q q q q q q q q q q q q q q q q q q q q q q q q q ",
"q q q q q q q q q q q q q q q q q q q q q q q q q q q q q q q q q q q q q q q q q q q q q q q q q q q q q q q q q q q q q q q q q q q q q q q q q q q q q q q q q q q q q q q q q q q q q q q q q q q q q q q q q q q q q q q q q q q q q q q q q q q q q q q q q q q q q q q q q q m l q l m q q q q q q q q q q q q q q q q q , q q q q q q q q : , q : : , : , q , q , q , : : : : : , q : , q , q q q q q q q q q q q q q q q q q q q q q q q q q q q q q q q q q q q q q q q q q q q q q q q q q q q q q q q q q q q q q q ",
"q q q q q q q q q q q q q q q q q q q q q q q q q q q q q q q q q q q q q q q q q q q q q q q q q q q q q q q q q q q q q q q q q q q q q q q q q q q q q q q q q q q q q q q q q q q q q q q q q q q q q q q q q q q q q q q q q q q q q q q q q q q q q q q q q q q q q q q q , V 9.8.uX3.3.;.: q q q q q q q q q : , q q q j l q q q q q q q k -.l q [ Z l #.l , l q l , m [ Z A A Z m , A N : l q p k q q q q q q q q q q q q q q q q q q q q q q q q q q q q q q q q q q q q q q q q q q q q q q q q q q q q q q q q q q q ",
"q q q q q q q q q q q q q q q q q q q q q q q q q q q q q q q q q q q q q q q q q q q q q q q q q q q q q q q q q q q q q q q q q q q q q q q q q q q q q q q q q q q q q q q q q q q q q q q q q q q q q q q q q q q q q q q q q q q q q q q q q q q q q q q q q q q q q q q q : V q.yXu.tX>.:.: q q q q q q q q q 1.w.[ , q q m : q , q q q - <.q.8.,.u.m 0.q.0.-.9.- 9.:.r.1.:.rX3.0.1.>.9.w.Z p.3.V 1.: q q q q q q q q q q q q q q q q q q q q q q q q q q q q q q q q q q q q q q q q q q q q q q q q q q q q q q q q q q ",
"q q q q q q q q q q q q q q q q q q q q q q q q q q q q q q q q q q q q q q q q q q q q q q q q q q q q q q q q q q q q q q q q q q q q q q q q q q q q q q q q q q q q q q q q q q q q q q q q q q q q q q q q q q q q q q q q q q q q q q q q q q q q q q q q q q q q q q q q , l zX;.  1.yX[ : q q q q q q q : >.8.k p A q.:.:.1.u.>.: q q - <.0.3.,.y.l 9.k [ y.8.: 3.y.[ $ $ <.l :.>.w.: V q.<.[.,.>.: q q q q q q q q q q q q q q q q q q q q q q q q q q q q q q q q q q q q q q q q q q q q q q q q q q q q q q q q q q ",
"q q q q q q q q q q q q q q q q q q q q q q q q q q q q q q q q q q q q q q q q q q q q q q q q q q q q q q q q q q q q q q q q q q q q q q q q q q q q q q q q q q q q q q q q q q q q q q q q q q q q q q q q q q q q q q q q q q q q q q q q q q q q q q q q q q q q q q q q , z yX[.k tXyX[ : q q q q q q q - 9.V :.9.V y.y.1.0.Z w., q q - 1.[.3.-.w.q q.k :.w.9.$ 9.r.-.$ : 8.Z ;.;.w.q Z 9.1.:.yX,.: q q q q q q q q q q q q q q q q q q q q q q q q q q q q q q q q q q q q q q q q q q q q q q q q q q q q q q q q q q ",
"q q q q q q q q q q q q q q q q q q q q q q q q q q q q q q q q q q q q q q q q q q q q q q q q q q q q q q q q q q q q q q q q q q q q q q q q q q q q q q q q q q q q q q q q q q q q q q q q q q q q q q q q q q q q q q q q q q q q q q q q q q q q q q q q q q q q q q q q : Z ,.w.iXcXKX3.$ q q q q q q q : :.0.[ p.u.u.u.<.9.z r.q q q - 1.Z 1.3.u.[ 9.y.w.l <.w.<.m u.3.j 1.N 8.1.-.w.w.m 3.q r.3.- q q q q q q q q q q q q q q q q q q q q q q q q q q q q q q q q q q q q q q q q q q q q q q q q q q q q q q q q q q ",
"q q q q q q q q q q q q q q q q q q q q q q q q q q q q q q q q q q q q q q q q q q q q q q q q q q q q q q q q q q q q q q q q q q q q q q q q q q q q q q q q q q q q q q q q q q q q q q q q q q q q q q q q q q q q q q q q q q q q q q q q q q q q q q q q q q q q q q q q , m 9.;.,.1.dX:.: q q q q q q q q , :.8.A -.>.A Z A k [ q q q q q q q k m m k Z j q p V q q k Z j j p l l q m l q k q q k q q q q q q q q q q q q q q q q q q q q q q q q q q q q q q q q q q q q q q q q q q q q q q q q q q q q q q q q q q q ",
"$ $ $ $ $ $ $ $ $ $ $ $ $ $ $ $ $ $ $ $ $ $ $ $ $ $ $ $ $ $ $ $ $ $ $ $ $ $ $ $ $ $ $ $ $ $ $ $ $ $ $ $ $ $ $ $ $ $ $ $ $ $ $ $ $ $ $ $ $ $ $ $ $ $ $ $ $ $ $ $ $ $ $ $ $ $ $ $ $ $ $ $ $ $ $ $ $ $ $ $ $ $ $ $ $ $ $ $ $ $ $ $ $ $ $ $ $ $ $ $ $ $ $ $ $ $ : p q q q q q q q q q q q p q q * , q q q q q q q q q q : * : : : : , , q : q q q q q q q $ X X X X X $ X X $ $ X X X X X X X $ X X $ X $ $ X $ $ $ $ $ $ $ $ $ $ $ $ $ $ $ $ $ $ $ $ $ $ $ $ $ $ $ $ $ $ $ $ $ $ $ $ $ $ $ $ $ $ $ $ $ $ $ $ $ $ $ $ $ $ $ $ $ $ $ ",
"8.8.8.8.8.8.8.8.8.8.8.8.8.8.8.8.8.8.8.8.8.8.8.8.8.8.8.8.8.8.8.8.8.8.8.8.8.8.8.8.8.8.8.8.8.8.8.8.8.8.8.8.8.8.8.8.8.8.8.8.8.8.8.8.8.8.8.8.8.8.8.8.8.8.8.8.8.8.8.8.8.8.8.8.8.8.8.8.8.8.8.8.8.8.8.8.8.8.8.8.8.8.8.8.8.8.8.8.8.8.8.8.8.8.8.8.8.8.8.8.8.8.8.8.8.<.Z X q q q q q q q q q q q q q q q q q q q q q q q q q q q q q q q q q q q q q q q q q * : ,.q.8.9.9.9.8.9.9.9.8.9.9.9.8.8.9.9.8.9.9.8.8.8.8.8.8.8.8.8.8.8.8.8.8.8.8.8.8.8.8.8.8.8.8.8.8.8.8.8.8.8.8.8.8.8.8.8.8.8.8.8.8.8.8.8.8.8.8.8.8.8.8.8.8.8.8.8.8.8.8.8.8.8.8.",
"gXjXjXjXjXgXjXjXjXjXjXjXjXjXjXjXjXjXjXjXjXjXjXjXjXjXjXjXjXjXjXjXjXjXjXjXjXjXjXjXjXjXjXjXjXjXjXjXjXjXjXjXjXjXjXjXjXjXjXjXjXjXjXjXjXjXjXjXjXjXjXjXjXjXjXjXjXjXjXjXjXjXjXjXjXjXjXjXjXjXlXlXjXlXlXlXlXlXlXjXlXlXlXlXlXlXlXlXlXlXlXlXlXlXlXlXlXlXlXlXlXlXlXlXlXlXCXyX: q q q q q q q q q q , k q q q q q q q q q q q q q q q q q q q q q q q q q q q $ ;.CXlXuXuXuXuXuXuXuXuXuXuXuXuXuXuXuXuXuXuXuXuXuXuXuXdXdXdXuXuXdXdXdXdXdXdXdXdXjXjXjXjXjXjXjXjXjXjXjXjXjXjXjXjXjXjXjXjXjXjXjXjXjXjXjXjXjXjXjXjXjXjXdXjXjXjXjXjXjXjXjXjXjXjXjXjX",
"                                                      O                   O O O O O O O O O O O O O O O O o = o o O O o O o o O O O o o o o o o o o o o o o o o o o o o o o o o * o o o - o o o - o o - o o o o # # # # # o - - - - - - - - - - - - - - - 1 m zXyXX q q q q q q q q q ,.9.1.k q q q q q q q q q q q q q q q q q q q q j q q q : Z DX:.                                                                                                                O O     O O O O O O O O O O O & O O O O O O o o o o o o o ",
"1 < < < 1 V < < < < < V 1 < < < V < < < V < 1 z z 1 j V 1 < < < < < < < < < < < < < < < < < p < V c 3 c 5 c 2XO.B B n l p V z < j j j j j < V z < j j j j S x j j j j A j j j z R v j j A x j z S j l #.j k j x x x x x x x x x x x x x x x z x S A B B @.B *.*.CX[ : q q q q q q : -.1.- -.<., q q q q q q q q w b ~.~.~.~.~.~.~.~.~.) y q q X yXw.  - - - - - - - - - - - - - z 1 - - - - - - - - - ; 1 - j x - 1 1 1 1 1 1 1 1 < < < < V < < < < < < < < < < < < < z z < < < < < < < < < < q j j *XD 7 j j j j j j j j j j < ",
"- - - - - z - - - - 1 z - 1 - < z - 1 < z ; - j x - j z - < < < < < < < < < < < < < < < < < < 1 D x 3 3 5 c ,XO.g g a a p z x < < < < < < < z z < < < j < V j < < j < S j j < x R d u j S j < z V < k { 2 j j j j j j j j j j j j j j j j j j j V S l B B B *.&.aX0.X q q q q q q : <.V   1 9.q q q q q q q q q q b ~.~.~.~.~.~.~.~.~.( w q q - cXV O o o o o o o o o o o o o o x - o - - - - - - - - - - o j j o - - - - - - - - - - - - z - ; ; 1 1 1 ; > < 1 1 < - z j - < 1 1 1 < < < < < < 1 < *Xi 1 < < < < < < < < < j 1 ",
"- - - - - z - - - - 1 z - 1 - < z - 1 < z ; - j x - j z - < < < < < < < < < < < < < < < < < < 1 D x 3 3 5 c ,XO.g g a a p z x < < < < < < < z z < < < j < V j < < j < S j j < x R d u j S j < z V < k { 2 j j j j j j j j j j j j j j j j j j j V S l B B B *.&.aX0.X q q q q q q : <.V   1 8.q q q q q q q q q < _ XXXXXXXXXXXXXXXXXX| 1 w q - MXz   o o o o o o o o o o o o o x - o - - - - - - - - - - o j j o - - - - - - - - - - - - z - ; ; 1 1 1 > X.).o.i 1 ; D x - < q ..i 1 < < i ..< o.< $Xi 1 < < < < < < < < < j 1 ",
"- - - - - z - - - - 1 z - 1 - < z - 1 < z ; - j x - j z - < < < < < < < < < < < < < < < < < < 1 D x 3 3 5 c ,XO.g g a a p z x < < < < < < < z z < < < j < V j < < j < S j j < x R d u j S j < z V < k { 2 j j j j j j j j j j j j j j j j j j j V S l B B B *.&.aX0.X q q q q q q : <.V   < 8.q q q q q q q q q < _ /././././././././.| < q q - xXz   o o o o o o o o o o o - o x - o - - - - - - - - - - o j j o - - - - - - - - - - - - z - ; ; 1 1 > @  ...o.#X..X.o.(.X.)...o.#X..o.X...X.X.#X< *Xi 1 < < < < < < < < < j 1 ",
"- - - - - z - - - - 1 z - 1 - < z - 1 < z ; - j x - j z - < < < < < < < < < < < < < < < < < < 1 D x 3 3 5 c ,XO.g g a a p z x < < < < < < < z z < < < j < V j < < j < S j j < x R d u j S j < z V < k { 2 j j j j j j j j j j j j j j j j j j j V S l B B B *.&.aX0.X q q q q q q : <.V   < 9.q q q q q q q q q < _ XXXXXXXXXXXXXXXXXX| 1 q q - xXz   o o o o o o o o o o o - o x - o - - - - - - - - - - o j j o - - - - - - - - - - - - z - ; ; 1 1 > @ ........X.o.} #X..o...o...X.o...X.#X..X.u $Xi 1 < < < < < < < < < j 1 ",
"- - - - - z - - - - 1 z - 1 - < z - 1 < z ; - j x - j z - < < < < < < < < < < < < < < < < < < 1 D x 3 3 5 c ,XO.g g a a p z x < < < < < < < z z < < < j < V j < < j < S j j < x R d 2 j S j < z V < k { 2 j j j j j j j j j j j j j j j j j j j V S l B B B *.&.aX0.X q q q q q q : <.V   < 9.q q q q q q q q q < e _ _ _ _ _ _ _ _ _ _ < q q - xXz   o o o o o o o o o o o - o x - o - - - - - - - - - - o j j o - - - - - - - - - - - - z - ; ; 1 1 ; # i .. . .....D X.....X.........X.i o.X.X.< *Xi 1 < < < < < < < < < j 1 ",
"- - - - - z - - - - 1 z - 1 - < z - 1 < z ; - j x - j z - 1 1 < < < < < < < < < < < < < < < < 1 D x 3 3 5 c ,XO.g g a a p z x < < < < < < < z z < < < j < V j < < j < S j j p v E I j j S j < z V < k { 2 j j j j j j j j j j j j j j j j j j j V S l B B B *.&.aX0.X q q q q q q : <.V   < 9.q q q q q q q q q q q e e e e e e e e e w q q q - xXz   o o o o o o o o o o o - o x - o - - - - - - - - - - o j j o - - - - - - - - - - - - z - ; ; 1 1 1 1 1 1 1 1 1 - z j > < 1 1 1 1 1 < 1 1 < 1 < *Xi 1 < < < < < < < < < j 1 ",
"- - - - - z - - - - 1 z - 1 - < z - 1 < z ; - j x - j z - 1 1 < < < < < < < < < < < < < < < < 1 D x 3 3 5 c ,XO.g g a a p z x < < < < < < < z z < < < j < V j < < j < S j v I E =.~ E v R j < z V < k { 2 j j j j j j j j j j j j j j j j j j j V S l B B B *.&.aX0.X q q q q q q : 3.S   < q.q q q q q q q q q q w e r e r r r r e r w q q q - xXz   o o o o o o o o o o o - o x - o - - - - - - - - - - o j j o - - - - - - - - - - - - z - ; ; ; 1 1 1 1 1 1 1 < - z x - 1 < < < < < < < < < < < *Xi 1 < < < < < < < < < j 1 ",
"- - - - - z - - - - 1 z - 1 - < z - 1 < z ; - j x - j z - 1 1 < < < < < < < < < < < < < < < < 1 D x 3 3 5 c ,XO.g g a a p z x < < < < < < < z z < < < j < V j < < < < S v E E ~ K.~ ~ E #.l < z V < k { 2 j j j j j j j j j j j j j j j j j j j V S l B B B *.&.aX0.X q q q q q q : 3.S   < q.q q q q q q q q q q w e r r r r r r e r w q q q - xXz   o o o o o o o o o o o - o x - o - - - - - - - - - - o j j o - - - - - - - - - - - - z - ; ; ; 1 1 1 1 1 1 1 1 - z j ; < < < < < < < < < < < < *Xi 1 < < < < < < < < < < 1 ",
"- - - - - z - - - - 1 z - 1 - < z - 1 < z ; - j x - j z - 1 1 < < < < < < < < < < < < < < < < 1 D x 3 3 5 c ,XO.g g a a p z x < < < < < < < z z < < < j < V j < < < < R E ~ ~ K.K.K.~ ~ =.v p x V < k { 2 j j j j j j j j j j j j j j j j j j j V S l B B B *.&.aX0.X q q q q q q : 3.S   < 0.q q q q q q q q q q q r r r r r r r r r w q q q - xXz   o o o o o o o o o o o - o x - o - - - - - - - - - - o j j o - - - - - - - - - - - - z - ; ; ; 1 1 1 1 1 1 1 1 - z j ; < < < < < < < < < < < < *Xi 1 < < < < < < < < < < ; ",
"- - - 1 - z 1 - 1 1 1 z - 1 1 < z - 1 < z 1 - j x - j z - < 1 < < < < < < < < < < < < < < < < 1 b x 3 3 5 c ,XO.g g a a p m z < < < < < 7 < z z < 7 < p < V j < p p 7 R E ~ K.K.~ ~ K.~ =.E a z V < l { 9 j j j j j j j j j j j j j j j j j j j V S l B B B *.&.aX0.X q q q q q q : 6.S   < 0.q q q q q q q q q q w e e e e e e e e e w q q q - xXz   o o o o o o o o o o o - o x - o - - - - - - - - - - o j j o - - - - - - - - - - - - z - ; ; ; 1 1 1 1 1 1 1 1 - z j ; < < < < < < < < < < < < *Xi 1 < < < < < < < < < j - ",
"# & - - & z - & - - ; z & - - ; z & ; ; z - & u x # u z & ; ; ; ; ; ; ; ; ; ; > > > > > > > > ; c u 4 5 5 c ,X` g a a p < z x > < > > > < > z x > < < 2 > D u < 2 2 < R E ~ K.~ T.J.~ K.=.E p x D > k { 2 u u u u u u u u u u u u u u u u u u u N Z l B B B *.&.aX0.X q q q q q q : 8.S   < 0.q q q q q q q q q q q r r r r r r r r r w q q q - xXz   o o o o o o o o o o o - o x - o - - - - - - - - - - o j j o - - - - - - - - - - - - z - ; ; ; 1 1 1 1 1 1 1 1 - z j ; < < < < < < < < < < < < *Xi 1 < < < < < < < < < j - ",
"d d d d d E d d d d d E d d d d E d d d E d d I E d I E d d d d d d d d d d d d d d d d d d d d T T v v b C 2X=.O.E I I I E E d d d d d I d E E d I d I d E I d I I I =.~ F.K.K.T.J.~ K.K.~ I E E d T =.I I I I I I I I I I I I I I I I I I T I E #.E O.=.O.<X&.aX0.X q q q q q q : 8.S   < 0.q q q q q q q q q q w e e e e e e e e e w q q q - xXz   o o o o o o o o o o o - o x - o - - - - - - - - - - o j j o - - - - - - - - - - - ; z - 1 1 1 1 1 1 1 1 1 1 < - z x 1 < < < < < < < < < < < < *Xi 1 < < < < < < < < < j ; ",
"v v B B B R B B B B B R B B B B R B B B R B B R R B R R B B B S S S S S S S S S S S S S S S S S R R C K K / 2X=.#.#.#.#.R #.R S R R R R R S #.R S R R R R #.R R R R R #.=.K.K.K.K.K.J.K.K.=.R R #.R #.5.R R R R R R R R R R R R R R R R R R R R #.#.#.#.#.#.<X&.aX0.X q q q q q q : 8.C   < 0.q q q q q q q q q q q r r r r r r r r r w q q q - xXz   o O o o o o o o o o o o o j o o o o o o o o o o o - o < j o - - - - - - - - - - - - z - - - - - - - - - - - ; - z j - 1 ; ; 1 1 1 1 1 1 1 1 1 $Xi 1 < < < < < < < < < < - ",
"; ; ; > ; z > ; > > < z ; > > < z > < < D > ; x x ; j D ; < < < < < < < < < < < < < < < < < 2 < D c 3 5 5 c ,XO.B B n l p D z < u u u u u 2 D z 2 j u j u V x u j j u R E ~ F.T.R.R.T.F.#.T j z V 2 l { j x j j j j j j j x x x x x x x x x x j V S m B ] B *.&.aX0.X q q q q q q : 8.C   < 0.q q q q q q q q q q w e e e e e e e e e w q q q - MXz o < 1 < < < < < < < < < < < z < < < < < < < < < < < < < z z < j j j j j j j j j j j j V j j j j j j j j j j j j j V z j j j j j x x x x x x x x *X} j z x x z z z z z z z j ",
"- - - - - z - - - - 1 z - - - 1 z - 1 1 z - - j x - j z - 1 1 1 1 1 1 1 1 1 1 < < < < < < < < 1 z x 4 3 5 c ,XO.g g a a , z x < < < < < < < z z < < < < < V j < < < < S v I K.R.R.R.R.K.R v < x V < k { < j j j j j j j j j j j j j j j j j j < N S a B B B *.&.aX0.X q q q q q q : 8.C   < 0.q q q q q q q q q q q r r r r r r r r r w q q q - MXl o < < < < < < < < < < < < < z j < j j j j j j j j j j j z z < j j j j j j j j j j j j V j j j j j x x x x x x x j V V x z z z z z z z z z z z z *X} l z z z z z z z z z z x ",
"- - - - - z - - - - 1 z - 1 - < z - 1 < z 1 - j x - j z - < 1 1 < < < < < < < < < < < < < < < 1 D x 3 3 5 c ,XO.g g a a < z x < < < < < < < z z < < < < < V j < < < < V j I R.!.K.K.!.R.#.u 7 z V < k { 2 j j j j j j j j j j j j j j j j j j j V S l B B B *.&.aX0.X q q q q q q : 8.C   < w.q q q q q q q q q q w e e e e e e e e e w q q q - xXz   O O O o O O O o o o o o o j o o o o o o o o o o o o o < j o - - - - - - - - - - - - z - - - - - - - - - - - - - x j - 1 - - - 1 1 1 1 1 1 1 1 $Xi 1 < 1 1 < < < < < < < - ",
"- - - - - z - - - - 1 z - 1 - < z - 1 1 z ; - j x - j z - < 1 1 < < < < < < < < < < < < < < < 1 D x 3 3 5 c ,XO.g g a a < z x < < < < < < < z z < < < < < V j < < < < S > E !.E.~ Y E.!.K.2 p z V < k { 2 j j j j j j j j j j j j j j j j j j j V S l B B B *.%.aX0.X q q q q q q : 8.A   < y.q q q q q q q q q q w e r r r r r r r r w q q q - xXz   o o o o o o o o o o o o o x - o - - - - - - - - - - o j j o - - - - - - - - - - - ; z - 1 1 1 1 1 1 1 1 1 1 < - z j ; < < < < < < < < < < < < *Xi 1 < < < < < < < < < j 1 ",
"- - - - - z - - - - 1 z - 1 - < z - 1 1 z ; - j x - j z - < 1 1 1 < < < < < < < < < < < < < < 1 D x 3 3 5 c ,XO.g g a a < z x < < < < < < < z z < < < < < V j < < < < C , E.Q.R #.I s.Q.R.a 2 z V < k { 2 j j j j j j j j j j j j j j j j j j j V S l B B B *.&.aX0.X q q q q q q : 8.A   < y.q q q q q q q q q q q e r r r r r r r r w q q q - xXz   o o o o o o o o o o o o o x - o - - - - - - - - - - o j j o - - - - - - - - - - - - z - - ; ; ; ; 1 1 1 1 1 1 - z j - < < < < < < < < < < < < *Xi 1 < < < < < < < < < < - ",
"- - - - - z - - - - 1 z - 1 - < z - 1 1 z ; - j x - j z - < 1 1 1 < < < < < < < < < < < < < < 1 D x 3 3 5 c ,XO.g g a a < z x < < < < < < < z z < < < < < V j < < < 7 D E Q.V.a #.I b Q.R.~ 4 z V < k { 2 j j j j j j j j j j j j j j j j j j j V S l B B B *.%.aX0.X q q q q q q : 9.A   < y.q q q q q q q q q q w e e e e e e e e e w q q q - xXz   o o o o o o o o o o o o o x - o o - - - - - - - - - o j j o - - - - - - - - - - - - z - - ; ; ; ; ; 1 1 1 1 1 - z j - < < < < < < < < < < < < *Xi 1 < < < < < < < < < < - ",
"- - - - - z - - - - 1 z - 1 - < z - 1 < z ; - j x - j z - < 1 1 1 < < < < < < < < < < < < < < 1 D x 3 3 5 c ,XO.g g a a < z x < < < < < < < z z < < < < < V j < < p 2 B E.Q.v v #.E s E.!.J.p x V < k { 2 j j j j j j j j j j j j j j j j j j j V S l B B B *.%.aX0.X q q q q q q : 9.A   < y.q q q q q q q q q q q r r r r r r r r r w q q q - xXz   o o o o o o o o o o o o o x - o o - - - - - - - - - o j j o - - - - - - - - - - - - z - - - ; ; ; ; 1 1 1 1 1 - z j - 1 < < < < < < < < < < < *Xi 1 < < < < < < < < < < - ",
"- - - - - z - - - - 1 z - 1 - < z - 1 < z ; - j x - j z - < 1 1 1 < < < < < < < < < < < < < < 1 D x 3 3 5 c ,XO.g g a a < z x < < < < < < < z z < < < < < V j < < j : <.Q.V.s B #.E s ) Q.K.~ u V < k { 2 j j j j j j j j j j j j j j j j j j j V S l B B B *.%.aX0.X q q q q q q : 9.A   < y.q q q q q q q q q q w e e e e e e e e e w q q q - xXz   o o o o o o o o o o o o o x - o o - - - - - - - - - o j j o - - - - - - - - - - - - z - - - ; ; ; ; 1 1 1 1 1 - z j - 1 1 < < < < < < < < < < *Xi 1 < < < < < < < < < < - ",
"- - - - - z - - - - 1 z - 1 - < z - 1 < z ; - j x - j z - < 1 1 1 1 < < < < < < < < < < < < < ; z x 3 3 5 c ,XO.g g a a < z x < < < < < < < z z < < < < < V j < j > I !.W.v d B #.I a v !.E.F.T D < k { 2 j j j j j j j j j j j j j j j j j j < N S l B B B *.&.aX0.X q q q q q q : 9.A   < y.q q q q q q q q q q q r r r r r r r r r w q q q - xXz   o o o o o o o o o o o o o x - o o - - - - - - - - o o j j o - - - - - - - - - - - - z - - - ; ; ; ; 1 ; - 1 1 - z j - 1 1 < < < < < 1 < 1 1 < *Xi 1 < < < < < < < < < < - ",
"- - - - - z - - - - 1 z - 1 - < z - 1 < z ; - j x - j z - < 1 1 1 1 < < < < < < < < < < < < < ; z x 3 3 5 c ,XO.g g a a < z x < < < < < < < z z < < < < < V j 9 > d E.Q.( d d B #.I v s E.Q.~ K.V < l { 9 j j j j j j j j j j j j j j j j j j < N Z a B B B *.%.aX0.X q q q q q q : q.A   < y.q q q q q q q q q q w e e e e e e e e e w q q q - xXz   - O O o o o o o - < - < o x - o o o - - - - o - - < - < j o - - - - - - - j < - j 1 z - - - - ; ; 1 - < x 1 < < z j - 1 1 < < < < 1 < < j j < *Xi 1 < < < < < < < < < < - ",
"- - - - - z - - - - 1 z - 1 - < z - 1 < z ; - j x - j z - < 1 1 1 1 < < < < < < < < < < < < < 1 z x 3 3 5 c ,XO.g g a a < z x < < < < < < < z z < < < < < V j - d E.Q.s.s v d B #.I v d s.Q.) ~ K.f ] { M n k j j j j j j j j j j j j j j j j < N Z a B B B *.%.aX0.X q q q q q q : q.A   < y.q q q q q q q q q q q r r r r r r r r r w q q q - xXl O < < < o o o o O z x x A < j - o o o - - - - o S V S V j j o - - - - - - - z A V V - z - - - - ; ; 1 - j A x V S j j - 1 1 1 < < 1 - -.V x -.j $Xi 1 < < < < < < < < < < - ",
"- - - - - z - - - - 1 z - 1 - < z - 1 1 z ; - j x - j z - < 1 1 1 1 < < < < < < < < < < < < < 1 z x 3 3 5 c ,XO.g g a a < z x < < < < < < < z z < j 9 2 > l s ( !.Q.) T v d d b ) E v b B W.W.g K.K.+.| { { ] n j j j j j j j j j j j j j j j < N Z a B B B *.%.aX0.X q q q q q q : q.A   < u.q q q q q q q q q q w e e e e e e e e e w q q q - MXx O S S V 1 o o o - A z V 1 z j - o o o - - - - j A z A V < j o - - - - - - - < A -.S < z - - - - - ; ; < - x S -.z x j - 1 1 1 < 1 < < z z - C j $Xi 1 < < < < < < < < < < - ",
"- - - - - z 1 - 1 - 1 z - 1 1 < z - 1 < z 1 - j x - j z - < < < < < < < < < < < < < < < < < < 1 b x 3 5 5 c ,XO.g g a a p m z < < 0 9 7 < < z k - : * , l s.E.Q.W.( s R v v d C ) E v / T ) Q.6.{ *.,X`.$.| { ] k j j j j j j j j j j j j j j j N S a B B B *.%.aX0.X q q q q q q : 0.A   < u.q q q q q q q q q q q e r r r r r r r r w q q q - MXx O A x x < O o - z V z A z x j - o o o - - - x z A :.V V j j o - - - - - < z 1 C -.V z x - - - - - - 1 z z A z -.-.j j - 1 1 1 1 1 z x z z S C 1 *Xi 1 < < < < < < < < < < - ",
"# - - - - z - - - - - z - - - ; z - - - z - - j j o < z - ; - - - - - - - - - - - - - - - - - - x 3 4 4 4 5 :Xg a s s s * k q $ * 5 ; $ : < b C K ) E.W.Q.Q.W.s.d s v R d d d b ) E b b R d E.sX$.$.].`.`.`.&.+.M 2 2 2 2 2 2 2 2 2 2 j j j j < N N a B B B *.%.aX0.X q q q q q q : 0.A   < u.q q q q q q q q q q w e r r r r r r r r w q q q - xXl O j < < - o o o O < z 1 V - j - - - - - - - o o - < z j < j o - - - - - - - V z < V 1 z - 1 ; ; ; 1 1 - z A j 1 j z j ; < < < < < 1 1 j j S S j $Xi 1 < < < < < < < < < < - ",
"< < < < < V 7 7 7 < 9 V < 9 7 j V < 7 j S 9 < z b < z V < j j j j x x x x x x x x x x z b b b z K K K K K K 2X#.2.;.2.2.) s.s.s.V.E.E.E.E.W.W.Q.Q.Q.Q.W.V.s.d s v v d #.B v d R ) ( ( R #.g 6.nX}.].| ^.$.].`.<XK.K.~ ~ E T v v v l l k k k k j Z S n B @.B *.%.aX0.X q q q q q q : 0.A   < p.q q q q q q q q q q w e e e e e e e e e w q q q - xXz           O O O O     O     j o O O O O o o o o O O O   < < O o o o o o o o O o o O o x o o o o o - - - o o - - o j < o - - - - - - - - - o # - $Xi # - - - - - - ; 1 1 1 o ",
"NXNXNXNXNXNXNXNXNXNXNXNXNXNXNXNXNXNXNXNXNXNXNXNXNXNXNXNXNXNXNXNXNXBXBXBXBXBXBXBXBXBXBXBXBXBXBXBXBXVXVXVXVXVXqXBXBXBXBXBXVXVXVXVXVXBXVXVXVXVXVXBXBXBXNXqXqXqXNXNXNXNXNXNXNXNXNXNXNXNXNXNXNXqXqXqXwX}.]. X].}.wXwXqXqXBXBXBXBXBXBXNXNXNXNXNXNXNXNXNXqXqXqXqXqXqX&.aX0.X q q q q q q : 0.A   < p.q q q q q q q q q q q r r r r r r r r r w q q q - MXj z <.,.,.,.,.,.,.,.,.,.,.1.,.<.1.,.,.,.,.1.1.1.1.1.1.1.1.<.<.1.1.1.1.1.1.1.1.<.<.<.<.<.<.<.<.<.<.<.<.<.<.<.<.<.<.<.8.<.<.<.<.<.<.<.<.<.<.<.<.<.<.*X9.<.<.<.<.<.<.<.<.<.<.<.<.",
"3X3X3X3X3X3X3X3X3X3X3X3X3X3X3X3X3X3X3X3X3X3X3X3X3X3X3X3X3X3X3X3X3X3X3X3X3X3X3X3X3X3X3X3X3X3X3X3X3X3X7.7.7.7.2X,X3X3X3X3X3X3X3X3X3XsX4X3X3X3X3X3X3X3X3X3X5X5X5X5XwXwXwXwXwXwXwX5X5X4X4X4X5X5X5X5XwX5X$..X^.].9X5X5X3X3X3X3X3X3X3X3X5X5X5X5X5X5X3X5X5X5X5X5X5XwX&.aX0.X q q q q q q : 0.A   < p.q q q q q q q q q q w e e e e e e e e e w q q q - MXx - j j j j j j j j j j j j j S x j j j j x x x x x x x j V V j z z z z z z z z z z z z A z z z z z z z z z z z z z A S z z z z z z z z z z z z N *X} z V V V V V V V V V z -.",
". . . . . 2 . . . . + 2 . . . + 2 . . + 2 . . ; > . ; 2 . + + + + + + + + + + + + + + + + + + + 3 4 6 6 6 5 :Xg s s , , - 9 2 + # l.F o # + 3 2 + # # # + x ; - : > x ] } { | ].].}.{ D K w ' | 4XfX].| ^.].| | ' w w w w w w w w w w w w w w w M M f g ` f `.%.aX0.X q q q q q q : 0./   < i.q q q q q q q q q q q r r r r r r r r r w q q q - xXz   O O O O O O O O O O O O O j o O o o o o o o o o o o O < < O o o o o o o o o o o o o x o o - - - - - - - - - - o j < o - - - - - - - - - - - - $Xi # ; - - ; ; ; ; 1 - z C ",
"- 1 1 1 1 z 1 1 1 1 < z 1 < 1 < z 1 1 < N 1 1 k l - j z 1 < < < < < < < < < < < < < < < < < < < b x 3 3 5 c ,XO.g g a a p N z < j m.J , j < N z 9 j p j < V j 7 7 9 H K H H H K #.=.}.}.}.{ M { 5.uX5X].].^.| { ] M M M M M M M M M M M M M M M ] @.] ] @.] <X%.aX0.X q q q q q q : 0./   < i.q q q q q q q q q q w e e e e e e e e e w q q q - xXz   o o o o o o o o o o o o o x - o - - - - - - - - - - o j j o - - - - - - - - - - - - z - - - ; ; ; - 1 1 1 1 1 - z j - 1 1 < < < < < < < < < < *Xi 1 < < < < < < < 1 z :.1 ",
"- - - - - z - - - - 1 z - - - < z - ; 1 z - - j x - j z - 1 1 1 1 1 1 1 1 < < < < < < < < < < ; z x 4 3 5 c ,XO.g g a a < z x , 2 z.P , < , z z H 0 < < 2 V j < < 9 H K H H H J h.0 G b.5.].].{ { 5.vX}.| | { ] M n n n n n n n n n n n n n M f ] ] ` ] @.] <X%.aX0.X q q q q q q : w.-.  < i.q q q q q q q q q q q r r r r r r r r r w q q q - xXz   o o o o o o o o o o o o o j - o o o o o o - - - - - o j j o - - - - - - - - - - - - z - - - - - - - - ; ; ; 1 - z j - 1 1 1 1 1 1 1 1 < < 1 < $Xi 1 < < < < < < 1 z -.j - ",
"- - - - - z - - - - 1 z - - - < z - ; 1 z - - j x - j z - 1 1 1 1 1 1 1 1 1 < < < < < < < < < 1 z x 4 3 5 c ,XO.g g a a , z x , 2 z.P = 2 3 z z H 0 < < 0 K p 9 9 9 H K H H 0 G x.P L z.K p | ].].' E.nX@.' ] M n n n n n n n n n n n n n n M f ] ] ` ] @.] <X%.aX0.X q q q q q q : w.-.  < i.q q q q q q q q q q w e e e e e e e e e w q q q - xXz   o o o o o o o o o o o o o j - o o o o o o - - - - - o j j o - - - - - - - - - - - - z - - - - - - - - - ; ; 1 - z j - 1 1 1 1 1 1 1 1 1 < 1 < $Xi 1 < < < < < 1 z -.j < - ",
"- - - - - z - - - - 1 z - - - < l - ; 1 z - - j x - j z - 1 1 1 1 1 1 1 1 1 < < < < < < < < < < c x 4 5 5 c ,XO.g g a a , b c , 3 z.g.7 0 H z c v.P , 9 0 K p 0 H 9 J K 9 H 0 G x.G g.m.K x 5 n ].].] !.E.f M n n n n n n n n n n n n n n n M f ] ] ` ] @.] <X%.aX0.X q q q q q q : w.-.  < i.q q q q q q q q q q q r r r r r r r r r w q q q - xXz   o o o o o o o o o o o o o j - o o o o o o o - - - - o j j o - - - - - - - - - - - - z - - - - - - - - - ; ; 1 - z j - 1 1 1 1 1 1 1 1 1 1 1 < $Xi 1 < < < < 1 x :.j 1 < - ",
"- - - - - z - - - - 1 z - - - < J ; - 1 z - - j x - j z - 1 1 1 1 1 1 > 1 1 < < < < < < < < = G j.p 3 3 5 c ,XO.g g a s 7 K J 9 H z.g.0 0 J z K x.d.7 H J L p 0 H H m.K G J 7 G x.v.z.c.L c H x b $.'.t.Q.s.t M n n n n n n n n n n n n n n M f ] ] ` ] @.] <X%.aX0.X q q q q q q : r.-.  < i.q q q q q q q q q q w e r e r r r r e r w q q q - xXz   o o o o o o o o o o o o o j - o o o o o o o - - - - o < j o - - - - - - - - - - - - z - - - - - - - - - - ; 1 - z j - 1 1 1 1 1 1 1 1 1 1 1 < $Xi 1 < < < 1 z :.j 1 < < - ",
"- - - - - z - - - - 1 z - ; = F c.4 - 1 z - - j x - j z - 1 1 1 1 ; : = 1 1 1 < < < < < < < = d.b.s G d.3 c :X@.B g a s x v.f.H J z.z.H G c.c K x.g.0 0 k.b.y 0 0 J m.j.c.g.G d.z.x.x.x.j.H H z K G | '.E.Q.Z f n n n n n n n n n n n n n n n f ] ] ` ] @.] <X%.aX0.X q q q q q q : y.-.  9 [.q q q q q q q q q q w e e e e e e e e e w q q q - xXl   o o o o o o o o o o o o o j - o o o o o o o - - - - o < j o - - - - - - - - - - - - z - - - - - - - - - - - 1 - z j - 1 1 1 1 1 1 1 1 1 1 1 < $Xi 1 < < - x ;.x 1 < < < - ",
"- - - - - z - * - - 1 z - ; = G c.4 - 1 z - - j x - j z - 1 1 1 > = F d.: 1 1 < < < < < : : = d.m.s f.l.H J :X@./ B z s H x.z.g.v.z.x.v.g.x.L L x.g.J J g.b.9 G g.J z.l.x.v.f.g.v.x.x.x.j.c 0 l L l.< ].].Q.E.t M n n n n n n n n n n n n n n f ] ] g ] @.] <X%.aX0.X q q q q q q : y.-.  9 [.q q q q q q q q q q q r r r r r r r r r w q q q - xXx   o o o o o o o o o o o o o j - o o o o o o o o - - - o < j o - - - - - - - - - - - - z - - - - - - - - - - - 1 - z j - 1 1 1 1 1 1 1 1 1 1 1 ; *Xi - < - j :.x 1 < < < < - ",
"- - * - - l 5 f.; - 1 z - ; = G c.4 - 1 z - - j x - j z - 1 1 ; = G z.l.1 1 1 < < < < : F F , l.b.J c.v.d.j.:X;.j.V b s g.b.m.x.l.z.z.v.k.c.h.h.x.g.v.z.z.b.0 d.z.G z.z.v.x.c.c.k.x.x.z.j.P v.z h.z.k ] ' 5XQ.2.t M n n n n n n n n n n n n n f ] ] g ] @.] <X%.aX0.X q q q q q q : y.-.  j rXq q q q q q q q q q w e e e e e e e e e w q q q - xXx   o o o o o o o o o o o o o j - o o o o o o o o - - - o < j o - - - - - - - - - - - - z - - - - - - - - - - - 1 - z j - 1 1 1 1 1 1 1 1 1 1 , p &X} s p j :.j ; < < < < < - ",
"* 4 G ; - a F c.4 * ; z - ; = d.c.5 * ; z - - p x - j z - : 1 ; = d.c.z.4 1 1 1 : : : = d.f.F x.l.f.x.z.z.m.:XL n.L L K v.L j.x.l.x.f.d.x.d.v.v.v.k.v.x.x.b.0 g.x.k.x.m.k.x.x.x.g.x.x.f.k.k.x.K j.z.c { d.}.bXW.f f n n n n n n n n n n n n n f ] ] g ] @.] <X%.aX0.X q q q q q q : y.-.  j rXq q q q q q q q q q q r r r r r r r r r w q q q - xXx   o o o o o o o o o o o o o j - o o o o o o o o o - - o < j o - - - - - - - - - - - - z - - - - - - - - - - - - - z j - 1 1 1 1 1 1 1 1 1 q g ` &X$.+.@.5.l - < < < < ; ; + ",
"% F z.4 - a G c.F * ; z - ; = d.c.F * ; z - 4 J j - j z ; 5 ; ; = d.x.c.5 = 1 2 5 F F 5 f.f.G f.z.x.z.z.c.m.2Xh.j.h.b.b.v.D c z.c.x.d.G x.F f.z.G f.l.x.x.x.g.k.c.v.x.l.g.x.x.m.h.m.m.k.v.v.z.h.b.x.v.[ l.P ].mXV.t n f f n n n n n n n n n n f ] ] g ] @.] <X%.aX0.X q q q q q q : y.-.  j rXq q q q q q q q q q w e e e e e e e e e w q q q - xXx   o o o o o o o o o o o o o j - o o o o o o o o o - - o < j o - - - - - - - - - - - - z - - - - - - - - - - - - - z j - 1 ; 1 1 1 1 1 ; , g +.$.fX].&.`.=.g < # # + ; p g +.",
"% G c.4 - l d.c.F = ; z - ; = d.c.F * 1 l * F m.x - j l 4 l.4 1 = f.x.z.d.G = d.x.c.x.f.v.l.v.F f.x.F d.z.g.5Xj.L b.b.n.f.z p f.x.x.d.P x.F f.v.F x.z.d.l.x.v.g.l.v.x.l.G x.c.P R H f.g.z.l.k.z.x.x.n.j.x.J t iXQ.Z f n f f f n n n n n n n n f ] ] g ] @.] <X%.aX0.X q q q q q q - y.-.  j rXq q q q q q q q q q q r r r r r r r r r w q q q - xXx   o o o o o o o o o o o o o j - o o o o o - - - - - - o < j o - - - - - - - - - - - - z - - - - - - - - - - - 1 - z j - 1 1 1 1 1 1 1 1 a +.$._.wX1X2X`.$.O.` +.&.1X7X8X0X0X",
"% G c.5 * z f.l.G = ; z - ; = f.x.F = 5 P = F x.3 * j l G x.G = G x.x.c.l.f.= f.x.f.z.z.z.x.l.= G x.5 F f.L 4XL K b.b.n.J l k F c.c.F F x.5 k.v.= G l., 2 k.m.f.f.z.x.l.< z.k.p T h d.J l.G G x.c.x.x.b.x.v.; V.mXE.t n f f f f f n n n n n n f ] ] g ] @.] <X%.aX0.X q q q q q q - y.-.  j rXp q q q q q q q q q w e e e e e e e e e w q q q - xXx   O O O O O O O O O O O o O j o O o o o o o o o o o o O < < O o o o o o o o o o o o - z o - o - - - - - - - - - o j j o - - - - - - - : g +._.1X}.`.`.1X1X7X0X0X8X7X1X_.+.h ",
"X d.c.f.= c f.f.d.% ; z - ; * f.c.G = F l.; f.x.5 * , h.c.c.z.- f.c.c.c.l.f.d.z.d.4 d.x.l.z.d.= G c.3 3 4 L 5Xg N n.j.m.F l j ; c.f.= F c.2 k.f.= < 3 2 : N m.l.G c.x.v.= v.d.s R d > , L 3 2 J z.l.x.z.m.z.h.z.W.Q.A f f f f f f f f f f f f f ] ] g ` O.` `.%.aX0.X q q q q q q - u.-.  j rXp q q q q q q q q q q r r r r r r r r r w q q q - MXk o j < < < < < < < < < < j < z j j j j j j j j j j j j j z z j j j j j j j j j j j j j V j j j j x x x x x x x x j V V x z x x x x z z N @.&.>X_.>X0X1X7X0X7X<X#.B x 3 9 x 2 ",
": f.l.c.f.L f.d.d.= 2 V < < = v.m.G = G z.G c.x.F , s j.c.f.l.l.f.d.z.l.c.c.x.c.9 s x c.v.c x s G z.x c 5 L 5XO.g b.j.b.H N z x L x p H v.s h.h.s x p j j N L J P x.x.v.s v.g.a R v j j S k p c m.f.x.z.j.x.x.x.b.mXE.f M M M M M M M M M M M M ] #.] @.@.@.<X%.aX0.X q q q q q q - u.-.  j rXp q q q q q q q q q w e e e e e e e e r w q q q - xXx O - - - - - - - - - - - 1 - z 1 ; 1 1 1 1 1 1 1 1 1 < 1 j z 1 < < < < < < < < < < < < z < < < < < < < < < < < < < z z < j < < < < p 2 k @.$.`.`.1X0X1X1X>X$.` j 2 j j j k < ",
"s v.G f.c.j.k.G f.a z C k K L f.b.g.b g.z.g.c.l.z.c g j.f.H f.c.l.h.z.f.x.c.f.z.c z l z.f.a z l L m.c K K L 2X#.O.j.j.B V S V z l z z z b z C S z V b V z A N a L x.k.K B v.h.B #.T D V K V N K j.k.v.L h.x.z.n.z.V.Q.;.] [ ] ] ] ] ] ] ] ] ] ] #.#.@.#.#.#.<X%.aX0.X q q q q q q - u.-.  j rXp q q q q q q q q q w e e e e e e e e e w q q q - xXx   O O O O O O O o O o O o O j o o o o o o o o o o o o O < j o o o o o o o o o - - - - x - - - - - - - - - - - - o x j - - - - - - - - , g +.2X0X1X_._.>X_.$.` , 1 1 1 1 1 o ",
"6 l.* G c.c.d.4 l.- - z % f.c.l.j.f.l.f.c.c.f.F x.5 : m.F = f.c.z.G l.G x.z.G z.4 - = l.f.= ; * H h.4 4 5 c :Xg h K K h , z j - > 1 1 1 1 - z j ; < < < ; z 2 * F x.G g , d.G p T d > < V < 1 j N 3 c ' G x.k.J c.K !.E.t f f f f f f f f f f f ] ] g ` ` ` `.%.aX0.X q q q q q q - u.-.  j rXp q q q q q q q q q q r r r r r r r r r w q q q - xXx   o o o o o o o o o o o o o j - o o o o o o o o o o - o < j o - - - - - - - - - - - - z - - - - - - - - - - - - - x j - - - 1 1 1 ; 1 - f 1X0X7XwX`.>X_.$.+.f < 1 1 < < < - ",
"F f.= 4 F c.G * l.5 - z 4 l.z.l.h.l.z.c.v.c.F h j.f.d.c.F = d.c.z.F G 5 c.l.F l.2 1 = f.d.= < ; c c 4 3 5 c ,XO.g g s a , z x < < < < < < 1 z z < < < < < V j , 5 v.H N 2 2 < x T d < < V j < x V 1 p { G x.k.0 v.F V.Q.L f n n n n n n n n n f ] ] g ] @.] `.%.aX0.X q q q q q q - u.:.  j rXp q q q q q q q q q w e e e e e e e e e w q q q - xXx   o o o o o o o o o o o o o j - o o o o o o o o o o - o < j o - - - - - - - - - - - - z - - - - - - - - - - - - - x j - - - - ; ; , # q 6X0X_.$.fX`.&.$.+.g q 1 1 1 1 1 < - ",
"d.d.= - = G 5 = f.F * a 5 f.f.z.L c.l.c.L 4 4 s g.c.z.c.F = G z.z.5 = 4 z.G 1 H 1 > = f.d.= < ; z x 4 3 5 c :XO.g a a s , z j 1 < < < < < 1 z x < < < < < V j < < < < V < < < x T d < < V j < j V < j { 9 v.k.0 v.k.j.Q.E.t n f f f f f f f f f ] ] g ` O.` `.%.aX0.X q q q q q q - p.:.  j rXp q q q q q q q q q q r r r r r r r r r w q q q - xXx   o o o o o o o o o o o o o j - o o o o o o o o o o - o < j o - - - - - - - - - - - - z - - - - - - - - - - - - - x j - - - - - , # s 8X8X` a +.&X$.+.` g p 1 1 1 1 1 1 < - ",
"c.G = - - l - = f.G = K d.d.d.l.K c.l.c.J = - s h.c.c.c.5 1 = d.z.1 1 ; G 5 : 1 1 1 : F F : < ; z x 4 3 5 c :XO.g a a s , z j 1 < < < < < 1 z x 1 < < < < V j < < < < V < < < x T d < < V < < j V < j { 7 v.g.0 k.x.c.W.!.m f n f f f f f f f f ] ] g ` O.` `.%.aX0.X q q q q q q - p.:.  j eXp q q q q q q q q q w e e e e e e e e e w q q q - xXx   o o o o o o o o o o o o o j - o o o o o o o o o o - o < j o - - - - - - - - - - - - z - - - - - - - - - - - - - x j - - - - : # s 8X8Xf + , s &X} s s , ; 1 1 1 1 1 1 < o ",
"f.F * - - z ; = G f.= k.c.G 4 5 c c.f.z.K * ; s h.c.c.c.5 - - F G * ; 1 = 1 1 1 1 1 1 : : 1 < ; z x 4 3 5 c :XO.g a a s , z j 1 < < < < < 1 z x 1 < < < < V j < < < < V < < < x T d < < V < < j V < j { 9 L H 0 H G x.n.Q.s.y n f f f f f f n f ] ] g ` O.` `.%.aX0.X q q q q q q - p.:.  j eXp q q q q q q q q q q r r r r r r r r r w q q q - xXx   o o o o o o o o o o o o o j o o o o o o o o o o o - o < j o - - - - - - - - - - - - z - - - - - - - - - - - - - x j - - - : + s 8X7Xq # , - ; $Xi - ; ; 1 1 1 1 1 1 1 < o ",
"; * - - - z - - 4 z.l.l.f.4 * : z z.d.l.K * ; s L c.c.d.* ; ; - * ; 1 1 ; ; 1 1 1 1 1 1 1 1 < ; z x 4 3 5 c :XO.g a a s , z j 1 < < < < < 1 z x 1 < < < < V j < < < < V < < < x T d < < V < < j V 1 j { < 0 9 2 0 H x.c.W.W.h.f n n f f f f f f ] ] g ] O.` `.%.aX0.X q q q q q q - p.:.  j eXp q q q q q q q q q w e e e e e e e e e w q q q - xXx   o o o o o o o o o o o o o j o o o o o o o o o o o o o < j o - - - - - - - - - - - - z - - - - - - - - - - - - - x j - - : # s 8X7X, # , ; - ; $Xi - 1 1 1 1 1 1 1 1 1 < o ",
"- - - - - z - - - 5 z.c.4 = ; 1 z G 5 5 c - - s L l.c.G = ; 1 ; ; 1 1 1 1 1 1 1 1 1 1 1 1 1 1 ; z x 4 3 5 c :Xg g a a s , z j 1 < < < < < 1 z x 1 < < < < V j < < < < V < < < x T d < < V < < j V 1 p { < 2 2 < 0 0 H d.Z.Q.Z.c f f n f f f f f ] ] g ` O.` `.%.aX0.X q q q q q q - i.:.  j eXp q q q q q q q q q q r r r r r r r r r w q q q - xXx   o o o o o o o o o o o o o j o o o o o o o o o o o o o < j o - - - - - - - - - - - - z - - - - - - - - - - - - - x j - : # s 8X7Xq # : ; ; - ; $Xi - 1 1 1 1 1 1 1 1 1 < o ",
"* - - - - z - - - = F g.; - - 1 z * - - z - - s L l.l.G = ; 1 1 1 1 1 1 1 1 1 1 1 1 1 1 1 1 1 - z x 4 3 5 c :Xg g a a s , z j 1 < < < < < 1 z x 1 < < < 1 V j < < < < V < < < j T d < < V < < j V 1 j { < < < < 0 c D L l.W.W.b.j.D f a f f a f B ] ] ` O.] `.%.aX0.X q q q q q q - i.;.  j eXp q q q q q q q q q w e e e e e e e e r w q q q - xXx   o o o o o o o o o o o o o j o o o o o o o o o o o o o < j o - o - - - - - - - - - - z - - - - - - - - - - - - - x j - # s 8X8Xs # : - - ; - ; $Xi - ; 1 1 1 1 1 1 1 1 < o ",
"* - - - - z - - - - * a - - - 1 z - - ; z - - j c 5 l.G = ; ; 1 1 1 1 1 1 1 1 1 1 1 1 1 1 1 1 - z x 4 3 5 c :Xg g a a s , z j 1 < < < < < 1 z x 1 < < < 1 V j < < < < V < < < j T d < < V < < j V 1 p { < < < < 9 L OXM.N.C.Q.j.n.h.f } } (.} a } ] o.{ o.o.K.%.aX0.X q q q q q q - i.;.  j eXp q q q q q q q q q w e e e e e e e e r w q q q - xXx   o o o o o o o o o o o o o j o o o o o o o o o o o o o < j o - o - - - - - - - - - - z - - - - - - - - - - - - o x j + s 7X8Xf # : - - - - - ; $Xi - ; ; 1 1 1 1 1 1 1 1 o ",
"- - - - - z - - - - ; z - - - 1 z - - 1 z - - j j % F H * ; ; ; 1 1 1 1 1 1 1 1 1 1 1 1 1 1 1 - z x 4 3 5 c :Xg g a a s , z j 1 < < < < < 1 z x 1 < < < 1 V j < < < < V < < < j T d > < V < < j V 1 p { < < < < < 0 X.L N.#XnX#XB.@X(.(.} (.(.o.(.(.o.(.(.o.K.%.aX0.X q q q q q q - i.;.  j eXp q q q q q q q q q q r r r r r r r r r w q q q - xXx   o O o o o o o o o o o o o j o o o o o o o o o o o o o < j o - o o - - - - - - - - - z - - - - - - - - - - - - o k 2 y 7X8Xf + : - - - - - - ; $Xi - ; ; ; 1 1 1 1 1 1 1 o ",
"- - - - - z - - - - 1 z - - - 1 z - - 1 z - - j j - p l - 1 ; ; 1 1 1 1 1 1 1 1 1 1 1 1 1 1 1 - z x 4 3 5 c :Xg g a a s , z j 1 < < < < < 1 z x 1 < < < 1 V j < < < < V < < < j T d > < V < < j V 1 p { < < < < < 9 M.L B.o.sXW.N.#X} X.o.o.o.(.o.(.(.(.o.o.K.%.aX0.X q q q q q q - i.;.  j eXp q q q q q q q q q w e e e e e e e e e w q q q - xXx   o o o o o o o o o o o o o j o o o o o o o o o o o o o < j o - - - - - - - - - - - - z - - - - - - - - - - - - - j j 6X0Xf + : - - ; - - ; - ; $Xi - ; 1 1 1 1 1 1 1 1 < o ",
"- - - - - z - - - - 1 z - - - 1 z - - 1 z - - j j - j z - 1 ; ; ; 1 1 1 1 1 1 1 1 1 1 1 1 1 1 - z x 4 3 5 c :Xg g a a s , z j 1 < < < < < 1 z x 1 < < < 1 V j < < < < V < < < j T d > < V < < j V 1 p { < < < < < 2 o.L B. .8.mXZ.M.} X...}  .} (.o.} o.(.} <X%.aX0.X q q q q q q - i.;.  j eXp q q q q q q q q q q r r r r r r r r r w q q q - xXx   O O O O O O O O O O O O O j o O O O O O O O O o o o O < < O o o o o o o o o o o o o x o o o o o o o o o o # - o j 7X8Xf + - - - - - - - - - - $Xi o - - - - - - - - - - o ",
"- ; - - - z ; - ; ; > z - ; - > z - ; > z ; - j k - j z - > > > > > > > > > > > > > > < < < < ; D x 4 5 5 c ,X` g a a a q z x > < < < < < > z x < < < < < V j < < < < V u < < x T d 2 < V u < k V < k { < u u u u u 9 J H : c Q.C.b.L f f f f f B ] g ` O.` `.%.aX0.X q q q q q q - [.;.  j tXp q q q q q q q q q w e e e e e e e e e w q q q - MXj - j j j j j j j j j j j j j V j j j j j j j j j j x x j z V j x x x x x x x x x x x z S z z z z z z z z z z z x x 1X0X@.9 z z z z z z z z z z z *X} z z z z z z z z z z z x ",
"@ @ @ @ @ 7 @ @ @ @ @ 7 @ @ @ @ 7 @ @ @ 7 @ @ 7 7 O 1 7 @ @ @ @ @ @ @ @ @ @ @ @ @ @ @ @ @ @ @ @ 9 1 # 6 6 9 :XY h 8 8 8 @ 7 7 @ @ @ @ @ @ @ 7 7 @ @ @ @ @ v 1 @ @ @ @ v @ @ @ 7 I 8 @ @ v @ @ 7 d @ 7 ` @ @ @ @ @ @ @ 9 9 @ O E.Q.b.m.s s s s s g g h g I g K.%.aX0.X q q q q q q - [.;.  j yXp q q q q q q q q q q r r r r r r r r r w q q q - xXk O - - - - - - - - - - - - - x - - - - - - - - - - - ; - j j - 1 1 1 1 1 1 1 1 1 1 1 1 z 1 1 1 1 1 < < < < < ; ; 1X0X` # < < < < < < < < < < < < $Xi 1 < < < < < < < < < < - ",
"oXoXoXoXoXOXoXoXoXoXOXOXoXOXoXOXOXoXOXOXOXOXoXOXOXoXOXOXoXOXOXOXOXOXOXOXOXOXOXOXOXOXOXOXOXOXOXOXOXOXOXOXOXOX&X@X@X@X@XOXOX@XOXOXOXOXOXOXOXOX@XOXOXOXOXOXOX@XOXOXOXOXOX@XOXOXOXOX@X@XOXOX@XOXOX@X@XOXOX&XOXOXOXOXOXOXOX@X@XOXOX;X;X$X;X@X@X@X@X@X&X&X@X&X&X@X&X$.iX0.X q q q q q q - [.;.  j yXp q q q q q q q q q w e e e e e e e e e w q q q - xXk   O O O O O O O O O O O O O j o O o o o o o o o o o o O < < O o o o o o o o o o o o o x o o o o o o - - - # # 1X0X@.4 * - - - - - - - - - - - - $Xi # - - - - - - - - - ; o ",
"OXOXOXOXOXOXOXOXOXOXOXOXOXOXOXOXOXOXOXOXOXOXOXOXOXOXOXOXOXOXOXOXOXOXOXOXOXOXOXOXOXOXOXOXOXOXOXOXOXOXOXOXOXOX&X&X@X@X@XOXOX@XOXOXOXOXOXOXOXOX@XOXOXOXOXOXOX@XOXOXOXOXOX@XOXOXOXOX@X@XOXOX@XOXOX@X@XOXOX&XOXOXOXOXOXOXOX@X@X@X@XOX;X;X*X@X@X@X@X@X&X&X&X&X&X&X;X$.iX0.X q q q q q q - 4X;.  j yXp q q q q q q q q q q r r r r r r r r r w q q q - xXk   o O O O O o o o o o o o O j o o o o o o o o o o o o o < j o o o o o o o o - - - - - x - - - - - - - - - + 1X0X' 4 j - - - - - - - - - - - - - $Xi # ; - - - - ; 1 1 1 1 o ",
"@ @ @ @ @ 7 @ @ @ @ @ 7 @ @ @ @ 7 @ @ @ 7 @ @ 7 7   1 7 @ @ @ @ @ @ @ @ @ @ @ @ @ @ @ @ @ @ @ @ 9 7 # 6 6 9 :XY h 8 8 8 @ 7 7 @ @ @ @ @ @ @ 7 7 @ @ @ @ @ v 1 @ @ @ @ v @ @ @ 7 I 8 @ @ v @ @ 7 v @ 7 ` @ @ @ @ @ @ @ 1 0 0 0 # W.W.k.x 8 s 8 s g g h g Y g K.%.aX0.X q q q q q q * rX;.  j yXp q q q q q q q q q w e e e e e e e e e w q q q - xXk   o O O O O O o o o o o o O j o o o o o o o o o o o o o < j o o o o o o o o o - - - - x - - - - - - - - + 1X0X+.. l < - - - - - - - - - - - - - $Xi # ; - - - - - - ; ; 1 o ",
"- - - - - z ; - - - ; z - ; - > z - ; > z ; - j k - u z - > > > > > > > > > > > > > > > > > < ; D x 4 5 5 c ,X` g a a a q z x > < < < < < > z x > < < < > V j < < < < V < < < x T d > < V u < k D > j { < q < < < < < x H c K 5 V.Q.b.K } n } f ] ] ] { { ] `.%.iX0.X q q q q q q * rX;.  j yXp q q q q q q q q q w e r e e e e e e r w q q q - xXk   O O O O O O o o o o o o O j o o o o o o o o o o o o O < j o o o o o o o o o o - - - x - - - - - - - . 1X0X+.. * j < o - - - - - - - - - - - - $Xi # ; - - - - - - - - 1 o ",
"- - - - - z - - - - - z - - - 1 z - - - z - - j j o < z - 1 ; ; ; ; ; ; ; ; 1 1 1 1 1 1 1 1 1 - z x 4 3 5 c :Xg g a a s , z j 1 < < < < < 1 z j 1 < < < 1 z < < < < < V < < 1 j T d > < V < < j z 1 p { 1 < < < < < < 2 H o.#XK X.mXC.M.(.X.(. .M o.(.(.(.o.K.%.iX0.X q q q q q q * rX;.  j yXp q q q q q q q q q q r r r r r r r r r w q q q - xXk   O O O O O O O o o o o o O j o o o o o o o o o o o o O < j o o o o o o o o o o o - - x - - - - - - . _.0X+.. - o j < o - - - - - - - - - - - - $Xi # - - - - - - - - - 1 o ",
"- - - - - z - - - - - z - - - 1 z - - - z - - j j o < z - ; ; ; ; ; ; ; ; ; 1 1 1 1 1 1 1 1 1 - z x 4 3 5 c :Xg g a a s , z j 1 < < < < < 1 z j 1 < < < 1 z < < < < < V < < 1 j T d > < V < < j z 1 p { 1 < < < < < < 2 H i X.0  .sXW.M.o.#X} o.o.(.(.(.#Xo.K.%.iX0.X q q q q q q * rX;.  j yXp q q q q q q q q q w e e e e e e e e e w q q q - xXk   O O O O O O O o o o o o O j o o o o o o o o o o o o O < < o o o o o o o o o o o o - x - - - - - . _.0X+.. - - o j < o - - - - - - - - - - - - $Xi # - - - - - - - - - 1 o ",
"- - - - - z - - - - - z - - - 1 z - - ; z - - j j o < z - - - ; ; ; ; ; ; ; ; 1 1 1 1 1 1 1 1 - z x 4 3 5 c :Xg g a a s , z j 1 < < < < < 1 z j 1 < < < 1 z < 1 < < < V < < 1 j T d > < V < 1 j z 1 p { 1 < < < < < 1 i o.i o.L X.V.Q.B.M.(.o.o.o.o.(.(.o.(.`.%.iX0.X q q q q q q * rX;.  j yXp q q q q q q q q q q r r r r r r r r r w q q q - xXk   O O O O O O O O o o o o O j o o o o o o o o o o o o O < < O o o o o o o o o o o o - x - - - - . _.0X+.. - - - o j < o - - - - - - - - - - - - $Xi # - - - - - - - - - 1 o ",
"- - - - - z - - - - - z - - - 1 z - - ; z - - j j o < z - - - - ; ; ; ; ; ; ; ; 1 1 1 1 1 1 1 - z x 4 3 5 c :Xg g a s s , z j 1 < < < < < - z x 1 < < < 1 z < < < < < V < < 1 j T d > < V < 1 j z 1 p { 1 < < < < < < < 1 u  ...M.s.mXC.B...(.n } (.o.o.(.} `.%.iX0.X q q q q q q * rX;.  j iXp q q q q q q q q q w e e e e e e e e e w q q q - xXk   O O O O O O O O O o o o O j o o o o o o o o o o o o O < < O o o o o o o o o o o o o x # - - . _.0X$.. - - - - o j < o - - - - - - - - - - - - $Xi # - - - - - - - - - 1 o ",
"- - - - - z - - - - - z - - - 1 z - - ; z - - j j o < z - ; - - ; ; ; ; ; ; ; ; ; 1 1 1 1 1 1 - z 3 4 3 5 c :Xg g a s s , z j 1 < < < < < - z j 1 < < < 1 z < < < < 1 V < < 1 j T d > < V < 1 j z ; p { 1 < < < < < < < < < 1 9 H 0 !.W.m.K h f ] g g g O.g `.%.pX0.X q q q q q q * rX;.  x iXp q q q q q q q q q q r r r r r r r r r w q q q - xXj   O O O O O O O O O o o o O j o o o o o o o o o o o o O < < O o o o o o o o o o o o o x $ - . _.0X&.. - - - - - o j < o - - - - - - - - - - - - $Xi # - - - - - - - - - 1 o ",
"- - - - - z - - - - - z - - - 1 z - - ; z - - j j o < z - - - - - ; ; ; ; ; ; ; ; ; 1 1 1 1 1 - z 3 4 3 5 c :Xg g a s s , z j 1 < < < < < - z j 1 < < < 1 z < < < < < V < < 1 j T d > < V < 1 j z ; p { 1 < < < < < < < < < < 2 J 4 E.Q.n.P t f ] ] g ` ` ` `.%.iX0.X q q q q q q * rX2.  x iXp q q q q q q q q q w e e e e e e e e e w q q q - xXj   O O O O O O O O O O o o O j o o o o o o o o o o o o O < < O o o o o o o o o o o o o x * . &.0X_.+ - - - - - - o j < o - - - - - - - - - - - - $Xi # - - - - - - - - - - o ",
"- - - - - z - - - - - z - - - 1 z - - ; z - - j j o < z - - - - - - ; ; ; ; ; ; ; ; 1 1 1 1 1 - z 3 4 3 5 c :Xg g a s s , z j 1 < < < < < - z j 1 < < < 1 z < < < < < V < < 1 j T d > < V < 1 j z ; p { 1 < < < < < < < < < < 2 J 4 ) Q.j.h.P f ] ] g ` ` ` `.%.iX0.X q q q q q q * rX,.  x uXp q q q q q q q q q q r r r r r r r r r w q q q - xXj   O O O O O O O O O O O o O j o O o o o o o o o o o o O < < O o o o o o o o o o o o * l . &.0X_.. - - - - - - - o j < o - - - - - - - - - - - - $Xi # - - - - - - - - - - o ",
"- - - - - z - - - - - z - - - 1 z - - ; z - - j j o < z - - - - - - - ; ; ; ; ; ; ; ; 1 1 1 1 - z 3 4 3 5 c :Xg g a s s , z j - < < < < < - z j 1 < < < 1 z < 1 < < < V < < 1 u T d > < V < 1 j z ; p { 1 < < < < < < < < < < 2 H 3 b Q.V.v.j.f ] ] g ` ` ` `.%.iX0.X q q q q q q * rX,.  x uXp q q q q q q q q q w e e e e e e e e e w q q q - xXj   O O O O O O o O O O O o O j o o o o o o o o o o o o O < < o o o o o o o o o o o o - 3 $.0X_.. - - - - - - - - o j < o - - - - - - - - - - - - $Xi # - - - - - - - - - 1 o ",
"- - - - - z - - - - - z - - - 1 z - - - z - - j j o < z - - - - - - - ; ; ; ; ; ; ; ; ; 1 1 1 - z 3 4 3 5 c :Xg g a s s , z j - 1 1 < < < - z j 1 < < < 1 z < < < < < V < < 1 u T d > < V < 1 j z ; p { 1 < < < < < < < < < < 2 H 0 < W.W.b.j.f ] ] g ` ` ` `.%.pX0.X q q q q q q * rX,.  x uXp q q q q q q q q q w e r r r r r r r r w q q q - xXj   O O O O O O O O O O O O O j o O O O O O O O O O o o O < < O o o o o o o o o o o o . $.0X_.. o o o o o o o o o o j < o o o o o - - - - - - # - $Xi o - - - - - - - - - - O ",
"- - - - - z - - - - - z - - - 1 z - - - z - - j j o < z - - - - - - - - ; ; ; ; ; ; ; ; ; 1 1 - z 3 4 3 5 c :Xg g a s s , z j - 1 1 1 < < - z j 1 < < < 1 z < 1 < < < V < < 1 u T d > 1 V < 1 j z ; p { 1 < < < < < < < < < < < H H $ E.W.m.b.f ] ] g ` ` ` `.%.iX0.X q q q q q q * rX,.  x uXp q q q q q q q q q q e r r r r r r r r w q q q - xXj o j < j < < < j j j j j j j z j j j j j j j j j j j j j z z j j j j j j j j j j k 4 $.0X>X3 k k x x x x x x x x j V V j x x x x x x z z z z x z *X} j z z z z z z z z z z j ",
"o - - - - z - - - - - z - - - 1 z - - ; z - - j j o < z - ; - - - - - - - 1 1 1 1 1 1 1 1 ; 1 - z x 4 3 5 c :Xg g a s s , z j - 1 1 1 1 < ; z j 1 < < < 1 z < 1 < < < V < < 1 j T d > < V < 1 j z 1 p { 1 < < < < < < < < < < < H H 4 ) Q.n.b.f ] ] g ` ` ` `.%.pX0.X q q q q q q * rX,.  x uXp q q q q q q q q q w e e e e e e e e e w q q q - xXj   o o o o o o o o o o o o o j - o o o o o o o o o o - o < j o - - - - - - - - - . +.0X1X. - - - - - - - - - - - - j j - - - - - - - - - - - - ; $Xi # ; 1 1 1 1 1 1 1 1 1 o ",
"o - - - - z - - - - - z - - - - z o - - z - - j j o < z o - - - - - - - - - - - - - - - - - - - z 3 4 4 5 5 :Xg a a s s , l j - 1 1 1 1 1 - x j - 1 1 1 - z < 1 1 1 1 V < 1 1 u T 7 ; 1 z < ; j z - q { ; < < < < < < < < < < < H 0 0 c Q.Z.m.k ] ] f ` ` ` `.%.pX0.X q q q q q q * eX,.  x uXp q q q q q q q q q q r r r r r r r r r w q q q - xXj   O O O O O O O O O O O O O j o O O O O O o o o o o o O < < O o o o o o o o $ . +.0X_.3 o o o o o o o o o o o - o j < o - - - - - - - - - - - - $Xi o - - - - - - - - - - O ",
"- 1 1 1 1 z 1 1 1 1 < z 1 < 1 < z 1 < < z < 1 x x - j z 1 < < < < < < < < < < < < < < < < < < < z x 3 5 5 c :XO.g g a a p z x < < < < < < < z z < < < < < V j < < < < V j j < x T d 2 < V j < x V < k { < j j j j j j j j j j j c c H x !.W.m.D ] ] ` ] @.] <X%.pX0.X q q q q q q * eX,.  x uXp q q q q q q q q q w e e e e e e e e e w q q q - xXj   O O O O O O O O O O O O O j o O o o o o o o o o o o O < < O o o o o o o * . ' 0X1X+ j o o o o o o o o o o - - o j < o - - - - - - - - - - - - $Xi o - - - - - - - - - - o ",
"j x x x x V x x x x z V x z x z S x x z S z x V V j V S x z z z z z z z z z z z z z z z z z z z C D c c H K 2X@.@.@.B B N S V z z z z z z z S V z z z z z A V z z z z A z z z V #.T z z A V z V A z N #.z z z z z z z z z z z b m K K k E.W.m./ @.#.@.#.#.@.<X%.pX0.X q q q q q q $ eX,.  x uXp q q q q q q q q q q r r r r r r r r r w q q q - xXj   O O O O O O O O O O O O O j o O o o o o o o o o o o O < < O o o o o o * . ' 0X1X. o k o o o o o o o o o o o - o j < o - - - - - - - - - - - - $Xi o - - - - - - - - - - o ",
"o o o o o x - o o o - x o - o - x o - - z - o < j o < x o - - - - - - - - - - - - - - - - - - - x 3 4 4 4 5 :Xg a s s s : l j - - - - - - - j j - 1 ; 1 - z < - ; 1 - z 1 ; - u T 7 ; 1 z < - < z - q ] - 1 1 1 1 1 1 1 1 1 1 1 1 < H * s.Q.n.P g ] f ` ` g `.%.pX0.X q q q q q q * eX,.  z uXp q q q q q q q q q w e e e e e e e e e w q q q - xXj   O O O O O O O O O O O O O j o O O o o o o o o o o o O < < O o o o o * . h 0X1Xo o * x o o o o o o o o o o o - o j < o - - - - - - - - - - - - $Xi o - - - - - - - - - - o ",
"- - - - - z - - - - - z - - - 1 z - - - z - - j j o < z - - - - - - - - - - - - - 1 1 1 1 1 1 - z 3 4 3 5 c :Xg g a s s , z j 1 < 1 1 1 < - x j ; < < < 1 z < 1 < < 1 V < < 1 u T d > < V < 1 j z ; p { ; < < < < < < < < < < < < < H ; ( Q.b.L ` ] g ` ` ` `.%.pX0.X q q q q q q $ yX1.  x jXp q q q q q q q q q q r r r r r r r r r w q q q - xXj   O O O O O O O O O O O O O j o O O O o o o o o o o o O < < O o o o $ . h 0X1Xo o o o j o o o o o o o o o o o - o j < o - - - - - - - - - - - - $Xi o - - - - - - - - - - O ",
"o - - - - z - - - - - z - - - 1 z - - - z - - j j o < z - - - - - - - - - - - - - - ; ; ; ; 1 - x 3 4 4 5 c :Xg g a s s , l j - 1 1 1 1 1 - x j - 1 1 1 ; z < 1 < < 1 V < < 1 u T s ; 1 V < 1 j z ; q { ; < < < < < < < < < < < < < 0 2 x !.C.d.] ] g ` ` ` `.%.pX0.X q q q q q q : w.-.  Z yXk q q q q q q q q q w e e e e e e e e e w q q q - xXj   O O O O O O O O O O O O O j o O O O o o o o o o o o O < < O o o $ . h 0X1Xo o $ o o j o o o o o o o o o o o - o j < o - - - - - - - - - - - - $Xi o - - - - - - - - - - O ",
"o - - - - z - - - - - z - - - 1 z - - - z - - j j o < z - - - - - - - - - - - - - - - ; ; ; 1 - x 3 4 4 5 c :Xg g a s s , l j - 1 1 1 1 1 - x j - 1 1 1 - z < 1 < < 1 V < < 1 u T s ; 1 V < 1 j z ; q { ; < < < < < < < < < < < < < 0 3 * W.W.k.] ] f ` ` ` `.%.pX0.X q q q q q q q :.{.eXlXlXZ : q q q q q q q q q e r r r r r r r r w q q q - xXj   O O O O O O O O O O O O O j o O O O O o o o o o o o O < < O o $ . h 8X6Xo o $ o o o j o o o o o o o o o o o - o j < o - - - - - - - - - - - - $Xi o - - - - - - - - - - O ",
"o - - - - z - - - - - z - - - ; z - - - z - - j j o < z - - - - - - - - - - - - - - - - ; ; 1 - x 3 4 4 5 5 :Xg g a s s , l j - 1 1 1 1 1 - x j - 1 1 1 - z < 1 < < 1 V < < 1 u T s ; 1 V < 1 j z ; q { ; < < < < < < < < < < < < < 0 9 $ E.W.j.] ] f ` ` ` `.%.pX0.X q q q q q q , 4.ZXSXJXlXm , q q q q q q q q q e r r r r r r r r w q q q - xXj   O O O O O O O O O O O O O j o O O O O O o o o o o o O < < O $ . h 8X6X* O o o o o o j o o o o o o o o o o o - o j < o o o - - - - - - - - # - $Xi o - - - - - - - - - - O ",
"o - - - - z - - - - - z - - - - z - - - z - - j j o < z - - - - - - - - - - - - - - - - - ; 1 - x 3 4 4 5 5 :Xg g a s s , l j - 1 1 1 1 1 - x j - 1 1 1 - z < 1 1 < 1 V < < 1 u T s ; 1 V < 1 j z - q { ; < < < < < < < < < < < < , 0 0 % ) Q.b.N ] f ` ` ` `.%.pX0.X q q q q q q , 4.MXDXSX4Xq q q q q q q q q q w e e e e e e e e e w q q q - xXj   O O O O O O O O O O O O O j o O O O O O O o o o o o O < < X . y 8X7X* . o o o o o o j o o o o o o o o o o o o o j < o - o o - - - - - - - # - $Xi o - - - - - - - - - - O ",
"o - - - - z - - - - - z - - - - z - - - z - - j j o < z - - - - - - - - - - - - - - - - - - 1 - x 3 4 4 5 5 :Xg g a s s , l j - 1 1 1 1 1 - x j - 1 1 1 - z < 1 1 1 1 V < < 1 u T s ; 1 V < 1 j z - q { ; < < < < < < < < < < < < , 0 H * ( Q.Z.D ] f ` ` ` `.%.pX0.X q q q q q q , 4.MXAXDX{.q q q q q q q q q q q r r r r r r r r r w q q q - xXj   O O O O O O O O O O O O O j o O O O O O O O o o o o O < p   y 8X7Xy . o o o o o o o j o o o o o o o o o o o o o j < o o o o o o - - - - - # - $Xi o - - - - - - - - - - O ",
"o - - - - z - - - - - z - - - - z - - - z - - j j o < z - - - - - - - - - - - - - - - - - - - - x 3 4 4 5 5 :Xg g a s s , l j - 1 1 1 1 1 - x j - 1 1 1 - z < 1 1 1 1 z < < 1 u T s ; 1 V < 1 j z - q { ; < < < < < < < < < < < < < 2 H 3 9 Q.C.K ` f ` ` ` `.%.pX0.X q q q q q q , 4.ZXDXDX{.q q q q q q q q q q w e e e e e e e e e w q q q - xXj   O O O O O O O O O O O O O j o O O O O O O O O o o o O < ; = 8X8Xy . o o o o o o o o j o o o o o o o o o o o o o j < o - o o o o o o - - - # - $Xi o - - - - - - - - - - O ",
"o - - - - z - - - - - z - - - - z - - - z - - j j o < z - - - - - - - - - - - - - - - - - - - - x 3 4 4 5 5 :Xg g a s s , l j - 1 1 1 1 1 - x j - 1 1 1 - z < 1 1 1 1 z < 1 1 u T s ; 1 V < 1 j z - q { ; < < < < < < < < < < < < < < H 0 - W.W.L ` f ` ` ` `.%.pX0.X q q q q q q , 4.vXzXzXe.q q q q q q q q q q q r r r r r r r r r w q q q - xXj   O O O O O O O O O O O O O j o O O O O O O O O o o o O ; a 6X8Xy . o o o o o o o o o j o o o o o o o o o o o o o j < o - o o o o o o o - - - - $Xi o - - - - - - - - - - O ",
"o - - - - z - - - - - z - - - - z - - - z - - j j o < z - - - - - - - - - - - - - - - - - - - - x 3 4 4 5 5 :Xg g a s s , l j - 1 1 1 1 1 - x j - 1 1 1 - z < 1 1 1 1 z < 1 - u T 7 ; 1 V < 1 j z - q { ; < < < < < < < < < < < < < < H H - E.W.j.` f ` ` ` `.%.pX0.X q q q q q q , >.>.[ #.1.p q q q q q q q q q w e e e e e e e e e w q q q - xXj   O           O O O O O O   < O O O O O O O O O O O o   : 7X8Xy . o o o o o o o o o o j o o o o o o o o o o o o O j < o o o o o o o o o o o o # $Xi o # o o o o o o - - - O ",
"o - - - - z - - - - - z - - - - z - - - z - - j j o < z o - - - - - - - - - - - - - - - - - - - x 3 4 4 5 5 :Xg g a s s : l j - 1 1 1 1 1 - x j - 1 1 1 - z < 1 1 1 1 z < 1 1 u T 7 ; 1 V < 1 j z - q { ; < < < < < < < < < < < < 1 < H H # V.Q.j.` f ` ` ` `.%.pX0.X q q q q q q $ tX,.  x jXp q q q q q q q q q q r r r r r r r r r w q q q - xXj o j j j j j j j j j j j j j V j j j j j j j j j j k j k 6X8XB 2 l x x x x x x x x x x V x x x x x x x x x x z z x V V x z z z z z z z z z z z z *X} x z z z z z z z z z z j ",
"o - - - - z - - - - - z - - - - z - - - z - - j j o < z o - - - - - - - - - - - - - - - - - - - x 3 4 4 5 5 :Xg g a s s : l j - 1 1 1 1 1 - x j - 1 1 1 - z < 1 1 1 1 z < 1 1 u T 7 ; 1 z < 1 j z - q { ; < < < < < < < < < < < < < < 0 H ; ) Q.j.` f ` ` ` `.%.pX0.X q q q q q q $ yX1.  z lXp q q q q q q q q q w e e e e e e e e e w q q q - xXj   O O O O O O O O O O O O O j o O O O O O o o o o . o 6X0Xf . $ o o o o o o o o o o o j o o o o o o o o o o o o o j < o - o o o - - - - - - # - $Xi o - - - - - - - - - - O ",
"o - - - - z - - - - - z - - - ; z - - - z - - j j o < z - - - - - - - - - - - - - - - - - - 1 - x 3 4 4 5 c :Xg g a s s , l j - 1 1 1 1 1 - x j - 1 1 1 - z < 1 1 < 1 z < 1 1 u T 7 ; 1 V < 1 j z - q { ; < < < < < < < < < < < < < < , 0 4 b Q.C.` g ` ` ` `.%.pX0.X q q q q q q $ yX1.  z lXp q q q q q q q q q q e r r r r r r r r w q q q - xXj   O     O O O O O O O O O   < O O O O O O O O o . o 6X0Xg ; O o o o o o o o o o o o o j o o o o o o o o o o o o O j < o o o o o o o o o o o o o $Xi o # o - - - - - - - - O ",
"o o o o o j o o o o - x o o o - x o o - x o o < j o < j o - o - - - - - - - - - - - - - - - - o x 4 ; 4 6 5 :Xg a s s s * k < - - - - - - - j < - - - - - z < - - - - z 1 - - 2 T 7 - - z ; - < z # , ] - 1 ; ; ; ; ; ; ; ; ; ; ; ; ; - 3 3 1 Q.W.f f g ` g `.%.pX0.X q q q q q q $ yX1.  z lXp q q q q q q q q q w e r r r r r r r r w q q q - xXj   O     O O O O O O O O O   < O O O O O O O O O O 1X0Xh # q O o o o o o o o o o o o o j o o o o o o o o o o o o O j < o o o o o o o o o o o o # $Xi o # o o o - - - - - - O ",
"< < < < < -.A V A j j V < j < j V < j j V < < z z < z ;.z z S j j j j j j j j j j j j j j j j < A ;.K -.K c :X@.B B B l k V z j j j j j j j :.-.V -.x j j V x j j j j S x j j z R v u z ,.V A A V j l { j k x x x x x x x x x x x x x k c c j W.W.] ] @.@.] <X%.pX0.X q q q q q q $ yX<.  z lXp q q q q q q q q q w e e e e e e e e e w q q q - xXj   O       O O O O O O O O   < O O O O O O O O O 1X0X'   , < O o o o o o o o o o o o o j o o o o o o o o o o o o O j < o o o o o o o o o o o o # $Xi o # o o o o o - - - - O ",
"j j j < S ;.j -.-.j j V j j j x V j j j V j j z V j ;.A z ;.V j j j j x x x x x x x x x x x j z 2.D c K K K ,X@.@.B B B l V V x z x x z j A :.z -.,.V x x S z x z z x C z z l D R B x :.A A -.;.A j m { x z z z z z z z z z z z z z z l c K w E.Q.] ] @.@.@.<X%.pX0.X q q q q q q $ yX<.  z lXp q q q q q q q q q q r r r r r r r r r w q q q - xXj   O         O O O O O O O   < O O O O O O O . 1X0X' . O 1 <   o o o o o o o o o o o o j o o o o o o o o o o o o O j < o o o o o o o o o o o o o $Xi o # o o o o o o o o - O ",
"o o o O z A   - z j o x o o o - x o o - x o o < < O -.j - S V 1 o - o - - - - - - - - - - - o < ;.; + K 5 3 :Xg s s s s * j < o - - - - o z V 1 z -.j - - z 1 - - - - z - - - 2 T 7 - A z ; z ;.z o , ] # - - - - - - - - - - - - - - - 4 0 X V.Q.M f g ` g `.%.pX0.X q q q q q q $ yX<.  z kXp q q q q q q q q q w e e e e e e e e e w q q q - xXj   O           O O O O O O   < O O O O O O . _.0X' . o O 1 <   o O o o o o o o o o o o j o o o o o o o o o o o o O j < o o o o o o o o o o o o o $Xi o # o o o o o o o o - O ",
"o - - o < ;.x j S j - z - - - - z - - - z - - j j o V :.j V S 1 - - - - - - - - - - - - - - - - -.K 3 K 5 5 :Xg a a s s , l j - 1 1 1 1 - j ;.V V A x - - z < 1 1 1 1 z < 1 - u T s - V ;.j z A z - q ] ; < 1 1 1 1 1 1 1 1 1 1 1 1 < 1 < H ; ) Q.#.f ` ` ` `.%.pX0.X q q q q q q $ yX<.  z kXj q q q q q q q q q q r r r r r r r r r w q q q - xXj                 O O O O O   < o O O O O   _.0X' . o O O 1 <   o O O o o o o o o o o o j o o o o o o o o o o o o O j < o o o o o o o o o o o o o $Xu O o o o o o o o o o - O ",
"o - - - o z < < < o 1 z o - - 1 z - - 1 z - - j j o < V 1 < 1 - 1 - - - - 1 ; - - 1 - - 1 1 - - z c 3 3 5 c :Xg a a s s , k j ; 1 1 < 1 1 - z z 1 < - < ; z < 1 < < ; z < 1 - u T 7 ; 1 S j j j z 1 q ] ; < < < 1 < < < 1 1 1 1 1 < < < < H 5 K Q.2.t ` ` g `.%.pX0.X q q q q q q $ yX<.  z kXj q q q q q q q q q w e e e e e e e e e w q q q - xXj                   O O O O   < O O O O   _.0X' . o O O   1 <   o O O O O o o o o o o o j o o o o o o o o o o o o O < < o o o o o o o o o o o o o $Xu o o o o o o o o o o - O ",
"o   O - O <     o o   j - O   O < o - O j - O - < o - <   o - o   - - O O O o ; o O - - O O - o 2 ; + 4 5 4 :Xg s y = = * l ; O 1 - O o 1 o < ; O - - O o V - o o o - z o o 1 > d 7 ; o j o o j j   , { O o o - < - o o 1 1 1 1 - - - - - 0 5 2 Q.V.t ` ` g `.%.pX0.X q q q q q q $ iX<.  z kXj q q q q q q q q q q r r r r r r r r r w q q q - xXj   O                 O O O   < O O O   _.0X+.  o O O O   1 <   o O O O O O o o o o o o j o o o o o o o o o o o o O < < O o o o o o o o o o o o o $Xu o o o o o o o o o o - O ",
"V SXi.  rXiXkXCX- z SXrX  i.zXcXCX1 z SXeX  y.SXA o kXrXAXeX  y.SXA o kXlXAXeX  0.SX-.O zXzXO ;.kXeXAX;.6 sXwXh 5.cXhXDX2.o zXxXo A SXu.  eXyXzXxX- C SXi.  eXcXxXxX1 A SXrX  rXDXd 2 kXeXDXrX  rXSX[ ' vXkXDXeX  p.DXkXz - < - A ,.;.,.,.s.s.1.!.W.5.` ` g `.%.pX0.X q q q q q q $ iX<.  z kXj q q q q q q q q q w e e e e e e e e e w q q q - xXj   O                   O O   < O O   _.0X$.  O O O O O   1 <   o O O O O O O o o o o o j o o o o o o o o o o o o O < < O o o o o o o o o o o o o %Xu o o o o o o o o o o - O ",
"A KXjX  kXCXGXKX- S KXlX  jXLXLXKX< V KXkX  iXKX:.o SXkXKXzX  yXKX;.O GXGXKXxX  eXKX,.  HXHX  8.SXcXKXs.6 DXqXh 7.LXFXKX9.  GXLXo ;.KXuX  cXxXJXLX- -.KXuX  kXLXLXLX1 -.KXjX  lXKXv 2 GXkXKXkX  uXKX:.f JXGXKXzX  uXKXGXS - < - 1.xXxXxXMXnXnXxXQ.mX{.g ` g `.%.pX0.X q q q q q q $ uX<.  z kXj q q q q q q q q q q r r r r r r r r r w q q q - xXj   O                     O   < O   _.0X$.  O O O O O O   1 <   O O O O O O O O o o o o j O o o o o o o o o o o o O < < O o o o o o o o o o o o o %Xu O o o o o o o o o o -   ",
"A KXjX  kXxXSXKX- S KXlX  jXHXHXLX< V KXkX  yXKX:.o SXjXKXzX  yXKX;.o GXSXKXcX  eXKX,.  HXHX  8.SXvXKXs.6 AXqXh 6.FXDXKX6.  GXLXo ;.KXiX  zXcXGXLX- -.KXuX  kXJXPXLX1 -.KXjX  lXKXv u SXlXKXlX  uXKX:.f GXSXKXkX  uXKXSXV - < - ,.xXxXCXCXbXnXUXW.mX{.g ` g `.%.pX0.X q q q q q q $ uX<.  z kXj q q q q q q q q q w e r e e e e e e r w q q q - xXj   O                     O   p . _.0X$.  O O O O O O O   1 <   O O O O O O O O O o o o j O o o o o o o o o o o o O < < O o o o o o o o o o o o o %Xu O o o o o o o o o o -   ",
"A KXjX  kXxXGXKX- S KXlX  jXHXHXKX< V KXkX  iXKX:.o SXlXKXzX  yXKX;.o GXSXKXxX  eXKX,.  HXHX  8.SXvXKXs.6 AXqXh 6.FXSXKX6.  GXLXo ;.KXiX  cXxXJXLX- -.KXuX  kXHXLXLX- -.KXjX  lXKXv u GXlXKXkX  uXKX:.f JXSXKXzX  uXKXSXV - < - ,.cXCXvX0.V.V.aXW.mX4Xg ` g `.%.pX0.X q q q q q q $ uX<.  z vXj q q q q q q q q q w e e e e e e e e e w q q q - xXj                         O   ; $.0X$.  O O O O O O O O   1 <   O O O O O O O O O O O o j O o o o o o o o o o o o O < < O o o o o o o o o o o o o %Xu O o o o o o o o o o o   ",
"A KXjX  kXxXGXKX- S KXlX  jXHXHXKX< V KXkX  iXKX:.o SXlXKXzX  yXKX;.o GXSXKXxX  eXKX,.  HXHX  8.SXvXKXs.6 AXqXh 6.FXSXKX6.  GXLXo ;.KXuX  cXxXJXLX- -.KXuX  kXHXLXLX; -.KXjX  lXKXv u GXlXKXkX  uXKX:.f JXSXKXzX  uXKXSXV - < - ,.cXCXeXkXnXnXrXC.Q.4X` ` g `.%.pX0.X q q q q q q $ uX<.  z vXj q q q q q q q q q q r r r r r r r r r w q q q - xXj   O             O O O O O   $.0X&.  O O O O O O O O O   1 < O o O O O O o o o o o o o j o o o o o o o o o o o o O < < O o o o o o o o o o o o o %Xi o o o o o o o o o o - O ",
"A KXjX  kXxXGXKX; C KXlX  jXHXHXKX< V KXkX  iXKX;.- SXlXKXcX  yXKX;.o GXSXKXxX  eXKX,.O HXHXO 8.SXvXKXs.6 AXqXh 7.FXSXKX9.O GXLXo ;.KXuX  cXxXJXLX- :.KXjX  zXHXLXLX1 -.KXjX  kXKXv j GXlXKXkX  jXKX;.' JXSXKXzX  uXKXSXV - < - ,.cXxXrXyXUXsXV.C.Q.4X` ` g `.%.pX0.X q q q q q q $ uX<.  z zXj q q q q q q q q q w e e e e e e e e e w q q q - xXq o < < < < < < < < < < p ; $.0X_.6 p q < < < < < < < j < x z < j j j j j j j j j j j j z j j j j j j j j j j j j j z z j j j j j j j j j j j j j *XD 9 j j j j j j j j j x < ",
"z KXuX  jXxXSXKXO z KXjX  uXHXHXKXo j KXkX  yXKXA   SXlXKXzX  eXKX-.  GXSXKXcX  rXKX;.  HXHX  ,.SXvXKX,.. AXqX= 5.FXSXKX<.  GXLX  A KXyX  zXxXJXLX  C KXuX  lXHXLXLXO V KXjX  jXKXd # GXlXKXlX  uXKX[ t JXSXKXkX  yXKXSXV - < - ,.cXCXy.[ CXa.,.C.Q.E.' ` g `.%.pX0.X q q q q q q $ uX<.  z zXj q q q q q q q q q q r r r r r r r r r w q q q - xXj                     O   +.0X_.    O           O O O O   - 1   O O O O O O O O O O O O j O O O O O O O O O O O o O < 1 O o o o o o o o o o o o o %Xu O o o o o o o o o o o   ",
"kXKXAXu.GXzXGXKXrXlXKXAXu.SXGXPXKXrXlXKXDXp.SXKXuXyXHXjXKXSXp.DXKXuXyXPXSXKXSXp.DXKXjXeXKXPXi.CXDXcXKXaXV.SXqX4XzXFXSXKXlXeXLXLXrXzXKXCXi.JXzXJXKXrXkXKXZXi.GXGXLXKXrXkXKXAXi.IXLX4XaXJXlXKXDXi.SXKXuX4XLXSXKXDXi.SXKXSXV - < - ,.zXxXzXu.zXV.sXZ.Q.E.' ` g `.%.pX0.X q q q q q q $ uX<.  z zXj q q q q q q q q q w e e e e e e e e e w q q q - xXj                   O   +.0X_.; O     O O O O O O O O O   1 <   O O O O O O O O O O O O j O O O o o o o o o o o o O < 1 O o o o o o o o o o o o o %Xu O o o o o o o o o o o   ",
"KXKXHXJXKXkXGXKXGXKXKXHXHXKXSXPXKXGXKXKXPXHXKXKXGXKXLXjXKXPXJXKXKXJXLXKXSXKXPXJXKXKXJXLXKXLXGXKXAXcXKXDXJXIXqXVXLXFXSXKXGXLXKXKXGXKXKXHXHXKXkXJXKXGXKXKXHXHXKXSXLXKXGXKXKXHXHXKXFXDXKXHXlXKXHXHXKXKXGXFXKXSXKXPXHXKXKXGXV - < - ,.zXcXcXxXxXxXnXn.W.E.' ` g `.%.pX0.X q q q q q q $ uX<.  z zXj q q q q q q q q q q r r r r r r r r r w q q q - xXj                 O   +.0X_.  < O       O O O O O O O O   ; <   O O O O O O O O O O O O j O O O O O o o o o o o o O < 1 O o o o o o o o o o o o o %Xu O o o o o o o o o o o   ",
"KXKXJXSXKXkXGXKXDXLXKXJXSXKXSXPXKXDXLXKXJXSXKXKXSXLXLXjXKXHXSXKXKXSXPXKXSXKXHXSXKXKXSXHXKXLXSXKXAXcXKXAXIXIXqXVXPXFXSXKXSXHXKXLXSXKXKXGXGXKXkXJXKXSXKXKXJXGXKXSXLXKXSXKXKXJXSXKXFXCXKXHXlXKXJXSXKXKXDXSXKXSXKXJXSXKXKXGXV o < - ,.cXcXxXxXxXxXnXn.W.E.' ` g `.%.pX0.X q q q q q q $ uX<.  z zXj q q q q q q q q q w e e e e e e e e e w q q q - xXj               O   ' 0X_.    < O         O O O O O O O   ; <   O O O O O O O O O O O O j O O O O O O O o o o o o O < 1 O o o o o o o o o o o o o %Xu O o o o o o o o o o o   ",
"KXKXJXGXKXkXGXKXSXKXKXHXGXKXSXLXKXSXKXKXHXGXKXKXSXLXLXjXKXHXGXKXKXSXLXKXSXKXHXGXKXKXSXLXKXLXSXKXAXcXKXDXIXGXqXVXLXFXFXKXSXPXKXLXSXKXKXJXJXKXkXJXKXSXKXKXJXJXKXSXLXKXSXKXKXHXGXKXFXAXKXPXlXKXHXGXKXKXSXSXKXSXKXHXGXKXKXGXS - < 1 ;.i.p.i.i.i.V.V.b.W.E.` ` ` `.%.pX0.X q q q q q q $ uX3.  z zXj q q q q q q q q q q r r r r r r r r r w q q q - xXj             O   h 0X1X      < O           O O O O O O   - <   O O O O O O O O O O O O j O O O O O O O O O o o o O < 1 O o o o o o o o o o o o o %Xu O o o o o o o o o o o   ",
"-.-.A A -.-.A -.A -.-.;.A -.A -.;.A -.-.;.-.-.;.:.-.:.-.-.-.-.-.-.-.-.-.-.-.-.-.-.-.-.-.-.-.-.-.;.K -.K K ;.2X=.5.#.#.>.#.;.;.-.-.:.:.-.-.:.-.;.-.-.:.:.-.;.;.-.-.:.-.,.:.-.-.;.,.#.:.-.:.;.-.:.,.-.:.5.-.-.:.-.-.:.:.-.z z z z V z z z z z z K l.W.!.@.@.@.<X%.pX0.X q q q q q q $ dX8.  z zXj q q q q q q q q q w e e e e e e e e r w q q q - xXj           O   h 0X1X    O   < O             O O O O O   - <   O O O O O O O O O O O O j O O O O O O O O O O o o O < 1 O o o o o o o o o o o o o %Xu O o o o o o o o o o o   ",
"  O O O   j O   O   O j O O O o <   O O j O   ; <   - j   O O O O O O O O O O O O O O O O O o O 2 4 + 6 6 4 :Xh h s = = o < 1 O o o o o o O < < O o o o O j - o o o o j o o o ; d 8 o o x o o - j O - ` O $ o o o o o o - - - - - - - - - - ; 0 l.C.!.g ` g `.%.pX0.X q q q q q q $ dX8.  z cXj q q q q q q q q q w e e e e e e e e r w q q q - xXj         O   h 0X1X          < O               O O O O   - 1   O O O O O O O O O O O O j O O O O O O O O O O O o O < 1 O o o o o o o o o o o o o %Xu O o o o o o o o o o o   ",
"o - - - - x - - - o - x o - - - z - - - z - - j j o < z o - - - - - - - - - - - - - - - - - - - x 3 4 4 4 5 :Xg a a s s : l j - - - 1 ; 1 - j j - 1 1 1 - z < - 1 ; - z 1 1 - u T 7 ; 1 z < - j z - q ] - - 1 1 1 1 1 1 1 1 1 1 1 1 1 1 1 1 ; 0 l.Z.!.@.` g _.%.pX0.X q q q q q q $ dX8.  z cXj q q q q q q q q q q r r r r r r r r r w q q q - xXj           h 0X1X            < O                   O O   - 1   O O O O O O O O O O O O j O O O O O O O O O O O     < - O O O O O O o o O O o O o %Xu O o o o o o o o o o o   ",
"o o o o o x - S < z V C C 1 o - x o - - x o o < j o < j - S < j o - - - - - - - - - - - - - - - x 2 c K c c :Xg a s s s : j j V V z - - - - j j - - - - - z < S z z 1 z 1 - - 2 T 7 - - z 1 - < z - , ] - A < S V z 1 1 ; ; ; ; ; ; ; ; ; ; ; 0 l.Z.!.1.@.#.`.+.pX0.X q q q q q q $ dX8.  z cXj q q q q q q q q q w e e e e e e e e e w q q q - xXj         h 8X1XO             < O                     O   - 1   O O O O O O O O O O O O j O O O O O O O O O o o X.& o.o.  > X.i X...O    .i X...& %Xu O o o o o o o o o o o   ",
"o o o o o j 1 A j z z ;.j z o - x o - - x o o < j o < x - S j A j - - - - - - - - - - - - - - # x 3 6 K K K ,Xg a s s s - k < z A S V ; - - j j - - - - - z < -.j V S V - - - 2 T 7 - - z 1 - < z - , ] - A V z V -.V < - 1 ; ; ; ; ; ; ; ; ; 0 l.n.!.a.#.] 3XO.pX0.X q q q q q q $ gX8.  z cXj q q q q q q q q q q r r r r r r r r r w q q q - xXq   O   y 8X6XX               < O                     O   - 1   O O O O O O O O O O O O j O O O O O O O O O     X.i 1 ).O ..i #X....& ..#X..).X.& %Xu O o o o o o o o o o o   ",
"o o o o o x - - -.z x ;.< z o - x o - - x o o < j o < x o z j ,.< o - - - - - - - - - - - - - o x 4 3 c K 1.:Xg a s s s * k < < A ,.V o - - j j - - - - - z < 1 S ;.-.x 1 - - 2 T 7 - - z 1 - < z - , ] # z V z z ,.A - 1 ; ; ; ; ; ; ; ; ; ; 0 l.n.Q.8.@.] 3X@.pX0.X q q q q q q $ jX8.  z cXj q q q q q q q q q w e e e e e e e e e w q q q - xXp     y 8X6X%                 < O                     O   - 1   O O O O O O O O O O O O < O O O O O O O O    .& ..i  ...  ..i #Xi ..i ..........i %Xu O o o o o o o o o o o   ",
"o o o o o x - z z z S A A < o - x o - - x o o < < o < x o z j V z - - - - - - - - - - - - - - # x 2 K K K K ,Xg a s s s - j x V V V V < - - j j - - - - - z < z V V V S - - - 2 T 7 - - z 1 - < z - , ] # z j S S z S < - 1 ; ; ; ; ; ; ; ; ; 9 v.x.E.8.] :.`.O.pX0.X q q q q q q $ jX8.  z cXj q q q q q q q q q q r r r r r r r r r w q q q - xXp   y 8X7X%                   < O                     O   - 1   O O O O O O O O O O O O < O O O O O O O O O & O  .i #Xo.i i X. .X...O ..X.i X...& %Xu O o o o o o o o o o o   ",
"o o o o o x - - o o - j o o o - x o - - x o o < < o < x o - - o - - - - - - - - - - - - - - - o x 3 4 3 4 5 :Xg a s s s - j < - - - - - - - j j - - - - - z < 1 - - - z 1 - - 2 T 7 - - z 1 - < z - , ] - - - ; - - - ; - - - - - - ; ; ; ; - 2 v.c.W.E.' g `.%.pX8.$ q q q q q q $ jX8.  V cXj q q q q q q q q q w e e e e e e e e e w q q q - MX2 % 7X7X%                     < O                     O   - 1   O O O O O O O O O O O O < O O O O O O O O O O O O   q u X O o O o O O o o O & o O %X> O o o o o o o o o o o   ",
"- - - - - z - - - - - z - - - 1 z - - ; z - - j j o < z - ; - - - - - - - - - - - 1 ; ; ; ; 1 - z 3 4 4 5 c :Xg g a s s , z j - 1 1 1 1 1 - z j - 1 1 1 - z < - 1 1 1 z < 1 1 u T d ; 1 V < 1 j z - q { ; < < 1 < < < < < < < < < < < < < < < < v.x.W.E.' ` &.&.cX[ : q q q q q q $ jX8.  z cXk q q q q q q q q q q r r r r r r r r r w q q q X jX8._.8X=   O O O O O O O O O O j o O O O O O O O O O O o O 1 < O o O o o o o o o o o o o j o o o o o o o o o o o o O 7 1 O o o o o o o o o o o o o *Xi o o o o o o o o o o - O ",
"                                                                                                            %                                                                                                                                   G d.) ( X % y hXuX$ q q q q q q q $ iXrX  ;.zXq q q q q q q q q q w e e e e e e e e e w q q q - [ DX=.%                                                                                                                                             X                           ",
"yXyXyXyXyXyXyXyXyXyXyXyXyXyXyXyXyXyXyXyXyXyXyXyXyXyXyXyXyXyXyXyXyXyXyXyXyXyXyXyXyXyXyXyXyXyXyXyXyXyXyXyXyXyXyXyXyXyXyXiXiXyXyXiXiXiXiXiXiXiXyXiXiXiXiXiXiXiXiXiXiXiXiXiXiXiXiXiXiXiXiXiXiXiXiXiXiXiXiXiXiXiXiXiXiXiXiXiXiXiXiXiXiXiXiXiXiXiXiXiXyXtXtXtXiXyXxXjX- q q q q q q q q : [ cXuXCX0.- q q q q q q q q q w e e e e e e e e r w q q q q $ ,.cXiXeXeXeXeXeXeXeXeXeXeXeXeXeXeXeXeXeXeXeXeXeXeXeXeXeXtXeXeXtXtXtXtXtXtXtXtXtXtXtXtXtXtXyXyXyXyXyXyXyXyXyXyXyXyXyXyXyXyXyXyXyXyXyXyXyXyXyXyXyXyXeXyXyXyXyXyXyXyXyXyXyXyXyXyX",
"r.r.r.r.r.r.r.r.w.w.w.r.w.w.w.w.r.w.w.w.r.w.w.w.w.w.w.r.w.w.w.w.w.w.w.w.w.w.w.w.w.w.w.w.w.w.w.w.w.w.w.w.w.w.r.w.w.w.w.w.w.w.w.w.w.w.w.w.w.w.w.w.w.w.w.w.w.w.w.w.w.w.w.w.w.w.w.w.w.w.w.w.w.w.w.w.w.w.w.w.w.w.w.w.w.w.w.w.w.w.w.w.w.w.w.w.w.w.w.w.r.r.y.y.w.0.-.$ q q q q q q q q q q : m r.;.: q q q q q q q q q q q r r r r r r r r r w q q q q q $ , 3.y.r.y.y.y.y.y.y.y.y.y.y.y.y.y.y.y.y.y.y.y.y.y.y.y.y.y.y.r.y.y.y.y.r.r.r.r.r.r.r.r.y.r.r.r.r.r.r.r.r.r.r.r.r.r.y.r.r.r.r.r.r.r.r.r.r.r.r.r.r.y.r.r.r.r.r.r.r.r.r.r.r.r.r.",
"X X X X X X X X X X X X X X X X X X X X X X X X X X X X X X X X X X X X X X X X X X X X X X X X X X X X X X X X X X X X X X X X X X X X X X X X X X X X X X X X X X X X X X X X X X X X X X X X X X X X X X X X X X X X X X X X X X X X X X X X X X X X X X - q q q q q q q q q q q q : $ : q q q q , q q q q q q w e e e e e e e e e w q q q q q q q $ X X X X X X X X X X X X X X X X X X X X X X X X X X X X X X X X X X X X X X X X X X X X X X X X X X X X X X X X X X X X X X X X X X X X X X X X X X X X X X X X X X X X ",
"p p p p p p p p p p p p p p p p p p p p p p p p p p p p p p p p p p p p p p p p p p p p p p p p p p p p k q p p p j j j j j j j j j j j j j j j j j j j j j j j j j j j j j j j j j j j j j j j j j j j j j j j j j j j j j j j j j j j j j j j j j j j j j q q q q q q q q q q , q q l p q , k p : l q q q q q q q r r r r r r r r r w q q q q q q q p j j j j j j j j j j j j j j j j j j j j j p p j j j j j j j j j j j j j j j j j j j j j j j j j j j p p p p p p p p p p p p p p p p p p p p p p p p p p p p p p p p p p ",
"q q q q q q q q q q q q q q q q q q q q q q q q q q q q q q q q q q q q q q q q q q q q q q q q q q q q m q q q q , , , , , , , , , , , , , , , , , , , , , , , , , , , , , , , , , , , , , , , , , , , , , , , , , , , , , , , , : , , , : : , , : : : , : q q q q q q q q q : 8.8.k w.8., Z w.3.,.0.1., q q q q w e e e e e e e e e w q q q q q q q , , , , , , , , , , , , , , , , , , , , , , q q , , , , , , , , , , , , , , , , , , , , , , , , , , , q q q q q q q q q q q q q q q q q q q q q q q q q q q q q q q q q q ",
"q q q q q q q q q q q q q q q q q q q q q q q q q q q q q q q q q q q q q q q q q q q q q q q q q q q q m q q , S <.<.<.<.<.<.<.<.<.<.<.<.<.3.3.8.8.8.8.8.8.8.8.8.8.8.8.8.8.8.8.8.8.8.9.9.9.9.9.9.9.q.q.q.q.q.q.0.0.0.0.0.0.0.0.0.0.0.0.0.0.0.0.0.0.w.y.0.y.<.q q q q q q q , , :.9.: q y.j Z p.6.1.u.<., q q q q q r r r r r r r r r w q q q q q q l V m N V V V V V V V V V V V V Z Z Z Z Z S Z q q V m m m N V V V V V V V V V V V V V V V Z Z Z Z Z Z A k q q q q q q q q q q q q q q q q q q q q q q q q q q q q q q q q q ",
"q q q q q q q q q q q q q q q q q q q q q q q q q q q q q q q q q q q q q q q q q q q q q q q q q q q q m q q , [ jXkXkXkXkXkXkXkXkXkXkXzXzXzXzXzXzXzXzXzXcXcXcXcXcXcXcXcXxXxXxXxXxXxXxXxXxXxXCXCXCXCXCXCXCXCXCXCXZXZXZXZXZXAXAXAXAXAXAXAXAXDXDXDXDXDXDXDXSXrX, q q q q q q 3.m l 9.X >.:.$ Z 0.8.<.q.3.q q q q q w e e e e e e e e e w q q q q q , Z tXuXuXuXuXuXjXjXjXjXlXlXkXkXkXkXkXzXzXzXxXq.: q y.uXiXuXuXuXuXuXjXjXjXjXjXjXlXkXkXkXkXkXkXzXzXzXzXxXyXj q q q q q q q q q q q q q q q q q q q q q q q q q q q q q q q q q ",
"q q q q q q q q q q q q q q q q q q q q q q q q q q q q q q q q q q q q q q q q q q q q q q q q q q q q m q q , A uXlXjXjXlXlXlXlXlXlXkXkXkXkXkXkXkXkXkXkXkXzXzXzXzXzXzXzXzXzXzXcXxXcXcXcXcXxXcXxXxXxXxXxXxXxXxXxXxXxXCXCXCXCXCXCXCXCXCXCXZXZXZXZXZXAXAXZXDXi., q q q q q q j , Z 3.A yX-.>.<.6.8.u.1.q.q q q q q q r r r r r r r r r w q q q q q , V uXzXzXxXcXxXxXxXCXCXxXZXCXCXAXAXDXAXDXAXDXq.: q p.zXkXcXcXcXcXxXcXxXCXxXCXCXCXCXCXCXAXZXDXDXDXDXDXSXiXq q q q q q q q q q q q q q q q q q q q q q q q q q q q q q q q q q ",
"q q q q q q q q q q q q q q q q q q q q q q q q q q q q q q q q q q q q q q q q q q q q q q q q q q q q m q q , A uXlXjXlXlXlXlXlXlXkXkXkXkXkXkXkXkXkXkXzXzXzXzXzXzXzXzXp.cXuX0.tX9.xXeXiXiXeXuXCXxXxXxXxXxXxXxXxXCXCXCXCXCXCXCXCXCXCXZXZXZXZXZXZXAXAXAXZXDXi., q q q q q q q q p k l [ [ N q [ N q :.k , q q q q w e e e e e e e e e w q q q q q , V uXzXyXi.lXeXeXkXrXuXxXuXkXcXuXjXyXxXkXCXAX9.: q u.zXjXrXeXeXyXi.lXjXrXkXuXeXjXxXkXxXjXxXuXuXkXxXzXDXyXp q q q q q q q q q q q q q q q q q q q q q q q q q q q q q q q q q ",
"q q q q q q q q q q q q q q q q q q q q q q q q q q q q q q q q q q q q q q q q q q q q q q q q q q q q m q q , A uXlXjXlXlXlXlXlXlXkXkXkXkXkXkXkXkXkXkXkXzXzXzXzXzXzXzX0.zXlXi.iX>.yXrXiX1.rXxXcXxXxXxXxXxXxXxXxXCXCXCXCXCXCXCXCXCXCXCXZXZXZXZXZXAXAXAXZXDXi., q q q q q q q q q q , - : , q : , q : q q q q q q q e r r r r r r r r w q q q q q , V uXzXp.u.i.i.i.[.0.jXAXr.rXuX0.tXeX[.eXZXAX9.: q u.cXrXr.jXw.u.rXi.i.p.iXp.zXi.yXp.zX6.lXeXrX3.dXuXSXyXp q q q q q q q q q q q q q q q q q q q q q q q q q q q q q q q q q ",
"q q q q q q q q q q q q q q q q q q q q q q q q q q q q q q q q q q q q q q q q q q q q q q q q q q q q m q q , A uXlXjXlXlXlXlXlXlXkXkXkXkXkXkXkXkXkXkXkXzXzXzXzXzXzXzXy.xXkXrXyXrX8.i.uX;.rXCXxXMXCXxXxXxXxXxXxXCXCXCXCXCXCXCXCXCXCXCXZXZXZXZXZXZXAXAXZXDXi., q q q q q q q q q q q l k : , , q q q q q q q q q q q q q q q q q q q q q q q q q , V uXzXu.q.uX0.w.iXy.lXlXrXp.i.eXiXcX0.iXDXZX9.: q u.zXjXp.rXrX[.zXrXu.rXrXyXSXrXp.u.iX6.rXuXuX[.8.jXDXyXp q q q q q q q q q q q q q q q q q q q q q q q q q q q q q q q q q ",
"q q q q q q q q q q q q q q q q q q q q q q q q q q q q q q q q q q q q q q q q q q q q q q q q q q q q m q q , A uXlXjXlXlXlXlXlXlXkXkXkXkXkXkXkXkXkXkXkXzXzXzXzXzXzXcX3.rXtX0.eXiXeX,.iXeX[.rXyXyXyXjXCXxXxXxXxXCXCXCXCXCXCXCXCXCXCXCXCXZXZXZXZXZXZXZXZXDXi., q q q q q q q q q q $ 1.>.8.0.[ , q q q q q q q q q q q < q q w q q < q q q q q q , V uXzXu.uXzXy.rXrXu.jXuXeXr.p.yXrXp.tXrXxXZX8.: q u.zXjXrX0.w.y.p.rXrXrXuXr.jXrXzXyXy.rXp.y.rXlX8.eXSXtXp q q q q q q q q q q q q q q q q q q q q q q q q q q q q q q q q q ",
"q q q q q q q q q q q q q q q q q q q q q q q q q q q q q q q q q q q q q q q q q q q q q q q q q q q q m q q , A uXlXjXlXlXlXlXlXlXkXkXkXkXkXkXkXkXkXkXkXzXzXzXzXzXzXzXuXeXuXuXlXkXcXjXzXkXcXjXkXkXlXzXxXxXxXxXxXxXCXCXCXCXCXCXCXCXCXCXCXCXCXZXZXZXZXZXZXDXi., q q q q q q q q q k 9.rX,.9.;.9.: q q q q q q q q q < w /.w e | | e | < q q q q q , V uXkXuXkXkXjXkXjXyXdXCXkXkXvXzXlXdXxXzXxXCX8.: q u.kXuXeXjXiXuXeXkXlXeXkXjXuXkXzXkXlXZXcXdXkXxXcXzXAXeXp q q q q q q q q q q q q q q q q q q q q q q q q q q q q q q q q q ",
"q q q q q q q q q q q q q q q q q q q q q q q q q q q q q q q q q q q q q q q q q q q q q q q q q q q q m q q , A uXlXlXlXlXlXlXlXlXkXkXkXkXkXkXkXkXkXkXkXzXzXzXzXzXzXzXxXxXxXxXcXcXcXxXxXxXxXCXxXxXCXxXxXxXxXxXxXCXCXCXCXCXCXCXCXCXCXCXCXCXZXZXZXZXZXZXZXDXp., q q q q q q q q : ,.:.>.,.y.w.1.: q q q q q q q q q e w | e 1 _ _ _ /.< q q q q q , V uXzXzXzXzXcXcXxXCXCXxXCXCXCXCXZXAXCXAXZXAX8.: q p.zXzXcXzXcXcXxXcXxXCXxXCXCXCXCXCXZXCXZXAXAXZXAXAXDXyXq q q q q q q q q q q q q q q q q q q q q q q q q q q q q q q q q q ",
"q q q q q q q q q q q q q q q q q q q q q q q q q q q q q q q q q q q q q q q q q q q q q q q q q q q q m q q , [ dXjXjXjXlXlXlXlXlXlXkXkXkXkXkXkXkXkXkXkXkXvXzXzXzXzXzXzXzXzXzXzXcXcXcXcXcXcXcXcXxXxXxXxXxXxXxXxXxXxXMXCXCXCXCXCXCXCXCXCXCXCXCXCXZXZXZXCXDXi., q q q q q q q q : -.6.0.1.0.:.y., q q q q q q q q < _ e _ e q | _ | /.w q q q q q , V rXrXrXeXeXeXeXeXeXtXyXyXyXyXyXyXyXiXiXiXuX<., p 0.eXrXrXeXeXeXeXeXeXeXtXyXyXyXyXyXyXiXiXiXiXuXuXiXuXi.j q q q q q q q q q q q q q q q q q q q q q q q q q q q q q q q q q ",
"q q q q q q q q q q q q q q q q q q q q q q q q q q q q q q q q q q q q q q q q q q q q q q q q q q q q m q q q V ;.:.:.:.:.:.;.;.;.;.;.;.;.;.;.;.;.;.;.;.;.;.;.;.;.;.;.;.;.;.;.;.;.2.2.2.2.2.,.,.,.,.,.,.,.,.,.,.,.,.,.,.,.,.,.,.,.,.,.,.,.,.,.,.,.,.,.,.1.;.q q q q q q q q q q q ;.,.l >.3.m , q q q q q q q q q < < r w e r q w _ q q q q q q q j k j j j j j k k k k k k k k k k k k k k k l q q k j j j j j j k k k k k k k k k k k k k k k k k k k l p q q q q q q q q q q q q q q q q q q q q q q q q q q q q q q q q q ",
"q q q q q q q q q q q q q q q q q q q q q q q q q q q q q q q q q q q q q q q q q q q q q q q q q q q q m q q q q , , , , , , , , , , , , , , , , , , , , , , , , , , , , , , , , , , , , , , , , , , , , , , , , , , , , , , , , , , , : : : : : : : : , : , q q q q q q q q q q q : : q : - q q q q q q q q q q q q q < q < < q q < q q q q q q q q q q q q q q q q q q q q q q q q q q q q q q q q q q q q q q q q q q q q q q q q q q q q q q q q q q q q q q q q q q q q q q q q q q q q q q q q q q q q q q q q q q q q q ",
", , , , , , , , , , , , , , , , , , , , , , , , , , , , , , , , , , , , , , , , , , , , , , , , , , , , q : , , , , , , , , , , , , , , , , , , , , , , , , , , , , , , , , , , , , , , , , , , , , , , , , , , , , , , , , , , , , , , , , , , , , , , , , , , , , , , , , , , , , , , , , , , : , q q q q q q , , , , q , , q , , q , , , , , , , , , , , , , , , , , , , , , , , , , , , , , , , , , , , , , , , , , , , , , , , , , , , , , , , , , , , , , , , , , , , , , , , , , , , , , , , , , , , , , , , , , , , , , ",
"N N N N N N N N N N N N N N N N N N N N N N N N N N N N N N N N N N N N N N N N N N N N N N N N N N N N N N N N N N N N N N N N N N N N N N N N N N N N N N N N N N N N N N N N N N N N N N N N N N N N N N N N N N N N N N N N N N N N N N N N N N N N N N N N N N N N N N N N N N N N N N N N N m : $ q q q k m l l l l l l l l l l l l l l l l l l l l l l l l m V N N N N N N N N N N N N N N N N N N N N N N N N N N N N N N N N N N N N N N N N N N N N N N N N N N N N N N N N N N N N N N N N N N N N N N N N N N N N N ",
"ZXZXZXZXZXZXZXZXZXZXZXZXZXZXZXZXZXZXZXZXZXZXZXZXZXZXZXZXZXZXZXZXZXZXZXZXZXZXZXZXZXZXZXZXZXZXZXZXZXZXZXZXZXZXZXZXZXZXZXZXZXZXZXZXZXZXZXZXZXZXZXZXZXZXZXZXZXZXZXZXZXZXZXZXZXZXZXZXZXZXZXZXZXZXZXZXZXZXZXZXZXZXZXZXZXZXZXZXZXZXZXZXZXZXZXZXZXZXZXZXZXZXZXZXZXZXZXZXZXZXZXZXZXZXZXZXZXZXZXZXZXZXZXZXZXMXxX9.* j $ eXPXIXGXGXGXGXGXGXGXGXGXGXGXGXGXGXGXGXGXGXGXGXGXGXGXSXCXZXZXZXZXZXZXZXZXZXZXZXZXZXZXZXZXZXZXZXZXZXZXZXZXZXZXZXZXZXZXZXZXZXZXZXZXZXZXZXZXZXZXZXZXZXZXZXZXZXZXZXZXZXZXZXZXZXZXZXZXZXZXZXZXZXZXZXZXZXZXZXZXZXZXZXZXZX",
"q q q q q q q q q q q q q q q q q q q q q q q q q q q q q q q q q q q q q q q q q q q q q q q q q q q q q q q q q q q q q q q q q q q q q q q q q q q q q q q q q q q q q q q q q q q q q q q q q q q q q q q q q q q q q q q q q q q q q q q q q q q q q q q q q q q q q q q q q q q q q q q q q l <.AXp.: $ tXKXHXLXKXLXPXHXHXPXHXPXHXHXHXHXPXHXPXHXHXPXPXPXHXKXgX$ k q q q q q q q q q q q q q q q q q q q q q q q q q q q q q q q q q q q q q q q q q q q q q q q q q q q q q q q q q q q q q q q q q q q q q q q q q q q q ",
"q q q q q q q q q q q q q q q q q q q q q q q q q q q q q q q q q q q q q q q q q q q q q q q q q q q q q q q q q q q q q q q q q q q q q q q q q q q q q q q q q q q q q q q q q q q q q q q q q q q q q q q q q q q q q q q q q q q q q q q q q q q q q q q q q q q q q q q q q q q q q q q q q q $ k ZX:.  tXKXHXxXlXSXPXLXPXHXLXPXLXLXPXLXPXLXPXPXLXHXHXHXJXKXdX$ q q q q q q q q q q q q q q q q q q q q q q q q q q q q q q q q q q q q q q q q q q q q q q q q q q q q q q q q q q q q q q q q q q q q q q q q q q q q q ",
"q q q q q q q q q q q q q q q q q q q q q q q q q q q q q q q q q q q q q q q q q q q q q q q q q q q q q q q q q q q q q q q q q q q q q q q q q q q q q q q q q q q q q q q q q q q q q q q q q q q q q q q q q q q q q q q q q q q q q q q q q q q q q q q q q q q q q q q q q q q q q q q q q q k $ [.yX  tXKXGXi.cXrXGXzXDXGXlXGXxXcXAXkXGXvXSXAXzXJXPXHXJXKXdX$ p q q q q q q q q q q q q q q q q q q q q q q q q q q q q q q q q q q q q q q q q q q q q q q q q q q q q q q q q q q q q q q q q q q q q q q q q q q q q ",
"q q q q q q q q q q q q q q q q q q q q q q q q q q q q q q q q q q q q q q q q q q q q q q q q q q q q q q q q q q q q q q q q q q q q q q q q q q q q q q q q q q q q q q q q q q q q q q q q q q q q q q q q q q q q q q q q q q q q q q q q q q q q q q q q q q q q q q q q q q q q q q q q q q q $ 3.zX  yXKXGXtXKXlX[.eXrXrXeX[.i.ZXrXzXlX[.eXu.cXPXHXHXJXKXuX$ p q q q q q q q q q q q q q q q q q q q q q q q q q q q q q q q q q q q q q q q q q q q q q q q q q q q q q q q q q q q q q q q q q q q q q q q q q q q q ",
"q q q q q q q q q q q q q q q q q q q q q q q q q q q q q q q q q q q q q q q q q q q q q q q q q q q q q q q q q q q q q q q q q q q q q q q q q q q q q q q q q q q q q q q q q q q q q q q q q q q q q q q q q q q q q q q q q q q q q q q q q q q q q q q q q q q q q q q q q q q q q q q q q q q $ 3.zX  yXKXGXrXHXtX4XrXcXy.uXxXAXeXDXuXy.tXxXrXJXPXHXHXJXLX[.$ q q q q q q q q q q q q q q q q q q q q q q q q q q q q q q q q q q q q q q q q q q q q q q q q q q q q q q q q q q q q q q q q q q q q q q q q q q q q q ",
"q q q q q q q q q q q q q q q q q q q q q q q q q q q q q q q q q q q q q q q q q q q q q q q q q q q q q q q q q q q q q q q q q q q q q q q q q q q q q q q q q q q q q q q q q q q q q q q q q q q q q q q q q q q q q q q q q q q q q q q q q q q q q q q q q q q q q q q q q q q q q q q q q q q $ 3.zX  yXKXJXeXrXzXGXyXxXCXyXCXjXuXvXyXMXuXMXlXGXHXHXJXPXHX[ : q q q q q q q q q q q q q q q q q q q q q q q q q q q q q q q q q q q q q q q q q q q q q q q q q q q q q q q q q q q q q q q q q q q q q q q q q q q q q ",
"q q q q q q q q q q q q q q q q q q q q q q q q q q q q q q q q q q q q q q q q q q q q q q q q q q q q q q q q q q q q q q q q q q q q q q q q q q q q q q q q q q q q q q q q q q q q q q q q q q q q q q q q q q q q q q q q q q q q q q q q q q q q q q q q q q q q q q q q q q q q q q q q q q q $ 3.zX  yXKXHXLXPXLXPXPXHXLXHXHXHXLXPXPXLXHXHXLXPXPXPXLXLXy.- q q q q q q q q q q q q q q q q q q q q q q q q q q q q q q q q q q q q q q q q q q q q q q q q q q q q q q q q q q q q q q q q q q q q q q q q q q q q q q ",
"q q q q q q q q q q q q q q q q q q q q q q q q q q q q q q q q q q q q q q q q q q q q q q q q q q q q q q q q q q q q q q q q q q q q q q q q q q q q q q q q q q q q q q q q q q q q q q q q q q q q q q q q q q q q q q q q q q q q q q q q q q q q q q q q q q q q q q q q q q q q q q q q q q q $ 3.zX  yXLXIXGXGXGXGXGXGXGXGXGXGXGXGXGXGXGXGXGXGXGXSXxX3.: q q q q q q q q q q q q q q q q q q q q q q q q q q q q q q q q q q q q q q q q q q q q q q q q q q q q q q q q q q q q q q q q q q q q q q q q q q q q q q q ",
"q q q q q q q q q q q q q q q q l q q q q q q q q q q q q q q q q q q q q q q q q q q q q q q q q q q q q q q q q q q q q q q q q q q q q q q q q q q q q q q q q q q q q q q q q q q q n q q q q q q q q q q q q q q q q q q q q q q q q q q q q q q q q q q q q q q q q q q q q q q q q q q q q q q $ 3.zX  dX[., m m m m m m m m m m m m m m m m m m m k , - q q q q q q q q q q q q q q q q q q q q q q q q q q q q q q q q q q q q q q q q q q q q q q q q q q q q q q q q q q q q q q q q q q q q q q q q q q q q q q q q ",
", , , , , , , , , , , q q q q q m q q q p , , , , , , , , , , , , , , , , , , , , , , , , , , , , , , , , , , , , , , , , , , , , , , , , , , , , , , , , , , , , , , , , , , , , q q q m q q q q q q q q q q q q q q q - $ * * * * * * * * * * * * * * * * * * * * * * * * * * $ - : $ * $ $ : q q q $ 3.zX  gXu.X q , , , , , , , , , , , , , , , , , , , q q q q q q q q q q q q q q q q q q q q q q q q q q q q q q q q q q q q q q q q q q q q q q q q q q q q q q q q q q q q q q q q q q q q q q q q q q q q q q q q q q ",
"<.<.<.<.<.3.8.8.8.8.8.<.z q q q m q q q ^ A.A.A.A.A.A.A.! ! ! ! ! ! ! ! Q Q Q Q Q Q Q Q Q W W W W W W W W W W W W U U U U U U U U U U U U U U U U U ^ ^ ^ ^ ^ ^ ^ ^ 8 8 8 8 8 8 = q q q m q q q q q q q q q q q q q q , 3.lXzXzXzXzXzXzXzXzXzXzXzXzXzXzXzXzXzXzXzXzXzXzXzXzXzXzXxXuX[.MXvXzXvX,.: q q $ 3.zX  gXu.$ p q q q q q q q q q q q q q q q q q q q q q q q q q q q q q q q q q q q q q q q q q q q q q q q q q q q q q q q q q q q q q q q q q q q q q q q q q q q q q q q q q q q q q q q q q q q q q q q q q q q q q ",
"yXyXyXyXyXyXyXiXiXiXuXrXl q q q m q q q U P.P.P.P.P.P.P.L.L.L.L.L.H.H.H.H.H.H.H.H.H.H.G.G.G.G.G.G.G.G.G.G.S.S.S.S.S.S.S.S.A.A.A.A.A.A.A.A.A.! ! ! ! Q Q Q Q Q W W W W W W W W U 8 q q q m q q q : q q - - q : - , q : Z HXKXLXLXKXKXLXLXLXKXKXKXKXLXLXKXLXLXLXLXLXLXLXLXLXLXLXLXKXDXkXKXLXLXKXIXm , p $ 3.zX  gXu.$ q q q q q q q - : q q q q q k q q q q q q q q q q q q q q q q q q q , , : q q q q q q q q q q q q q q q q q q q q q q q q : * : q q q q q q q q q q q q q q q q q q q q q q q q q q q q q : q q q q q q q q ",
"eXeXeXeXeXeXeXeXyXyXyXrXl q q q m q q q U L.L.L.L.L.L.L.H.H.H.H.H.H.H.H.H.H.H.G.G.G.G.G.G.G.G.G.G.! ! A.! A.A.A.! A.A.W A.A.A.A.A.A.! ! ! ! Q Q Q Q Q Q Q W W W W W W W U U U U 8 q q q m q q , [ k , <.3.k >.9.Z q * <.KXJXGXJXDXGXHXJXLXZXSXSXDXPXHXGXPXPXJXHXLXPXPXJXHXHXHXJXLXCXdXKXxX3.HXLX>.- j $ 3.zX  gXu.$ q q q q q q k 8.1.j : : j q m k - : q q q q q q q q q q q q q q q l A m -.$ : , , : q : : q q q q q q q q q q q q q q q q ,.q.1.6.$ q : : q : , , $ 1.m $ q q q q q q q q q q q q q q q k >., l q k , , : q ",
"eXeXeXeXeXeXeXyXyXyXyXrXl q q q m q q q U L.P.L.L.L.L.L.L.L.H.H.H.H.H.H.H.H.H.H.G.G.G.G.G.G.G.G.G.! ~ ~ ! ! ~ ! Y A.S.Q ! A.A.A.A.A.A.! ! ! ! Q Q Q Q Q Q W W W W W W W W U U U 8 q q q m q q : w.N p y.1.9.0.A j q $ <.KXrXdXIXtXuXHXHXSXtXvXeXyXcXDXkXGXDXLXSXAXdXAXPXHXHXHXHXLXZXjXLX-.  rXKX>.- j $ 3.zX  gXu.$ q q q q q : [ 9.<.,.#.,.3.[.-.l 1.3.q q q q q q q q q q q q q q : V r.8.A 1.q.m Z 6.k >.,.q q q q q q q q q q q q q q q q Z [.Z [.9.V ;.1.m 3.A >.>.9.u.>., q q q q q q q q q q q q q : [ eXl rX8.eX[ >.,.l ",
"eXeXeXeXeXeXeXyXyXyXyXV.l q q q m q q q U P.P.P.P.L.L.L.L.L.H.H.H.H.H.H.H.H.H.H.G.G.G.G.G.G.G.G.G.~ ! ! ! ~ Y ~ Y A.A.Q A.A.A.A.A.A.A.! ! ! ! Q Q Q Q Q Q W W W W W W W W U U U 8 q q q m q q : 9.m q 4X0.Z y.0.m q * <.KXcXdXKXJXrXPXZXtXi.zXtXuXcXvXvXyXtXCXtXvX0.cXLXHXHXHXHXLXZXjXHXxXZXMXLX>.- j $ 3.zX  gXu.$ q q q q q : V rXp.l [ u.w.;.1.9.>.,.>.: q q q q q q q q q q q q , k jX8.: i.:.9.r.y.rXy.[.-.: q q q q q q q q q q q q q q q 8.q y.:.3.u.Z 8.u.p.p.[ 8.>.0.l q q q q q q q q q q q q q : 9.rX;.8.Z w.q ;.p.y.",
"eXeXeXeXeXeXeXeXeXeXyXi.l q q q m q q q U P.P.P.P.P.L.L.L.L.L.H.H.H.H.H.H.H.H.H.G.G.G.G.G.G.G.G.G.A.S.A.~ ! A.! ! A.! Y A.A.A.A.A.A.A.! ! ! ! Q Q Q Q Q Q Q W W W W W W W U U U 8 q q q m q q : w.A k u.q : u.l q q $ 1.KXAXuXKXjXZXKXuXDXvXkXtXlXuXlXkXxXDXi.lXKXyXHXPXHXHXHXHXLXZXlXJXw.q.yXKX>.- j $ 3.zX  gXu.$ q q q q q : [ 9.3.<.w.u.w.>.1.9.>.>.>.- q q q q q q q q q q q q : Z 0.8.>.3.m w.u.,.1.[.>.z , q q q q q q q q q q q q q q k w.l 0.l q.q., q.w.[ Z w.[.l 9.m , q q q q q q q q q q q , m u.1.w.w.Z q.:.u.p.i.",
"eXeXeXeXeXeXeXeXeXeXyXi.l q q q m q q q U P.P.P.P.P.L.L.L.L.L.H.H.H.H.H.H.H.H.H.G.G.G.G.G.G.G.G.G.G.S.S.S.S.S.S.S.S.S.S.A.A.A.A.A.A.A.! ! ! ! Q Q Q Q Q Q W W W W W W W W U U U 8 q q q m q q : ,.u.;.:.q q >.p q q $ <.KXZXlXMX9.zXPXAXeX[.cXrXjX[.cXGXeXtXAXeXzXtXvXLXHXHXHXHXLXZXgXKXw.O cXKX>.- j $ 3.zX  gXu.$ q q q q q , m #.m 1.1.1.A <.>.m 1.3.q q q q q q q q q q q q q q , l -.l 1.-.m -.Z 8.m >.1.j q q q q q q q q q q q q q q q p ;.k ;.l :.:.q l 3.-.,.1.>.l :.k q q q q q q q q q q q q : Z [ $ :.1.;.>.,.3.,.Z ",
"eXeXeXeXeXeXeXeXeXeXyXi.k q q q m q q q U P.P.P.P.P.P.P.L.L.L.L.H.H.H.H.H.H.H.H.H.G.G.G.G.G.G.G.G.G.G.S.S.S.S.S.S.S.S.A.A.A.A.A.A.A.A.A.! ! ! ! Q Q Q Q Q Q W W W W W W W W U U 8 q q q m q q q : : , : q q : q q q - ,.LXJXGXIXDXAXJXHXSXSXJXDXAXJXJXPXSXSXPXSXDXGXSXHXJXJXJXJXLXCXdXKXSXlXLXLX;.- j $ 3.zX  gXu.$ q q q q q q q , q : : : , : : , : : q q q q q q q q q q q q q q q q , q : , q , , : q : , q q q q q q q q q q q q q q q q q : q : q : : q q : , , : : q : q q q q q q q q q q q q q q , , q : : , : : : : , ",
"rXrXrXrXrXrXeXeXeXeXeXi.l q q q m q q q U P.P.P.L.L.L.L.L.H.H.H.H.H.H.H.H.H.G.G.G.G.G.G.G.G.D.S.S.S.S.S.S.S.S.S.S.A.A.A.A.A.A.A.A.A.! ! ! Q Q Q Q Q Q W W W W W W W W W U U U U 8 q q q m q q q q q q q q q q q q q q p MXKXKXKXKXKXKXLXKXKXKXKXKXKXKXLXKXKXLXKXKXKXKXLXKXKXKXLXKXDXkXKXLXKXKXvXq q q $ 3.zX  gXu.$ q q q q q q q q q q q q q q q q q q q q q q q q q q q q q q q q q q q q q q q q q q q q q q q q q q q q q q q q q q q q q q q q q q q q q q q q q q q q q q q q q q q q q q q q q q q q q q q q q q q q q q ",
"Z S S S S S S S S S S A k q q q m q q q d U ^ ^ ^ ^ ^ ^ ^ ^ ^ ^ ^ ^ ^ ^ ^ ^ ^ ^ ^ ^ ^ ^ ^ ^ 8 8 8 8 8 8 8 8 8 8 8 8 8 8 8 8 8 8 8 8 8 8 8 8 8 8 8 8 8 8 8 8 8 8 8 8 8 8 8 8 8 8 = q q q m q q q q q q q q q q q q q q , k 1.3.<.<.<.3.3.<.<.3.<.<.<.3.3.<.<.3.<.<.<.<.3.3.3.3.<.3.>.:.3.<.<.1.q , q q $ 3.zX  gXu.$ q q q q q q q q q q q q q q q q q q q q q q q q q q q q q q q q q q q q q q q q q q q q q q q q q q q q q q q q q q q q q q q q q q q q q q q q q q q q q q q q q q q q q q q q q q q q q q q q q q q q q q ",
", , , , , , , , , , , , q q q q m q q q q q q q q q q q q q q q q q q q q q q q q q q q q q q q q q q q q q q q q q q q q q q q q q q q q q q q q q q q q q q q q q q q q q q q q q q q m q q q q q q q q q q q q q q q q * $ $ $ $ $ $ $ $ $ $ $ $ $ $ $ $ $ $ $ $ $ $ $ $ * $ $ - : $ $ $ * q q q q $ 3.zX  gXu.$ q q q q q q q q q q q q q q q q q q q q q q q q q q q q q q q q q q q q q q q q q q q q q q q q q q q q q q q q q q q q q q q q q q q q q q q q q q q q q q q q q q q q q q q q q q q q q q q q q q q q q q ",
"q q q q q q q q q q q q q q q q m q q q q q q q q : , q q q q q q q q q q q q q q q q q q q q q q q q q q q : q q q q q q q q q q q q q q q q q q q q : , q q q , q q q q q q q q q q q m q q q q q q q q q , : , q q q q q p p q q q q q q q q q q q q q q q q q q q q p q , q p q q q q q q q q q q $ 3.zX  gXu.$ q q q q q q q q q q q q q q q q q q q q q q q q q q q q q q q q q q q q q q q q q q q q q q q q q q q q q q q q q q q q q q q q 1 1 q u u u q , 1 q q q q q q q q q q q q q q q q q q q q q q q q q q q q q ",
"k , : k l , : q q q q q q q q q m q q q q q q q j [ Z , : q : q q : , q q q q q q q q q q q q q q q q q q q [ k , q q q q q q q q q q q q q q q q , q [ m , : q Z , : , q q q q q q q q m q q q q q q q q q m [ l : , q : q : : q q q q q q q q q q q q q q q q q q q q , p [ p , q q q q q q q q q q $ 3.zX  gXu.$ q q q q q q q q q q q q q q q q q q q q q q q q q q q q q q q q q q q q q q q q q q q q q q q q q q q q q q q q q q q q q q , , ....oX-X#X%X%Xo.o.w , q q q q q q q q q q q q q q q q q q q q q q q q q q q ",
"l l V j l k Z j q q q q q q q q m q q q q q q - >.y.Z m A q [ k k -.m q q q q q q q q q q q q q q q q q , 9.6.w.m , q q q q q q q q q q q q q q q k w.<.A k -.k m k #.m , q q q q q q q m q q q q q q q q , u.1.m V m k [ : Z [ j q q q q q q q q q q q q q q q q q q q j w.3.w.j q q q q q q q q q q $ 3.zX  gXu.$ q q q q q q q q q < < > > > > < q q q q q q q q q q q q q q q q q q q q > > ; > ; > > q q q q q q q q q q q q q q q q q q , i ).=X-X-X=XoX-X=X-X=X%X ., , q q q q q q q q q q q q q q q q q q q q , , , , q ",
"m m 1.>.-.1.,.;.: q q q q q q q m q q q q q q - >.w.k i.,.>.u.0.9.q.u.: q q q q q q q q q q q q q q q : Z w.  ,.1.* q q q q q q q q q q q q q q - >.1.k [ l w.8.<.9.w.w.q q q q q q q q m q q q q q q q q , u.:.A rXZ q.y.9.8.i.;.- q q q q q q q q q q q q q q q q q : :.8.  8.:.: q q q q q q q q q $ 3.zX  gXu.$ q q q q q q q < q f g &.$.&.$.g s > q q q q q q q q q q q q q q q q > p ` $.1X&.1X+.` q < q q q q q q q q q q q q q q q 1 X.-XoX-X-XoXX. ...).%X=X+X*X%Xu , q q q q q q q q q q q q q q q q q i i M.M.M.M.i ",
"<.#.<.1.:.>.j ,., q q q q q q q m q q q q q q - >.y.m r., w.w.8.r.q w.: q q q q q q q q q q q q q q q , V y.O ,.1.- q q q q q q q q q q q q q q : >.1.k [.,.w.u.<.9.l 9.l q q q q q q q m q q q q q q q q , p.;.:.3., tX1.[.[ :.>.- q q q q q q q q q q q q q q q q q : -.9.  8.-.: q q q q q q q q q $ 3.zX  gXu.$ q q q q q q < f +.1X_.6X_.1X1X1X_.f q q q q q q q q q q q q q q q q g 1X8X6X0X1X0X6X0X_.f < q q q q q q q q q q q q q , ..+X=X+X .w @   O   O @ i ).=X=X).u , q q q q q q q q q q q q q q u P N.B.N.B.B.N.B.",
">.1.,.>.-.:.l >., q q q q q q q m q q q q q q - >.:.X q.q [ w.A <.u.y.: q q q q q q q q q q q q q q q q , 3.w.p.k q q q q q q q q q q q q q q q q j w.8.q.0.r.9.1.3.m 8.k q q q q q q q m q q q q q q q q q 9.: V 3.- 8.3.A q.rX:.: q q q q q q q q q q q q q q q q q q q 9.y.r.q q q q q q q q q q q $ 3.zX  gXu.$ q q q q q > f 8X_._.1X_.+.$._.6X_.1X_.> q q q q q q q q q q q q ; $.8X_.8X7X_.$.1X8X8X_.8X+.; q q q q q q q q q q q 1 X.=X-X%Xi O O ; u j j < #   - ).-X=X%Xq q q q q q q q q q q q q q q B.B.B.N.B.P M.B.N.",
"q j k q q q q q q q q q q q q q m q q q q q q q q p q p q , m m , Z y.: q q q q q q q q q q q q q q q q q : [ w.q q q q q q q q q q q q q q q q q , q Z j q m q q q q q q q q q q q q q m q q q q q q q q q p q q q q q Z p , 3.>.- q q q q q q q q q q q q q q q q q q q , ;.9., q q q q q q q q q q $ 3.zX  gXu.$ q q q q > +._.7X8X` q # o o - f $.6X_.$.q q q q q q q q q q q < _.1X0X1Xg : + . + w ` 6X0X1X$.> q q q q q q q q q q q oX=X*Xw   - x V A A R A C j o @ X.=X*X ., q q q q q q q q q q q i M.B.N.P u * X X * u ",
"q q q q q q q q q q q q q q q q m q q q q q q q q q q q q p , q q q Z q q q q q q q q q q q q q q q q q q p : q p q q q q q q q q q q q q q q q q q q : q q , q q q q q q q q q q q q q m q q q q q q q q q q q q q w q q q : m m , q q q q q q q q q q q q q q q q q q q q : w q q q q q q q q q q q $ 3.zX  gXu.$ q q q q > _.0X8X` ; ; # < 1 # . - $.6X1X` > q q q q q q q q < f 7X0X1Xq . o 1 < 1 o . f 6X0X6Xq q q q q q q q q q 1 ).%X#Xi   ; b C A A A R / / / z o * ).oX%Xu , q q q q q q q q q , P N.N.P % O - ; < - O ",
"q , , , q q q q q q q q q q q q m q q q q q q q q q q q > > > > q q , q q q q q q q q q q q q q q q q q q > q > q q q q q q q q q q q q q q q q q q q q q > > > > q q q q q q q q q q q m q q q q q q q q q q q q < ; < ; < q q q q q q q q q q q q q q q q q q q q q q < < < ; < q q q q q q q q q q $ 3.zX  gXu.$ q q q ; $.6X_.+.. S jX2.V A V j O - $.$._.f < q q q q q q q q 1X1X_.w . 1 z C A C b < . ` _.1X_.> q q q q q q q q q %X=X#X@ & z C C C A A A R / / / j O i =X=Xo.1 q q q q q q q q , P B.M.P % o j V C A C x ",
"k Z m Z l q , q q q q q q q q q m q q q q q q q q q > q Y ~ Y ~ s > q q q q q q q q q q q q q q q q > q d ~ Y ~ d q > q q q q q q q q q q q q q q q q > s ~ Y ~ Y q > q q q q q q q q q m q q q q q q q q q q < < f | ' | ' q < q q q q q q q q q q q q q q q q q q < q f ' ' ' f < < q q q q q q q q $ 3.zX  gXu.$ q q q ; _.0X1X+ o z SXZXC / / A j O q 1X6X` > q q q q q q < f 7X0X+.. 1 b C A A / / z o . $.0X6Xq q q q q q q q , i oX=X..  2 V C C C A A A / / / -.C - @ %X-XX., q q q q q q q q , P N.B.= o j C A A / -./ ",
":.q.;.9.2.,.A , q q q q q q q q m q q q q q q q > s J.G.I.I.P.U.G.P.d > q q q q q q q q q q q q q > ~ P.G.U.G.U.G.P.~ > q q q q q q q q q q q q q > I P.F.U.J.Y.I.J.G.q > q q q q q q q m q q q q q q q q < ; ' |.^. X'. X|.'.^.< < q q q q q q q q q q q q q q < < | ^.^.|.^.|.| ^.' < < q q q q q q $ 3.zX  gXu.$ q q > g 1X8X$.. < z <.KXeXV / / C - # _.1X+.< q q q q q q ; $.7X7Xs O x C C C A C -.0.q.2 g 7X_.` > q q q q q w 1 X.=X*X> o x C C C C C A A V b V V b ;   ).=X%Xw q q q q q q q q u M.N.M.X ; b C C A A b V ",
"8.<.-.1.8.0.;.;.z , q q q q q q m q q q q q q > F.J.P.U.U.J.G.Y.U.I.G.G.q q q q q q q q q q q > Y P.G.U.U.I.F.Y.U.U.F.J.I > q q q q q q q q q q q J.G.Y.U.Y.F.J.U.U.J.J.! > q q q q q q m q q q q q q q < f '.'. X X X^.|. X X'.'.| ; q q q q q q q q q q q q < ' ^.^.|.'.^.| '.|.|.| ^.f < q q q q q $ 3.zX  gXu.$ q q > ` 8X8Xg . j C z eXi.V R / A < . $.6X_.> q q q q q q ; _.0X1X+ - z C C A V iXHXLXzXz : _.6X+.> q q q q q w 1 X.=X+X* # z V V C C C A C 0.eXrXrXrX,.@ ..=X*Xu , q q q q q q q u B.N.P O 2 V C C C -.eXyX",
"m < : , m A ;.<.A k q q q q q q m q q q q q q Y J.U.F.~ d : : s ~ ! Y.Y.~ p q q q q q q q q q d F.U.J.~ Y , : 7 Y ~ J.U.G.d q q q q q q q q q s ~ Y.Y.~ ~ s : , d ~ F.U.G.I q q q q q q m q q q q q q < f |  X.X| | t : q ' | '. X'.' < q q q q q q q q q q q ' | |.^.' f : : w ' | '.|.| e q q q q q $ 3.zX  gXu.$ q q > g 1X_.s O j V C b b A A A A < . ` _.$.< q q q q q q > $.1X&.+ - b V C C b rXyX3.C o : $._.` > q q q q q q 1 o.+X).o - z V V C C C A V kXHXGXGXJXtX- i #XX.w q q q q q q q q u M.M.i O 9 V V C V ;.DXSX",
"O O o o   X l -.;.:.q q q q q q m q q q q > Y U.Y.J.s . O o o o . : F.Y.U.F.& q q q q q q q q I.U.I.Y + . o o o . + ~ I.U.P.q q q q q q q q & F.U.Y.F.: . o o o O . s F.H.L.d q q q q q m q q q q q q ; '. X.X^.# . o o o . . ' |. X Xf < q q q q q q q q < w '.'.'.f + O o o o . # | '.|.^.< q q q q $ 3.zX  gXu.$ q q > ` 0X0X` . j V V C C C C A C 1 . &.6X_.> q q q q q q ; _.0X6X# o z V V C C b z V z o q 1X6X+.> q q q q q w = ).=X%X- o z V V V C C C C -.:.:.:.:.z O ..%X+Xu q q q q q q q q u N.N.P O < V V V C C / / ",
"1 j x 9 z A o k -.A V q q q q q m q q q q s F.J.P., . 1 x b V z 7 o & G.J.G.d q q q q q q q ~ G.I.Y . o j z V b j # . ~ I.G.~ > q q q q q q I G.P.F.& O < z V V x -.> : F.A.~ p q q q q m q q q q q < ' '.|.^.+ o < z V V x - . f |.'.^.q q q q q q q q q q | ^.'.f . * j b V b j o + | ^.| ' < q q q $ 3.zX  gXu.$ q q q p _.8X_.. - z V V V C C C z o : 1X_.` < q q q q q q < ` 1X8Xf . 7 V V V C C A C 7 . ` 6X_.f < q q q q q q 1 ..-X-Xi O j V V V V C C C C C C C V - O X.+XX.q q q q q q q q q q P N.M.% # z V V V C V C ",
"z z z b uXi.o o l ;.;.p q q q q m q q q > Y U.I.s O 1 b C A / / A j O : G.U.F.& p q q q q q I.U.~ + # z C A R / -.b * $ ~ U.I.q q q q q q & F.U.G.& O 9 V A / V eXSXA   s G.P.I q q q q m q q q q q ; '. X^.# o j V A A / -.C , o ' .X X' < q q q q q q < f '.'.' + - z C A R / / z o - | |.^.< q q q $ 3.zX  gXu.$ q q q ; _.0X_.- O < z V V C C z - O f _.6X` > q q q q q q < s 8X8X+.+ o j b V V C V j o # +.6X_.< q q q q q q q q u +X=XX.  ; b V V V V C C C C C A z o > oX+X.., q q q q q q q q = P N.M., O ; z V V V C b ",
"z z z 4XvX-.< O q ;.[ k q q q q m q q q q ~ I.I.- o z C C A A / / A 1 . F.U.F.q q q q q q I J.U.I . 9 C C C A C V V 7 . I U.J.d q q q q q s F.Y.F.. 1 b C A V y.KXdXz - & G.G.Y q q q q m q q q q < f ^. X| . < V C C A C V C j O q .X|.' < q q q q q q < ' ^.'.w O j C C A A R / R p . ' |.| w q q q $ 3.zX  gXu.$ q q q > ` _.7X_.+ O - j x x 7 - . s _._.$.q q q q q q q q q > $.1X7X+.. o < j x j < o . +._._.` > q q q q q q q q , +X=X#X@ o 9 b V V V V V C C C b ; O i +X%X ., q q q q q q q q q u M.B.M.= O - 9 x x 9 - ",
"z x C gX<.x z o - #.,.Z , q q q m q q q q I.U.F.. 1 V C C C A A / / x . Y U.Y.d q q q p & F.U.I.- o z C C A C 3.eXkXkXA - J.I.~ > q q q q d U.U.Y . 9 V C C C MXzXV A < + ~ P.F.q q q q m q q q q ; '  X Xf . j C C C C ;.u.yXgX2.+ '. X^.< q q q q q q < ^.|.^.# - b C C A A A R / z o w '.|.' < q q $ 3.zX  gXu.$ q q q q ; _.0X8X_.q o O o o o o f _.1X1Xf < q q q q q q q q q w 7X0X7X+.# o O o o o - +.1X6X_.> q q q q q q q q q 1 ..#X+X).@ o 9 b V V V V C V z ;   u #XX.X.q q q q q q q q q q q = P N.N.M.u o O o o o o ",
"x z z V z b z # $ V A m q q q q m q q q q F.J.Y . < V V C C C A C / z O d G.G.a q q q q > ~ J.! & # z V C A z dXPXAXuXb * ~ A.Y q q q q q d G.G.s O j V C C C -./ A A 7 X I A.~ q q q q m q q q q < ' '.^.q O x V C A b y.LXIXZX,.o ' ^.| < q q q q q q < ' ^.' o - b C C b C A A R b o , | ^.' < q q $ 3.zX  gXu.$ q q q q q p &.8X8Xf q , : , q > +.7X_.g q q q q q q q q q q q > ` 1X0X_.> q , : , q < _.6X+.s q q q q q q q q q q w = #X=X=X..@ O 1 j z b z z 9 # O , #X%X+Xi , q q q q q q q q q q q q P B.N.i q , : : q q ",
"x z z z z z x o $ A ;.Z , q q q m q q q q P.U.~ . 1 b V C z p.SX2.b x . I U.Y.d q q q p & F.U.J.& o z V V C C R -.C j o - F.P.~ > q q q q d U.Y.d . j V V C C C C A C < X ~ L.F.q q q q m q q q q ; '  X.Xt O j V V C C / ;./ V # o | |.^.< q q q q q q < ^.|.| + - b b -.lX2.V A A z o w '.|.' < q q $ 3.zX  gXu.$ q q q q q < q 1X$.; q q q q q q q _.+.; q q q q q q q q q q q q ; ` 6Xf > q q q q q > ` _.f > q q q q q q q q q q q , i %X%X=XX.* o O o # # o O o i #X+X#Xo., q q q q q q q q q q q q q , M.M.= q q q q q q ",
"x x x z z z 9 O , :.-.m q q q q m q q q q ! Y.J.& # z V V V ;.DXGX;.- . F.U.G.s q q q q > Y P.Y.s O j V V V C C V C x O d H.F.I q q q q q s G.U.~ . 1 b V V C C C C b # & F.G.~ q q q q m q q q q < f '. X' . < b V V C C V C z o : '.'.' < q q q q q q < ' '.'.: o x x uXLX;.b A C j . ' '.^.f < q q $ 3.zX  gXu.$ q q q q q q < > q q q q q q q q q < < q q q q q q q q q q q q q q > > q q q q q q q q q < < q q q q q q q q q q q q q , q +X=X%X, q : - * - : q , ..%X%X .1 q q q q q q q q q q q q q q q , q q q q q q q q ",
"x x x x z j # O k ;.:.p q q q q m q q q > Y U.I., O < z V C z A CXuXo & J.U.F.> q q q q q p I.U.Y . * x V V V C C z - + Y P.G.q q q q q q > F.U.G.& o j b V V C C V < O q G.L.I q q q q m q q q q q < '. X^.+ o j V V V C C b 1 O f '.'.f < q q q q q q < f '.|.f O o ;.LXrXx C C z $ + | |.^.< q q q $ 3.zX  gXu.$ q q q q q q q q q q q q q q q q q q q q q q q q q q q q q q q q q q q q q q q q q q q q q q q q q q q q q q q q q q q q , i +X..1 q q q q q q q q , )..., q q q q q q q q q q q q q q q q q q q q q q q q q ",
"1 9 j j < # O q S A A q q q q q m q q q q d J.G.F.& O 1 x z V x j V & ~ F.J.Y > q q q q q q F.J.G.d . - j z b z x - . d ! A.~ q q q q q q > ~ J.G.~ . o < z b b z < O - ~ ! F.s q q q q m q q q q q ; | '.'.' . o 9 z b b x 1 . q | | ^.w q q q q q q q q q ^.^.| q   <.jXb z z j # . ' | ^.| < q q q $ 3.zX  gXu.$ q q q q q q q q q q q q q q q q q q q q q q q q q q q q q q q q q q q q q q q q q q q q q q q q q q q q q q q q q q q q q , , q q q q q q q q q q q , , q q q q q q q q q q q q q q q q q q q q q q q q q q ",
"O o o o O o q [ ,.:.q q q q q q m q q q q > ~ U.U.F.: o o # - o O $ Y Y.U.F.> q q q q q q q s I.U.P.s o o o - # O o s F.P.G.q q q q q q q q > F.U.Y.Y * O o - - o o : ~ L.L.d q q q q q m q q q q q q < '. X.X' o O o - # o o q ^.|.'.f < q q q q q q q q < f '.|.^.q < - o - o O o ' '.|.^.< q q q q $ 3.zX  gXu.$ q q q q q q q q q q q q q q q q q q q q q q q q q q q q q q q q q q q q q q q q q q q q q q q q q q q q q q q q q q q q q q q q q q q q q q q q q q q q q q q q q q q q q q q q q q q q q q q q q q q q q q ",
", - $ - : q A 2.A m q q q q q q m q q q q q p F.P.U.~ > : $ $ - > d L.G.F.d q q q q q q q q q ~ J.U.J.q , * $ - , q F.L.! Y q q q q q q q q q d G.Y.U.d > - $ * : > Y P.A.~ p q q q q q m q q q q q q < ' '. X.Xp , - $ - : < | |.^.| q q q q q q q q q q q < | ^.|.| ; : - $ - , q '.'.| ' < q q q q $ 3.zX  gXu.$ q q q q q q q q q q q q q q q q q q q q q q q q q q q q q q q q q q q q , : q q : , q : q q q q q q q q q q q q q q q q q q q q q , q : , q q : , q : q q q q q q q q q q q q q q q q q q q q , q , : q q , ",
"q q q q q q k ;.m , q q q q q q m q q q q q q > G.I.s q q q q q q q A.G.q q q q q q q q q q q > ~ U.Y > q q q q q > Y H.I > q q q q q q q q q > s I.G.> q q q q q q s H.! > q q q q q q m q q q q q q q ; '  X^.; q q q q q < f '.| ; q q q q q q q q q q q q < | '.f < q q q q q < | '.f < q q q q q $ 3.zX  gXu.$ q q q q q q q q q q q q q q q q q q q q q q q q q q q q q q q q q q q , m A q , Z m , [ j q q q q q q q q q q q q q q q q q q q j m q [ m , , Z V : [ k , q q q q q q q q q q q q q q q q q q m , m Z , , m ",
"q q q q q q q k q q q q q q q q m q q q q q q q q d q q q q q q q q s s q q q q q q q q q q q q > d q q q q q q q q q d q q q q q q q q q q q q q s s q q q q q q q q a q q q q q q q q m q q q q q q q q < f w < q q q q q q < f q q q q q q q q q q q q q q q < f q q q q q q q q w f < q q q q q q $ 3.zX  gXu.$ q q q q q q q q q q q q q q q q q q q q q q q q q q q q q q q q q q : m r.[ : A u.6.<.y.<., q q q q q q q q q q q q q q q q q : 3.p.p <.r.k m y.8.1.r.6.q q q q q q q q q q q q q q q q q : -.eXk w.w.Z q 0.",
"q q q q q q q q q q q q q q q q m q q q q q q q q q q q q q q q q q q q q q q q q q q q q q q q q q q q q q q q q q q q q q q q q q q q q q q q q q q q q q q q q q q q q q q q q q q q m q q q q q q q q q < q q q q q q q q q < q q q q q q q q q q q q q q q q < q q q q q q q q q < q q q q q q q $ 3.zX  gXu.$ q q q q q q q q q q q q q q q q q q q q q q q q q q q q q q q q q j q 1.i.1.: 1.Z ,.rXq q.p q q q q q q q q q q q q q q q q l q m q.: : r.q ;.:.#.yXq 8.m , q q q q q q q q q q q q q q q q q 8.-.,.Z 1.m <.",
"q q q q q q q q q q q q q q q q m q q q q q q q q q q q q q q q q q q q q q q q q q q q q q q q q q q q q q q q q q q q q q q q q q q q q q q q q q q q q q q q q q q q q q q q q q q q m q q q q q q q q q q q q q q q q q q q q q q q q q q q q q q q q q q q q q q q q q q q q q q q q q q q q q q $ 3.zX  gXu.$ q q q q q q q q q : , q q - : , - , q q q q q q q q q q q q q q , Z ,.8.#.8.Z >.-.1.rXl 0.q q q q q q q q q q q q q q q q q <.Z j w.* 3.-.$ >.>.:.eXm q.l , q q q q q q q q q q q q q q q q : q.[ 1.#.1.l 3.",
"q q : q q q q , q : q q q q q q m q q q q : - : q , q q , : - : q q q q , q q q q q q q q q q q q q q , , q q : q , : q q q q q q q q q q q q : : q q q , , : q q q q : q - : q q q q q m q q q q q , q q : q , : q : , q : q q , q q , q q q q q q q q q q q q q : , q q : : q : q q : q q q q q q q $ 3.zX  gXu.$ q q q q q q q q q ,.:., j 9.-.m 0.N , q q q q q q q q q q q q q q q * m y.3.1.[ y.3.-.i.>.: q q q q q q q q q q q q q q q q : : l <.Z tX,.1.[ 0.q.[ p.1., q q q q q q q q q q q q q q q q q , 8.k 8.w.>.:.1.",
"q k Z q q , q [ k [ l q q q q q m q q q q Z :.Z j N q q m Z :.[ q k l p m : - q q q q q q q q q q q , l l , j -.q m [ , q q q q q q q q q q , Z A q q q m m :.q q q - >.l :.Z , q q q q m q q q q , m k q :.q m [ : [ N , -.k , l k j m - - q q q q q q q q q q , A V , , Z Z , -.k k -.q q q q q q q $ 3.zX  gXu.$ q q q q q q q : :.p.Z - ,.1.6.y.>.8., q q q q q q q q q q q q q q q q , k q q q k q , k q q q q q q q q q q q q q q q q q q q q q q q k m j q p j : k q q q q q q q q q q q q q q q q q q q q q q q k q q q ",
":.>.1.Z : l :.>.;.:.1.k q q q q m q q q q A 3.y.1.rX$ -.tXZ 1.rX: ,.:.q 0.[ >.k q q q q q q q q q q : rX,.$ 3.w.<.9.w.[ : q q q q q q q q : Z r.Z q - <.4XV 8.3.: k >.r.1.9.q.[ : q q q m q q q q k tXA ,.r.<.9.0.<.w.8.3.w.3.$ 1.[ p q.[ >.j q q q q q q q q : Z y.0.k N y.8.3.w.3.8.r.>.: q q q q q $ 3.zX  gXu.$ q q q q q q q : 8.6.q., <.l <.4X: 0.q q q q q q q q q q q q q q q q q q q q : q , , q , q q q q q q q q q q q q q q q q q q q q q q q q : q , q q q q q q q q q q q q q q q q q q q q q q q q q q q q q q q ",
"6.;.l >.: ,.>.>.:.,.,.q q q q q m q q q q $ :.;.p q.q 1.0.$ Z 1.X >.u.6.w.Z eXk q q q q q q q q q : [ 0.[ : q.q rX,.Z 3.- q q q q q q q q : 3.u.,., m 6.3., w.,.$ 8.3.r.,.r.w.V , q q q m q q q q : 1.:.3.q rX1.l uXm >.eXq 0., ,.y.8.9.[ eXp q q q q q q q q : 1.A ,.Z :.-.-.yXq w.r.j q.: q q q q q $ 3.zX  gXu.$ q q q q q q q : 1.>.8.-.,.1.8.y.>.9., q q q q q q q q q q q q q q q q q q : Z k l k , q q q q q q q q q q q q q q q q q q q q q q q q , [ q m j , q q q q q q q q q q q q q q q q q q q q q q q , q , q q : ",
"3.;.V ;.q ,.k >.;.[ ,.z , q q q m q q q q q y.k k 9.;.[.tXV q.Z $ ,.8.:.9.:.[ - q q q q q q q q q k p.rXw.q q.m rX1.#.<.- q q q q q q q q : 9.[ q.m 6.[.eXk ;.0.: w.k 9.1.<.3.:.: q q q m q q q q * 1.:.3.m 4X<.Z tX[ 1.rXm w.: 1.3.;.8.;.A : q q q q q q q q : >.:.1.[ :.>.>.eXm w.w.V q.: q q q q q $ 3.zX  gXu.$ q q q q q q q q j 8.-.:.m 3.-.m q.N , q q q q q q q q q q q q q q q q q q k w.>.y.q.[ : q q q q q q q q q q q q q q q q q q q q q q q Z 0.,.y.q.m , q q q q q q q q q q q q q q q q q q q q q q m k m j , V ",
"A -.<.m : :.<.:.:.1.>.j q q q q m q q q : Z <.- k 3.p Z 0.Z 3., : :.[ q 6.[.9.k q q q q q q q q q q k 1.3.;.:.[.-.<.u.m , q q q q q q q q , Z u.1.1.V A 0.>.q.>.* ;.y.q.:.y.q.Z , q q q m q q q q : >.Z [ [.-.<.y.A w.6.[ i.,.$ >.A p 8.[.6.k q q q q q q q q , l y.3.>.[ 0.9.[ i.>.>.i.[ : q q q q q $ 3.zX  gXu.$ q q q q q q q q q - : : , - : , - , q q q q q q q q q q q q q q q q q : :.w.i.>.9.3.;.: q q q q q q q q q q q q q q q q q q q q q : 1.y.r.1.<.0.Z , q q q q q q q q q q q q q q q q q q q q : :.i.u.r.1.>.p.",
"q q q q q q p q q k q q q q q q m q q q q q q q q q q : , q q q q q q q q q l q q q q q q q q q q q , , , q , k , q p , q q q q q q q q q q , j q q q : , j l , q , k q q k j , q q q q m q q q q q q q , k , q j : p q , k q q q q q q p l q q q q q q q q q q , q q q q q q : k q , k , q q q q q q $ 3.zX  gXu.$ q q q q q q q q q q q q q q q q q q q q q q q q q q q q q q q q q q q : q.l 1.,.w.8.>.: q q q q q q q q q q q q q q q q q q q q q q w.q 8.1.q.q.Z : q q q q q q q q q q q q q q q q q q q q - ,.:.1.A 3.Z 6.",
"q q q q q q q q q q q q q q q q m q q q q q q q q q q q q q q q q q q q q q , q q q q q q q q q q q q q q q q q q q q q q q q q q q q q q q q q q q q q q q q q q q q q q q q q q q q q m q q q q q q q q q q q q q q q q q q q q q q q q , q q q q q q q q q q q q q q q q q q q q q q q q q q q q q $ 3.zX  gXu.$ q q q q q q q q q q q q q q q q q q q q q q q q q q q q q q q q q q q : >.0.p.>.w.3.1.: q q q q q q q q q q q q q q q q q q q q q : 3.0.w.1.9.0.[ : q q q q q q q q q q q q q q q q q q q q - >.:.1.[ 6.V 0.",
"q q q q q q q q q q q q q q q q m q q q q q q q q q q q q q q q q q q q q q q q q q q q q q q q q q q q q q q q q q q q q q q q q q q q q q q q q q q q q q q q q q q q q q q q q q q q m q q q q q q q q q q q q q q q q q q q q q q q q q q q q q q q q q q q q q q q q q q q q q q q q q q q q q q $ q.lX  yX[.$ q q q q q q q q q q q q q q q q q q q q q q q q q q q q q q q q q q q q q Z m q [ [ q q q q q q q q q q q q q q q q q q q q q q q q p [ l k :.Z , q q q q q q q q q q q q q q q q q q q q q q k k k j k m [ ",
"q q q q q q q q q q q q q q q p m q q q q q q q q q q q q q q q q q q q q q q q q q q q q q q q q q q q q q q q q q q q q q q q q q q q q q q q q q q q q q q q q q q q q q q q q q q q m p q q q q q q q q q q q q q q q q q q q q q q q q q q q q q q q q q q q q q q q q q q q q q q q q q q q q p X jX[.  w.vXX p q q q q q q q q q q q q q q q q q q q q q q q q q q q q q q q q q q q q , q q : , q q q q q q q q q q q q q q q q q q q q q q q q q , q q : , q q q q q q q q q q q q q q q q q q q q q q q q q q q q q : ",
"$ $ $ $ $ $ $ $ $ $ $ $ $ $ $ $ : $ $ $ $ $ $ $ $ $ $ $ $ $ $ $ $ $ $ $ $ $ $ $ $ $ $ $ $ $ $ $ $ $ $ $ $ $ $ $ $ $ $ $ $ $ $ $ $ $ $ $ $ $ $ $ $ $ $ $ $ $ $ $ $ $ $ $ $ $ $ $ $ $ $ $ : $ $ $ $ $ $ $ $ $ $ $ $ $ $ $ $ $ $ $ $ $ $ $ $ $ $ $ $ $ $ $ $ $ $ $ $ $ $ $ $ $ $ $ $ $ $ $ $ $ $ $ $ $ X 8.AXl , q MXy.X $ $ $ $ $ $ $ $ $ $ $ $ $ $ $ $ $ $ $ $ $ $ $ $ $ $ $ $ $ $ $ $ $ $ $ $ $ $ $ $ $ $ $ $ $ $ $ $ $ $ $ $ $ $ $ $ $ $ $ $ $ $ $ $ $ $ $ $ $ $ $ $ $ $ $ $ $ $ $ $ $ $ $ $ $ $ $ $ $ $ $ $ $ $ $ $ $ $ $ $ $ ",
"3.3.3.3.3.3.3.3.3.3.3.3.3.3.3.3.3.3.3.3.3.3.3.3.3.3.3.3.3.3.3.3.3.3.3.3.3.3.3.3.3.3.3.3.3.3.3.3.3.3.3.3.3.3.3.3.3.3.3.3.3.3.3.3.3.3.3.3.3.3.3.3.3.3.3.3.3.3.3.3.3.3.3.3.3.3.3.3.3.3.3.3.3.3.3.3.3.3.3.3.3.3.3.3.3.3.3.3.3.3.3.3.3.3.3.3.3.3.3.3.3.3.3.3.3.3.3.3.3.3.3.3.3.3.3.3.3.3.3.3.3.3.3.6.3.0.jXDX:.: p : V CXkXq.3.6.3.3.3.3.3.3.3.3.3.3.3.3.3.3.3.3.3.3.3.3.3.3.3.3.3.3.3.3.3.3.3.3.3.3.3.3.3.3.3.3.3.3.3.3.3.3.3.3.3.3.3.3.3.3.3.3.3.3.3.3.3.3.3.3.3.3.3.3.3.3.3.3.3.3.3.3.3.3.3.3.3.3.3.3.3.3.3.3.3.3.3.3.3.3.3.3.3.3.",
"zXzXzXzXzXzXzXzXzXzXzXzXzXzXzXzXzXzXzXzXzXzXzXzXzXzXzXzXzXzXzXzXzXzXzXzXzXzXzXzXzXzXzXzXzXzXzXzXzXzXzXzXzXzXzXzXzXzXzXzXzXzXzXzXzXzXzXzXzXzXzXzXzXzXzXzXzXzXzXzXzXzXzXzXzXzXzXzXzXzXzXzXzXzXzXzXzXzXzXzXzXzXzXzXzXzXzXzXzXzXzXzXzXzXzXzXzXzXzXzXzXzXzXzXzXzXzXzXzXzXzXzXzXzXzXzXzXzXzXzXzXzXzXzXzXlXrXm : k q k , k y.lXzXzXzXzXzXzXzXzXzXzXzXzXzXzXzXzXzXzXzXzXzXzXzXzXzXzXzXzXzXzXzXzXzXzXzXzXzXzXzXzXzXzXzXzXzXzXzXzXzXzXzXzXzXzXzXzXzXzXzXzXzXzXzXzXzXzXzXzXzXzXzXzXzXzXzXzXzXzXzXzXzXzXzXzXzXzXzXzXzXzXzXzXzXzXzXzXzXzXzXzX",
"                                                                                                                                                                                                                                                                                                      O $ X X X $ X                                                                                                                                                                                                             ",
"gXgXgXgXgXgXgXgXgXgXgXgXgXgXgXgXgXgXgXgXgXgXgXgXgXgXgXgXgXgXgXgXgXgXgXgXgXgXgXgXgXgXgXgXgXgXgXgXgXgXgXgXgXgXgXgXgXgXgXgXgXgXgXgXgXgXgXgXgXgXgXgXgXgXgXgXgXgXgXgXgXgXgXgXgXgXgXgXgXgXgXgXgXgXgXgXgXgXgXgXgXgXgXgXgXgXgXgXgXgXgXgXgXgXgXgXgXgXgXgXgXgXgXgXgXgXgXgXgXgXgXgXgXgXgXgXgXgXgXgXgXgXgXgXgXgXgXdXdXdXdXdXdXdXgXgXgXgXgXgXgXgXgXgXgXgXgXgXgXgXgXgXgXgXgXgXgXgXgXgXgXgXgXgXgXgXgXgXgXgXgXgXgXgXgXgXgXgXgXgXgXgXgXgXgXgXgXgXgXgXgXgXgXgXgXgXgXgXgXgXgXgXgXgXgXgXgXgXgXgXgXgXgXgXgXgXgXgXgXgXgXgXgXgXgXgXgXgXgXgXgXgXgXgXgXgX",
"u.u.u.u.u.u.u.u.u.u.u.u.u.u.u.u.u.u.u.u.u.u.u.u.u.u.u.u.u.u.u.u.u.u.u.u.u.u.u.u.u.u.u.u.u.u.u.u.u.u.u.u.u.u.u.u.u.u.u.u.u.u.u.u.u.u.u.u.u.u.u.u.u.u.u.u.u.u.u.u.u.u.u.u.u.u.u.u.u.u.u.u.u.u.u.u.u.u.u.u.u.u.u.u.u.u.u.u.u.u.u.u.u.u.u.u.u.u.u.u.u.u.u.u.u.u.u.u.u.u.u.u.u.u.u.u.u.u.u.u.u.u.u.u.u.u.u.u.u.u.u.u.u.u.u.u.u.u.u.u.u.u.u.u.u.u.u.u.u.u.u.u.u.u.u.u.u.u.u.u.u.u.u.u.u.u.u.u.u.u.u.u.u.u.u.u.u.u.u.u.u.u.u.u.u.u.u.u.u.u.u.u.u.u.u.u.u.u.u.u.u.u.u.u.u.u.u.u.u.u.u.u.u.u.u.u.u.u.u.u.u.u.u.u.u.u.u.u.u.u.u.u.u.u.u.u.",
"$ $ $ $ $ $ $ $ $ $ $ $ $ $ $ $ $ $ $ $ $ $ $ $ $ $ $ $ $ $ $ $ $ $ $ $ $ $ $ $ $ $ $ $ $ $ $ $ $ $ $ $ $ $ $ $ $ $ $ $ $ $ $ $ $ $ $ $ $ $ $ $ $ $ $ $ $ $ $ $ $ $ $ $ $ $ $ $ $ $ $ $ $ $ $ $ $ $ $ $ $ $ $ $ $ $ $ $ $ $ $ $ $ $ $ $ $ $ $ $ $ $ $ $ $ $ $ $ $ $ $ $ $ $ $ $ $ $ $ $ $ $ $ $ $ $ $ $ $ $ $ $ $ $ $ $ $ $ $ $ $ $ $ $ $ $ $ $ $ $ $ $ $ $ $ $ $ $ $ $ $ $ $ $ $ $ $ $ $ $ $ $ $ $ $ $ $ $ $ $ $ $ $ $ $ $ $ $ $ $ $ $ $ $ $ $ $ $ $ $ $ $ $ $ $ $ $ $ $ $ $ $ $ $ $ $ $ $ $ $ $ $ $ $ $ $ $ $ $ $ $ $ $ $ $ $ ",
"q q q q q q q q q q q q q q q q q q q q q q q q q q q q q q q q q q q q q q q q q q q q q q q q q q q q q q q q q q q q q q q q q q q q q q q q q q q q q q q q q q q q q q q q q q q q q q q q q q q q q q q q q q q q q q q q q q q q q q q q q q q q q q q q q q q q q q q q q q q q q q q q q q q q q q q q q q q q q q q q q q q q q q q q q q q q q q q q q q q q q q q q q q q q q q q q q q q q q q q q q q q q q q q q q q q q q q q q q q q q q q q q q q q q q q q q q q q q q q q q q q q q q q q q q q q q q q q q ",
"q q q q q q q q q q q q q q q q q q q q q q q q q q q q q q q q q q q q q q q q q q q q q q q q q q q q q q q q q q q q q q q q q q q q q q q q q q q q q q q q q q q q q q q q q q q q q q q q q q q q q q q q q q q q q q q q q q q q q q q q q q q q q q q q q q q q q q q q q q q q q q q q q q q q q q q q q q q q q q q q q q q q q q q q q q q q q q q q q q q q q q q q q q q q q q q q q q q q q q q q q q q q q q q q q q q q q q q q q q q q q q q q q q q q q q q q q q q q q q q q q q q q q q q q q q q q q q q q ",
"q q q q q q q q q q q q q q q q q q q q q q q q q q q q q q q q q q q q q q q q q q q q q q q q q q q q q q q q q q q q q q q q q q q q q q q q q q q q q q q q q q q q q q q q q q q q q q q q q q q q q q q q q q q q q q q q q q q q q q q q q q q q q q q q q q q q q q q q q q q q q q q q q q q q q q q q q q q q q q q q q q q q q q q q q q q q q q q q q q q q q q q q q q q q q q q q q q q q q q q q q q q q q q q q q q q q q q q q q q q q q q q q q q q q q q q q q q q q q q q q q q q q q q q q q q q q q q q q ",
"q q q q q q q q q q q q q q q q q q q q q q q q q q q q q q q q q q q q q q q q q q q q q q q q q q q q q q q q q q q q q q q q q q q q q q q q q q q q q q q q q q q q q q q q q q q q q q q q q q q q q q q q q q q q q q q q q q q q q q q q q q q q q q q q q q q q q q q q q q q q q q q q q q q q q q q q q q q q q q q q q q q q q q q q q q q q q q q q q q q q q q q q q q q q q q q q q q q q q q q q q q q q q q q q q q q q q q q q q q q q q q q q q q q q q q q q q q q q q q q q q q q q q q q q q q q q q q q q ",
"q q q q q q q q q q q q q q q q q q q q q q q q q q q q q q q q q q q q q q q q q q q q q q q q q q q q q q q q q q q q q q q q q q q q q q q q q q q q q q q q q q q q q q q q q q q q q q q q q q q q q q q q q q q q q q q q q q q q q q q q q q q q q q q q q q q q q q q q q q q q q q q q q q q q q q q q q q q q q q q q q q q q q q q q q q q q q q q q q q q q q q q q q q q q q q q q q q q q q q q q q q q q q q q q q q q q q q q q q q q q q q q q q q q q q q q q q q q q q q q q q q q q q q q q q q q q q q q q ",
"q q q q q q q q q q q q q q q q q q q q q q q q q q q q q q q q q q q q q q q q q q q q q q q q q q q q q q q q q q q q q q q q q q q q q q q q q q q q q q q q q q q q q q q q q q q q q q q q q q q q q q q q q q q q q q q q q q q q q q q q q q q q q q q q q q q q q q q q q q q q q q q q q q q q q q q q q q q q q q q q q q q q q q q q q q q q q q q q q q q q q q q q q q q q q q q q q q q q q q q q q q q q q q q q q q q q q q q q q q q q q q q q q q q q q q q q q q q q q q q q q q q q q q q q q q q q q q q q ",
"q q q q q q q q q q q q q q q q q q q q q q q q q q q q q q q q q q q q q q q q q q q q q q q q q q q q q q q q q q q q q q q q q q q q q q q q q q q q q q q q q q q q q q q q q q q q q q q q q q q q q q q q q q q q q q q q q q q q q q q q q q q q q q q q q q q q q q q q q q q q q q q q q q q q q q q q q q q q q q q q q q q q q q q q q q q q q q q q q q q q q q q q q q q q q q q q q q q q q q q q q q q q q q q q q q q q q q q q q q q q q q q q q q q q q q q q q q q q q q q q q q q q q q q q q q q q q q q q ",
"q q q q q q q q q q q q q q q q q q q q q q q q q q q q q q q q q q q q q q q q q q q q q q q q q q q q q q q q q q q q q q q q q q q q q q q q q q q q q q q q q q q q q q q q q q q q q q q q q q q q q q q q q q q q q q q q q q q q q q q q q q q q q q q q q q q q q q q q q q q q q q q q q q q q q q q q q q q q q q q q q q q q q q q q q q q q q q q q q q q q q q q q q q q q q q q q q q q q q q q q q q q q q q q q q q q q q q q q q q q q q q q q q q q q q q q q q q q q q q q q q q q q q q q q q q q q q q q q ",
"q q q q q q q q q q q q q q q q q q q q q q q q q q q q q q q q q q q q q q q q q q q q q q q q q q q q q q q q q q q q q q q q q q q q q q q q q q q q q q q q q q q q q q q q q q q q q q q q q q q q q q q q q q q q q q q q q q q q q q q q q q q q q q q q q q q q q q q q q q q q q q q q q q q q q q q q q q q q q q q q q q q q q q q q q q q q q q q q q q q q q q q q q q q q q q q q q q q q q q q q q q q q q q q q q q q q q q q q q q q q q q q q q q q q q q q q q q q q q q q q q q q q q q q q q q q q q q q q ",
"q q q q q q q q q q q q q q q q q q q q q q q q q q q q q q q q q q q q q q q q q q q q q q q q q q q q q q q q q q q q q q q q q q q q q q q q q q q q q q q q q q q q q q q q q q q q q q q q q q q q q q q q q q q q q q q q q q q q q q q q q q q q q q q q q q q q q q q q q q q q q q q q q q q q q q q q q q q q q q q q q q q q q q q q q q q q q q q q q q q q q q q q q q q q q q q q q q q q q q q q q q q q q q q q q q q q q q q q q q q q q q q q q q q q q q q q q q q q q q q q q q q q q q q q q q q q q q q q ",
"q q q q q q q q q q q q q q q q q q q q q q q q q q q q q q q q q q q q q q q q q q q q q q q q q q q q q q q q q q q q q q q q q q q q q q q q q q q q q q q q q q q q q q q q q q q q q q q q q q q q q q q q q q q q q q q q q q q q q q q q q q q q q q q q q q q q q q q q q q q q q q q q q q q q q q q q q q q q q q q q q q q q q q q q q q q q q q q q q q q q q q q q q q q q q q q q q q q q q q q q q q q q q q q q q q q q q q q q q q q q q q q q q q q q q q q q q q q q q q q q q q q q q q q q q q q q q q q q "
};
