/* XPM */
static char *sc_deesser_stereo[] = {
/* columns rows colors chars-per-pixel */
"256 256 256 2 ",
"   c #030303",
".  c #07080E",
"X  c #0C0C0C",
"o  c #070706",
"O  c #130A07",
"+  c #051604",
"@  c #0A0B11",
"#  c #040813",
"$  c #130D13",
"%  c #0E1114",
"&  c #0A1919",
"*  c #131313",
"=  c #15161C",
"-  c #16191E",
";  c #1B1B1C",
":  c #1A1717",
">  c #13110F",
",  c #291817",
"<  c #310F0E",
"1  c #182616",
"2  c #11240D",
"3  c #24261B",
"4  c #2E3217",
"5  c #1B1C22",
"6  c #1A1B2A",
"7  c #1C1D34",
"8  c #1D1E3A",
"9  c #0C1032",
"0  c #231C26",
"q  c #321533",
"w  c #1E2025",
"e  c #19282B",
"r  c #1B2735",
"t  c #193337",
"y  c #0C2A31",
"u  c #232324",
"i  c #24242A",
"p  c #252B2C",
"a  c #2B2B2C",
"s  c #292826",
"d  c #362B2B",
"f  c #293729",
"g  c #35342C",
"h  c #242933",
"j  c #2B2C32",
"k  c #222A38",
"l  c #2D3334",
"z  c #2D3B3B",
"x  c #283737",
"c  c #323535",
"v  c #393A36",
"b  c #34353A",
"n  c #333A3A",
"m  c #3A3C3C",
"M  c #393534",
"N  c #342E36",
"B  c #4C1717",
"V  c #482827",
"C  c #573B2A",
"Z  c #413232",
"A  c #483C39",
"S  c #4D3630",
"D  c #6D3528",
"F  c #622021",
"G  c #3B470D",
"H  c #3A4437",
"J  c #31452E",
"K  c #11473A",
"L  c #495511",
"P  c #546900",
"I  c #536509",
"U  c #454B2B",
"Y  c #46443A",
"T  c #584536",
"R  c #515030",
"E  c #674835",
"W  c #6E4930",
"Q  c #69671F",
"!  c #17184A",
"~  c #1A3845",
"^  c #162E4C",
"/  c #2A3947",
"(  c #3C3D42",
")  c #343B45",
"_  c #312E51",
"`  c #133171",
"'  c #2B1E5D",
"]  c #4B1254",
"[  c #691076",
"{  c #552563",
"}  c #134A56",
"|  c #2B4748",
" . c #3C4343",
".. c #38454A",
"X. c #364654",
"o. c #325155",
"O. c #10546E",
"+. c #30506E",
"@. c #096566",
"#. c #12686F",
"$. c #2E7374",
"%. c #424445",
"&. c #44454A",
"*. c #434A4A",
"=. c #4A4B4D",
"-. c #4A4644",
";. c #495343",
":. c #4B4D52",
">. c #4B5354",
",. c #535355",
"<. c #5B5B5D",
"1. c #55575A",
"2. c #555348",
"3. c #68564A",
"4. c #716C51",
"5. c #5E5F63",
"6. c #505463",
"7. c #4B556B",
"8. c #54696A",
"9. c #636465",
"0. c #6A6B6D",
"q. c #65666A",
"w. c #6D6E71",
"e. c #6F7072",
"r. c #627575",
"t. c #727274",
"y. c #75767A",
"u. c #7A7B7E",
"i. c #76797A",
"p. c #707369",
"a. c #556755",
"s. c #99291D",
"d. c #92582E",
"f. c #A00B4C",
"g. c #F8016C",
"h. c #D2055C",
"j. c #8D6B5E",
"k. c #D9412A",
"l. c #748A1A",
"z. c #6A8774",
"x. c #20827C",
"c. c #96952D",
"v. c #A0A222",
"b. c #ABD10A",
"n. c #D6EE02",
"m. c #AA9A63",
"M. c #DAB063",
"N. c #F7D171",
"B. c #EBD56B",
"V. c #D7AA2A",
"C. c #121293",
"Z. c #0A3B89",
"A. c #0E0EB0",
"S. c #2323B0",
"D. c #212192",
"F. c #6E2C89",
"G. c #741488",
"H. c #10728C",
"J. c #267A87",
"K. c #064AB1",
"L. c #1B5B9A",
"P. c #7C7D81",
"I. c #697785",
"U. c #536699",
"Y. c #1111CF",
"T. c #2323CF",
"R. c #2626F1",
"E. c #1919E9",
"W. c #0151CB",
"Q. c #0268F8",
"!. c #095FDE",
"~. c #6D5CD6",
"^. c #881796",
"/. c #850D94",
"(. c #882495",
"). c #9C37AC",
"_. c #9837B2",
"`. c #A636A9",
"'. c #9C0BB0",
"]. c #BB11D3",
"[. c #BE28E0",
"{. c #C11CD6",
"}. c #C508D9",
"|. c #C522D8",
" X c #E005F4",
".X c #B65CD8",
"XX c #199596",
"oX c #2E8F90",
"OX c #0889B3",
"+X c #1DA1A1",
"@X c #18B5B6",
"#X c #2DAFAF",
"$X c #289DA1",
"%X c #4E9390",
"&X c #768889",
"*X c #519DA3",
"=X c #4FAAAA",
"-X c #66A99F",
";X c #2FC3BC",
":X c #069ACA",
">X c #08B7ED",
",X c #18ADD4",
"<X c #58A7D8",
"1X c #1BD3D5",
"2X c #2CD0CF",
"3X c #09CEFC",
"4X c #1BE7E8",
"5X c #18FCFD",
"6X c #10F9FB",
"7X c #29EDEE",
"8X c #28DCE5",
"9X c #4BD6D3",
"0X c #64CCB6",
"qX c #838384",
"wX c #8B8C8C",
"eX c #85898A",
"rX c #8D8E91",
"tX c #8D9393",
"yX c #939394",
"uX c #999A9C",
"iX c #989697",
"pX c #998F8E",
"aX c #A29595",
"sX c #AB968A",
"dX c #9D9EA1",
"fX c #8497A5",
"gX c #9FA0A4",
"hX c #96A6A5",
"jX c #97B1B4",
"kX c #A3A4A4",
"lX c #ABACAC",
"zX c #A6A8AA",
"xX c #ACB3B3",
"cX c #B2B3B5",
"vX c #BCBDBD",
"bX c #B5BABB",
"nX c #AFAEAE",
"mX c #A3B197",
"MX c #D7ADA3",
"NX c #DFDA93",
"BX c #BDBEC0",
"VX c #9D9ADF",
"CX c #BCC4C4",
"ZX c #AFCECE",
"AX c #89E0C7",
"SX c #C3C4C4",
"DX c #C5C6C9",
"FX c #C7CBCB",
"GX c #CCD2D3",
"HX c #D4D8D9",
"JX c #CDCFD1",
"KX c #E6E7E9",
"LX c #F8F9FB",
"PX c #EEEFF1",
"IX c #DDE0E2",
"UX c #A5D3A1",
/* pixels */
"5 5 5 5 5 5 5 5 5 5 5 5 5 5 5 5 5 5 5 5 5 5 5 5 5 5 5 5 5 5 5 5 5 5 5 5 5 5 5 5 5 5 5 5 5 5 5 5 5 5 5 5 5 5 5 5 5 5 5 5 5 5 5 5 5 5 5 5 5 5 5 5 5 5 5 5 5 5 5 5 5 5 5 5 5 5 5 5 5 5 5 5 5 5 5 5 5 5 5 5 5 5 5 5 5 5 5 5 5 5 5 5 5 5 5 5 5 5 5 5 5 5 5 5 5 5 5 5 5 5 5 5 5 5 5 5 5 5 5 5 5 5 5 5 5 5 5 5 5 5 5 5 5 5 5 5 5 5 5 5 5 5 5 5 5 5 5 5 5 5 5 5 5 5 5 5 5 5 5 5 5 5 5 5 5 5 5 5 5 5 5 5 5 5 5 5 5 5 5 5 5 5 5 5 5 5 5 5 5 5 5 5 5 5 5 5 5 5 5 5 5 5 5 5 5 5 5 5 5 5 5 5 5 5 5 5 5 5 5 5 5 5 5 5 5 5 5 5 5 5 5 5 5 5 5 5 ",
"5 5 5 5 5 5 5 5 5 5 5 5 5 5 5 5 5 5 5 5 5 5 5 5 5 5 5 5 5 5 5 5 5 5 5 5 5 5 5 5 5 5 5 5 5 5 5 5 5 5 5 5 5 5 5 5 5 5 5 5 5 5 5 5 5 5 5 5 5 5 5 5 5 5 5 5 5 5 5 5 5 5 5 5 5 5 5 5 5 5 5 5 5 5 5 5 5 5 5 5 5 5 5 5 5 5 5 5 5 5 5 5 5 5 5 5 5 5 5 5 5 5 5 5 5 5 5 5 5 5 5 5 5 5 5 5 5 5 5 5 5 5 5 5 5 5 5 5 5 5 5 5 5 5 5 5 5 5 5 5 5 5 5 5 5 5 5 5 5 5 5 5 5 5 5 5 5 5 5 5 5 5 5 5 5 5 5 5 5 5 5 5 5 5 5 5 5 5 5 5 5 5 5 5 5 5 5 5 5 5 5 5 5 5 5 5 5 5 5 5 5 5 5 5 5 5 5 5 5 5 5 5 5 5 5 5 5 5 5 5 5 5 5 5 5 5 5 5 5 5 5 5 5 5 5 5 ",
"5 5 5 5 5 5 5 5 5 5 5 5 5 5 5 5 5 5 5 5 5 5 5 5 5 5 5 5 5 5 5 5 5 5 5 5 5 5 5 5 5 5 5 5 5 5 5 5 5 5 5 5 5 5 5 5 5 5 5 5 5 5 5 5 5 5 5 5 5 5 5 5 5 5 5 5 5 5 5 5 5 5 5 5 5 5 5 5 5 5 5 5 5 5 5 5 5 5 5 5 5 5 5 5 5 5 5 5 5 5 5 5 5 5 5 5 5 5 5 5 5 5 5 5 5 5 5 5 5 5 5 5 5 5 5 5 5 5 5 5 5 5 5 5 5 5 5 5 5 5 5 5 5 5 5 5 5 5 5 5 5 5 5 5 5 5 5 5 5 5 5 5 5 5 5 5 5 5 5 5 5 5 5 5 5 5 5 5 5 5 5 5 5 5 5 5 5 5 5 5 5 5 5 5 5 5 5 5 5 5 5 5 5 5 5 5 5 5 5 5 5 5 5 5 5 5 5 5 5 5 5 5 5 5 5 5 5 5 5 5 5 5 5 5 5 5 5 5 5 5 5 5 5 5 5 5 ",
"5 5 5 5 5 5 5 5 5 5 5 5 5 5 5 5 5 5 5 5 5 5 5 5 5 5 5 5 5 5 5 5 5 5 5 5 5 5 5 5 5 5 5 5 5 5 5 5 5 5 5 5 5 5 5 5 5 5 5 5 5 5 5 5 5 5 5 5 5 5 5 5 5 5 5 5 5 5 5 5 5 5 5 5 5 5 5 5 5 5 5 5 5 5 5 5 5 5 5 5 5 5 5 5 5 5 5 5 5 5 5 5 5 5 5 5 5 5 5 5 5 5 5 5 5 5 5 5 5 5 5 5 5 5 5 5 5 5 5 5 5 5 5 5 5 5 5 5 5 5 5 5 5 5 5 5 5 5 5 5 5 5 5 5 5 5 5 5 5 5 5 5 5 5 5 5 5 5 5 5 5 5 5 5 5 5 5 5 5 5 5 5 5 5 5 5 5 5 5 5 5 5 5 5 5 5 5 5 5 5 5 5 5 5 5 5 5 5 5 5 5 5 5 5 5 5 5 5 5 5 5 5 5 5 5 5 5 5 5 * = = 5 = 5 - - % = 5 - - - 5 = * ",
"5 5 5 5 5 5 5 5 5 5 5 5 5 5 5 5 5 5 5 5 5 5 5 5 5 5 5 5 5 5 5 5 5 5 5 5 5 5 5 5 5 5 5 5 5 5 5 5 5 5 5 5 5 5 5 5 5 5 5 5 5 5 5 5 5 5 5 5 5 5 5 5 5 5 5 5 5 5 5 5 5 5 5 5 5 5 5 5 5 5 5 5 5 5 5 5 5 5 5 5 5 5 5 5 5 5 5 5 5 5 5 5 5 5 5 5 5 5 5 5 5 5 5 5 5 5 5 5 5 5 5 5 5 5 5 5 5 5 5 5 5 5 5 5 5 5 5 5 5 5 5 5 5 5 5 5 5 5 5 5 5 5 5 5 5 5 5 5 5 5 5 5 5 5 5 5 5 5 5 5 5 5 5 5 5 5 5 5 5 5 5 5 5 5 5 5 5 5 5 5 5 5 5 5 5 5 5 5 5 5 5 5 5 5 5 5 5 5 5 5 5 5 5 5 5 5 5 5 5 5 5 5 5 5 5 5 5 5 5 w.kX5.5.zXp q.kXyX%.@ t.kXrXw &.uX",
"5 5 5 5 5 5 5 5 5 5 5 5 5 5 5 5 5 5 5 5 5 5 5 5 5 5 5 5 5 5 5 5 5 5 5 5 5 5 5 5 5 5 5 5 5 5 5 5 5 5 5 5 5 5 5 5 5 5 5 5 5 5 5 5 5 5 5 5 5 5 5 5 5 5 5 5 5 5 5 5 5 5 5 5 5 5 5 5 5 5 5 5 5 5 5 5 5 5 5 5 5 5 5 5 5 5 5 5 5 5 5 5 5 5 5 5 5 5 5 5 5 5 5 5 5 5 5 5 5 5 5 5 5 5 5 5 5 5 5 5 5 5 5 5 5 5 5 5 5 5 5 5 5 5 5 5 5 5 5 5 5 5 5 5 5 5 5 5 5 5 5 5 5 5 5 5 5 5 5 5 5 5 5 5 5 5 5 5 5 5 5 5 5 5 5 5 5 5 5 5 5 5 5 5 5 5 5 5 5 5 5 5 5 5 5 5 5 5 5 5 5 5 5 5 5 5 5 5 5 5 5 5 5 5 5 5 5 = ( DX( j ,.xX@ kXq.1.vX= kXe.j c BX,.",
"5 5 5 5 5 5 5 5 5 5 5 5 5 5 5 5 5 5 5 5 5 5 5 5 5 5 5 5 5 5 5 5 5 5 5 5 5 5 5 5 5 5 5 5 5 5 5 5 5 5 5 5 5 5 5 5 5 5 5 5 5 5 5 5 5 5 5 5 5 5 5 5 5 5 5 5 5 5 5 5 5 5 5 5 5 5 5 5 5 5 5 5 5 5 5 5 5 5 5 5 5 5 5 5 5 5 5 5 5 5 5 5 5 5 5 5 5 5 5 5 5 5 5 5 5 5 5 5 5 5 5 5 5 5 5 5 5 5 5 5 5 5 5 5 5 5 5 5 5 5 5 5 5 5 5 5 5 5 5 5 5 5 5 5 5 5 5 5 5 5 5 5 5 5 5 5 5 5 5 5 5 5 5 5 5 5 5 5 5 5 5 5 5 5 5 5 5 5 5 5 5 5 5 5 5 5 5 5 5 5 5 5 5 5 5 5 5 5 5 5 5 5 5 5 5 5 5 5 5 5 5 5 5 5 5 5 5 5 5 rXkXj &.dX. uX,.  zX%.rXbXy.5.dX. ",
"5 5 5 5 5 5 5 5 5 5 5 5 5 5 5 5 5 5 5 5 5 5 5 5 5 5 5 5 5 5 5 5 5 5 5 5 5 5 5 5 5 5 5 5 5 5 5 5 5 5 5 5 5 5 5 5 5 5 5 5 5 5 5 5 5 5 5 5 5 5 5 5 5 5 5 5 5 5 5 5 5 5 5 5 5 5 5 5 5 5 5 5 5 5 5 5 5 5 5 5 5 5 5 5 5 5 5 5 5 5 5 5 5 5 5 5 5 5 5 5 5 5 5 5 5 5 5 5 5 5 5 5 5 5 5 5 5 5 5 5 5 5 5 5 5 5 5 5 5 5 5 5 5 5 5 5 5 5 5 5 5 5 5 5 5 5 5 5 5 5 5 5 5 5 5 5 5 5 5 5 5 5 5 5 5 5 5 5 5 5 5 5 5 5 5 5 5 5 5 5 5 5 5 5 5 5 5 5 5 5 5 5 5 5 5 5 5 5 5 5 5 5 5 5 5 5 5 5 5 5 5 5 5 5 5 5 5 5 5 @ 0.nX .gX. dX:.i SXi uX>.. &.bX5 ",
"5 5 5 5 5 5 5 5 5 5 5 5 5 5 5 5 5 5 5 5 5 5 5 5 5 5 5 5 5 5 5 5 5 5 5 5 5 5 5 5 5 5 5 5 5 5 5 5 5 5 5 5 5 5 5 5 5 5 5 5 5 5 5 5 5 5 5 5 5 5 5 5 5 5 5 5 5 5 5 5 5 5 5 5 5 5 5 5 5 5 5 5 5 5 5 5 5 5 5 5 5 5 5 5 5 5 5 5 5 5 5 5 5 5 5 5 5 5 5 5 5 5 5 5 5 5 5 5 5 5 5 5 5 5 5 5 5 5 5 5 5 5 5 5 5 5 5 5 5 5 5 5 5 5 5 5 5 5 5 5 5 5 5 5 5 5 5 5 5 5 5 5 5 5 5 5 5 5 5 5 5 5 5 5 5 5 5 5 5 5 5 5 5 5 5 5 5 5 5 5 5 5 5 5 5 5 5 5 5 5 5 5 5 5 5 5 5 5 5 5 5 5 5 5 5 5 5 5 5 5 5 5 5 5 5 5 5 = m dXkX0.0.FX5 rXcXlXt.. uXcXwXi qXcX",
"5 5 5 5 5 5 5 5 5 5 5 5 5 5 5 5 5 5 5 5 5 5 5 5 5 5 5 5 5 5 5 5 5 5 5 5 5 5 5 5 5 5 5 5 5 5 5 5 5 5 5 5 5 5 5 5 5 5 5 5 5 5 5 5 5 5 5 5 5 5 5 5 5 5 5 5 5 5 5 5 5 5 5 5 5 5 5 5 5 5 5 5 5 5 5 5 5 5 5 5 5 5 5 5 5 5 5 5 5 5 5 5 5 5 5 5 5 5 5 5 5 5 5 5 5 5 5 5 5 5 5 5 5 5 5 5 5 5 5 5 5 5 5 5 5 5 5 5 5 5 5 5 5 5 5 5 5 5 5 5 5 5 5 5 5 5 5 5 5 5 5 5 5 5 5 5 5 5 5 5 5 5 5 5 5 5 5 5 5 5 5 5 5 5 5 5 5 5 5 5 5 5 5 5 5 5 5 5 5 5 5 5 5 5 5 5 5 5 5 5 5 5 5 5 5 5 5 5 5 5 5 5 5 5 5 5 5 5 5 c b = j b u i b j = 5 i b b 5 = c ",
"5 5 5 5 5 5 5 5 5 5 5 5 5 5 5 5 5 5 5 5 5 5 5 5 5 5 5 5 5 5 5 5 5 5 5 5 5 5 5 5 5 5 5 5 5 5 5 5 5 5 5 5 5 5 5 5 5 5 5 5 5 5 5 5 5 5 5 5 5 5 5 5 5 5 5 5 5 5 5 5 5 5 5 5 5 5 5 5 5 5 5 5 5 5 5 5 5 5 5 5 5 5 5 5 5 5 5 5 5 5 5 5 5 5 5 5 5 5 5 5 5 5 5 5 5 5 5 5 5 5 5 5 5 5 5 5 5 5 5 5 5 5 5 5 5 5 5 5 5 5 5 5 5 5 5 5 5 5 5 5 5 5 5 5 5 5 5 5 5 5 5 5 5 5 5 5 5 5 5 5 5 5 5 5 5 5 5 5 5 5 5 5 5 5 5 5 5 5 5 5 5 5 5 5 5 5 5 5 5 5 5 5 5 5 5 5 5 5 5 5 5 5 5 5 5 5 5 5 5 5 5 5 5 5 5 5 5 5 5 = = 5 - = 5 5 = - 5 5 5 = = 5 5 = ",
"5 5 5 5 5 5 5 5 5 5 5 5 5 5 5 5 5 5 5 5 5 5 5 5 5 5 5 5 5 5 5 5 5 5 5 5 5 5 5 5 5 5 5 5 5 5 5 5 5 5 5 5 5 5 5 5 5 5 5 5 5 5 5 5 5 5 5 5 5 5 5 5 5 5 5 5 5 5 5 5 5 5 5 5 5 5 5 5 5 5 5 5 5 5 5 5 5 5 5 5 5 5 5 5 5 5 5 5 5 5 5 5 5 5 5 5 5 5 5 5 5 5 5 5 5 5 5 5 5 5 5 5 5 5 5 5 5 5 5 5 5 5 5 5 5 5 5 5 5 5 5 5 5 5 5 5 5 5 5 5 5 5 5 5 5 5 5 5 5 5 5 5 5 5 5 5 5 5 5 5 5 5 5 5 5 5 5 5 5 5 5 5 5 5 5 5 5 5 5 5 5 5 5 5 5 5 5 5 5 5 5 5 5 5 5 5 5 5 5 5 5 5 5 5 5 5 5 5 5 5 5 5 5 5 5 5 5 5 5 5 5 5 5 5 5 5 5 5 5 5 5 5 5 5 5 5 ",
"5 5 5 5 5 5 5 5 5 5 5 5 5 5 5 5 5 5 5 5 5 5 5 5 5 5 5 5 5 5 5 5 5 5 5 5 5 5 5 5 5 5 5 5 5 5 5 5 5 5 5 5 5 5 5 5 5 5 5 5 5 5 5 5 5 5 5 5 5 5 5 5 5 5 5 5 5 5 5 5 5 5 5 5 5 5 5 5 5 5 5 5 5 5 5 5 5 5 5 5 5 5 5 5 5 5 5 5 5 5 5 5 5 5 5 5 5 5 5 5 5 5 5 5 5 5 5 5 5 5 5 5 5 5 5 5 5 5 5 5 5 5 5 5 5 5 5 5 5 5 5 5 5 5 5 5 5 5 5 5 5 5 5 5 5 5 5 5 5 5 5 5 5 5 5 5 5 5 5 5 5 5 5 5 5 5 5 5 5 5 5 5 5 5 5 5 5 5 5 5 5 5 5 5 5 5 5 5 5 5 5 5 5 5 5 5 5 5 5 5 5 5 5 5 5 5 5 5 5 5 5 5 5 5 5 5 5 5 5 5 5 5 5 5 5 5 5 5 5 5 5 5 5 5 5 5 ",
"5 5 5 5 5 5 5 5 5 5 5 5 5 5 5 5 5 5 5 5 5 5 5 5 5 5 5 5 5 5 5 5 5 5 5 5 5 5 5 5 5 5 5 5 5 5 5 5 5 5 5 5 5 5 5 5 5 5 5 5 5 5 5 5 5 5 5 5 5 5 5 5 5 5 5 5 5 5 5 5 5 5 5 5 5 5 5 5 5 5 5 5 5 5 5 5 5 5 5 5 5 5 5 5 5 5 5 5 5 5 5 5 5 5 5 5 5 5 5 5 5 5 5 5 5 5 5 5 5 5 5 5 5 5 5 5 5 5 5 5 5 5 5 5 5 5 5 5 5 5 5 5 5 5 5 ; 5 5 5 5 5 5 5 5 5 5 5 5 5 5 5 5 5 5 5 5 5 5 5 5 5 5 5 5 5 5 5 5 5 5 5 = = 5 5 5 5 w 5 5 5 5 5 5 - 5 5 5 5 5 5 5 5 5 5 5 5 5 5 5 5 5 5 - 5 5 5 5 5 5 5 5 5 5 5 5 5 5 5 5 5 5 5 5 5 5 5 5 5 5 5 5 5 5 5 5 ",
"5 5 5 5 5 5 5 5 5 5 5 5 5 5 5 5 5 5 5 5 5 5 5 5 5 5 5 5 5 5 5 5 5 5 5 5 5 5 5 5 5 5 5 5 5 5 5 5 5 5 5 5 5 5 5 5 5 5 5 5 5 5 5 5 5 5 5 5 5 5 5 5 5 5 5 5 5 5 5 5 5 5 5 5 5 5 5 5 5 5 5 5 5 5 5 5 5 5 5 5 5 5 5 5 5 5 5 5 5 5 5 5 5 5 5 5 5 5 5 5 5 5 5 5 5 5 5 5 5 5 5 5 5 5 5 5 5 5 5 5 5 5 5 5 5 5 5 5 5 5 5 5 5 5 5 r 5 5 5 5 5 5 5 5 5 5 5 5 5 5 5 5 5 5 5 5 5 5 5 5 5 5 5 5 5 5 5 5 5 5 i 1.1.u = = p 5.= - - 5 = = b w 5 5 = = - - = 5 - - - = - 5 - = i c - 5 5 5 5 5 5 5 5 5 5 5 5 5 5 5 5 5 5 5 5 5 5 5 5 5 5 5 5 5 5 5 ",
"5 5 5 5 5 5 5 5 5 5 5 5 5 5 5 5 5 5 5 5 5 5 5 5 5 5 5 5 5 5 5 5 5 5 5 5 5 5 5 5 5 5 5 5 5 5 5 5 5 5 5 5 5 5 5 5 5 5 5 5 5 5 5 5 5 5 5 5 5 5 5 5 5 5 5 5 5 5 5 5 5 5 5 5 5 5 5 5 5 5 5 5 5 5 5 5 5 5 5 5 5 5 5 5 5 5 5 5 5 5 5 5 5 5 5 5 5 5 5 5 5 5 5 5 5 5 5 5 5 5 5 5 5 5 5 5 5 5 5 5 5 5 5 5 5 5 5 5 5 5 5 5 5 ; } ~ ; 5 5 5 5 5 5 5 5 5 5 5 5 5 5 5 5 5 5 5 5 5 5 5 5 5 5 5 5 5 5 5 5 * 1.5.i u =.1.b 5.j 5.( i 9.:.qX<.= j <.9.j ( 5.b :.,.j <.:.i 1.&.1.qXj - 5 5 5 5 5 5 5 5 5 5 5 5 5 5 5 5 5 5 5 5 5 5 5 5 5 5 5 5 5 5 ",
"5 5 5 5 5 5 5 5 5 5 5 5 5 5 5 5 5 5 5 5 5 5 5 5 5 5 5 5 5 5 5 5 5 5 5 5 5 5 5 5 5 5 5 5 5 5 5 5 5 5 5 5 5 5 5 5 5 5 5 5 5 5 5 5 5 5 5 5 5 5 5 5 5 5 5 5 5 5 5 5 5 5 5 5 5 5 5 5 5 5 5 5 5 5 5 5 5 5 5 5 5 5 5 5 5 5 5 5 5 5 5 5 5 5 5 5 5 5 5 5 5 5 5 5 5 5 5 5 5 5 5 5 5 5 5 5 5 5 5 5 5 5 5 5 5 5 5 5 5 5 5 5 : } } : 5 5 5 5 5 5 5 5 5 5 5 5 5 5 5 5 5 5 5 5 5 5 5 5 5 5 5 5 5 5 5 5 5 - j w. .( t.0.0.1.0.9.y.0.%.w q.j * ( 0.b 5.9.&.=.e.w.w.0.i <.0.t.9.,.- 5 5 5 5 5 5 5 5 5 5 5 5 5 5 5 5 5 5 5 5 5 5 5 5 5 5 5 5 5 5 5 ",
"5 5 5 5 5 5 5 5 5 5 5 5 5 5 5 5 5 5 5 5 5 5 5 5 5 5 5 5 5 5 5 5 5 5 5 5 5 5 5 5 5 5 5 5 5 5 5 5 5 5 5 5 5 5 5 5 5 5 5 5 5 5 5 5 5 5 5 5 5 5 5 5 5 5 5 5 5 5 5 5 5 5 5 5 5 5 5 5 5 5 5 5 5 5 5 5 5 5 5 5 5 5 5 5 5 5 5 5 5 5 5 5 5 5 5 5 5 5 5 5 5 5 5 5 5 5 5 5 5 5 5 5 5 5 5 5 5 5 5 5 5 5 5 5 5 5 5 5 5 5 5 5 ; r O.r ; 5 5 5 5 5 5 5 5 5 5 5 5 5 5 5 5 5 5 5 5 5 5 5 5 5 5 5 5 5 5 5 5 5 - = 9.w.q.c ( 5.t.=.j 0.j @ q.i * m <.5 q.5.a ,.9.b p m 9.w.1.j =.,.* 5 5 5 5 5 5 5 5 5 5 5 5 5 5 5 5 5 5 5 5 5 5 5 5 5 5 5 5 5 5 5 ",
"5 5 5 5 5 5 5 5 5 5 5 5 5 5 5 5 5 5 5 5 5 5 5 5 5 5 5 5 5 5 5 5 5 5 5 5 5 5 5 5 5 5 5 5 5 5 5 5 5 5 5 5 5 5 5 5 5 5 5 5 5 5 5 5 5 5 5 5 5 5 5 5 5 5 5 5 5 5 5 5 5 5 5 5 5 5 5 5 5 5 5 5 5 5 5 5 5 5 5 5 5 5 5 5 5 5 5 5 5 5 5 5 5 5 5 5 5 5 5 5 5 5 5 5 5 5 5 5 5 5 5 5 5 5 5 5 5 5 5 5 5 5 5 5 5 5 5 5 5 5 5 5 5 : r ~ ; 5 5 5 5 5 5 5 5 5 5 5 5 5 5 5 5 5 5 5 5 5 5 5 5 5 5 5 5 5 5 5 5 - ( 5.5.b 5.1.( 1.%.q. .( e. .1.<.= b u.q.%.,.b p q.:.( 1.5.( q.=.b w.j - 5 5 5 5 5 5 5 5 5 5 5 5 5 5 5 5 5 5 5 5 5 5 5 5 5 5 5 5 5 5 ",
"5 5 5 5 5 5 5 5 5 5 5 5 5 5 5 5 5 5 5 5 5 5 5 5 5 5 5 5 5 5 5 5 5 5 5 5 5 5 5 5 5 5 5 5 5 5 5 5 5 5 5 5 5 5 5 5 5 5 5 5 5 5 5 5 5 5 5 5 5 5 5 5 5 5 5 5 5 5 5 5 5 5 5 5 5 5 5 5 5 5 5 5 5 5 5 5 5 5 5 5 5 5 5 5 5 5 5 5 5 5 5 5 5 5 5 5 5 5 5 5 5 5 5 5 5 5 5 5 5 5 5 5 5 5 5 5 5 5 5 5 5 5 5 5 5 5 5 5 5 5 5 5 5 5 ; ; 5 5 5 5 5 5 5 5 5 5 5 5 5 5 5 5 5 5 5 5 5 5 5 5 5 5 5 5 5 5 5 5 5 5 5 j u = 5 j 5 5 - p p - i i 5 p = m 5.5 5 5 5 - i j 5 j 5 = i j 5 i i 5 5 5 5 5 5 5 5 5 5 5 5 5 5 5 5 5 5 5 5 5 5 5 5 5 5 5 5 5 5 5 ",
"5 5 5 5 5 5 5 5 5 5 5 5 5 5 5 5 5 5 5 5 5 5 5 5 5 5 5 5 5 5 5 5 5 5 5 5 5 5 5 5 5 5 5 5 5 5 5 5 5 5 5 5 5 5 5 5 5 5 5 5 5 5 5 5 5 5 5 5 5 5 5 5 5 5 5 5 5 5 5 5 5 5 5 5 5 5 5 5 5 5 5 5 5 5 5 5 5 5 5 5 5 5 5 5 5 5 5 5 5 5 5 5 5 5 5 5 5 5 5 5 5 5 5 5 5 5 5 5 5 5 5 5 5 5 5 5 5 5 5 5 5 5 5 5 5 5 5 5 5 5 5 5 5 5 5 5 5 5 5 5 5 5 5 5 5 5 5 5 5 5 5 5 5 5 5 5 5 5 5 5 5 5 5 5 5 5 5 5 5 5 5 - 5 5 5 - 5 5 5 - - 5 - 5 5 5 = b =.= 5 5 5 5 5 - 5 - 5 5 5 - 5 5 5 5 5 5 5 5 5 5 5 5 5 5 5 5 5 5 5 5 5 5 5 5 5 5 5 5 5 5 5 5 5 5 ",
"w w w w w w w w w w w w w w w w w w w w w w w w w w w w w w w w w w w w w w w w w w w w w w w w w w w w w w w w w w w w w w w w w w w w w w w w w w w w w w w w w w w w w w w w w w w w w w w w w w w w w w w w w w w w w w w w w w w w w w w w w w w w w w w w w w w w w w w w w w w w w w w w w w w w w w w w w w w w w w w w w w w w w w w w w w w w w w w w w w w w w w w w w w w w w w w w w w w w w w w w w w w w w w w 5 5 u w w w w w w w w w w w w w w w w w w w w w w w w w w w w w w w w w w w w w w w w w w w w w w ",
". . . . . . . . . . . . . . . . . . . . . . . . . . . . . . . . . . . . . . . . . . . . . . . . . . . . . . . . . . . . . . . . . . . . . . . . . . . . . . . . . . . . . . . . . . . . . . . . . . . . . . . . . . . . . . . . . . . . . . . . . . . . . . . . . . . . . . . . . . . . . . . . . . . . . . . . . . . . . . . . . . . . . . . . . . . . . . . . . . . . . . . . . . . . . . . . . . . . . . . . . . . . . . . . . . . . . . . . . . . . . . . . . . . . . . . . . . . . . . . . . . . . . . . . . . . . . . . . ",
"uXuXuXuXuXuXuXuXuXuXuXuXuXuXuXuXuXuXuXuXuXuXuXuXuXuXuXuXuXuXuXuXuXuXuXuXuXuXuXuXuXuXuXuXuXuXuXuXuXuXuXuXuXuXuXuXuXuXuXuXuXuXuXuXuXuXuXuXuXuXuXuXuXuXuXuXuXuXuXuXuXuXuXuXuXuXuXuXuXuXuXuXuXuXuXuXuXuXuXuXuXuXuXuXuXuXuXuXuXuXuXuXuXuXuXuXuXuXuXuXuXuXuXuXuXuXuXuXuXuXuXuXuXuXuXuXuXuXuXuXuXuXuXuXuXuXuXuXuXuXuXuXuXuXuXuXuXuXuXuXuXuXuXuXuXuXuXuXuXuXuXuXuXuXuXuXuXuXuXuXuXuXuXuXuXuXuXuXuXuXuXuXuXuXuXuXuXuXuXuXuXuXuXuXuXuXuXuXuXuXuXuXuXuXuXuXuXuXuXuXuXuXuXuXuXuXuXuXuXuXuXuXuXuXuXuXuXuXuXuXuXuXuXuXuXuXuXuXuXuXuXuXuXuXuXuX",
"u.u.u.u.u.u.u.u.u.u.u.u.u.u.u.u.u.u.u.u.u.u.u.u.u.u.u.u.u.u.u.u.u.u.u.u.u.u.u.u.u.u.u.u.u.u.u.u.u.u.u.u.u.u.u.u.u.u.u.u.u.u.u.u.u.u.u.u.u.u.u.u.u.u.u.u.u.u.u.u.u.u.u.u.u.u.u.u.u.u.u.u.u.u.u.u.u.u.u.u.u.u.u.u.u.u.u.u.u.u.u.u.u.u.u.u.u.u.u.u.u.u.u.u.u.u.u.u.u.u.u.u.u.u.u.u.u.u.u.u.u.u.u.u.u.u.u.u.u.u.u.u.u.u.u.u.u.u.u.u.u.u.u.u.u.u.u.u.u.u.u.u.u.u.u.u.u.u.u.u.u.u.u.u.u.u.u.u.u.u.u.u.u.u.u.u.u.u.u.u.u.u.u.u.u.u.u.u.u.u.u.u.u.u.u.u.u.u.u.u.u.u.u.u.u.u.u.u.u.u.u.u.u.u.u.u.u.u.u.u.u.u.u.u.u.u.u.u.u.u.u.u.u.u.u.u.",
"@ @ @ @ @ @ @ @ @ @ @ @ @ @ @ @ @ @ @ @ @ @ @ @ @ @ @ @ @ @ @ @ @ @ @ @ @ @ @ @ @ @ @ @ @ @ @ @ @ @ @ @ @ @ @ @ @ @ @ @ @ @ @ @ @ @ @ @ @ @ @ @ @ @ @ @ @ @ @ @ @ @ @ @ @ @ @ @ @ @ @ @ @ @ @ @ @ @ @ @ @ @ @ @ @ @ @ @ @ @ @ @ @ @ @ @ @ @ @ @ @ @ @ @ @ @ @ @ @ @ @ @ @ @ @ @ @ @ @ @ @ @ @ @ . @ @ @ @ @ @ @ @ @ @ @ @ @ @ @ @ @ @ @ @ @ @ @ @ @ @ @ @ @ @ @ @ @ @ @ @ @ @ @ @ @ @ @ @ @ @ @ @ @ @ @ @ @ @ @ @ @ @ @ @ @ @ @ @ @ @ @ @ @ @ @ @ @ @ @ @ @ @ @ @ @ @ @ @ @ @ @ @ @ @ @ @ @ @ @ @ @ @ @ @ @ @ @ @ @ @ @ @ @ @ @ ",
"5 5 5 5 5 5 5 5 5 5 5 5 5 5 5 5 5 5 5 5 5 5 5 5 5 5 5 5 5 5 5 5 5 5 5 5 5 5 5 5 5 5 5 5 5 5 5 5 5 5 5 5 5 5 5 5 5 5 5 5 5 5 5 5 5 5 5 5 5 5 5 5 5 5 5 5 5 5 5 5 5 5 5 5 5 5 5 5 5 5 5 5 5 5 5 5 5 5 5 5 5 5 5 5 5 5 5 5 5 5 5 5 5 5 5 5 5 5 5 5 5 5 5 5 5 5 5 5 5 5 5 5 5 5 5 5 5 5 5 5 5 5 5 5 5 5 5 5 5 5 5 5 5 5 5 5 5 5 5 w w 5 5 5 5 5 5 5 w u w w u w w u w 5 w 5 w 5 w w w u w w w 5 w w 5 w w w w 5 5 5 5 5 5 5 5 5 5 5 5 5 5 5 5 5 5 5 5 5 5 5 5 5 5 5 5 5 5 5 5 5 5 5 5 5 5 5 5 5 5 5 5 5 5 5 5 5 5 5 5 5 5 5 5 5 5 5 ",
"5 5 5 5 5 5 5 5 5 5 5 5 5 5 5 5 5 5 5 5 5 5 5 5 5 5 5 5 5 5 5 5 5 5 5 5 5 5 5 5 5 5 5 5 5 5 5 5 5 5 5 5 5 5 5 5 5 5 5 5 5 5 5 5 5 5 5 5 5 5 5 5 5 5 5 5 5 5 5 5 5 5 5 5 5 5 5 5 5 5 5 5 5 5 5 5 5 5 5 5 5 5 5 5 5 5 5 5 5 5 5 5 5 5 5 5 5 5 5 5 5 5 5 5 5 5 5 5 5 5 5 5 5 5 5 5 5 5 j p 5 p j 5 5 5 5 5 5 5 5 5 5 5 5 5 5 5 5 5 - 5 5 5 5 5 5 5 5 = - 5 = = - = - 5 - 5 - 5 - = = = = = - 5 = - 5 - 5 5 5 5 5 5 5 5 5 5 5 5 5 5 5 5 5 5 5 5 5 5 5 5 5 5 5 5 5 5 5 5 5 5 5 5 5 5 5 5 5 5 5 5 5 5 5 5 5 5 5 5 5 5 5 5 5 5 5 5 5 5 ",
"5 5 5 5 5 5 5 5 5 5 5 5 5 5 5 5 5 5 5 5 5 5 5 5 5 5 5 5 5 5 5 5 5 5 5 5 5 5 5 5 5 5 5 5 5 5 5 5 5 5 5 5 5 5 5 5 5 5 5 5 5 5 5 5 5 5 5 5 5 5 5 5 5 5 5 5 5 5 5 5 5 5 5 5 5 5 5 5 5 5 5 5 5 5 5 5 5 5 5 5 5 5 5 5 5 5 5 5 5 5 5 5 5 5 5 5 5 5 5 5 5 5 5 5 5 5 5 5 5 5 5 5 5 5 5 5 - c q.9.uX5.5.=.= 5 5 5 5 5 5 5 5 5 = - 5 5 5 u p 5 5 5 5 5 5 5 i %.i 5 ( b p  .p - p 5 p - j ( b m m b j - m l = p 5 w i 5 5 5 5 5 5 5 5 5 5 5 5 5 5 5 5 5 5 5 5 5 5 5 5 5 5 5 5 5 5 5 5 5 5 5 5 5 5 5 5 5 5 5 5 5 5 5 5 5 5 5 5 5 5 5 5 5 5 5 ",
"5 5 5 5 5 5 5 5 5 5 5 5 5 5 5 5 5 5 5 5 5 5 5 5 5 5 5 5 5 5 5 5 5 5 5 5 5 5 5 5 5 5 5 5 5 5 5 5 5 5 5 5 5 5 5 5 5 5 5 5 5 5 5 5 5 5 5 5 5 5 5 5 5 5 5 5 5 5 5 5 5 5 5 5 5 5 5 5 5 5 5 5 5 5 5 5 5 5 5 5 5 5 5 5 5 5 5 5 5 5 5 5 5 5 5 5 5 5 5 5 5 5 5 5 5 5 5 5 5 5 5 5 5 5 5 5 = c 0.yXy.rX:.&.= 5 5 5 5 5 5 5 5 5 1.w.( - 5 5 j = 5 - 5 5 5 * <.0.9.,.y.j 0.q.0.%.q.* q.&.e.1.&.qX5.0.1.:.q.w.b u.5.c 1.= 5 5 5 5 5 5 5 5 5 5 5 5 5 5 5 5 5 5 5 5 5 5 5 5 5 5 5 5 5 5 5 5 5 5 5 5 5 5 5 5 5 5 5 5 5 5 5 5 5 5 5 5 5 5 5 5 5 5 ",
"5 5 5 5 5 5 5 5 5 5 5 5 5 5 5 5 5 5 5 5 5 5 5 5 5 5 5 5 5 5 5 5 5 5 5 5 5 5 5 5 5 5 5 5 5 5 5 5 5 5 5 5 5 5 5 5 5 5 5 5 5 5 5 5 5 5 5 5 5 5 5 5 5 5 5 5 5 5 5 5 5 5 5 5 5 5 5 5 5 5 5 5 5 5 5 5 5 5 5 5 5 5 5 5 5 5 5 5 5 5 5 5 5 5 5 5 5 5 5 5 5 5 5 5 5 5 5 5 5 5 5 5 5 5 5 5 - p cX=.  1.yX( = 5 5 5 5 5 5 5 = :.9.i w m q.&.&.1.y.:.= 5 5 * <.0.5.>.t.a q.i ( t.9.= 5.t.( @ @ <.p &.:.w.= c q.1.P.,.:.= 5 5 5 5 5 5 5 5 5 5 5 5 5 5 5 5 5 5 5 5 5 5 5 5 5 5 5 5 5 5 5 5 5 5 5 5 5 5 5 5 5 5 5 5 5 5 5 5 5 5 5 5 5 5 5 5 5 5 ",
"5 5 5 5 5 5 5 5 5 5 5 5 5 5 5 5 5 5 5 5 5 5 5 5 5 5 5 5 5 5 5 5 5 5 5 5 5 5 5 5 5 5 5 5 5 5 5 5 5 5 5 5 5 5 5 5 5 5 5 5 5 5 5 5 5 5 5 5 5 5 5 5 5 5 5 5 5 5 5 5 5 5 5 5 5 5 5 5 5 5 5 5 5 5 5 5 5 5 5 5 5 5 5 5 5 5 5 5 5 5 5 5 5 5 5 5 5 5 5 5 5 5 5 5 5 5 5 5 5 5 5 5 5 5 5 5 - a yXP.i rXyX( = 5 5 5 5 5 5 5 * q.c &.q.c t.t.1.0.b w.- 5 5 * 1.P.5.%.e.5 q.i &.w.9.@ q.e.%.@ = 9.b =.=.w.5 b q.1.&.yX,.= 5 5 5 5 5 5 5 5 5 5 5 5 5 5 5 5 5 5 5 5 5 5 5 5 5 5 5 5 5 5 5 5 5 5 5 5 5 5 5 5 5 5 5 5 5 5 5 5 5 5 5 5 5 5 5 5 5 5 ",
"5 5 5 5 5 5 5 5 5 5 5 5 5 5 5 5 5 5 5 5 5 5 5 5 5 5 5 5 5 5 5 5 5 5 5 5 5 5 5 5 5 5 5 5 5 5 5 5 5 5 5 5 5 5 5 5 5 5 5 5 5 5 5 5 5 5 5 5 5 5 5 5 5 5 5 5 5 5 5 5 5 5 5 5 5 5 5 5 5 5 5 5 5 5 5 5 5 5 5 5 5 5 5 5 5 5 5 5 5 5 5 5 5 5 5 5 5 5 5 5 5 5 5 5 5 5 5 5 5 5 5 5 5 5 5 5 = b ,.w.iXbXLX5.@ 5 5 5 5 5 5 5 = &.0.( u.y.y.y.<.q.a e.5 5 5 * 1.b 1.5.y.( q.t.w.p <.w.1.j y.5.u 1.l 9.1.%.w.e.j 5.5 e.5.* 5 5 5 5 5 5 5 5 5 5 5 5 5 5 5 5 5 5 5 5 5 5 5 5 5 5 5 5 5 5 5 5 5 5 5 5 5 5 5 5 5 5 5 5 5 5 5 5 5 5 5 5 5 5 5 5 5 5 ",
"5 5 5 5 5 5 5 5 5 5 5 5 5 5 5 5 5 5 5 5 5 5 5 5 5 5 5 5 5 5 5 5 5 5 5 5 5 5 5 5 5 5 5 5 5 5 5 5 5 5 5 5 5 5 5 5 5 5 5 5 5 5 5 5 5 5 5 5 5 5 5 5 5 5 5 5 5 5 5 5 5 5 5 5 5 5 5 5 5 5 5 5 5 5 5 5 5 5 5 5 5 5 5 5 5 5 5 5 5 5 5 5 5 5 5 5 5 5 5 5 5 5 5 5 5 5 5 5 5 5 5 5 5 5 5 5 - j q.=.,.1.gX&.= 5 5 5 5 5 5 5 5 - &.9.m %.:.m b m i ( 5 5 5 5 5 5 5 i j j i c u 5 w c 5 5 i c u u w p p 5 j p 5 i 5 5 i 5 5 5 5 5 5 5 5 5 5 5 5 5 5 5 5 5 5 5 5 5 5 5 5 5 5 5 5 5 5 5 5 5 5 5 5 5 5 5 5 5 5 5 5 5 5 5 5 5 5 5 5 5 5 5 5 5 5 5 ",
"@ @ @ @ @ @ @ @ @ @ @ @ @ @ @ @ @ @ @ @ @ @ @ @ @ @ @ @ @ @ @ @ @ @ @ @ @ @ @ @ @ @ @ @ @ @ @ @ @ @ @ @ @ @ @ @ @ @ @ @ @ @ @ @ @ @ @ @ @ @ @ @ @ @ @ @ @ @ @ @ @ @ @ @ @ @ @ @ @ @ @ @ @ @ @ @ @ @ @ @ @ @ @ @ @ @ @ @ @ @ @ @ @ @ @ @ @ @ @ @ @ @ @ @ @ @ = w 5 5 5 5 5 5 5 5 5 5 5 w 5 5 @ - 5 5 5 5 5 5 5 5 5 5 = % = = = = - = 5 = 5 5 5 5 5 5 5 @ . . . . . @ . . @ @ . . . . . . . @ . . @ . @ @ . @ @ @ @ @ @ @ @ @ @ @ @ @ @ @ @ @ @ @ @ @ @ @ @ @ @ @ @ @ @ @ @ @ @ @ @ @ @ @ @ @ @ @ @ @ @ @ @ @ @ @ @ @ @ @ @ @ @ @ ",
"9.9.9.9.9.9.9.9.9.9.9.9.9.9.9.9.9.9.9.9.9.9.9.9.9.9.9.9.9.9.9.9.9.9.9.9.9.9.9.9.9.9.9.9.9.9.9.9.9.9.9.9.9.9.9.9.9.9.9.9.9.9.9.9.9.9.9.9.9.9.9.9.9.9.9.9.9.9.9.9.9.9.9.9.9.9.9.9.9.9.9.9.9.9.9.9.9.9.9.9.9.9.9.9.9.9.9.9.9.9.9.9.9.9.9.9.9.9.9.9.9.9.9.9.9.<.b . 5 5 5 5 5 5 5 5 5 5 5 5 5 j m w 5 5 5 5 5 5 5 5 5 5 5 5 5 5 5 5 5 5 5 5 5 5 5 5 5 % = ,.q.9.q.q.9.9.9.q.9.9.9.q.9.9.9.9.9.9.9.9.9.9.9.9.9.9.9.9.9.9.9.9.9.9.9.9.9.9.9.9.9.9.9.9.9.9.9.9.9.9.9.9.9.9.9.9.9.9.9.9.9.9.9.9.9.9.9.9.9.9.9.9.9.9.9.9.9.9.9.9.9.9.9.9.",
"gXkXkXkXkXgXkXkXkXkXkXkXkXkXkXkXkXkXkXkXgXkXkXkXkXkXkXkXkXkXkXkXkXdXkXkXkXkXkXkXkXkXkXkXkXkXkXkXkXkXkXkXkXkXkXkXkXkXkXkXkXkXkXkXkXkXkXkXkXkXkXkXkXkXkXkXkXkXkXkXkXkXkXkXkXkXkXkXkXkXkXkXkXkXkXkXkXzXzXkXzXzXzXzXzXzXzXzXzXzXzXzXzXzXzXzXzXzXzXzXzXzXzXzXzXzXSXyX= 5 5 5 5 5 5 5 5 - :.I.&XzXlXb = 5 5 5 5 5 5 5 5 5 5 5 5 5 5 5 5 5 5 5 5 5 5 5 @ =.SXzXuXuXuXuXuXuXuXuXuXuXuXuXuXuXuXuXuXuXuXuXuXuXuXdXdXdXuXuXdXdXdXdXdXdXdXdXkXkXkXkXkXkXkXkXkXkXkXkXkXkXkXkXkXkXkXkXgXgXkXkXkXkXkXkXkXkXkXkXkXkXkXkXkXkXkXkXkXkXkXkXkXkXkXkX",
"                                o       o     o o     o     o o o @ o o o o o o o o o o o o o o o o o o o o o o o o o o X X X o X o X X X X X X X X X X X X X X X X X X X X X X X X X X * X X X * X X * X X X X > > > > > X * * * * * * * * * * * * * * * : p xXyX. 5 5 5 5 5 5 5 - 6.DXHXKXzXj - 5 5 5 5 5 5 5 5 5 5 5 5 5 u 5 5 5 5 u 5 5 5 = b JX&.                                                                                                                o $ $   o o o o o o o o o o o X o o X o o X X X X X X X X ",
": : : : : c ; : ; : ; c : ; : ; c : ; ; V ; : s a : s M , , , <  .XXt t t e e w ; ; ; ; ; ; u ; c s ; ; u u u u u u u 5 4 U i ; u u u u u ; c a ; u u i / M s u u u u v u u u a c u s u m s u a v u a m u s s s s s s s s s s s s s s s s s s s n m x z | z $.$.SX( = 5 5 5 5 5 5 - 6.CXJXHX&X5 5 5 5 5 5 5 5 5 5 4 n.n.n.n.v.n.n.n.n.Q = 5 5 . iXw.  * * * * * * * * * * * * * a : * * * * * * * * * : : * u s * : : : : : : : : : : : ; c ; ; ; ; ; ; ; ; ; ; ; ; ; 1 (.^.+ 0 ; ; ; ; ; ; ; ; ; u c ; u u u u u u u u u u u ; ",
"* * * * * a * * * * : a * : * ; a * : : V = * u s * u d , , , < n XXt t e e w w ; ; ; ; ; ; ; : a u : ; ; ; ; ; ; ; ; - 4 U i ; ; ; ; ; ; ; a a ; ; ; u ^ c u ; ; u ; M u u ; a c ; u u M u ; s c ; s m u u u u u u u u u u u u u u u u u u u u c n p x z x $.#.aX0.. 5 5 5 5 5 5 - 6.BXFXJXI.5 5 5 5 5 5 5 5 5 5 g c.c.c.c.Q c.c.c.v.R 5 5 5 * bXc o X X X X X X X X X X X X X s * X * * * * * * * * * * X u u X * * * * * * : : : * * : a * * : * : * : : : : : : * 1 (.^.+ ; ; ; ; ; ; ; ; ; ; ; c ; ; ; ; ; ; ; ; ; ; ; u : ",
"* * * * * a * * * * : a * : * ; a * : : V = * u s * u d , , , < n XXt t e e w w ; ; ; ; ; ; ; : a u : ; ; ; ; ; ; ; ; - 4 U i ; ; ; ; ; ; ; a a ; ; ; u ^ g u ; ; u ; M u u ; a c ; u u M u ; s c ; s m u u u u u u u u u u u u u u u u u u u u c n p x z x $.#.aX0.. 5 5 5 5 5 5 - 6.DXJXJXI.5 5 5 5 5 5 5 5 5 ; ! E.E.E.E.S.E.E.E.E.` : 5 5 * BXs o X X X X X X X X X X X X X s * X * * * * * * * * * * X u u X * * * * * > q ^.{ ] * * N : : * ; q ] : * 0 * ] ; ] N (.^.+ ; ; ; ; ; ; ; ; ; ; ; c ; ; ; ; ; ; ; ; ; ; ; u : ",
"* * * * * a * * * * : a * : * ; a * : : V = * u s * u d , , , < n XXt t e e w w ; ; ; ; ; ; ; : a u : ; ; ; ; ; ; ; ; - 4 U i ; ; ; ; ; ; ; a a ; ; ; u ^ g u ; ; u ; M u u ; a c ; u u M u ; s c ; s m u u u u u u u u u u u u u u u u u u u u c n p x z x $.#.aX0.. 5 5 5 5 5 5 - 6.xXcXBXI.5 5 5 5 5 5 5 5 5 ; ! S.S.S.S.D.S.S.S.S.' ; 5 5 * vXa   X X X X X X X X X X X * X s * X * * * * * * * * * * X u u X * * * * * * > [ q ^.[ ] F.] ^.[ [ q ^.[ q G.] { [ ^.{ F.^.+ ; ; ; ; ; ; ; ; ; ; ; c ; ; ; ; ; ; ; ; ; ; ; u : ",
"* * * * * a * * * * : a * : * ; a * : : V = * u s * u d , , , < n XXt t e e w w ; ; ; ; ; ; ; : a u : ; ; ; ; ; ; ; ; - 4 U i ; ; ; ; ; ; ; a a ; ; ; u ^ g u ; ; u ; M u u ; a c ; u u M u ; s c ; s m u u u u u u u u u u u u u u u u u u u u c n p x z x $.#.aX0.. 5 5 5 5 5 5 -  .&.) ..:.w 5 5 5 5 5 5 5 5 ; ! T.R.T.R.S.T.R.T.R.` : 5 5 * vXa   X X X X X X X X X X X * X s * X * * * * * * * * * * X u u X * * * * * * * [ q ] ] [ { [ [ ] { ] ] ] [ q [ [ [ ] { F.^.+ ; ; ; ; ; ; ; ; ; ; ; c ; ; ; ; ; ; ; ; ; ; ; u : ",
"* * * * * a * * * * : a * : * ; a * : : V = * u s * u d , , , < n XXt t e e w w ; ; ; ; ; ; ; : a u : ; ; ; ; ; ; ; ; - 4 U i ; ; ; ; ; ; ; a a ; ; ; u ^ g u ; ; u ; M u u ; a c ; u u M u ; s c ; s m u u u u u u u u u u u u u u u u u u u u c n p x z x $.#.aX0.. 5 5 5 5 5 5 = <.c   : 9.5 5 5 5 5 5 5 5 5 ; ! S.S.S.S.D.S.S.S.S.' ; 5 5 * vXa   X X X X X X X X X X X * X s * X * * * * * * * * * * X u u X * * * * * * * ] q ] ] ] ( q [ q [ ] ] ] ] [ ] ] { G.N (.^.+ ; ; ; ; ; ; ; ; ; ; ; c ; ; ; ; ; ; ; ; ; ; ; u : ",
"* * * * * a * * * * : a * : * ; a * : : V = * u s * u d , , , < n XXt t e e w w ; ; ; ; ; ; ; : a u : ; ; ; ; ; ; ; ; - 4 U i ; ; ; ; ; ; ; a a ; ; ; u ^ g u ; ; u ; M u u ; a c ; u u M u ; s c ; s m u u u u u u u u u u u u u u u u u u u u c n p x z x $.#.aX0.. 5 5 5 5 5 5 = 5.M   ; q.5 5 5 5 5 5 5 5 5 ; ! T.T.T.T.D.T.T.T.R.` : 5 5 * vXa   X X X X X X X X X X X * X s * X * * * * * * * * * * X u u X * * * * * * * * * * * * a * : : : * * * * : * * : : 1 (.^.+ ; ; ; ; ; ; ; ; ; ; ; c ; ; ; ; ; ; ; ; ; ; ; u : ",
"* * * * * a * * * * : a * : * : a * : : V = * u s * u d , , , < n XXt t e e w w ; ; ; ; ; ; ; : a u : ; ; ; ; ; ; ; ; ; 4 U s ; ; ; ; ; ; ; a a ; ; ; u ^ g u ; ; u ; M u u ; a c ; u u M u ; s c ; s m u u u u u u u u u u u u u u u u u u u u c n p x z x $.#.aX0.. 5 5 5 5 5 5 = 5.M   ; q.5 5 5 5 5 5 5 5 5 ; ! S.S.S.T.D.S.T.S.T.` ; 5 5 * vXa   X X X X X X X X X X X * X s * X * * * * * * * * * * X u u X * * * * * * * * * * * * a : * * * : : : : : : : : : 1 (.^.+ ; ; ; ; ; ; ; ; ; ; ; c ; ; ; ; ; ; ; ; ; ; ; u : ",
"* * * * * a * * * * : a * : * : a * : : V = * u s * u d , , , < n XXt t e e w w ; ; ; ; ; ; ; : a u : ; ; ; ; ; ; 1 4 4 L Q J 4 3 ; ; ; ; ; a a ; ; ; u ^ g u ; ; ; ; M u u ; a c ; u u M u ; s c ; s m u u u u u u u u u u u u u u u u u u u u c n p x z x $.#.aX0.. 5 5 5 5 5 5 = 5.M   ; 0.5 5 5 5 5 5 5 5 5 ; ! T.T.T.T.D.S.T.T.T.` ; 5 5 * vXa   X X X X X X X X X X X * X s * X * * * * * * * * * * X u u X * * * * * * * * * * * * a * : : : : : : : : : : : : 1 (.^.+ ; ; ; ; ; ; ; ; ; ; ; c ; ; ; ; ; ; ; ; ; ; ; ; : ",
"* * * * * a * * * * : a * : * : a * : : V = * u s * u d , , , < n XXt t e e w w ; ; ; ; ; ; ; : a u : ; ; ; ; ; 3 4 U L Q Q R L G 3 ; ; ; ; a a ; ; ; u ^ g u ; ; ; ; M u u ; a c ; u u M u ; s c ; s m u u u u u u u u u u u u u u u u u u u u c n p x z x $.#.aX0.. 5 5 5 5 5 5 = 5.M   ; 0.5 5 5 5 5 5 5 5 5 ; ! T.T.T.T.S.T.T.T.T.` : 5 5 * vXa   X X X X X X X X X X X * X s * X * * * * * * * * * * X u u X * * * * * * * * * * * * a * : : : : : : : : : : : : 1 (.^.+ ; ; ; ; ; ; ; ; ; ; ; c ; ; ; ; ; ; ; ; ; ; ; ; : ",
"* * * * * a * * * * : a * : * : a * : : V = * u s * u d , , , < n XXt t e e w w ; ; ; ; ; ; ; : a u : ; ; ; ; ; 4 U L Q l.c.Q Q L 4 3 ; ; ; a a ; ; ; w ^ g u ; ; ; ; M u u ; a c ; u u M u ; s c ; s m u u u u u u u u u u u u u u u u u u u u c n p x z x $.#.aX0.. 5 5 5 5 5 5 = 5.M   ; 0.5 5 5 5 5 5 5 5 5 ; 8 S.S.S.S.D.S.S.S.S.' ; 5 5 * vXa   X X X X X X X X X X X * X s * X * * * * * * * * * * X u u X * * * * * * * * * * * * a * : : : : : : : : : : : : 1 (.^.+ ; ; ; ; ; ; ; ; ; ; ; c ; ; ; ; ; ; ; ; ; ; ; u * ",
"* * * * * a : * * * : a * : * ; a * : : V = * u s * u d , , , < m XXt t e e w w ; ; ; ; ; ; ; : a u : ; ; ; ; 3 G L Q l.l.l.l.l.Q U 4 ; ; ; a a ; ; ; u ^ g u ; 3 3 ; M u u ; a c ; u u v u ; s c ; s m u u u u u u u u u u u u u u u u u u u u c n p x z x $.#.aX0.. 5 5 5 5 5 5 = 9.v   ; 0.5 5 5 5 5 5 5 5 5 5 5 6 7 7 6 ! R.R.R.R.` : 5 5 * vXa   X X X X X X X X X X X * X s * X * * * * * * * * * * X u u X * * * * * * * * * * * * a * : : : : : : : : : : : : 1 (.^.+ ; : ; ; ; ; ; ; ; ; ; c ; ; ; ; ; ; ; ; ; ; ; u * ",
"@ * * * * a * * * * = a * * * = a * * : V * * u i @ 0 d : , , < n XXt t e e w 5 - = = = = = - = a u = - - - - 3 G I l.Q l.v.Q l.Q L 4 ; ; - a i - ; ; 5 ^ j u ; 5 5 ; c 5 5 ; a j ; 5 5 b 0 ; i c ; u b 5 0 5 5 5 5 5 0 0 0 0 0 0 0 0 0 0 u u 5 l z e x x x $.#.aX0.. 5 5 5 5 5 5 = 9.v   ; 0.5 5 5 5 5 5 5 5 5 5 5 7 7 7 7 ! ` ` ` D.! ; 5 5 * vXa o X X X X X X X X X X X * X s * X * * * * * * * * * * X u u X * * * * * * * * * * * : a * : : : : : : : : : : : : 1 (.^.+ ; ; ; ; ; ; ; ; ; ; ; c ; ; ; ; ; ; ; ; ; ; ; u : ",
"1 1 3 3 3 g 3 3 3 3 3 g 3 3 3 3 g 3 3 3 C 1 3 f g 1 4 g 3 4 4 B H XXf J f f f 3 3 3 3 3 3 3 3 3 g f 3 3 3 3 3 4 L Q l.Q b.n.l.l.l.I G 4 3 3 g g 3 3 3 s / H f 3 4 4 3 Y 4 4 3 g v 3 4 4 Y f 3 g H 3 f Y 4 s 4 4 4 4 4 4 s f f f f f f f f f f 4 H H f J J J x.#.aX0.. 5 5 5 5 5 5 = 9.v   ; 0.5 5 5 5 5 5 5 5 5 5 5 8 8 8 8 6 6 7 7 7 5 5 5 5 * vXa   X X X X X X X X X X X X X u X X X X X X X X X X X * X ; u X * * * * * * * * * * * * a * * * * * * * * * * * : * 1 (.^.+ : : : : : : : : : : ; a : ; : : ; ; ; ; ; ; ; ; * ",
"J J J J J R J J J J J R J J J U R J J U W J J U U J U R U U U C ;.$XH H H H H U U U U U U U U U R U U U U U U U Q Q c.c.l.c.l.c.l.Q R U U U R R U U U U o.R U U U U U R U U U R R U U U R U U R R U R R U U U U U U U U U U U U U U U U U U U U R R R ;.;.;.oX#.aX0.. 5 5 5 5 5 5 = 9.v   ; 0.5 5 5 5 5 5 5 5 5 5 5 7 7 7 7 7 7 7 7 7 6 5 5 5 * BXs X ; : ; ; ; ; ; ; ; ; ; ; ; a ; ; ; ; ; ; ; ; ; ; ; ; ; a a ; u u u u u u u u u u u u c u u u u u u u u u u u u u f (.^.2 s u s s s s s s s s a v s s s s s s s s s a a a u ",
"5 5 5 0 5 N 0 5 5 0 u c 5 u 0 i N 0 u u V w 0 j j 5 a M 0 d d <  .+Xx / x x h p i i i i i i i i b j i i i i i a U R Q V.v.l.V.c.Q R g i p i b N i a i h / b j p a a p m j a p c b p j a m j a N m p j ( a j j j j j j j j j j j j j j j j j j j n ) z / | / oX#.aX0.. 5 5 5 5 5 5 = 9.v   ; 0.5 5 5 5 5 5 5 5 5 5 5 8 8 8 8 7 8 8 8 8 6 5 5 5 * BXs X ; ; ; ; ; ; ; ; ; ; ; ; ; a u ; u u u u u u u u u u u a a ; u u u u u u u u u u u u c u u s u u s s s s s s s s f (.^.1 a s s s s s s a a a a v s a a a a a a a a a a a s ",
"> * * * * a * * * * : a * * * : a * * : V * * u u > 3 d : , , < n XXe t e e w ; : : : : : : : * a u : : : : : ; 4 G Q B.V.c.B.c.G 4 3 ; ; : a s : ; ; 5 ^ g u ; ; ; ; c ; ; ; s a ; ; ; c u ; s c ; u v ; 3 3 3 3 3 3 3 3 3 3 u u u u u u u u ; l c e x x x $.#.aX0.. 5 5 5 5 5 5 = 9.v   ; e.5 5 5 5 5 5 5 5 5 5 5 7 7 7 7 7 7 7 7 7 6 5 5 5 * vXa   X o X X X X X X X X X X X u X X X X X X X X X X X X X ; u X * * * * * * * * * * * * a * * * * * * * * * * * * * 1 (.^.+ : * * : : : : : : : ; a * : : : : : ; ; ; ; ; ; * ",
"* * * : * a : * * * : a * : * ; a * : : V = * u s * u d , , , < m XXt t e e w w ; ; ; ; ; ; ; : a u ; ; ; ; ; ; 3 3 c.B.c.Q M.M.4 3 ; ; ; ; a a ; ; ; w ^ c u ; u u ; M u u ; a c ; u ; M u ; s c ; s v ; u u u u u u u u u u u u u u u u u u u c n p x x x $.#.aX0.. 5 5 5 5 5 5 = 9.v   ; t.5 5 5 5 5 5 5 5 5 5 5 7 8 8 8 7 7 8 8 8 6 5 5 5 * vXa o X X X X X X X X X X X X X s * X * * * * * * * * * * X u u X * * * * * * * * * * * : a * : : : : : : : : : : : : 1 (.^.+ ; ; ; ; ; ; ; ; ; ; ; c : ; ; ; ; ; ; ; ; ; ; u : ",
"* * * * * a * * * * : a * : * : a * : : V = * u s * u d , , , < n XXt t e e w ; ; ; ; ; ; ; ; : a u : ; ; ; ; ; ; : M.M.Q Q c.N.g - ; ; ; ; a a ; ; ; w ^ g u ; ; ; ; c u ; ; a c ; u ; M u ; s c ; u v ; u u u u u u u u u u u u u u u u u u u c n p x x x $.#.aX0.. 5 5 5 5 5 5 = 9.m   ; t.5 5 5 5 5 5 5 5 5 5 5 7 8 8 8 7 7 8 8 8 6 5 5 5 * vXa   X X X X X X X X X X X X X s * X * * * * * * * * * * X u u X * * * * * * * * * * * * a * * : : : : : : : : : : : 1 (.^.+ ; : : : ; ; ; ; ; ; ; c : ; ; ; ; ; ; ; ; ; ; ; * ",
"* * * * * a * * * * : a * : * : a * : : V = * u s * u d , , , < n XXt t e e w ; ; ; ; ; ; ; ; : a u : ; ; ; ; ; = S N.4.Q d.W N.4.% 3 ; ; ; a a ; ; ; w ^ g u ; ; ; ; c u ; ; a c ; u ; M u ; s c ; u v ; u u u u u u u u u u u u u u u u u u u c n p x x x $.#.aX0.. 5 5 5 5 5 5 = q.m   ; t.5 5 5 5 5 5 5 5 5 5 5 7 7 7 7 7 7 7 7 7 6 5 5 5 * vXs   X X X X X X X X X X X X X s * X X * * * * * * * * * X u u X * * * * * * * * * * * * a * * : : : : : : : : : : : 1 (.^.+ ; : : : ; ; ; ; ; ; ; c : ; ; ; ; ; ; ; ; ; ; ; * ",
"* * * * * a * * * * : a * : * : a * : : V = * u s * u d , , , < n XXt t e e w ; ; ; ; ; ; ; ; : a u : ; ; ; ; ; % m.B.U W Q C m.M.= ; ; ; ; a a ; ; ; w ^ g u ; ; ; ; c u ; ; a c ; u ; M u ; s c ; u v ; u u u u u u u u u u u u u u u u u u u c n p x x x $.#.aX0.. 5 5 5 5 5 5 = q.m   ; t.5 5 5 5 5 5 5 5 5 5 5 8 8 8 8 7 8 8 8 8 6 5 5 5 * vXs   X X X X X X X X X X X X X s * X X * * * * * * * * * X u u X * * * * * * * * * * * * a * * * : : : : : : : : : : 1 (.^.+ ; : : : : ; ; ; ; ; ; c : ; ; ; ; ; ; ; ; ; ; ; * ",
"* * * * * a * * * * : a * : * : a * : : V = * u s * u d , , , < n XXt t e e w ; ; ; ; ; ; ; ; : a u : ; ; ; ; % T N.c.4 Q R C Q N.T = ; ; ; a a ; ; ; w ^ g u ; ; ; ; c u ; ; a c ; u ; M u ; s c ; u v ; u u u u u u u u u u u u u u u u u u u c n p x x x $.#.aX0.. 5 5 5 5 5 5 = q.m   ; t.5 5 5 5 5 5 5 5 5 5 5 7 7 7 7 6 7 7 7 7 6 5 5 5 * vXs   X X X X X X X X X X X X X s * X X * * * * * * * * * X u u X * * * * * * * * * * * * a * * * : : : : : : : : : : 1 (.^.+ ; : : : : ; ; ; ; ; ; c : ; ; ; ; ; ; ; ; ; ; ; * ",
"* * * * * a * * * * : a * : * : a * : : V = * u s * u d , , , < n XXt t e e w ; ; ; ; ; ; ; ; : a u : ; ; , = 3 M.B.G C Q R W 4 M.m.* , ; ; a a ; ; ; w ^ g u ; ; ; ; c u ; ; a c ; u ; M u ; s c ; u v ; u u u u u u u u u u u u u u u u u u ; l n p x x x $.#.aX0.. 5 5 5 5 5 5 = q.m   ; t.5 5 5 5 5 5 5 5 5 5 5 8 8 8 8 7 8 8 8 8 6 5 5 5 * vXs   X X X X X X X X X X X X X s * X X * * * * * * * * X X u u X * * * * * * * * * * * * a * * * : : : : : : * : : * 1 (.^.+ ; : : : : ; : : : : ; c : ; ; ; ; ; ; ; ; ; ; ; * ",
"* * * * * a * * * * : a * : * : a * : : V : * u s * u d , , , < n XXt t e e w ; ; ; ; ; ; ; ; : a u ; ; ; @ s M.N.l.3 C L R W 4 4.N.T * 3 ; a s ; ; ; w ^ c u ; ; ; ; c u ; ; a a ; u ; M u ; s c ; u v ; u u u u u u u u u u u u u u u u u u ; l z e x x x $.#.aX0.. 5 5 5 5 5 5 = q.m   ; t.5 5 5 5 5 5 5 5 5 5 5 7 7 7 7 6 7 7 7 7 6 5 5 5 * vXs   * o o X X X X X * ; * ; X s * X X X * * * * X * * ; * ; u X * * * * * * * u ; * u : a * * * * : : : * ; s : : ; 1 (.^.+ ; : : : : : ; ; u u ; c : ; ; ; ; ; ; ; ; ; ; ; * ",
"* * * * * a * * * * : a * : * : a , , < F , , s s * u d , , , < n XXt t e e w ; ; ; ; ; ; ; ; : a u * @ ; E M.N.v.4 4 C L R W D 3 M.B., - ; a s ; w r ~ ^ ) h 5 ; ; ; c u ; ; a a ; u ; M u ; s c ; u v ; u u u u u u u u u u u u u u u u u u ; l z e x x x $.@.aX0.. 5 5 5 5 5 5 = q.m   ; t.5 5 5 5 5 5 5 5 5 5 5 8 8 8 8 7 8 8 8 8 6 5 5 5 * vXs o ; ; ; X X X X o a s s m ; u * X X X * * * * X v M M c u u X * * * * * * * a m c c * a * * * * : : : * u m s c m 2 (.^.+ ; : : : : * %.c s %.s a : ; ; ; ; ; ; ; ; ; ; ; * ",
"* * * * * a * * * * : a * : * : d < B B F B B V s * u d , , , < n XXt t e e w ; ; ; ; ; : * @ . i u S j.M.N.B.v.G 4 4 D L R C W V U N.m.1 * a a r ~ ^ ^ ` X./ r w ; ; c u ; ; a a ; u ; M u ; s c ; u v ; u u u u u u u u u u u u u u u u u u ; l z e x x x $.@.aX0.. 5 5 5 5 5 5 = 0.m   ; y.5 5 5 5 5 5 5 5 5 5 5 7 7 7 7 7 7 7 7 7 6 5 5 5 * BXs o M M c : X X X * m a c : a u * X X X * * * * u m a m c ; u X * * * * * * * ; m %.M ; a * * * * * : : ; * s M %.N 2 (.^.+ ; : : : ; : a a * v u a : ; ; ; ; ; ; ; ; ; ; ; * ",
"* * * * * a : * * * : a * : * , V B F F s.F B B d . = a , , , < m XXt t t e w - * @ @ * ; g E j.m.B.N.N.m.v.v.Q 3 3 4 T G R f D C 1 E N.M.G a k ^ ^ ` +.L.+.` ^ r u ; M u 3 ; a j ; u ; M u ; s c ; u v ; u u u u u u u u u u u u u u u u u u ; l z e x x x $.@.aX0.. 5 5 5 5 5 5 = 0.m   ; y.5 5 5 5 5 5 5 5 5 5 5 7 8 8 8 7 7 8 8 8 6 5 5 5 * BXs o m s s ; X X * s c a m a s u * X X X * * * s a m &.c c u u X * * * * * ; a : v %.c a s * * * * * * : a a m s %.%.2 (.^.+ ; : : : a s a a M v ; c : ; ; ; ; ; ; ; ; ; ; ; * ",
"* * * * * a * * * * : a * * : < F F s.s.s.s.F d.M.m.4.Z $ $ , < z XXy y y & w s Z E j.m.M.N.N.N.M.M.c.v.v.d.D s.D D d.D L R Z C D g 3 3.N.B.c.a.o.+.L.L.L.L.O.` ^ 6 - l 5 5 - i j - 5 ; c u ; s c ; u v ; u u u u u u u u u u u u u u u u u u u c n p x x x $.@.aX0.. 5 5 5 5 5 5 = 0.m   ; y.5 5 5 5 5 5 5 5 5 5 5 7 8 8 8 7 7 8 8 8 6 5 5 5 * vXs o u ; ; * X X X o ; a : c * u * * * * * * * X X * ; a u ; u X * * * * * * * c s ; c : a * : : : : : : * a m u : u 1 (.^.+ ; : : ; : : u u M v u a : ; ; ; ; ; ; ; ; ; ; ; * ",
"= = = = = l - - - - ; l = - , B F F s.F s.F k.V.k.M.N.N.m.d.E F ;.$X;.a.4.m.M.N.N.N.N.B.V.V.V.v.v.v.d.d.s.F s.s.s.k.k.s.s.k.s.s.k.s.s.s.d.N.N.m.z.%XJ.O.Z.L.J.+.X.H 4 R 4 4 4 g g 3 3 , M 3 , s N : u M ; ; ; ; ; ; ; - - - - - - - - - 5 5 5 = h x e r t r $.@.aX0.. 5 5 5 5 5 5 = 0.m   ; i.5 5 5 5 5 5 5 5 5 5 5 7 7 7 7 7 7 7 7 7 6 5 5 5 * vXs           o o o o     o   o u X o o o o X X X X X o o   ; ; o X X X X X X X o X X X X s X X X X X * * * X X * * X 2 (.^.+ * * * * * * * * X X : a * * * * * * * * : : : : X ",
"4X4X4X4X4X4X4X4X4X4X4X4X4X4X2X=X&Xj.D s.k.s.j.j.r.r.-XmXM.M.N.N.M.0XNXNXNXNXmXhX-X&X&Xz.z.z.%X8.U.L.+.+.+.+.+.5.<.,.3.=.;.2.Y T d.d.D W D W m.MXpXU.+.!.!.+.U.&Xm.m.v.v.v.v.v.v.v.v.v.v.v.v.v.v.v.c.c.v.c.c.c.c.c.c.c.c.c.c.c.c.c.c.c.c.c.c.c.c.c.c.c.c.c.c.-X#.aX0.. 5 5 5 5 5 5 = 0.m   ; i.5 5 5 5 5 5 5 5 5 5 5 8 8 8 8 7 8 8 8 8 6 5 5 5 * BXu a <.,.,.,.,.,.,.,.,.,.,.1.,.<.1.,.,.,.,.1.1.1.1.1.1.1.1.<.<.1.1.1.1.1.1.1.1.<.<.<.<.<.<.1.<.<.<.<.<.<.<.<.<.<.<.<.a.).`.a.<.<.<.<.<.<.<.<.<.<.<.9.<.<.<.<.<.<.<.<.<.<.<.<.<.",
"oXoXoXoXoXoXoXoXoXoXoXoXoXoX$.8.0.j.D s.s.D j.I.=X8X5X5X8X*X8.W 3.$X>.o.o.o.} / / _ X.+.+.6.X.7.7.+.7.+.+.+.U.U.U.U.U.L.J.U.U.U.U.U.L.+.+.=.:.8.&X-XU.L.K.+.L.L.+.X.X.>.X...*.>.>.*.=.;.a.>.;.,.a.;.2.a.2.2.2.2.2.2.2.2.2.2.2.2.2.2.2.2.2.2.2.2.a.a.a.a.8.a.*X#.aX0.. 5 5 5 5 5 5 = 0.m   ; i.5 5 5 5 5 5 5 5 5 5 5 7 7 7 7 6 7 7 7 7 6 5 5 5 * BXs * u u u u u u u u u u u u u M s u s s s s s s s s s s u c c u s s s s s a a a a a a a m a a a a a a a a a a a a a f (.^.1 N a a a a a a a a a c %.a c c c c c c c c c c a %.",
"< < < < < B < < < < < B < < < B s.s.s.F s.k.s.F V a } oX+X8X7X2X$X$X| l x x x g C g a a g W Z W E M D d d d S C s d g a H ;.) / / 6.+.L.L.U.U.L.L.U.U.U.U.L.L.+.+.) ) :.) ) / ..X./ / / X./ / ) X./ ) :./ / / / / / / / / / / / / / / / / / / / X.X.| X.o.X.oX#.aX0.. 5 5 5 5 5 5 = 0.Y   ; u.5 5 5 5 5 5 5 5 5 5 5 8 8 8 8 7 8 8 8 8 6 5 5 5 * vXs   o o o o o o o o o o o X o u X o X X X X X X X X X X o ; ; o X X X X X X X X X X X X s X X * * * * * * * * * * $ 2 (.^.+ * * * * * * * * * * : a * * * * * : : : : : * a v ",
", , , , , Z , , , , , Z , , , F j.F F s.k.s.B F V > , , O u o.oX2X4X4X#X$. .d V D d a j M E E E 2.Y W M T E E T l l l l Y ;.n l l T C Z n 3.5.U.L.L.L.U.*XfX&X7.+./ ) >.) ) ) X.X.) ..) >...) ..:.) ..>.) ....................................) X.o.X.o.o.o.oX#.aX0.. 5 5 5 5 5 5 = 0.Y   ; u.5 5 5 5 5 5 5 5 5 5 5 7 7 7 7 6 7 7 7 7 6 5 5 5 * vXs   X X X X X X X X X X X X X s * X * * * * * * * * * * X u u X * * * * * * * * * * * * a * * * : : : * : : : : : : 1 (.^.+ ; : : : : : ; ; ; : ; c : ; ; ; ; ; ; ; ; : a &.: ",
", B B , , d < B , , , V , , , C 0XA B k.V.F B V d * u d , , < < n @X+X4X5X7X2X*Xp.>.-.S D s.D D W C D C D D D C s d d 0 S T d s s C D C C D W D C _ L.L.L.U.aXMXm.-.b &.b N N ( &.N b N &.b N ( &.N b &.N b b b b b b b b b b b b b b b b b b N %.&.) ..X...oX@.aX0.. 5 5 5 5 5 5 = w.%.  ; u.5 5 5 5 5 5 5 5 5 5 5 8 8 8 8 7 8 8 8 8 6 5 5 5 * vXs   X X X X X X X X X X X X X u * X X X X X X * * * * * X u u X * * * * * * * * * * * * a * * * * * * * * : : : : * 1 (.^.+ : : : : : : : : : : ; a : ; ; ; ; ; ; ; : a %.u * ",
"< j.%X, , d F k., , , V , , < -.9Xo.F M.d.< < s s * u d , , , B n XXw t } oX2X4X5X5X7X7X8X2X9X9X;X=X=X=X=X=X=X=X=X=X=X=X=X=X=X*X*X*X-X-X-X*X-X-X-X*X*X*X=X<X<X0XUX-X*X*X*X*X*X*X*X*X*X*X*X*X*X*X*X*X*X*X*X*X*X*X*X*X*X*X*X*X*X*X*X*X*X*X*X*X*X*X*X=X*X=X=X*X9X#.aX0.. 5 5 5 5 5 5 = w.%.  ; u.5 5 5 5 5 5 5 5 5 5 5 7 7 7 7 6 7 7 7 7 6 5 5 5 * vXs   X X X X X X X X X X X X X u * X X X X X X * * * * * X u u X * * * * * * * * * * * * a * * * * * * * * * : : : * 1 (.^.+ : : : : : : : : : : ; a : ; ; ; ; ; ; : a %.u ; * ",
"< =X1X, < d F k.B , , V , , < :.5X#.d.N.D : : u s * u d , V V F n $XY v u W V V 3.a.$.oX#X;X;X2X2X2X1X8X1X1X1X8X4X1X1X1X1X8X1X4X4X4X4X4X4X4X7X4X4X7X8X4X8X2X1X4X4X6X7X7X7X4X4X4X4X4X4X4X4X4X4X4X4X4X4X4X4X4X4X4X4X4X4X4X4X4X4X4X4X4X4X4X4X4X4X4X4X4X4X4X4X4X7X#.aX0.. 5 5 5 5 5 5 = e.%.  ; u.5 5 5 5 5 5 5 5 5 5 5 8 8 8 8 7 7 8 8 8 6 5 5 5 * vXs   X X X X X X X X X X X X X u * X X X X X X X * * * * X u u X * * * * * * * * * * * * a * * * * * * * * * : : : * 1 (.^.+ : : : : : : : : : : ; a : ; ; ; ; ; : s &.u : ; * ",
"< 2X2X, , d 2.7X8.< , V , , < 7.7X$.M.m.< : * u s * u a < D B F n $XT Y l T T V D F V F F B D Z D D V F 3 - B k.c p : 5 H ;.a s a p u C S z E T Y W E S 8.z., T E / U.MXN.m./ / X.k k / ..k k x ..r k X.r k k k k k k k k k k k k k k k k k k r / | ~ / | / oX@.aX0.. 5 5 5 5 5 5 = e.%.  ; u.5 5 5 5 5 5 5 5 5 5 5 7 8 8 8 7 7 8 7 8 6 5 5 5 * vXs   X X X X X X X X X X X X X u * X X X X X X X * * * * X ; u X * * * * * * * * * * * * a * * * * * * * * * * : : * 1 (.^.+ : : : : : : : : : : ; a : ; : ; ; : s &.u : ; ; * ",
", 2X2Xs , B 8.2XoX< , V , , < 8.7X-XN.T B : * u s * u d d z.E 8.n $XT T T ;.T C T D v S Y $.E n T W c , p u z ;Xm x ; u ;X$.d l a a ; V a A T m A W E D #X2Xd d.d.d a +.pXNXM.1./ k h ) X.r / ) X.k k X.r h h h h h h h h h h h h h h h h k k r / / t / | / J.@.aX0.. 5 5 5 5 5 5 = t.%.  3 P.5 5 5 5 5 5 5 5 5 5 5 7 7 7 7 7 7 7 7 7 6 5 5 5 * vXs   X X X X X X X X X X X X X u * X X X X X X X * * * * X ; u X * * * * * * * * * * * * a * * * * * * * * * * * : * 1 (.^.+ : : : : : : : : : : ; a : ; : ; * s =.s : ; ; ; * ",
"d #X2Xs < B oX#X$X, , V , , < oX2XUXM.* V * * u s * u s Y 7Xz.#XH oXW 2.E Y C D W C z Z o.4XE V C W l u x a o.8Xm z p a 4XoXM n n l w d x d.d.| n Y m D =X2XV =X2XT >.-./ 6.MXN.m./ k ..X./ / X.:.k k X.k r k k k k k k k k k k k k k k k k k r / / ~ / | / oX@.aX0.. 5 5 5 5 5 5 = t.%.  3 P.5 5 5 5 5 5 5 5 5 5 5 8 8 8 8 7 8 8 8 8 6 5 5 5 * vXs   X X X X X X X X X X X X X u * X X X X X X X X * * * X ; u X * * * * * * * * * * * * a * * * * * * * * * * * : * 1 (.^.+ : : : : : : : : : : ; a : : ; * u &.s : ; ; ; ; * ",
"x #X2Xl < V oXoX#X, , d , , < oX=XN.3.@ V * , s s * u V 2.7X*X=X2.*X-X#XW #X$Xa.9XA z g $.4X3.*X8.C z l n l o.7X..n a c 4X$Xd n n d i l d #X%X#X0.d ) V #X8XE 2X5X;X7X$.H *.oXAXN.M.../ :./ / X.>./ / o./ k k k r k k k k k k k k k k k k k k r / / t / | / oX@.aX0.. 5 5 5 5 5 5 = t.%.  u qX5 5 5 5 5 5 5 5 5 5 5 7 7 7 7 6 7 7 7 7 6 5 5 5 * vXs   X X X X X X X X X X X X X u * X X X X X X X X * * * X ; u X * * * * * * * * * * * * a * * * * * * * * * * * : * 1 (.^.+ : : : : : : : : : : ; a : ; * u &.u : ; ; ; ; ; * ",
"| #X#Xz < V #X$.#Xs , C F , < $XUXN.3 O B % 4 V d 4 s D p.7X2X2X3.2X5X;X2.5X;XoX6Xn d s oX5X8X5X;XV Z n n c $.7Xm c c v 4X2X+.a o.oXa d ..7X=X8X9X2.n $.1X8XE 2X4X5X5X$.,.8X@X4X0XNXN.z.+./ / X.:./ / :./ k k k r r r k k k k k k k k k k k k r / / t / | / oX@.aX0.. 5 5 5 5 5 5 = t.%.  u qX5 5 5 5 5 5 5 5 5 5 5 8 8 8 8 7 8 8 8 8 6 5 5 5 * vXs   X X X X X X X X X X X X X u * X X X X X X X X X * * X ; u X * * * * * * * * * * * * a * * * * * * * * * * * * * 1 (.^.+ : : : : : : : : : : ; a : : u &.s * ; ; ; ; ; ; * ",
"o.#X#Xz < B #Xo.#Xl , D k.< < #XNXm.# } *.@ F s.d F d s.=X$X7X2X<.2X5X2Xq.5X1X$X5X$X$.| #X5X5X2X#XY *Xd c d $.5X#X| c @X5X5X2X8.4X1Xo.o.$.5X2X7X5X8X2X7X5X8Xd.2X1X5X5X%X=X5X#X5X5XoXM.NXm.~ ) &.$.o.X.I.../ x / r r r r r k k k k k k k k k k r / / t / | / oX@.aX0.. 5 5 5 5 5 5 * t.%.  u qX5 5 5 5 5 5 5 5 5 5 5 7 7 7 7 6 7 7 7 7 6 5 5 5 * vXs   X X X X X X X X X X X X X u * X X X X X X X X X * * X ; u X * * * * * * * * * * * * a * * * * * * * * * * * * * 1 (.^.+ : : : : : : : : : : ; a * ; &.s * ; : : ; ; ; ; * ",
"$.oX$X$.s 2.;Xm #X| O 3.j.c #X0XN.;Xo 1XoXO 8.z.D d.S -X2Xo.8.2X%X2X5X7X7X1X2X@X5X5X5X1X1X4X5X#X#X$.6X#X$.+.$.5X5X2X .4X2X=X7X7X5X1X$X#X$XoX1X2XoX5X8X5X2X9Xj.2X2X5X5X5X#X2X7X5X5XoX$.AXN.m.;X=X8XoXJ.5XX.) / X.k k k r k k k k k k k k k k k r / / ~ / | / oX@.aX0.. 5 5 5 5 5 5 * t.%.  u qX5 5 5 5 5 5 5 5 5 5 5 8 8 8 8 7 8 8 8 8 6 5 5 5 * vXs   X X X X X X X X X X X X X u * X X X X X * * * * * * X ; u X * * * * * * * * * * * * a * * * * * * * * * * * : * 1 (.^.+ : : : : : : : : : : ; a ; &.a * ; ; ; ; ; ; ; ; * ",
"*X$.$X5X8X#X$XB #X8XC 1.7XoX7XNXM.1X@X6X4Xe +X;Xa.2X$.5X8X .B j.9X4X5X5X6X$X@X1X5X5X$X4X#X$X5X$X#X#X5X5X5X1X8X6X8.2X2X2XY Y 4X6X5X4X+X7X8X+.$XoXo.8Xd 2X#X#X5X#X$X5X7X5X7.2X5X5X7X#X$.6X0XN.NX7X6XoXoX5XJ.) ) ../ x r r r r r r r r r r r r r r / / t ~ ~ ~ J.@.aX0.. 5 5 5 5 5 5 * t.%.  u qXw 5 5 5 5 5 5 5 5 5 5 7 7 7 7 6 7 7 7 7 6 5 5 5 * vXs   o o o o o o o o o o X X o u X X X X X X X X X X X X o ; ; o X X X X X X X X X X X * s X * X * * * * * * * * * $ 2 (.^.+ * * * * * * * * * * : c %.s * : * * * * * * * : X ",
"7X>.%X7X8X8XoXV #X5X=X0.7X4X-XN.4.4X5X5X6XoX$X5X2X2X%X4X2X-.-.D &X4X5X5X5XoX2X5X8X4X..e.j.3.7XoX2X2X8X5X8X8X5X$XV *X6X2XY 2.oXoX#X4X2X5X7X:.*.*...o.A 2X$XoX5X3.oX5X2X7Xo.2X8X7X=X9X8X8X1X=XNXN.9X;X*X5X7X+.oX$X&.X.) / ) / / ) / / ) ) ) ) ) / X.X.| X.o.X.oX@.aX0.. 5 5 5 5 5 5 * y.%.  u qXw 5 5 5 5 5 5 5 5 5 5 8 8 8 8 7 7 8 8 8 6 5 5 5 * BXs X u ; ; ; ; ; ; ; ; ; ; u ; a u u u u u u u u u u u u u a a u u u u u u u u u u u u u c u s s s s s s s s s s s i f (.^.1 a s s s s s s s a s s =.m s a a a a a a a a a a u ",
"7X&.-.1.r.7XoXV t.&X#X=X#X8XUXM.3.4X5X4X6X-X-X=X5X2X*X1X2XA A S $.4X5X5X5X$.#X4X1X$Xl s.s.| 8X$.4X4X#X6X-X&X6X$Xc d.9X1XY ;.m M d #X5X5X%XM *.%.m m m $.$.$.$XZ ..#X%X>.A 2X%X2X%X=X5X2X7X5X#XM.N.0X8X2X5X;X;X;X( X./ k x x x x x x x x x x x k ) X./ | | | oX@.aX0.. 5 5 5 5 5 5 * y.%.  u qXw 5 5 5 5 5 5 5 5 5 5 7 8 7 8 7 7 8 7 8 6 5 5 5 * vXs o * * * * * * * * * * * : * a : : : : : : : : : : : : : s s : ; ; ; ; ; ; ; ; ; ; ; ; a ; ; ; ; ; ; ; ; ; ; ; ; ; 1 (.^.2 0 ; ; ; ; u u u ; u =.v ; u u u u u u u u u u u ; ",
">.Z d d >.7X$.d D F oX9X$X0XN.j.E 8X6X2X2X5X7X0.8X5X2XoX..M Z V $.1X#X4X5X$.o.$.@X$Xs A Z z 2Xo.@X4XoX5X$Xd.=X$.j s.j.XXZ ;.) n d +X5X5Xo.d  . .c n n b ) %.v n c M M %.d #XoX#Xr.%X5X#X2X7X+X| m.N.mXI.4X4X8X;Xb X.x r r r k r r r r r r r r r / / t ~ ~ ~ J.@.aX0.. 5 5 5 5 5 5 * y.%.  u qXw 5 5 5 5 5 5 5 5 5 5 7 7 7 7 7 7 7 7 8 6 5 5 5 * vXs   o o o o o o o X X X X X o u X X X X X X X X X X X X X ; u X X X X X X X X X * * * * s * * * * * * * * * * * * $ 2 (./.+ : * * * * * * * : m c a * : * * * * * : : : : : X ",
"d Z Z V ..7Xo.V M d oX7X$.UXM.A W 2X6X2X4.6X1X| #X2X5X$.d v Z V 8.1Xo.$.oX| n a 6.>.l z z n n d oX4Xn @XoXF S l z C D j H ;.( n d $X4X4Xo.c  . .n n n ) X.%.m n n n n *.n 3.2.3.W 2.6X%X2.4X#XM ..m.NXm.$X5X5X8Xo.A / k r k x r k r r r r r k r / / t / | ~ J.@.aX0.. 5 5 5 5 5 5 * y.&.  u eXw 5 5 5 5 5 5 5 5 5 5 8 8 8 8 7 8 8 8 8 6 5 5 5 * vXs   X X X X X X X X X X X X X u * X X X X X X X X X X * X ; u X * * * * * * * * * * * * a * * * * * * * * * * * * * 1 (.^.+ : : : : : : * : m a : a * : : : : : : : : : : ; * ",
"M Z Z V  .2X .Z Z V oX7X8.N.j.M d.Y @X2XW #Xn v n C tX*.M Z Z V 8.1Xo.| | | | z c c n c n n n d oX4Xc n n z z n n z z n H ;.( n c o.o.#Xo.c  . .n n n n X.%.m n n n n *.n E A E E D 2X%XD 4X$XM  .1.m.N.UX6X4X8X8X=X+.x r k / r r r r r r r r r / / t ~ | ~ J.@.aX0.. 5 5 5 5 5 5 * y.&.  u eXw 5 5 5 5 5 5 5 5 5 5 7 7 7 7 6 7 7 7 7 6 5 5 5 * vXs   X X X X X X X X X X X X X u * X X X X X X X X X X * X ; u X * * * * * * * * * * * * a * * * * * * * * * * * * * 1 (.^.+ : * : : : * : m c * ; a * : : : : : : : : : : ; * ",
"d Z Z Z Z =.Z Z Z V $.4Xm.N.l A W V oX2XD d l m n Z s.A M Z Z V >.1Xo.| | | | n z n c c c n n d $.2Xc c c n n n n n n b H ;.( c n c c n n c  . .n n n n X.%.m n n n n *.n T A E -.C ;X%XD 1X$XM ..S S 4.N.UX1X+.7X5X#Xb k k k r r r r r r k r r / / t / | ~ J.@.aX0.. 5 5 5 5 5 5 * i.&.  u eXw 5 5 5 5 5 5 5 5 5 5 8 8 8 8 7 8 8 8 8 6 5 5 5 * vXs   X X X X X X X X X X X X X u * X X X X X X X X X X * X ; u X * * * * * * * * * * * * a * * * * * * * * * * * * * 1 (.^.+ : * * : * : m c * : ; a * : : : : : : : : : : ; * ",
"M Z Z Z Z A Z Z Z V ..0XN.j.r T E C oX2XS z l m m l n %.M Z Z V >.@X| | | | | n c c c c c c n l ..o.c n n n n n n n n b H ;.) n n n n n n c  . .c n n n X.%.m n n n n *.m n n E -.A j.W W 2X%XZ ..z  ...3.N.mX/ 2X5X@X/ r / o.r r k k k r r k r / / t / | ~ J.@.aX0.. 5 5 5 5 5 5 * i.-.  u eXw 5 5 5 5 5 5 5 5 5 5 7 7 7 7 6 7 7 7 7 6 5 5 5 * vXs   X X X X X X X X X X X X X u * X X X X X X X X X X * X ; u X * * * * * * * * * * * * a * * * * * * * * * * * * * 2 (.^.+ : * * * * m c * * * ; a * : : : : : : : : : : ; X ",
"M Z Z Z Z A Z Z Z Z d m.B.c l A E C 2.8.S l l m m l n %.M M Z V *.+X| | | | | n c c c c c c n l  .n c n n n n n n n n b H ;.) c n n n n n c  . .c n n n X.%.m n n n n *.n n n -.%.n E T W 2X%XC =.v m =.x 3.N.m.o.8X<X{ h #.;Xe r e r e k k e r x / / ~ | / J.@.aX0.. 5 5 5 5 5 5 * i.-.  u eXw 5 5 5 5 5 5 5 5 5 5 8 8 8 8 7 8 8 8 8 6 5 5 5 * vXs   X X X X X X X X X X X X X u X X X X X X X X X X X * X ; u X * * * * * * * * * * * * a * * * * * * * * * * * * * 2 (.^.+ : * * : %.%.i u ; * : a * : : : : : : : : : - ; % ",
"M Z Z Z Z A Z Z Z d T N.j.h l T E T W D A l l m m l n %.M M Z V *.+X| | | | | n c c c c c c c l  .m c n n n n n n n n b H ;.) c n n n n n c  . .c n n n X.%.m n n n n *.n n n  . .n E T E p.a.W W Y n *.m x 3.N.m.<X.XU.F.oX1X{ _ _ / { _ F._ r { _ { X.F.{ x.@.aX0.. 5 5 5 5 5 5 * u.-.  u wXw 5 5 5 5 5 5 5 5 5 5 7 7 7 7 6 7 7 7 7 6 5 5 5 * vXs   X X X X X X X X X X X X X u X X X X X X X X X X X X X ; u X * * * * * * * * * * * * a * * * * * * * * * * * * * 2 (./.+ : * ; =.1...*...n i ; a * : : : : - - - : : > > O ",
"M Z Z Z Z A Z Z Z d m.B.c l l T T E W T A l l m m l n %.M M Z V *.+X| | | | | n c c c c c c c l  .m c n n n n n n n n b H ;.) c n n n n n c  . .c n n n X.%.m n n n n *.n n n  .%.n E Y *.W C T d.T n *.n m x 3.N.m.<X7XF.~.<XF.F.).F.F._ F.F.{ F.F.{ F.F.{ x.@.aX0.. 5 5 5 5 5 5 * u.-.  u wXw 5 5 5 5 5 5 5 5 5 5 8 8 8 8 7 8 8 8 8 6 5 5 5 * vXs   X X X X X X X X X X X X X u X X X X X X X X X X X X X ; u X * * * * * * * * * * * * s * * * * * * * * * * * * * 2 (./.+ : ; >.8.8.8.8.8.>. .a a = - : : * > O O > - ~ O.H.",
"M Z Z Z Z A Z Z d E N.j.e c l T T E W T A l l m m l n %.M M Z V *.+X| | | | z n n c c c c c c l  .m c n n n n n n n n b H ;.) c n n n n n c  . .c n n n X.%.m n n n n *.n n n  . .n m m *.E T Y d.T Y 3.n n m x 4.N.nX7XU.U.<X{ F.F._ F.{ { { F.{ F.F.F.F.{ x.@.aX0.. 5 5 5 5 5 5 * u.=.  u wXw 5 5 5 5 5 5 5 5 5 5 7 7 7 7 7 7 7 7 8 6 5 5 5 * vXs   X X X X X X X X X X X X X u X X X X X X X X X X X X X ; u X * X * * * * * * * * * * s * * * * * * * * * * * * * 2 (.^.+ : =.8.8.%X*X*X%Xr.>. .d O O > : r } H.OX,X>X3X3X>X",
"M Z Z Z Z A Z Z d m.M. .l l l T -.E W T A l l m m l n %.M M Z V *.+X| | | | z z c c c c c c c l  .m c n n n n n n n n b H ;.) c n n n n n c  . .c n n n X.%.m n n n n *.n n n  . .n n n *.E T H 2.T T W m n n m x j.NXAXL.*X8X&._ { { { _ _ _ _ F.{ _ { F._ oX@.aX0.. 5 5 5 5 5 5 * u.=.  u wXw 5 5 5 5 5 5 5 5 5 5 7 7 7 8 7 7 8 7 8 6 5 5 5 * vXs   X X X X X X X X X X X X X u X X X X X X X X X X X X X ; u X * X * * * * * * * * * * s * * * * * * * * * * * * $ 2 (.^.+ ( <.8.%X*XoX$.*X%X8.7.+.#.OX:X>X3X3X>X,XOX#.} t % ",
"Z Z Z Z Z A Z d 3.N.4.n c l l E -.E E S A l l m ( l m %.M M Z V =.+X| o.| | ) n c c c c c c n l  .m c n n n n n n n n b H ;.( n n n n n n c  . .b n n n X.%.m n n n n *.n n n  . .n n n *.E T ) ..T W 3.m n n n m k m.N.z.1X4XoX#.x h e r r r e x / t ~ } ~ J.@.aX0.. 5 5 5 5 5 5 * u.=.  u wXw 5 5 5 5 5 5 5 5 5 5 8 8 8 8 7 7 8 8 8 6 5 5 5 * vXs   X X X X X X X X X X X X X u X X X X X X X X X X X X X ; u X * X X * * * * * * * * * s * * * * * * * * * * * * $ 2 (./.3 =...8.*XoX@X1XoX=X=X<X2X>X,XOXH.} t - > O O O * X ",
"g g g g g A g g M.M.p H f f f T H S g g A f f z H f c H g g g V ..+X| | | J J x f f f f f f f f H z f x f f f f f f f x J R n f x x x x x f H H f c l z | H z l c c c  .z c l H H f z c  .E U H  .T W W U z z z z n x m.N.9X4X8X@Xb h e e e e e x / t ~ | t oX@.aX0.. 5 5 5 5 5 5 * u.=.  u wXw 5 5 5 5 5 5 5 5 5 5 7 7 7 7 6 7 7 7 7 6 5 5 5 * vXs   X X X X X X X X X X X X X u X X X X X X X X X X X X X ; u X * * * * * * * * * * * * s * * * * * * * * * * * * * 2 G.).4 s 8.*X9XoX4X5XXX=X*XI.+.w > O O O > : : - - - ; % ",
"{.{.{.{.{.{.{.{.|.|.].{.].].].{.{.].].].{.].].{.{.].{.{.{.{.{.{.|.[.{.[.[.[.[.].{.{.{.{.{.{.{.{.{.{.{.{.{.{.{.{.{.{.{.{.|.|.{.{.{.{.{.{.{.{.|.|.{.{.{.{.|.|.{.{.{.{.{.|.{.{.{.|.|.{.{.{.|.|.|.|.|.|.|.|.|.|.{.|.|.|.{.{.|.[.[.[.[.{.{.].].].].].{.|.[.{.[.[.[.O.iX0.. 5 5 5 5 5 5 * u.=.  u wXw 5 5 5 5 5 5 5 5 5 5 8 8 8 8 7 8 8 8 8 6 5 5 5 * vXs   o o o o o o o o o o o o o u X o o o X X X X X X X X o ; ; o X X X X X X X X X X X X s X X X X X X X X X X * * @ 2 (.'.} ,X<X=X=X*XXXXXoX*X8.>.m > * * * * * * * * * * * X ",
"`.`.`.`.`.`.`.MX.X).).).).).`.`.).).).).`.).).).).).).).).`.`.`._.~._._._._._.).).).).).).).).).).).).).).).).).).).).).).).).).).).).).).).).).).).).)._.).).).).).).).).).).).).).).).).`.`.).).`.`.`.`.`.`.).).).).`.~..XMXVXVXVX_.)._._._._._._._._._._..XO.iX0.. 5 5 5 5 5 5 * P.=.  u rXw 5 5 5 5 5 5 5 5 5 5 7 7 7 7 6 7 7 7 7 6 5 5 5 * BXu * u u u u u u u u u u u u u c s u u u u u u u u u s s u a c u s s s s s s s s s s s s M s s s s s a a a a a a a s d U.<X3X,X8.8.%X*X*X%X=X%Xr.1.&.a a a a a a a a a a a a s ",
"g g g g g g j.N.R e f J f f R f J f f f U f f J J f J H f g g V ..+XK | K K J J f f f f f f f f J J f f f f f f f f J f J U J f J J J J J f J J f J f J | H J f J J f H J J f J H f J J H R U J H J H Y R W R U J J J 4 oX7XB.mX2X6X#.e y e y e t K t K K K XX@.aX0.. 5 5 5 5 5 5 * P.=.  u yXw 5 5 5 5 5 5 5 5 5 5 8 8 8 8 7 8 8 8 8 6 5 5 5 * vXs o * * * * * * * * * * * * * s * * * * * * * * * * * : * u u * : : : : : : : : : : : : a : : : : : : : : : : ; > c $X3X,X~ > s *.8.r.%X%Xr.8.>.m c ; ; ; ; ; ; ; ; ; ; ; ; * ",
"Z Z Z Z d 2.N.m.r c c  .j A C l  .l c c A l l m ( j m %.N Z Z V :.+X| o.| | ) n b b b b b b b c  .m c b b b b b b b b b H ;.) b n n n n n b  .( b n b ) X.%.m b n n b &.n n b  .%.b n n &.Y A ( &.b m ..T W E T n m m c 8.9XxXN.<X5Xw.0 _ k _ r / / _ _ { / J.@.pX0.. 5 5 5 5 5 5 * P.=.  u yXw 5 5 5 5 5 5 5 5 5 5 7 7 7 7 6 7 7 7 7 6 5 5 5 * vXs   o o o o o o o o o o X X o u X X X X X X X X X X X X o ; ; o X X X X X X X X X X X X s X X X X X X * * * * O } >X3X~./.  * = a  .>.>.6.>...c u s * * * * * * * * * * * : X ",
"d Z Z Z d m.N.v l l l %.M S S l  .l l c A l l m m l n %.M M Z V *.+X| | | | z z c c c c c c c l  .m l c c c n n n n n c H ;.m c n n n n n c  . .c n n n X.%.m n n n n *.n n c  . .n n n *.n n m %.c m *.A W W T n n n n v { ~.MXMX<X1X_ (.{ (.e / F.F.F.F.{ x.@.pX0.. 5 5 5 5 5 5 * &X=.  u yXw 5 5 5 5 5 5 5 5 5 5 8 8 8 8 7 8 8 8 8 6 5 5 5 * vXs   X X X X X X X X X X X X X u X X X X X X X X X X X X X ; u X X X X X X X X * * * * * s * * * * * * * * * O O.3X:Xe /.^.+ : * * u l n n c s : : a * * * * * * * : : : : : X ",
"d Z Z d E N.4.e l l l %.A S S l  .l l c A l l m m l n %.M M Z V *.+X| | | | z z c c c c c c c l  .m l c c c c n n n n c H ;.m c n n n n n c  . .c n n n X.%.m n n n n *.n n c  . .n n n *.n n m %.c m *.z T W E n n n m ( f { ,.MXVX4XF.G._ [ e { F.F.F.F.{ oX@.pX0.. 5 5 5 5 5 5 % qX=.  u yXw 5 5 5 5 5 5 5 5 5 5 7 7 7 7 7 7 7 7 7 6 5 5 5 * vXs   X o o o o X X X X X X X X u X X X X X X X X X X X X X ; u X X X X X X X X X * * * * s * * * * * * * * O H.3XH.O 2 (./.+ : * * * * : : : * * : a * * * * * * * * * : : : X ",
"d Z Z d M.M.j c l l l -.E E Z l  .l l c A l l m m l n %.M M Z V *.+X| | | | z z c c c c c c c l  .m l c c c c c n n n c H ;.m c n n n n n c  . .c n n n X.%.m n n n n *.n n c  . .c n n *.n n m %.c m *.z T W E A n n ( { F.F.) j.MX9XF.'._ [ e { F.F.F.F.F.J.@.pX0.. 5 5 5 5 5 5 % qX=.  u yXw 5 5 5 5 5 5 5 5 5 5 7 8 7 8 7 7 8 7 8 6 5 5 5 * vXs   X o o o o X X X X X X X X u X X X X X X X X X X X X X ; u X X X X X X X X X X * * * s * * * * * * * O H.3X#.O $ 2 ^./.+ : * * * * * * * * * : a * * * * * * * * * * * : X ",
"d Z d j.N.4.j Y c l l -.W W M l  .l l c A l l m m l n %.d M Z V *.+X| | | | z z c c c c c c c l  .m l c c c c c c n n c H ;.m c n n n n n c  . .c n n n X.%.n n n n n *.n n c  . .c n n *.n n m %.c m *.n m A Y T z n n x { { { { M.MXK q k _ r / F._ _ F._ J.@.pX0.. 5 5 5 5 5 5 % qX=.  u yXw 5 5 5 5 5 5 5 5 5 5 8 8 8 8 7 7 8 8 8 6 5 5 5 * vXs   X o o o o o X X X X X X X u X X X X X X X X X X X X X ; u X X X X X X X X X X X * * s * * * * * * O H.3XO.O * $ 2 ^./.+ : * * * * * * * * * : a * * * * * * * * * * * : X ",
"Z d S N.m.z v E S l l T C E c l  .l l c A l l m m l n %.d M Z V *.+X| | | | z z c c c c c c c l  .m l c c c c c c c n c H ;.m c n n n n n c  . .c n n n X.%.n n n n n *.n n c  . .c n n *.n n m %.c m *.n n z A E Y n n n f f z p a.N.4.9 k r r / t t t K ~ J.@.pX0.. 5 5 5 5 5 5 % qX=.  u yXw 5 5 5 5 5 5 5 5 5 5 7 7 7 7 6 7 7 7 7 6 5 5 5 * vXs   X o o o o o o X X X X X o u X X X X X X X X X X X X X ; ; X X X X X X X X X X X X * s * * * * * O H.3X} O * * $ 2 ^./.+ * * * * * * * * * * : a * * * * * * * * * * * : X ",
"Z d m.N.v ) A W C l l T S M l l  .l l c A l l m m l n %.d M Z V *.+X| | | | z z c c c c c c c l  .n l c c c c c c c c c H ;.m c n n n n n l  . .c n n n X.%.n n n n n *.n n c  . .c n n *.n c m %.c m *.n n n n E W T n n n n n m / m.N.j r h r / / t ~ / ~ J.@.pX0.. 5 5 5 5 5 5 % qX=.  u yXw 5 5 5 5 5 5 5 5 5 5 8 8 8 8 7 8 8 8 8 6 5 5 5 * vXs   X o o X o o o X X X X X o u X X X X X X X X X X X X X ; ; X X X X X X X X X X X X * s * * * * O H.3X} O * * * $ 2 ^./.+ * * * * * * * * * * : a * * * * * * * * * * * : X ",
"d E N.4.e  .S C C l l T S h l l  .l l c A l l m m l n %.d M Z V *.+X| | | | z z c c c c c c c l  .n l c c c c c c c c l H ;.m c n n n n n l  . .c n n n X.%.n n n n n *.n n c  . .c n n *.n c m  .c m *.n n n n m W T n n n n n n c =XNXj.~ 7.6 / / t ~ ~ ~ J.@.pX0.. 5 5 5 5 5 5 % qX=.  u iXw 5 5 5 5 5 5 5 5 5 5 7 7 7 7 6 7 7 7 7 6 5 5 5 * vXs   X o o o o o o o X X X X o u X X X X X X X X X X X X X ; ; X X X X X X X X X X X X X s > * * O H.3XO.O * * * * $ 2 ^./.+ * * * * * * * * * * : a * * * * * * * * * * * : X ",
"d M.M.j l  .S S C M T E Z l l l  .l l c A l l m m l n %.d M Z V *.+X| | | | z z l c c c c c c l  .n l c c c c c c c c l H ;.m c n n n n n l  . .c n n n X.%.n n n n n %.n n c  . .c n n *.n c m  .c n *.n n n n n W T n n n n n n M @XUXN.$.@X6 / / t ~ ~ ~ J.@.pX0.. 5 5 5 5 5 5 % qX=.  s iXw 5 5 5 5 5 5 5 5 5 5 8 8 8 8 7 8 8 8 8 6 5 5 5 * vXu   X o o o X o o o o X X X o u X X X X X X X X X X X X X ; ; X X X X X X X X X X X X X s @ * O H.3X#.O * * * * * $ 2 ^./.+ * * * * * * * * * * : a * * * * * * * * * * * : X ",
"j.N.R h l  .C S C E W W M l l l  .l l c A l l n m l n %.d M Z V *.+X| | | | z z l l c c c c c l  .n l c c c c c c c c l H ;.n c n n n n n l  . .l n n n X.%.n n n n n %.n n c  . .c n n *.n c m  .c n *.c n n n n E E n n n n n n d #XoXM.UX,Xw / / t ~ ~ ~ J.@.pX0.. 5 5 5 5 5 5 % qX:.  s iXw 5 5 5 5 5 5 5 5 5 5 7 7 7 7 6 7 7 7 7 6 5 5 5 * vXu   X o o o o o o o o X X X o u X X X X X X X X X X X X o ; ; X X X X X X X X X X X X X s % O #.3XH.O * * * * * * $ 2 ^./.+ * * * * * * * * * * : a * * * * * * * * * * * * X ",
"N.m.e l l  .C M T E S W M l l l  .l l c A l l n m l n %.d M Z V *.+X| | | | z z l l l c c c c l  .n l c c c c c c c c l H ;.n c n n n n n l  . .l n n n X.%.n n n n n %.n n c  . .c n n *.n c m  .c n *.c n n n n m E n n n n n n d =XXXd.NX;Xr / / t ~ ~ ~ J.@.pX0.. 5 5 5 5 5 5 % qX,.  s iXw 5 5 5 5 5 5 5 5 5 5 8 8 8 8 7 8 8 8 8 6 5 5 5 * vXu   X o o o o o o o o o X X o u X X X X X X X X X X X X o ; ; X X X X X X X X X X X X % s O #.3XH.O * * * * * * * $ 2 ^./.+ * * * * * * * * * * : a * * * * * * * * * * * * X ",
"B.c h l l  .T M T C A W M l l l  .l l c A l l n m l n %.M M Z V *.+X| | | | z z l l l c c c c l  .n l c c c c c c c c l H ;.n l n n n n n l  . .c n c n X.%.n n n n n %.n n c  . .c n n *.n n m  .c m *.n n n n n v E v n n n n n d %X+XD N.-Xy z / t ~ ~ ~ J.@.pX0.. 5 5 5 5 5 5 % eX,.  s uXw 5 5 5 5 5 5 5 5 5 5 7 7 7 7 7 7 7 7 7 6 5 5 5 * vXu   X o o o o o X X X X X X o u X X X X X X X X X X X X X ; ; X X X X X X X X X X X X * , O.3XH.O * * * * * * * * $ 2 ^./.+ * * * * * * * * * * : a * * * * * * * * * * * : X ",
"3.p M l l  .C l S S M W l l l l  .l l l A l l n n a n A d M Z V *.+X| | | | z z l l l l l l l l  .n l l l l l l l l l l H ;.n l l l c c c l  .m l c c n |  .n c c c c %.n c l m  .l n c %.n c m  .l n *.c n c c c n E E v c n n n a 8.8Xs.M.B.r x / t ~ ~ ~ J.@.pX0.. 5 5 5 5 5 5 % eX,.  s uXw 5 5 5 5 5 5 5 5 5 5 7 8 8 8 7 7 8 8 8 6 5 5 5 * vXu   o o o o o o o o o o o o o u X o o o o o o o o X X X o : ; o X X X X X X X X X X X   O.3XH.o X X X X X X X X X X 2 ^./.+ $ X X * * * * * * X * s X * * * * * * * * * * * o ",
"z T W  . .=.E H %.%. .2. . . . .*. . . .-. . .%.%. .%.=.A A A S >.+Xo.o.o.o..... . . . . . . . .*.%. . . . . . . . . . .;.2.&. . . . . .%. .*.*. .%. ...X.=.*.%.%.%.%.=.%.%. .*.=. .%.%.=.*.%.*.=. .*.:.%.%.%.%.%...3.d.-... .%.&...D =XeXk.NX4./ X.| X.o.X.oX@.pX0.. 5 5 5 5 5 5 % eX,.  s uXw 5 5 5 5 5 5 5 5 5 5 8 8 8 8 7 7 8 8 8 6 5 5 5 * vXu X u ; u ; ; ; u u u u u u u a u u u u u u u u u u u u u a a u u u u u u u u u u i , O.3XXX, s s s s s s s s s s i f (.^.1 a s s s s s s s s s a M s a a a a a a a a a a a u ",
"h T E c l -.T l l l l  .l l l c  .l l c A l l m m l n %.M Z Z V *.+X| | | | | n n c c c c c n c  .m c n n n n n n n n b H ;.) n n n n n n n  . .n n n n X.%.m n n n n *.n n n  . .n n n *.n n  .%.n m *.n n n n n n T W Y m A n n n d $.7X8XNXm.~ / t ~ | ~ J.@.pX0.. 5 5 5 5 5 5 % eX,.  s uXw 5 5 5 5 5 5 5 5 5 5 7 7 7 7 6 7 7 7 7 6 5 5 5 * vXu   X X X X X X X X X X X X X u * X X X X X X X X X X * X ; u X * * * * * * * * * O } 3XOXO * * * * * * * * * * * * 2 ^./.+ : * * * * * * * * * : a * : : : : : : : : : : : X ",
"l C W l h T C h l l l  .l l l l  .l l l A l l n m a n A d M Z V *.+X| | | | z z l l l l l l l l  .n l c l l l l l l c l H ;.n l c l l l c l  .m l c c n X. .n c c n c %.n n c  . .l n c %.n c m  .l n *.c n n n n z A W A Y E n n n c o.5X6X0XN.../ t ~ ~ ~ J.@.pX0.. 5 5 5 5 5 5 % eX,.  s uXw 5 5 5 5 5 5 5 5 5 5 8 8 8 8 7 8 8 8 8 6 5 5 5 * vXu   o o o o o o o o o o o o o u X o X X o X X X X X X X o ; ; o X X X X X X X @ o } 3XH., X X X X X X X X X X X * X 2 ^./.+ * * * * * * * * * * * s X * * * * * * * * * * * X ",
"l C W c h T S j l l l  .l l l l  .l l l A l l n m l n A d M Z V *.+X| | | | z z l l l l l l l l  .n l c c c c c c c c l H ;.n l c c c c c l  . .l n c n X. .n c n n c %.n n c  . .c n n %.n c m  .l n *.c n n n n n n T Y T E n n n c o.4X5X7XN.j.~ t ~ ~ ~ J.@.pX0.. 5 5 5 5 5 5 % eX,.  s uXw 5 5 5 5 5 5 5 5 5 5 7 7 7 7 6 7 7 7 7 6 5 5 5 * vXu   o o o o o o o o o o X X o u X X X X X X X X X X X X o ; ; o X X X X X X %   ~ 3XOXO u X X X X X X X X X X * * $ 2 ^./.+ * * * * * * * * * * * s * * * * * * * * * * * * X ",
"l C E c M E S j l l l  .l l l l  .l l l A l l n m a n A d M Z V *.+X| | | | z z l l l l l l l l  .n l c c c c c c c c l H ;.n l c c c c c l  .m l n c n X. .n c n n c %.n n c  . .c n n %.n c m  .l n *.c n n n n n z A T T E n n n c | 4X5X6XUXM.~ t ~ ~ ~ J.@.pX0.. 5 5 5 5 5 5 @ wX,.  s uXw 5 5 5 5 5 5 5 5 5 5 8 8 8 8 7 8 8 8 8 6 5 5 5 * vXu   o o o o o o o o o o o X o u X o X X X X X X X X X X o ; ; o X X X X X % o ~ 3XOXO X s X X X X X X X X X X X * $ 2 ^./.+ * * * * * * * * * * * s * * * * * * * * * * * * X ",
"g C C M S W Z j l l l  .l l l l  .l l l A l l n m a n A d M Z V *.+X| | | | z z l l l l l l l l  .n l c c c c c c c c l H ;.n l c c c c c l  .m l n c n X. .n c n n c %.n n l  . .c n n %.n c m  .l n *.c n n n n n n A E E E n n n c ..4X5X6X0XN...r ~ ~ ~ J.@.pX0.. 5 5 5 5 5 5 @ wX,.  s uXw 5 5 5 5 5 5 5 5 5 5 7 7 7 7 6 7 7 7 7 6 5 5 5 * vXu   o o o o o o o o o o o X o u X o X X X X X X X X X X o ; ; o X X X X % o y 3XOXX X % s X X X X X X X X X X X * @ 2 ^./.+ * * * * * * * * * * * s X * * * * * * * * * * * X ",
"g C C C W W M l l l l  .l l l l  .l l l A l l n m a n A d M Z V *.+X| | | | z z l l l l l l l l  .n l c c c c c c c c l H ;.n l c c c c c l  .m l c c n X. .n c n n c %.n n l m  .l n n %.n c m  .l n *.c n n n n n n n T W E n n n n n 1X5X5X$XN.4.y ~ ~ ~ J.@.pX0.. 5 5 5 5 5 5 @ wX,.  s uXw 5 5 5 5 5 5 5 5 5 5 8 8 8 8 7 8 8 8 8 6 5 5 5 * vXu   o o o o o o o o o o o o o u X o o X X X X X X X X X o ; ; o X X X @ o y 3XOXX X X X s X X X X X X X X X X X * X 2 ^./.+ * * * * * * * * * * * s X * * * * * * * * * * * X ",
"g C C W S W c l l l l  .l l l l  .l l l A l l n m a n A d M Z V *.+X| | | | z z l l l l l l l l  .n l l c c c c c c c l H ;.n l c c c c c l  .m l c c n X. .n c n n c %.n n l m  .l n c %.n c m  .l n *.c n n n n n n z T W E n n n n c 1X5X5XXXm.M.y ~ ~ ~ J.@.pX0.. 5 5 5 5 5 5 @ wX,.  s dXw 5 5 5 5 5 5 5 5 5 5 7 7 7 7 7 7 7 7 7 6 5 5 5 * vXu   o o o o o o o o o o o o o u X o o o X X X X X X X X o ; ; o X X @ o y 3XOXX X @ X X u X X X X X X X X X X X * X 2 ^./.+ * * * * * * * * * * * s X * * * * * * * * * * * X ",
"M C C C l T c l l l l  .l l l l  .l l l A l l n m a n A d M Z V *.+X| | | | z z l l l l l l l l  .n l l l c c c c c c l H ;.n l c c c c c l  .m l c c n |  .n c n n c %.n n l m  .l n c %.n c m  .l n *.c n n n n n n z Y W E n n n n c oX8X5XXXd.N./ ~ ~ ~ J.@.pX0.. 5 5 5 5 5 5 @ wX,.  s kXw 5 5 5 5 5 5 5 5 5 5 7 8 8 8 7 7 8 8 8 6 5 5 5 * vXu   o o o o o o o o o o o o o u X o o o X X X X X X X X o ; ; o X @ o y >X:XX X @ X X X u X X X X X X X X X X X * X 2 ^./.+ * * * * * * * * * * * s X * * * * * * * * * * * X ",
"Z S S S l Y l l l l l  .l l l l  .l l l A l l n m l n A d M Z V *.+X| | | | z z l l l l l l l l  .n l l l l l c c c c l H ;.n l c c c c c l  .m l c c n |  .n c n n c %.n n l m  .l n c %.n l m  .l n *.c n n n n n n z A W E T v n n n d %X#XXXZ N.2.y ~ ~ J.@.pX0.. 5 5 5 5 5 5 @ wX,.  s kXw 5 5 5 5 5 5 5 5 5 5 7 8 8 8 7 7 8 8 8 6 5 5 5 * vXu   o o o o o o o o o o o o o u X o o o o X X X X X X X o ; ; o @   y >X:X% X X X X X X u X X X X X X X X X X X * X 2 ^./.+ $ * * * * * * * * X * s X * * * * * * * * * * * X ",
"S S j l l  .l l l l l  .l l l l  .l l l A l l n n a n A d M Z V *.+X| | | | z z l l l l l l l l  .n l l l l l l c c c l H ;.n l c c c c c l  .m l c c n |  .n l c n c %.n n l m  .l n c %.n l m  .l n *.c n n n n n n n v Y E W T z n n z s.i.@X3 N.m.y ~ ~ J.@.pX0.. 5 5 5 5 5 5 @ rX,.  s kXw 5 5 5 5 5 5 5 5 5 5 7 7 7 7 7 7 7 7 7 6 5 5 5 * vXu   o o o o o o o o o o o o o u X o o o o o X X X X X X o ; ; . o y >X,X& o X X X X X X u X X X X X X X X X X X X X 2 ^./.+ $ X * * * * * * * X * s X * * * * * * * * * * * X ",
"C Z h l l  .l l l l l  .l l l l  .l l l A l l n n a n A d M Z V *.+X| | | | z z l l l l l l l l  .n l l l l l l l c c l H ;.n l c c c c c l  .m l c c n |  .n l c c c %.n n l m  .l n c %.n l m  .l n %.c n n n n n n n n z T W T n n n z D r.@X: m.M.t ~ ~ J.@.pX0.. 5 5 5 5 5 5 @ rX,.  s kXw 5 5 5 5 5 5 5 5 5 5 8 8 8 8 7 8 8 8 8 6 5 5 5 * vXu   o o o o o o o o o o o o o u X o o o o o o X X X X X o : w   & >X,X& o X X X X X X X u X X X X X X X X X X X X X 2 ^./.+ $ X X X * * * * * X * s X * * * * * * * * * * * o ",
"C M j l l  .l l l l l  .l l l l  .l l l A l l n n a n A d M Z V *.+X| | | | z z l l l l l l l l  .n l l l l l l l l c l H ;.n l c c c c c l  .m l c c n |  .n l c c l  .n n l m  .l n c %.n l m  .l n %.l n n n n n n n n n A T E n n n n a $.@X- j.N.| ~ ~ J.@.pX0.. 5 5 5 5 5 5 @ rX1.  s kXw 5 5 5 5 5 5 5 5 5 5 7 7 7 7 6 7 7 7 7 6 5 5 5 * vXu   o o o o o o o o o o o o o u X o o X o o o o X X X X o ; : & >X>X& o X X X X X X X X u X X X X X X X X X X X X X 2 ^./.+ $ X X X X X * * * X * s X * * * * * * * * * * * o ",
"W M l l l  .l l l l l  .l l l l  .l l l A l l n n a n A d M Z V *.+X| | | | z z l l l l l l l l  .n l l l l l l l l c l H ;.n l c c c c c l  .m l c c n X. .n l c c l  .n c l m  .l n c %.n c m  .l n *.c n n n n n n n n n z n E T v n n d $.@X5 2.N.>.~ ~ J.@.pX0.. 5 5 5 5 5 5 @ rX1.  s kXw 5 5 5 5 5 5 5 5 5 5 8 8 8 8 7 8 8 8 8 6 5 5 5 * vXu   o o o o o o o o o o o o o u X o o o X X X X X X X X . : e :X>X& o X X X X X X X X X u X X X X X X X X X X X X X 2 ^./.+ $ X X X X X X * * X * s X * * * * * * * * * * * o ",
"C l l l l  .l l l l l  .l l l l  .l l l A l a n n p n m d M Z V *.+X| | | | z z l l l l l l l l  .n l l l l l l l l l l H ;.n l c l l l c l  .m l c l n /  .n l l c l  .c l l m  .l n l  .n l n  .l n %.l c c c c c c c c c c n T W v z n d $.@Xu l M.p.^ ~ J.@.pX0.. 5 5 5 5 5 5 @ rX1.  s kXw 5 5 5 5 5 5 5 5 5 5 7 7 7 7 6 7 7 7 7 6 5 5 5 * vXu   o o o o o   o o o o o o   ; X o o o o o o o o o o X   = ,X>X&   X X X X X X X X X X u X X X X X X X X X X X X X 2 ^./.o $ X X X X X X X X X * s X * X X X X X X X * * * o ",
"Y  . . . .*. . . . . .*. . . . .*. . . .-. . .%.*. .%.=.A A -.S >.+Xo.o.o.o..... . . . . . . . .*.*. . . . . . . . .%. .;.2.&.%.%.%.%.%.%. .*.*. .%.%.*.X.=.*.%.%.%.%.=.*.%.%.*.=. .*.%.:.*.%.*.=.%.*.:.%.*.*.*.*.*.*.*.*.*.*.*.3.W -...*.%.$.2Xm z M.m.} o.oX@.pX0.. 5 5 5 5 5 5 @ yX1.  a kXw 5 5 5 5 5 5 5 5 5 5 8 8 8 8 7 8 8 8 8 6 5 5 5 * vXu X u u u u u u u u u u u u u c u u u u u u u u u u i u i :X>Xx , p s s s s s s s s s s c s s s s s s s s s s s a s f (.^.1 a s a a a a a a a s a M s a a a a a a a a a a a u ",
"j l l l l  .l l l l l  .l l l l  .l l l A l l n m a n %.d M Z V *.+X| | | | z z l l l l l l l l  .n l l c c c c c c c l H ;.n l c c c c c l  .m l c c n /  .n c c n c  .n c l m  .l n c  .n c m  .l n *.c n n n n n n n n n n z T W A z n c $.1Xs e m.M.~ ~ J.@.pX0.. 5 5 5 5 5 5 @ yX1.  a zXw 5 5 5 5 5 5 5 5 5 5 7 7 7 7 6 7 7 7 7 6 5 5 5 * vXu   o o o o o o o o o o o o o u X o X X X X X X X X o X :X3Xt   @ X X X X X X X X X X X u X X X X X X X X X X X X X 2 ^./.+ $ X X * * * * * * X * s X * * * * * * * * * * * o ",
"p l l l l  .l l l l l  .l l l l  .l l l A l l n n a n %.d M Z V *.+X| | | | z z l l l l l l l l  .n l l l l l l l l l l H ;.n l l c c c c l  .m l c c n /  .n l c c l  .c c l m  .l c l  .n l n  .l n %.l n c n n n n n n n n z A W A x n c o.1Xo.5 4.N.| t J.@.pX0.. 5 5 5 5 5 5 @ yX1.  a zXw 5 5 5 5 5 5 5 5 5 5 8 8 8 8 7 7 8 8 8 6 5 5 5 * vXu   o     o o o o o o o o o   ; X o o o o o o o X o X :X3Xt : . X X X X X X X X X X X X u X X X X X X X X X X X X X 2 ^./.+ $ X X X X X X X X X * s X X X X * * * * * * * * o ",
"p l l l l m l a l l l  .l l l l  .l l l A l l n n a n m d d M V *.+X| | | | z z l l l l l l l l m n l l l l l l l l c l H ;.n l l l c c c l m m l l l n /  .n l c c l  .n c l m  .l n l  .c l n  .l n %.l n n n n n n n n n n n n T T z n c o.5X;X5 Y B.>.t J.@.pX0.. 5 5 5 5 5 5 @ yX1.  a zXw 5 5 5 5 5 5 5 5 5 5 7 8 8 8 7 7 8 8 8 6 5 5 5 * vXu   o o o o o o o o o o o o o ; X o o o o o o . o o OX3Xy > 5 o X X X X X X X X X X X X u X X X X X X X X X X X X X 2 ^./.+ $ X X X X X X X X X * s X * X X X X * * * * * * o ",
"a l l l l =. .m  .l l  .l l l l  .l l l A l l n m p m ,.v A A V *.+X| | | | z z l l l l l l l l *.=. .*.%.l l l l l c l H ;.n l l l l l c c >.*. .*.n n /  .n l c c l  .n c l m  .l l m 1. .%.*. .l n %.l c c c n n n n n n n n z A E n n c o.5X2Xu f B.p.y J.@.pX0.. 5 5 5 5 5 5 @ yX1.  a zXw 5 5 5 5 5 5 5 5 5 5 7 7 7 7 7 7 7 7 7 6 5 5 5 * vXu   o o o o o o o o o o o o o ; X o o o o o . o o OX3X^   ; ; o X X X X X X X X X X X X u X X X X X X X X X X X X X 2 ^./.+ $ X X X X X X X X X * s X * X X X X X X * * * * o ",
"a l l p m >.a *. .a l  .l l l l  .l l l A l l n n p =.%.M 2.A V *.+X| | | | z z l l l l l l l n 1.n l  .*.l l l l l c l H ;.n l l l l l l  .>.n *.>.m c /  .n l c c l  .c c l m  .l c =.*. .*.>.*.l n %.l c c c c c c c c n n n z A W n n c | 5X2Xu e B.z.y J.@.pX0.. 5 5 5 5 5 5 @ yX<.  a zXw 5 5 5 5 5 5 5 5 5 5 8 8 8 8 7 8 8 8 8 6 5 5 5 * vXu   o o o o o o o o o o o o o ; X o o o o . o   OX3X^   . : ; o X X X X X X X X X X X X u X X X X X X X X X X X X X 2 ^./.o $ X X X X X X X X X * s X * X X X X X X X X X * o ",
"a l l p  .*.p l  .m l  .l l l l  .l l l A l l n n a >.m M -.-.V *.+X| | | | z z l l l l l l l n ,.l l *.n l l l l l l l H ;.n l l l l c l %.*.c %.>.m c /  .n l c c l  .c c l m  .l n =. .c  .1.%.l n %.l c c c c c c c c c c c z A W n n c | 5X8Xs - m.m.y J.@.pX0.. 5 5 5 5 5 5 @ yX<.  a lXw 5 5 5 5 5 5 5 5 5 5 7 7 7 7 6 7 7 7 7 6 5 5 5 * vXu   o o o o o o o o o o o o   ; X o o o o o   H.3X^   X o : ; o X X X X X X X X X X X X u X X X X X X X X X X X X X 2 ^./.+ $ X X X X X X X X X * u X X X X X X X X X X X * o ",
"a l l p l >.m n *.n l  .l l l l  .l l l A l l n n p %.,.v -.-.V *.+X| | | | z z l l l l l l l l >.*.n *.l l l l l l l l H ;.n l l l l l l n ,.%.%.=. .c /  .n l c c l  .c c l m  .l l %.1.m  .=. .l n %.l c c c c c c c c c c c l v E v z c | 5X8Xs & m.M.y J.@.pX0.. 5 5 5 5 5 5 @ yX<.  a lXu 5 5 5 5 5 5 5 5 5 5 8 8 8 8 7 8 8 8 8 6 5 5 5 * vXu   o   o o o o o o o o o o   ; X o o o o   H.3X^   X o o : ; o X o X X X X X X X X X X u X X X X X X X X X X X X X 2 ^./.o $ X X X X X X X X X * u X X X X X X X X X X X * o ",
"a l l l l  .c l l l l  .l l l l  .l l c A l l m n p n %.M Z Z V *.+X| | | | z x l l l l l l l l  . .c l l c c l l c c l H Y n l l l c c l l  . .c n l n /  .n c n n l  .n c l m  .l c c *.m n m  .l n %.c n n n c n n n c c c c c n T v z c | 6X8Xa & 4.B.t J.@.pX0.. 5 5 5 5 5 5 @ iX<.  a lXu 5 5 5 5 5 5 5 5 5 5 7 7 7 7 6 7 7 7 7 6 5 5 5 * vXu   o   o o o o o o o o o o   ; X o o o   H.3X^   X o o   : ; o X o o o X X X X X X X X u X X X X X X X X X X X X X + ^./.+ $ X X X X X X X X X * u X X X X X X X X X X X * o ",
"p i p l p n i i a l p n l p i p n a l p S l p l n p l v s d Z V  .+X| | z x x z l p l l p p l a n l i l l p p l l p p i v ;.l p c l p l c p n l p l l j /  .l p a a l  .a l l n n l c a m a a m m p n %.p l p l n l p l l c c c l l T M l l z 4X4Xi & a.B.| H.@.pX0.. 5 5 5 5 5 5 @ iX<.  a lXu 5 5 5 5 5 5 5 5 5 5 8 8 8 8 7 8 8 8 8 6 5 5 5 * vXu   o     o o o o o o o o o   ; o o o   H.3X}   X o o o   : ; o X o o o o X X X X X X X u X X X X X X X X X X X X X + ^./.o $ X X X X X X X X X * u X X X X X X X X X X X * o ",
" .lXe.- i.qXtXgXl  .lXi.; e.uXuXgXl  .lXp.w e.xX=.a tXi.aXj.s 4.hX+X| -X&XjX&Xe 0.xX>.p uXuXp 1.tX&XxX,.p iXuXa >.gXtXzXa.g tXuXl =.xXe.w &XqXuXuXl =.xX8.i u.uXuXgXc =.xXi.w i.xX*.n yXu.lXi.u i.xX=.n uXtXzXu.w e.lXtX .l n l =.<.3.<.1.1.<.4X4X8.*.;.B...H.@.pX0.. 5 5 5 5 5 5 @ iX<.  a lXu 5 5 5 5 5 5 5 5 5 5 7 7 7 7 6 7 7 7 7 6 5 5 5 * vXu   o       o o o o o o o o   ; X o   H.3XO.  . o o o o   : ;   X o o o o o X X X X X X u X X X X X X X X X X X X X + ^./.o $ X X X X X X X X X * u X X X X X X X X X X X * o ",
"=.IXtX% uXgXbXJXl *.IXtX= tXCXSXFXl *.HXj.- eXKX>.l bXyXJXpX, j.CX+X| ZXxXGXhXw &XKX<.i CXCXi q.bXgXIX5.i CXDXp 5.FXbXIXp.f bXFXa 1.KXwX- gXgXCXFXl ,.IXI.; uXCXFXFXc >.IXtX; tXIX>.n vXyXHXuX; tXKX,.l CXbXHXuX; rXIXbX*.l n l <.dXsXaXhXkXgX7X5XGX&Xx NXa.H.@.pX0.. 5 5 5 5 5 5 @ iX<.  a lXu 5 5 5 5 5 5 5 5 5 5 8 8 8 8 7 7 8 8 8 6 5 5 5 * vXu   o         o o o o o o o   ; X   H.3XO.  . o o o o o   : ;   X o o o o o o X X X X X u X X X X X X X X X X X X X + ^./.o $ X X X X X X X X X * u X X X X X X X X X X X * o ",
"*.HXeX= tXuXxXCXl *.HXrX= eXbXbXCXl  .GXj.- &XHX>.l xXwXSXpX, j.CX+X| jXjXZXuXw u.HX1.p bXbXi 9.xXuXHX5.i bXvXp <.CXxXGXp.f xXCXa ,.HXeX; uXuXbXCXl >.HXI.1 tXbXCXCXl :.HXwX; wXHX:.n cXtXGXtX; eXHX>.l bXxXGXyXw eXGXxX*.l n l 1.gXsXaXhXuXgX7X5XZX&Xe B.4.H.@.pX0.. 5 5 5 5 5 5 @ uX<.  a lXu 5 5 5 5 5 5 5 5 5 5 7 8 7 8 7 7 8 7 8 6 5 5 5 * vXu   o           o o o o o o   w   H.3XO.  o o o o o o o   : ;   o o o X o o o o o X X X u X X X X X X X X X X X X X + ^./.o $ X X X X X X X X X * u X X X X X X X X X X X * o ",
"*.HXwX* tXuXxXDXl *.HXtX= wXvXvXSXl  .HXj.- qXHX>.l xXwXDXpX, j.CX+X| jXjXZXhXw &XHX1.i vXvXi 9.xXuXHX5.i bXCXp <.CXxXGXp.f cXCXa ,.HXeX- uXuXbXCXl >.HXI.1 yXvXCXCXl :.HXrX; rXHX:.n cXtXHXtX; wXHX>.l bXxXGXiX; eXHXxX*.l n l <.dXsXpX0.e.0.8X5XZX&Xe M.m.H.@.pX0.. 5 5 5 5 5 5 @ uX<.  a nXu 5 5 5 5 5 5 5 5 5 5 7 7 7 7 7 7 7 7 7 6 5 5 5 * vXu                         o   : O.3XO.  o o o o o o o o   : ;   o o o o o o o o o o o X u X X X X X X X X X X X X . + ^./.o $ X X X X X X X X X * u X X X X X X X X X X X X   ",
"*.HXeX* tXuXxXDXl *.HXtX= wXvXvXSXl  .HXj.- &XHX>.l xXwXDXpX, j.CX+X| jXjXZXhXw &XHX1.i bXvXi 9.xXuXHX5.i bXCXp <.CXxXGXp.f cXCXa ,.HXeX- uXuXbXCXl >.HXI.1 yXvXCXCXl :.HXrX; rXHX:.n cXtXHXtX; wXHX>.l bXxXGXiX; eXHXxX*.l n l 1.dXsXj.tXzXuX8X5XZX&Xe m.m.H.@.pX0.. 5 5 5 5 5 5 @ uX<.  a nXu 5 5 5 5 5 5 5 5 5 5 8 8 8 8 7 8 8 8 8 6 5 5 5 * vXu   o o o o o o o o o o o .   O.3X#.  . o o o o o o o o   : ; o X X X o X X X X X X X X u X X X X X X X X X X X X X + ^./.+ $ X X X X X X X X X * u X X X X X X X X X X X * o ",
"*.HXwX= tXuXxXDXl *.HXtX= wXvXvXSXn *.GXj.- qXHX>.l xXwXDXpX, j.CX+X| jXjXZXhXw &XHX<.p bXbXp 9.xXuXHX5.p bXCXp <.CXxXGXp.f cXCXl 1.HXeX; uXuXbXCXl ,.HXI.w yXvXCXCXc >.HXrXw tXHX>.n cXtXHXtXw wXHX,.c bXxXGXiXw eXHXxX>. .%. .<.dXsXp.&XzXrX8X5XZX&Xt m.m.J.@.pX0.. 5 5 5 5 5 5 @ uX<.  a cXu 5 5 5 5 5 5 5 5 5 5 7 7 7 7 6 7 7 7 7 6 5 5 5 * vX5 X ; ; ; ; ; ; ; ; ; ; w > O.3XH.: w 5 ; ; ; ; ; ; ; u ; s a ; u u u u u u u u u u u u a u u u u u u u u u u u u u 1 (.^.2 i u u u u u u u u u s c u u u u u u u u u u u s ; ",
" .HXeX. wXuXxXSXp  .HXwX. eXvXvXSXp m HXj.% &XHX=.w xXwXDXpX, j.CX+X| jXjXZXuX& i.IX,.; bXbX; <.xXuXHX1.; bXCXw ,.SXxXGXp.3 xXCXu =.HX&X% yXuXbXCXp =.HXI.* tXvXCXCXp *.HXwX% eXHX*.a cXtXHXtX% eXHX=.p bXxXGXyX% qXHXxX%.l c l 1.uXsX4.:.gX9.2X5XZXz.& m.M.H.@.pX0.. 5 5 5 5 5 5 @ uX<.  a cXu 5 5 5 5 5 5 5 5 5 5 8 8 8 8 7 8 8 8 8 6 5 5 5 * vXu                     o   } 3XH.  o o o o o o o o o o o   * :   o o o o o o o o o o o o u o o o X o o o o o X X X . + ^./.  X X X X X X X X X X X u o X X X X X X X X X X X   ",
"tXGXkXe.cXyXxXDXi.tXGXzXe.xXcXCXDXi.rXJXpXe.lXGXeX&XbXwXSXaXp.sXxX#X&XZXjXZXxXr.zXGXwX&XSXCXe.gXlXuXHXwXu.CXCXy.uXCXcXGXtXz.CXCXi.yXGXgXt.bXiXbXDXi.yXGXfXi.cXcXCXSXi.tXGXzXt.xXGXeXeXbXtXGXzXt.xXGXeXeXCXxXJXlXt.xXJXcX*.l n l 1.uXsXm.e.uXt.2X5XZXu.& z.M.J.@.pX0.. 5 5 5 5 5 5 @ uX<.  a cXu 5 5 5 5 5 5 5 5 5 5 7 7 7 7 6 7 7 7 7 6 5 5 5 * vXu                   o   } 3XH.> . o o o o o o o o o o o   : ;   o o o o o o o o o X X X u o X X X X X X X X X X X X + ^./.  @ X X X X X X X X X * u X X X X X X X X X X X X   ",
"JXDXbXCXGXtXcXFXcXGXFXbXCXGXxXCXDXbXGXDXaXCXJXDXcXJXCXwXSXcXnXMXlX9XZXZXjXZXCXCXJXDXbXFXFXCXbXHXkXgXGXbXFXFXCXbXGXbXcXGXnXSXJXCXbXGXFXbXCXGXtXbXFXbXGXCXjXSXGXxXCXDXbXGXFXvXCXGXDXbXGXCXtXFXvXCXGXDXbXJXDXxXFXvXCXGXDXcX*.l n l 1.uXpXm.aXhXaX0X7XZXi.& 4.M.oX@.pX0.. 5 5 5 5 5 5 @ uX<.  a cXu 5 5 5 5 5 5 5 5 5 5 8 8 8 8 7 8 8 8 8 6 5 5 5 * vXu                 o   } 3XH.  ; o   o o o o o o o o o o   : :   o o o o o o o o o o o X u o X o o X X X X X X X X . + ^./.  X X X X X X X X X X * u X X X X X X X X X X X X   ",
"SXFXbXxXJXtXcXFXlXCXFXbXxXFXxXCXDXlXCXFXaXxXFXFXxXCXCXwXSXnXkXMXxX;XZXZXjXZXbXxXFXFXxXvXFXCXlXJXzXgXGXxXvXFXCXlXFXbXcXGXlXbXJXCXlXDXFXbXcXGXtXbXFXlXDXFXjXbXFXxXCXDXlXDXFXbXcXFXFXxXCXCXtXJXbXcXFXFXxXCXDXxXFXbXcXFXFXcX*.l n l 1.uXuXm.sXsXsXkX8XZXu.& a.M.oX@.pX0.. 5 5 5 5 5 5 @ uX<.  a cXu 5 5 5 5 5 5 5 5 5 5 7 7 7 7 6 7 7 7 7 6 5 5 5 * vXu               o   ^ 3XH.    ; o   o o o o o o o o o o   : :   o o o o o o o o o o o o u o X o o o o X X X X X X . + ^./.  @ X X X X X X X X X * u X X X X X X X X X X X X   ",
"SXFXbXxXJXtXxXDXlXSXFXbXxXFXxXvXDXlXSXDXaXcXFXDXxXCXvXwXSXnXkXMXxX;XZXZXjXZXbXxXFXDXxXCXFXCXlXJXzXuXGXxXCXFXCXxXFXbXcXJXlXbXFXCXxXDXFXbXbXJXtXbXDXlXDXDXjXbXFXxXCXDXxXDXFXbXbXFXDXxXSXvXtXFXbXcXFXFXxXCXSXxXFXbXcXFXDXcX%.l c l ,.e.e.j.j.j.j.e.8X-X9.y ;.B.oX@.pX0.. 5 5 5 5 5 5 @ uX5.  a cXu 5 5 5 5 5 5 5 5 5 5 8 8 8 8 7 7 8 8 8 6 5 5 5 * vXu             o   y 3XOX      ; o   o o o o o o o o o o   * ;   o o o o o o o o o o o o u o X o o o o o o X X X X . + ^./.  X X X X X X X X X X X u X X X X X X X X X X X X   ",
" . .m m  .*.m  .m  . .=.m  .m  .=.m  . .-. . .*.*.m %.-.A A A S >.+Xo.o.o.o... . . . . . . . . .*. . . . . . . . . . . .Y 2.*. . . . . . . .*.*. . .%.*.X.=.*. . .%. .>.%. . .=.:. .%. .=.*. .*.>. .%.>. . .%. . .%.%. .c l l l c c l Z E T T l 1X} ; y H B.%X@.pX0.. 5 5 5 5 5 5 @ dX9.  a cXu 5 5 5 5 5 5 5 5 5 5 7 7 7 8 7 7 8 7 8 6 5 5 5 * vXu           o   y 3XOX    o   ; o   o o o o o o o o o o   * :   o o o o o o o o o o o o u o o o o o o o o o X X X . + ^./.  X X X X X X X X X X X u o X X X X X X X X X X X   ",
"p p p p p n p p p p p n p p p p n p p p S p p l c p l m s d d V ..+X| | | x x x p p p p p p a p n l p a a p p a a a j p g Y l p l a a a a p n n p l a l / m l l l l l m l l a c n a l l  .l a c m p l  .a l l l l l l l l l l l l l l M W W T l 1X} - y H B.%X@.pX0.. 5 5 5 5 5 5 @ dX9.  a cXu 5 5 5 5 5 5 5 5 5 5 7 7 7 7 7 7 7 7 8 6 5 5 5 * vXu         o   y 3XOX    o     ; o   o o o o o o o o o o   * :   o o o o o o o o o o o o u o o o X X X X o o X X X . + ^./.  X X X X X X X X X X X u o X X X X X X X X X X X   ",
"a l l l l m l l l p l m p l l l  .a l l A l l n n p n m d d d V *.+X| | | | z x l l l l l l l l m n l l l l l l l l l l H Y n l l l l l l l m m l l l n /  .n l c l l  .c l l m m l c l  .c l n  .l n %.l l l l l l c c l l l l l c l M E W T l 2X} - e x M.-X@.pX0.. 5 5 5 5 5 5 @ dX9.  a cXu 5 5 5 5 5 5 5 5 5 5 8 8 8 8 7 8 8 8 8 6 5 5 5 * vXu           y 3XOX            ; o     o o o o o o o o o   * :   o o o o o o o o o o o o 1 o o o o   o o X X o o o o + ^./.  X X X X X X X X X X X u o X X X X X X X X X X X   ",
"p a a a p m l *.n  .%.*.*.l p l m p l l A j p n n p c m M -.A S ..+X| | | | z x l l l l l l l l m c  .*. .c l l l l l l H Y n %.%. .l l l l m n l l l c / H c =. . .c  .l l l n m l l l  .c l n  .l n  .l =.n *.*. .c l l l l l l l l c E W E a 2X} s ..H m.-X} pX0.. 5 5 5 5 5 5 @ dX9.  a bXu 5 5 5 5 5 5 5 5 5 5 7 7 7 7 6 7 7 7 7 6 5 5 5 * vXu         y >XOX              ; o         o o o o o o o   * :   o o o o o o o o o o ] [ ] [ q   $ [ q [ o o = ] ] [ q G./.  X X X X X X X X X X X u o X X X X X X X X X X X   ",
"p a a a a m l =.n  . .1.n  .p l m p l l A j p n n p c m M -.A -.>.+X| | | | z x l l l l l l l l m n l %.=.*.n l l l l j J Y b %.=.=.%.l l l m n l l l c / H n >.m *.*.%.l l l n m l l l  .l l n  .l c  .l =.%.%.*.,.&.n l l l l l l l l E W E d 1X} * z >.M.-X} pX0.. 5 5 5 5 5 5 @ gX9.  a bXu 5 5 5 5 5 5 5 5 5 5 8 8 8 8 7 8 8 8 8 6 5 5 5 * vX5   o   y >X:X.               ; o           o o o o o o   * :   o o o o o o o o o     ] ] [ q   ] [ q [   q G.[ [ G.q G./.  X X X X X X X X X o X u o X X X X X X X X X X X   ",
"p a a a p m l l :. .m 1.c  .p l m p l l A j p n n p c m d -.A 3.>.+X| | | | z x l l l l l l l l m c n  .&.1.l l l l l j J Y b n =.<.&.l l l m n l l l l / H c c =.1.>. .l l l n m l l l  .l l n  .l c  .l %.&. .%.<.=.l c l l l l l l l S W E a 2X} ; ..| M.-X~ iX0.. 5 5 5 5 5 5 @ kX9.  a bXu 5 5 5 5 5 5 5 5 5 5 7 7 7 7 6 7 7 7 7 6 5 5 5 * vXw     y >X:X#                 ; o             o o o o o   * :   o o o o o o o   $ q 0 ] : ] ] X G./.0 ]   ] q ] ] ] ] G./.  X o X X X X X X X X X u o X X X X X X X X X X X   ",
"p a a a a m l  . . .*.=.=.c p l m p l l A j p n n p c m d A A A >.+X| | | | z x l l l l l l l l m c =.*. .&.m l l l l j J Y m %.&.%.*.c l l m n l l l l / H n %.*.%.*.*.l l l n m l l l  .l l n  .l c  .l  .n *.*.%.*.n l l l l l l c l S W W d 2X} M *.x m.hX} pX0.. 5 5 5 5 5 5 @ kX9.  a bXu 5 5 5 5 5 5 5 5 5 5 8 8 8 8 7 8 8 8 8 6 5 5 5 * vXw   & >X:X#                   ; o               o o o o   * :   o o o o o o o o X $ [ [ ] ] ] 0 $ ] $ ]   q [ ] ] [ q G./.  X o o o X X X X X o X u o X X X X X X X X X X X   ",
"p p p p p m a l p p l n a p p l m p l l A p p n n p c m d d d V ..+X| | | z x x l l l l l l l a m c l l l l l l l l l j J Y b l l l l l l l m n l l l l / H c l l l l  .l l l n m l l l  .l l n  .l c  .l l l l l l l l l l l l l l l l M E W V 1X@.: t y m.UX@.aX9.@ 5 5 5 5 5 5 @ kX9.  c bXu 5 5 5 5 5 5 5 5 5 5 7 7 7 7 6 7 7 7 7 6 5 5 5 * CX, # :X:X#                     ; o                   o o   * :   o o o o o o o o o o . $ 0 @ o .   o o o o o X o X $ + ^./.  X o o o o o X X X X X u o X X X X X X X X X X X   ",
"l l l l l  .l l l l l  .l l l c  .l l c A l l (  .l m %.M Z Z V :.+X| o.| | | z n n n n n n n l  .m l n n n n n n n n c H ;.) c n n n n n c  . .c n n n X.%.m n n n n *.n n n  . .n n n *.n n ( %.c m *.n n n n n n n n n n n n n n n n n E W C 1X#.: t y m.UX@.cX( = 5 5 5 5 5 5 @ kX9.  a bXi 5 5 5 5 5 5 5 5 5 5 8 8 8 8 7 8 8 8 8 6 5 5 5 . kX9.H.>X&   o o o o o o o o o o u X o o o o o o o o o o X o : ; o X X X X X X X X X X X X u X X X X X X X X X X X X X 2 ^./.+ $ X X X X X X X X X * s X X X X X X X X X X X * o ",
". . . . . X . . X X X X X X X X X X X X X X X X X X X X X X X X % & % % % % X X X X X X X X X X % % X X X X X X % X % X % * % X % % % X % % % % % % % % % % % % % % % % % % % % % % % % * % % % * % % * % % % % % % % % % % % % % % % % % , < O @.y       R 4.hXuX@ 5 5 5 5 5 5 5 @ iXeX  =.cX5 5 5 5 5 5 5 5 5 5 5 7 7 7 7 7 7 7 7 8 6 5 5 5 * ( JX+.#                                                                                                                 o .                                                     ",
"yXyXyXyXyXyXyXyXyXyXyXyXyXyXyXyXyXyXyXyXyXyXyXyXyXyXyXyXyXyXyXyXyXrXyXyXyXyXyXyXyXyXyXyXyXyXyXyXyXyXyXyXyXyXyXyXyXyXyXyXyXyXyXyXyXyXyXyXyXyXyXyXyXyXyXyXyXyXyXyXyXyXyXyXyXyXyXyXyXyXyXyXyXyXyXyXyXyXyXyXyXyXyXyXyXyXyXyXyXyXyXyXyXyXyXyXyXyXtXyXpXyXiXiXiXrXcXkX* 5 5 5 5 5 5 5 5 = ( bXuXSX0.* 5 5 5 5 5 5 5 5 5 5 7 8 7 8 7 7 8 7 8 6 5 5 5 5 @ ,.vXiXwXwXwXwXwXwXwXwXwXwXwXwXwXwXwXwXwXwXwXwXwXwXwXwXwXrXwXwXrXrXrXrXrXrXrXrXrXrXrXrXrXrXyXyXyXyXyXyXyXyXyXyXyXyXyXyXrXrXyXyXyXyXyXyXyXyXyXyXyXyXyXyXyXyXyXyXyXyXyXyXyXyXyXyX",
"e.e.e.e.e.e.e.e.e.e.e.e.e.e.e.e.e.e.e.e.e.e.e.e.e.e.e.e.e.e.e.e.e.e.e.e.e.e.e.e.e.e.e.e.e.e.e.e.e.e.e.e.e.e.e.e.e.e.e.e.e.e.e.e.e.e.e.e.e.e.e.e.e.e.e.e.e.e.e.e.e.e.e.e.e.e.e.e.e.e.e.e.e.e.e.e.e.e.e.e.e.e.e.e.e.e.e.e.e.e.e.e.e.e.e.e.e.t.t.e.e.e.e.e.w.0.%.@ 5 5 5 5 5 5 5 5 5 5 = j e.=.= 5 5 5 5 5 5 5 5 5 5 5 8 8 8 8 7 7 8 8 8 6 5 5 5 5 5 @ - 5.t.e.t.t.t.t.t.t.t.t.t.t.t.t.t.t.t.t.t.t.t.t.t.t.t.t.t.t.e.t.t.t.t.e.e.e.e.e.e.e.e.t.e.e.e.e.e.e.e.e.e.e.e.e.e.e.t.t.e.e.e.e.e.e.e.e.e.e.e.e.e.e.e.e.e.e.e.e.e.e.e.e.e.e.",
". . . . . . . . . . . . . . . . . . . . . . . . . . . . . . . . . . . . . . . . . . . . . . . . . . . . . . . . . . . . . . . . . . . . . . . . . . . . . . . . . . . . . . . . . . . . . . . . . . . . . . . . . . . . . . . . . . . . . . . . . . . . . . * 5 5 5 5 5 5 5 5 5 5 - 5 - @ % 5 5 5 5 5 5 5 5 5 5 5 5 7 7 7 7 6 7 7 7 7 6 5 5 5 5 5 5 5 @ . . . . . . . . . . . . . . . . . . . . . . . . . . . . . . . . . . . . . . . . . . . . . . . . . . . . . . . . . . . . . . . . . . . . . . . . . . . . . . . . . . . . ",
"w w w w w w w w w w w w w w w w 5 6 6 6 6 6 6 6 5 5 5 5 5 5 5 5 5 5 5 5 5 5 5 5 5 5 5 5 5 5 5 5 5 w w w i 5 w w w u u u u u u u u u u u u u u u u u u u u u u u u u u u u u u u u u u u u u u u u u u u u u u u u u u u u u u u u u u u u u u u u u u u u u 5 5 5 5 5 5 5 5 5 5 - i 5 5 5 i 5 5 i - 5 5 5 5 5 5 5 5 8 8 8 8 7 8 8 8 8 6 5 5 5 5 5 5 5 w u u u u u u u u u u u u u u u u u u u u u w w u u u u u u u u u u u u u u u u u u u u u u u u u u u w w w w w w w w w w w w w w w w w w w w w w w w w w w w w w w w w w ",
"5 5 5 5 5 5 5 5 5 5 5 5 5 5 5 5 5 ; ; ; ; ; ; ; ; ; ; ; ; ; ; ; ; ; ; ; ; ; ; ; ; ; ; ; ; ; ; ; 5 5 5 5 j 5 5 5 5 - - - - - - - - - - - - - - - - - - - - - - - - - - - - - - - - - - - - - - - - - - - - - - - - - - - - - - - = = - - - = = = = = = = = = 5 5 5 5 5 5 5 5 5 = &.u.:.%  .P.:.,.u.m = 5 5 5 5 5 5 5 6 6 6 6 6 6 6 6 6 5 5 5 5 5 5 5 5 - - - - - - - - - - - - - - - - - - - - - - 5 5 - - - - - - - - - - - - - - - - - - - - - - - - - - - 5 5 5 5 5 5 5 5 5 5 5 5 5 5 5 5 5 5 5 5 5 5 5 5 5 5 5 5 5 5 5 5 5 5 ",
"5 5 5 5 5 5 5 5 5 5 5 5 5 5 5 5 6 ! ! ! ! ! ! ! ! ! ! ! ! ! ! ! ! 9 9 9 9 9 9 9 9 9 9 9 9 9 9 9 9 5 5 5 h 5 5 - b <.<.<.<.<.<.<.<.<.<.<.<.<.5.5.9.9.9.9.9.9.9.9.9.9.9.9.9.9.9.9.9.9.9.9.q.q.q.q.q.q.q.q.q.0.0.0.0.0.0.0.0.0.0.0.0.0.0.0.0.0.0.0.0.0.e.t.0.t.<.5 5 5 5 5 5 5 5 - q.l 0.5 q.j t.w.c q.= 5 5 5 5 5 5 5 5 ; : ; 5 ; ; ; ; 5 5 5 5 5 5 5 i c j l c c c c c c c c c c c c c b b b b b b 5 5 c j j j l c c c c c c c c c c c c c c c b b b b b b m i 5 5 5 5 5 5 5 5 5 5 5 5 5 5 5 5 5 5 5 5 5 5 5 5 5 5 5 5 5 5 5 5 5 ",
"5 5 5 5 5 5 5 5 5 5 5 5 5 5 5 ; 9 Y.E.Y.Y.Y.Y.Y.Y.Y.Y.Y.Y.Y.Y.Y.Y.Y.Y.A.A.A.A.A.A.A.A.A.A.A.A.C.9 ; 5 5 h 5 5 - ( kXlXlXlXlXlXlXlXlXlXlXcXcXcXcXcXcXcXcXcXcXcXcXbXbXbXbXbXbXvXvXvXvXvXvXvXvXvXSXSXSXSXSXSXSXSXSXSXSXDXDXDXDXFXFXFXFXFXFXFXJXJXJXJXJXJXJXJXHXqX- 5 5 5 5 5 5 5 5 q.i 0.- 9.i t.0.i 0.= 5 5 5 5 5 5 5 5 6 ! 7 ; ! 7 7 7 ; 5 5 5 5 5 - b rXuXuXuXuXuXkXkXkXkXzXzXlXlXlXlXlXcXcXcXvX0.= 5 t.uXiXiXuXuXuXuXkXkXkXkXkXkXzXlXlXlXlXlXlXcXcXcXcXvXyXu 5 5 5 5 5 5 5 5 5 5 5 5 5 5 5 5 5 5 5 5 5 5 5 5 5 5 5 5 5 5 5 5 5 ",
"5 5 5 5 5 5 5 5 5 5 5 5 5 5 5 ; 9 Y.R.R.R.R.R.R.R.R.R.R.E.E.E.E.E.E.Y.Y.Y.Y.Y.Y.Y.Y.Y.Y.Y.Y.Y.A.9 ; 5 5 h 5 5 - m uXkXkXkXzXzXzXzXzXzXlXlXlXlXlXlXlXlXlXlXlXcXcXcXcXcXcXcXcXcXcXcXvXbXbXbXbXvXbXvXvXvXvXvXvXvXvXvXvXvXSXSXSXSXSXSXSXSXSXSXDXDXDXDXDXFXFXDXJXu.- 5 5 5 5 5 5 5 = :.t.5.=.:.t.5.5.t.=.= 5 5 5 5 5 5 5 : ! D.5 7 D.' ' ' : 5 5 5 5 5 - c uXcXcXvXcXvXvXvXSXSXvXSXSXSXFXFXJXFXJXJXJXq.= 5 i.cXlXbXcXbXbXvXbXvXSXvXSXSXSXSXSXSXFXDXJXJXJXJXJXHXiX5 5 5 5 5 5 5 5 5 5 5 5 5 5 5 5 5 5 5 5 5 5 5 5 5 5 5 5 5 5 5 5 5 5 ",
"5 5 5 5 5 5 5 5 5 5 5 5 5 5 5 ; 9 Y.R.E.S.T.S.S.S.S.S.S.T.S.S.Y.C.A.Y.A.C.A.C.A.A.Y.A.C.C.C.A.A.9 ; 5 5 h 5 5 - m uXzXkXzXzXzXzXzXzXlXlXlXlXlXlXlXlXlXlXcXcXcXcXcXcXcXcXi.cXuX0.rXq.vXeXiXiXwXuXSXvXvXvXvXvXvXvXvXSXSXSXSXSXSXSXSXSXSXDXDXDXDXDXDXFXFXFXFXJXu.- 5 5 5 5 5 5 5 5 5 ( i j 5 ( u i ( 5 5 5 5 5 5 5 5 5 ! ! ` ! 6 D.' ! ' ; 5 5 5 5 5 - c uXcXyXu.zXeXwXlXeXuXvXuXlXcXuXkXyXvXlXSXJXq.= 5 y.cXkXqXwXwXyXu.zXkXqXlXiXwXkXvXlXvXkXbXuXuXlXvXcXJXyXw 5 5 5 5 5 5 5 5 5 5 5 5 5 5 5 5 5 5 5 5 5 5 5 5 5 5 5 5 5 5 5 5 5 ",
"5 5 5 5 5 5 5 5 5 5 5 5 5 5 5 ; 9 Y.R.S.S.R.D.T.D.T.D.D.D.D.S.D.S.C.Y.C.A.A.C.C.C.A.C.C.C.C.Y.A.9 ; 5 5 h 5 5 - m uXzXkXzXzXzXzXzXzXlXlXlXlXlXlXlXlXlXlXlXcXcXcXcXcXcXcX0.cXzXu.iX:.yXqXiX1.eXvXbXvXvXvXvXvXvXvXvXSXSXSXSXSXSXSXSXSXSXSXDXDXDXDXDXFXFXFXFXJXu.- 5 5 5 5 5 5 5 5 5 = 5 = 5 = 5 5 = 5 5 5 5 5 5 5 5 5 7 7 ` ' ! D.' ! ! ; 5 5 5 5 5 - c uXcXi.y.u.u.u.P.0.kXFXe.qXiX0.rXeXP.wXDXFXq.= 5 y.cXqXe.kXw.y.eXu.u.y.iXy.cXu.iXi.cX5.zXeXqX5.dXuXHXyXw 5 5 5 5 5 5 5 5 5 5 5 5 5 5 5 5 5 5 5 5 5 5 5 5 5 5 5 5 5 5 5 5 5 ",
"5 5 5 5 5 5 5 5 5 5 5 5 5 5 5 ; 9 Y.R.R.D.T.S.T.D.T.D.` T.D.S.D.E.C.A.Y.C.C.` A.C.Y.A.A.C.A.Y.A.9 ; 5 5 h 5 5 - m uXzXkXzXzXzXzXzXzXlXlXlXlXlXlXlXlXlXlXlXcXcXcXcXcXcXcXt.vXlXqXyXeX9.u.uX=.qXSXvXBXSXvXvXvXvXvXvXSXSXSXSXSXSXSXSXSXSXSXDXDXDXDXDXDXFXFXDXJXu.- 5 5 5 5 5 5 5 5 5 5 5 i i = - - 5 5 5 5 5 5 5 5 5 5 ; 6 7 5 5 7 5 5 5 5 5 5 5 5 5 - c uXcXy.0.uX0.w.iXt.zXzXqXi.u.wXiXcX0.iXJXDX9.= 5 y.cXkXy.eXeXP.cXqXy.eXeXiXHXqXu.y.iX5.eXuXuXP.9.kXGXyXw 5 5 5 5 5 5 5 5 5 5 5 5 5 5 5 5 5 5 5 5 5 5 5 5 5 5 5 5 5 5 5 5 5 ",
"5 5 5 5 5 5 5 5 5 5 5 5 5 5 5 ; 9 Y.R.R.S.S.S.T.D.T.D.D.S.D.T.D.C.C.Y.Y.C.` A.Y.` C.C.C.C.A.Y.A.9 ; 5 5 h 5 5 - m uXzXkXzXzXzXzXzXzXlXlXlXlXlXlXlXlXlXlXlXcXcXcXcXcXcXcX5.eXrX0.eXiXwX,.iXwXP.qXiXyXyXkXSXvXvXvXvXSXSXSXSXSXSXSXSXSXSXSXSXDXDXDXDXDXDXFXDXJXu.- 5 5 5 5 5 5 5 5 5 5 @ 1.:.9.0.( - 5 5 5 5 5 5 5 5 5 5 ; ; 5 ; ; ; 5 ; 5 5 5 5 5 5 - c uXcXy.uXcXt.qXqXy.kXuXwXe.y.yXeXi.rXqXvXFX9.= 5 y.cXkXqX0.e.t.y.qXqXqXuXe.kXqXcXyXt.qXi.t.qXzX9.wXHXrXw 5 5 5 5 5 5 5 5 5 5 5 5 5 5 5 5 5 5 5 5 5 5 5 5 5 5 5 5 5 5 5 5 5 ",
"5 5 5 5 5 5 5 5 5 5 5 5 5 5 5 ; 9 Y.R.T.T.R.T.R.T.T.T.E.T.S.S.E.S.Y.Y.A.A.Y.Y.Y.A.C.A.A.A.A.A.A.9 ; 5 5 h 5 5 - m uXzXkXkXzXzXzXzXzXzXlXlXlXlXlXlXlXlXlXlXcXcXcXcXcXcXcXuXeXuXuXzXlXbXkXcXlXcXkXlXlXzXcXvXvXvXvXvXvXSXSXSXSXSXSXSXSXSXSXSXSXSXDXDXDXDXDXDXJXu.- 5 5 5 5 5 5 5 5 5 i q.qX,.q.=.q.= 5 5 5 5 5 5 5 5 5 ; 6 ` 7 5 D.! ' ' ; 5 5 5 5 5 - c iXlXuXlXlXkXlXkXyXdXSXlXlXnXcXzXdXvXcXvXSX9.= 5 y.lXuXeXkXiXuXwXlXzXwXlXkXiXlXcXlXzXDXcXdXlXvXbXcXFXwXw 5 5 5 5 5 5 5 5 5 5 5 5 5 5 5 5 5 5 5 5 5 5 5 5 5 5 5 5 5 5 5 5 5 ",
"5 5 5 5 5 5 5 5 5 5 5 5 5 5 5 ; 9 E.R.R.R.R.R.R.R.R.R.R.R.R.E.E.E.E.E.E.E.Y.Y.Y.Y.Y.Y.Y.Y.Y.Y.A.9 ; 5 5 h 5 5 - m uXzXkXzXzXzXzXzXzXlXlXlXlXlXlXlXlXlXlXlXcXcXcXcXcXcXcXvXvXvXvXbXbXbXvXvXvXvXSXvXvXSXvXvXvXvXvXvXSXSXSXSXSXSXSXSXSXSXSXSXSXDXDXDXDXDXDXDXJXu.- 5 5 5 5 5 5 5 5 = ,.&.:.,.t.w.1.= 5 5 5 5 5 5 5 5 5 6 ' D.5 ! ! ` ' ' 8 ; 5 5 5 5 - c uXcXcXcXcXbXbXvXSXSXvXSXSXSXSXDXFXSXFXDXFX9.= 5 i.cXcXbXcXbXbXvXbXvXSXvXSXSXSXSXSXDXSXDXJXFXDXFXFXJXyX5 5 5 5 5 5 5 5 5 5 5 5 5 5 5 5 5 5 5 5 5 5 5 5 5 5 5 5 5 5 5 5 5 5 ",
"5 5 5 5 5 5 5 5 5 5 5 5 5 5 5 ; ! Y.Y.Y.Y.Y.Y.Y.Y.Y.Y.Y.Y.A.A.A.A.A.A.A.A.A.A.A.A.A.A.C.C.C.C.C.9 ; 5 5 h 5 5 - ( dXkXkXkXzXzXzXzXzXzXlXlXlXlXlXlXlXlXlXlXlXnXcXcXcXcXcXcXcXcXcXcXcXcXcXbXbXbXbXbXbXvXvXvXvXvXvXvXvXvXBXSXSXSXSXSXSXSXSXSXSXSXSXSXDXDXDXSXJXu.- 5 5 5 5 5 5 5 5 = %.5.0.1.0.&.t.- 5 5 5 5 5 5 5 5 5 ! ' D.' ! ` ` ' ` 6 ; 5 5 5 5 - c qXeXeXeXwXwXwXwXwXrXyXyXyXyXyXyXiXiXiXiXuX<.- w 0.wXqXeXeXeXwXwXwXwXwXrXyXyXyXyXyXyXiXiXiXiXiXiXiXuXu.u 5 5 5 5 5 5 5 5 5 5 5 5 5 5 5 5 5 5 5 5 5 5 5 5 5 5 5 5 5 5 5 5 5 ",
"5 5 5 5 5 5 5 5 5 5 5 5 5 5 5 5 6 9 9 9 9 9 9 9 9 9 9 9 9 9 9 9 9 9 9 9 9 9 9 9 9 9 9 9 9 9 9 9 6 5 5 5 h 5 5 5 c =.&.&.&.&.&.=.=.=.=.=.=.=.=.=.=.=.=.=.=.=.=.=.=.=.=.=.=.=.=.=.=.=.:.:.:.:.:.,.,.,.,.,.,.,.,.,.,.,.,.,.,.,.,.,.,.,.,.,.,.,.,.,.,.,.,.,.,.1.=.5 5 5 5 5 5 5 5 5 5 5 =.>.p :.5.j - 5 5 5 5 5 5 5 5 5 ; 5 ' 8 6 ' 7 ! ! ; 5 5 5 5 5 5 u i u u u u u i i i i i i i i i i i i i i i p 5 5 i u u u u u u i i i i i i i i i i i i i i i i i i i p w 5 5 5 5 5 5 5 5 5 5 5 5 5 5 5 5 5 5 5 5 5 5 5 5 5 5 5 5 5 5 5 5 5 ",
"5 5 5 5 5 5 5 5 5 5 5 5 5 5 5 5 5 ; 1 1 1 1 1 1 1 1 w 5 5 5 5 5 5 5 5 5 5 5 5 5 5 5 5 5 5 5 5 5 5 5 5 5 j 5 5 5 5 - - - - - - - - - - - - - - - - - - - - - - - - - - - - - - - - - - - - - - - - - - - - - - - - - - - - - - - - - - - = = = = = = = = = = - 5 5 5 5 5 5 5 5 5 5 5 = = 5 = * 5 5 5 5 5 5 5 5 5 5 5 5 5 ; ; 5 ; ; ; ; 5 5 5 5 5 5 5 5 5 5 5 5 5 5 5 5 5 5 5 5 5 5 5 5 5 5 5 5 5 5 5 5 5 5 5 5 5 5 5 5 5 5 5 5 5 5 5 5 5 5 5 5 5 5 5 5 5 5 5 5 5 5 5 5 5 5 5 5 5 5 5 5 5 5 5 5 5 5 5 5 5 5 5 5 5 5 5 5 5 5 5 5 5 ",
"- - - - - - - - - - - - - - - - - - - - - - - - - - - - - - = = = = = = = = = = = = = = = = = = = - - - 5 = - - - - - - - - - - - - - - - - - - - - - - - - - - - - - - - - - - - - - - - - - - - - - - - - - - - - - - - - - - - - - - - - - - - - - - - - - = - - - - - - - - - - - - - - - - = - 5 5 5 5 5 5 - - - - 5 5 - 5 - 5 5 - - - - - - - - - - - - - - - - - - - - - - - - - - - - - - - - - - - - - - - - - - - - - - - - - - - - - - - - - - - - - - - - - - - - - - - - - - - - - - - - - - - - - - - - - - - - - ",
"l l l l l l l l l l l l l l l l l l l l l l l l l l l l l l l l l l l l l l l l l l l l l l l l l l l l l l l l l l l l l l l l l l l l l l l l l l l l l l l l l l l l l l l l l l l l l l l l l l l l l l l l l l l l l l l l l l l l l l l l l l l l l l l l l l l l l l l l l l l l l l l l l j = @ 5 5 5 i j p a a a a a a a a a a a a a a a a a a a a a a p j c l l l l l l l l l l l l l l l l l l l l l l l l l l l l l l l l l l l l l l l l l l l l l l l l l l l l l l l l l l l l l l l l l l l l l l l l l l l l l ",
"DXDXDXDXDXDXDXDXDXDXDXDXDXDXDXDXDXDXDXDXDXDXDXDXDXDXDXDXDXDXDXDXDXDXDXDXDXDXDXDXDXDXDXDXDXDXDXDXDXDXDXDXDXDXDXDXDXDXDXDXDXDXDXDXDXDXDXDXDXDXDXDXDXDXDXDXDXDXDXDXDXDXDXDXDXDXDXDXDXDXDXDXDXDXDXDXDXDXDXDXDXDXDXDXDXDXDXDXDXDXDXDXDXDXDXDXDXDXDXDXDXDXDXDXDXDXDXDXDXDXDXDXDXDXDXDXDXDXDXDXDXDXDXDXDXBXvXq.% u @ eXPXIXIXIXKXKXKXKXKXKXKXKXKXKXKXKXKXKXKXKXKXKXKXKXKXHXSXDXDXDXDXDXDXDXDXDXDXDXDXDXDXDXDXDXDXDXDXDXDXDXDXDXDXDXDXDXDXDXDXDXDXDXDXDXDXDXDXDXDXDXDXDXDXDXDXDXDXDXDXDXDXDXDXDXDXDXDXDXDXDXDXDXDXDXDXDXDXDXDXDXDXDXDXDX",
"5 5 5 5 5 5 5 5 5 5 5 5 5 5 5 5 5 5 5 5 5 5 5 5 5 5 5 5 5 5 5 5 5 5 5 5 5 5 5 5 5 5 5 5 5 5 5 5 5 5 5 5 5 5 5 5 5 5 5 5 5 5 5 5 5 5 5 5 5 5 5 5 5 5 5 5 5 5 5 5 5 5 5 5 5 5 5 5 5 5 5 5 5 5 5 5 5 5 5 5 5 5 5 5 5 5 5 5 5 5 5 5 5 5 5 5 5 5 5 5 5 5 5 5 5 5 5 5 5 5 5 5 5 5 5 5 5 5 5 5 5 5 5 5 5 p <.FXi.= @ rXLXKXLXLXPXPXPXPXPXPXPXPXPXPXPXPXPXPXPXPXPXPXPXPXLXgX@ i 5 5 5 5 5 5 5 5 5 5 5 5 5 5 5 5 5 5 5 5 5 5 5 5 5 5 5 5 5 5 5 5 5 5 5 5 5 5 5 5 5 5 5 5 5 5 5 5 5 5 5 5 5 5 5 5 5 5 5 5 5 5 5 5 5 5 5 5 5 5 5 5 5 5 5 5 ",
"5 5 5 5 5 5 5 5 5 5 5 5 5 5 5 5 5 5 5 5 5 5 5 5 5 5 5 5 5 5 5 5 5 5 5 5 5 5 5 5 5 5 5 5 5 5 5 5 5 5 5 5 5 5 5 5 5 5 5 5 5 5 5 5 5 5 5 5 5 5 5 5 5 5 5 5 5 5 5 5 5 5 5 5 5 5 5 5 5 5 5 5 5 5 5 5 5 5 5 5 5 5 5 5 5 5 5 5 5 5 5 5 5 5 5 5 5 5 5 5 5 5 5 5 5 5 5 5 5 5 5 5 5 5 5 5 5 5 5 5 5 5 5 5 5 5 @ i FX&.  rXLXKXvXzXHXPXLXPXPXLXPXLXLXPXLXPXLXPXPXLXPXKXPXKXLXdX@ 5 5 5 5 5 5 5 5 5 5 5 5 5 5 5 5 5 5 5 5 5 5 5 5 5 5 5 5 5 5 5 5 5 5 5 5 5 5 5 5 5 5 5 5 5 5 5 5 5 5 5 5 5 5 5 5 5 5 5 5 5 5 5 5 5 5 5 5 5 5 5 5 5 5 5 5 5 ",
"5 5 5 5 5 5 5 5 5 5 5 5 5 5 5 5 5 5 5 5 5 5 5 5 5 5 5 5 5 5 5 5 5 5 5 5 5 5 5 5 5 5 5 5 5 5 5 5 5 5 5 5 5 5 5 5 5 5 5 5 5 5 5 5 5 5 5 5 5 5 5 5 5 5 5 5 5 5 5 5 5 5 5 5 5 5 5 5 5 5 5 5 5 5 5 5 5 5 5 5 5 5 5 5 5 5 5 5 5 5 5 5 5 5 5 5 5 5 5 5 5 5 5 5 5 5 5 5 5 5 5 5 5 5 5 5 5 5 5 5 5 5 5 5 5 5 i @ P.iX  tXLXKXu.bXqXKXcXJXKXzXIXvXbXFXlXIXnXHXFXcXKXPXPXKXLXdX@ w 5 5 5 5 5 5 5 5 5 5 5 5 5 5 5 5 5 5 5 5 5 5 5 5 5 5 5 5 5 5 5 5 5 5 5 5 5 5 5 5 5 5 5 5 5 5 5 5 5 5 5 5 5 5 5 5 5 5 5 5 5 5 5 5 5 5 5 5 5 5 5 5 5 5 5 5 ",
"5 5 5 5 5 5 5 5 5 5 5 5 5 5 5 5 5 5 5 5 5 5 5 5 5 5 5 5 5 5 5 5 5 5 5 5 5 5 5 5 5 5 5 5 5 5 5 5 5 5 5 5 5 5 5 5 5 5 5 5 5 5 5 5 5 5 5 5 5 5 5 5 5 5 5 5 5 5 5 5 5 5 5 5 5 5 5 5 5 5 5 5 5 5 5 5 5 5 5 5 5 5 5 5 5 5 5 5 5 5 5 5 5 5 5 5 5 5 5 5 5 5 5 5 5 5 5 5 5 5 5 5 5 5 5 5 5 5 5 5 5 5 5 5 5 5 5 @ 5.cX  yXLXKXrXLXzXP.eXqXqXeXP.u.DXqXcXzXP.eXy.bXPXPXPXKXLXuX@ w 5 5 5 5 5 5 5 5 5 5 5 5 5 5 5 5 5 5 5 5 5 5 5 5 5 5 5 5 5 5 5 5 5 5 5 5 5 5 5 5 5 5 5 5 5 5 5 5 5 5 5 5 5 5 5 5 5 5 5 5 5 5 5 5 5 5 5 5 5 5 5 5 5 5 5 5 ",
"5 5 5 5 5 5 5 5 5 5 5 5 5 5 5 5 5 5 5 5 5 5 5 5 5 5 5 5 5 5 5 5 5 5 5 5 5 5 5 5 5 5 5 5 5 5 5 5 5 5 5 5 5 5 5 5 5 5 5 5 5 5 5 5 5 5 5 5 5 5 5 5 5 5 5 5 5 5 5 5 5 5 5 5 5 5 5 5 5 5 5 5 5 5 5 5 5 5 5 5 5 5 5 5 5 5 5 5 5 5 5 5 5 5 5 5 5 5 5 5 5 5 5 5 5 5 5 5 5 5 5 5 5 5 5 5 5 5 5 5 5 5 5 5 5 5 5 @ 5.cX  yXLXKXeXPXrX&XeXbXt.uXvXFXeXJXuXt.rXbXeXKXPXPXPXKXLXP.@ 5 5 5 5 5 5 5 5 5 5 5 5 5 5 5 5 5 5 5 5 5 5 5 5 5 5 5 5 5 5 5 5 5 5 5 5 5 5 5 5 5 5 5 5 5 5 5 5 5 5 5 5 5 5 5 5 5 5 5 5 5 5 5 5 5 5 5 5 5 5 5 5 5 5 5 5 5 ",
"5 5 5 5 5 5 5 5 5 5 5 5 5 5 5 5 5 5 5 5 5 5 5 5 5 5 5 5 5 5 5 5 5 5 5 5 5 5 5 5 5 5 5 5 5 5 5 5 5 5 5 5 5 5 5 5 5 5 5 5 5 5 5 5 5 5 5 5 5 5 5 5 5 5 5 5 5 5 5 5 5 5 5 5 5 5 5 5 5 5 5 5 5 5 5 5 5 5 5 5 5 5 5 5 5 5 5 5 5 5 5 5 5 5 5 5 5 5 5 5 5 5 5 5 5 5 5 5 5 5 5 5 5 5 5 5 5 5 5 5 5 5 5 5 5 5 5 @ 5.cX  yXLXKXeXeXcXKXyXvXSXyXSXkXuXnXyXBXiXBXzXKXPXKXKXPXPX( = 5 5 5 5 5 5 5 5 5 5 5 5 5 5 5 5 5 5 5 5 5 5 5 5 5 5 5 5 5 5 5 5 5 5 5 5 5 5 5 5 5 5 5 5 5 5 5 5 5 5 5 5 5 5 5 5 5 5 5 5 5 5 5 5 5 5 5 5 5 5 5 5 5 5 5 5 5 ",
"5 5 5 5 5 5 5 5 5 5 5 5 5 5 5 5 5 5 5 5 5 5 5 5 5 5 5 5 5 5 5 5 5 5 5 5 5 5 5 5 5 5 5 5 5 5 5 5 5 5 5 5 5 5 5 5 5 5 5 5 5 5 5 5 5 5 5 5 5 5 5 5 5 5 5 5 5 5 5 5 5 5 5 5 5 5 5 5 5 5 5 5 5 5 5 5 5 5 5 5 5 5 5 5 5 5 5 5 5 5 5 5 5 5 5 5 5 5 5 5 5 5 5 5 5 5 5 5 5 5 5 5 5 5 5 5 5 5 5 5 5 5 5 5 5 5 5 @ 5.cX  yXLXPXPXPXLXPXPXKXPXPXPXPXPXPXPXLXPXKXPXPXPXPXLXLXt.* 5 5 5 5 5 5 5 5 5 5 5 5 5 5 5 5 5 5 5 5 5 5 5 5 5 5 5 5 5 5 5 5 5 5 5 5 5 5 5 5 5 5 5 5 5 5 5 5 5 5 5 5 5 5 5 5 5 5 5 5 5 5 5 5 5 5 5 5 5 5 5 5 5 5 5 5 5 5 ",
"5 5 5 5 5 5 5 5 5 5 5 5 5 5 5 5 5 5 5 5 5 5 5 5 5 5 5 5 5 5 5 5 5 5 5 5 5 5 5 5 5 5 5 5 5 5 5 5 5 5 5 5 5 5 5 5 5 5 5 5 5 5 5 5 5 5 5 5 5 5 5 5 5 5 5 5 5 5 5 5 5 5 5 5 5 5 5 5 5 5 5 5 5 5 5 5 5 5 5 5 5 5 5 5 5 5 5 5 5 5 5 5 5 5 5 5 5 5 5 5 5 5 5 5 5 5 5 5 5 5 5 5 5 5 5 5 5 5 5 5 5 5 5 5 5 5 5 @ 5.cX  yXLXIXKXKXKXKXKXKXKXKXKXKXKXKXKXKXKXKXKXKXKXHXvX5.= 5 5 5 5 5 5 5 5 5 5 5 5 5 5 5 5 5 5 5 5 5 5 5 5 5 5 5 5 5 5 5 5 5 5 5 5 5 5 5 5 5 5 5 5 5 5 5 5 5 5 5 5 5 5 5 5 5 5 5 5 5 5 5 5 5 5 5 5 5 5 5 5 5 5 5 5 5 5 5 ",
"5 5 5 5 5 5 5 5 5 5 5 5 5 5 5 5 p 5 5 5 5 5 5 5 5 5 5 5 5 5 5 5 5 5 5 5 5 5 5 5 5 5 5 5 5 5 5 5 5 5 5 5 5 5 5 5 5 5 5 5 5 5 5 5 5 5 5 5 5 5 5 5 5 5 5 5 5 5 5 5 5 5 5 5 5 5 5 5 5 5 5 5 h 5 5 5 5 5 5 5 5 5 5 5 5 5 5 5 5 5 5 5 5 5 5 5 5 5 5 5 5 5 5 5 5 5 5 5 5 5 5 5 5 5 5 5 5 5 5 5 5 5 5 5 5 5 5 @ 5.cX  dXP.- j j j j j j j j j j j j j j j j j j j i - * 5 5 5 5 5 5 5 5 5 5 5 5 5 5 5 5 5 5 5 5 5 5 5 5 5 5 5 5 5 5 5 5 5 5 5 5 5 5 5 5 5 5 5 5 5 5 5 5 5 5 5 5 5 5 5 5 5 5 5 5 5 5 5 5 5 5 5 5 5 5 5 5 5 5 5 5 5 5 5 5 ",
"- - - - - - - - - - - - ; 5 5 5 h 5 5 5 5 - - - - - - - - - - - - - - - - - - - - - - - - - - - - - - - - - - - - - - - - - - - - - - - - - - - - - - - - - - - - - - - - - - ; 5 5 5 5 h 5 5 5 5 5 5 5 5 5 5 5 5 5 5 5 * @ % % % % % % % % % % % % % % % % % % % % % % % % % % @ * = @ % @ @ = 5 5 5 @ 5.cX  gXy.. 5 - - - - - - - - - - - - - - - - - - - 5 5 5 5 5 5 5 5 5 5 5 5 5 5 5 5 5 5 5 5 5 5 5 5 5 5 5 5 5 5 5 5 5 5 5 5 5 5 5 5 5 5 5 5 5 5 5 5 5 5 5 5 5 5 5 5 5 5 5 5 5 5 5 5 5 5 5 5 5 5 5 5 5 5 5 5 5 5 5 5 5 5 ",
"G G G G G G G G 4 4 4 4 : 5 5 5 h 5 5 5 u m m m m m m m m %.%.%.%.%.%.%.%.%.%.&.&.&.&.=.=.=.=.=.=.=.=.=.=.=.=.,.,.,.,.,.,.,.,.,.,.1.1.1.1.1.1.<.<.<.<.<.<.<.<.<.<.<.9.9.9.9.9.9.b - 5 5 h 5 5 5 5 5 5 5 5 5 5 5 5 5 5 - 5.zXcXcXcXcXcXcXcXcXcXcXcXcXcXcXcXcXcXcXcXcXcXcXcXcXcXcXbXuXP.BXxXcXnX,.= 5 5 @ 5.cX  gXy.@ w 5 5 5 5 5 w 5 5 5 5 5 5 5 5 5 5 5 5 5 5 5 5 5 5 5 5 5 5 5 5 5 5 5 5 5 5 5 5 5 5 5 5 5 5 5 5 5 5 5 5 5 5 5 5 5 5 5 5 5 5 5 5 5 5 5 5 5 5 5 5 5 5 5 5 5 5 5 5 5 5 5 5 5 5 5 5 5 5 5 5 5 5 5 5 5 5 5 5 5 5 5 ",
"P P P P P P P P P P P L : 5 5 5 h 5 5 5 s <.<.<.<.9.9.9.9.9.9.9.q.q.q.0.0.0.0.0.0.0.t.t.t.t.t.t.y.i.u.u.u.u.u.u.m.qXqXqXqXqXqXqXqXqXeXeXeXeXwXwXwXwXwXwXyXyXyXyXyXyXyXiXiXiXuXiXm - 5 5 h 5 5 5 = 5 5 * * 5 = * - 5 = b KXLXLXLXLXLXLXLXLXLXLXLXLXLXLXLXLXLXLXLXLXLXLXLXLXLXLXLXLXJXlXLXLXLXLXIXj - w @ 5.cX  gXy.@ 5 5 5 5 5 - % = 5 5 5 5 5 i 5 5 5 5 5 5 5 5 5 5 5 5 5 5 5 = 5 = 5 5 5 5 5 5 5 5 5 5 5 5 5 5 5 5 5 5 5 5 5 = % * 5 5 5 5 5 5 5 5 5 5 5 5 5 5 5 5 5 5 5 5 5 5 5 5 5 - = 5 5 5 5 5 5 5 5 5 5 5 5 5 5 5 5 5 5 5 ",
"P P P P P P P P P I I G : 5 5 5 h 5 5 5 s 1.<.<.<.<.<.<.<.9.9.9.9.9.9.9.9.q.q.q.0.0.0.0.0.0.0.0.t.<.<.q.<.0.q.t.q.0.t.<.y.u.u.u.u.u.qXqXqXqXqXqXqXeXeXeXeXwXwXwXwXwXwXwXyXyXyXwXm - 5 5 h 5 5 - ( i - <.5.i :.q.b 5 % <.LXKXKXKXJXKXPXKXLXFXHXHXJXPXKXKXPXPXKXPXPXPXPXKXKXKXKXKXPXSXdXLXvX5.KXLX:.* u @ 5.cX  gXy.@ 5 5 5 5 = ( 0.%.- = = i 5 l - = = 5 5 5 5 5 5 5 5 5 5 5 - ( i &.w % = 5 = - - = - 5 5 5 5 5 5 5 5 5 5 5 - ( 0.1.q.i * - = 5 = = - @ m :.. 5 5 5 5 5 5 5 5 5 5 5 - b %.- i 5 i - = - 5 . 1.b @ 5 5 5 5 5 5 5 ",
"P P P P P P P P P P P G : 5 5 5 h 5 5 5 s 1.<.<.<.<.<.<.<.9.9.9.9.9.9.9.q.q.q.0.0.0.0.0.0.0.t.t.t.1.,.,.<.5.,.9.&.y.u.5.q.qXu.u.qXqXqXqXqXqXqXqXeXeXeXeXwXwXwXwXwXwXwXyXyXyXyXwXm - 5 5 h 5 5 = w.l w t.,.q.0.m u 5 @ <.LXeXdXIXrXiXPXPXHXrXxXeXiXbXJXlXIXJXLXHXFXdXJXPXPXPXPXKXLXDXkXLX%.  eXLX:.* u @ 5.cX  gXy.@ 5 5 5 5 % 9.:.e.b <. .P.5.( j 0.&.- 5 5 5 5 5 5 5 5 5 5 = 9.q.,.m q.:.5 5.%.j 9.c - 5 5 5 5 5 5 5 5 5 5 5 w y.&.9.y.&.b 9.j :.:.m <.:.P.<.i 5 5 5 5 5 5 5 5 5 5 = 9.e.c eX9.qXj 5.( m 5.q.&.&.5 5 5 5 5 - p ",
"P P P P P P P P P P P G : 5 5 5 h 5 5 5 s 1.<.<.<.<.<.<.<.9.9.9.9.9.9.9.q.q.q.0.0.0.0.0.0.0.0.t.t.=.1.<.<.,.&.1.&.y.i.<.i.u.u.u.u.qXqXqXqXqXqXqXeXeXeXeXwXwXwXwXwXwXwXwXyXyXyXwXm - 5 5 h 5 5 = q.j 5 &X0.b t.0.j 5 % <.LXbXdXLXKXqXPXDXrXu.cXrXuXbXxXxXyXrXSXrXxX0.bXPXKXPXPXKXLXDXkXPXvXDXBXLX:.* u @ 5.cX  gXy.@ 5 5 5 5 * 1.eX5.5 <.t.0.m q.9.( 0.j - 5 5 5 5 5 5 5 5 5 * q.kX= 5.1.5.q.y.y.P.e.t.= 5 5 5 5 5 5 5 5 5 5 5 * <.j 5.:.5.9.<.( P.t.u.<.&.9.1.=.* 5 5 5 5 5 5 5 5 5 i y.y.&.5.%.5.5 5.y.e.i <.yXc - 5 5 5 5 5 i ",
"P P P P P P P P P P P G : 5 5 5 h 5 5 5 s 1.<.<.<.<.<.<.<.9.9.9.9.9.9.9.q.q.q.0.0.0.0.0.0.0.0.t.t.5.t.9.,.9.0.<.9.0.0.=.t.u.u.u.u.qXqXqXqXqXqXqXqXeXeXeXwXwXwXwXwXwXwXwXwXwXyXwXm - 5 5 h 5 5 = w.m i y.5 = y.a 5 5 @ 1.LXJXuXLXkXDXLXuXJXxXlXrXzXuXzXzXvXJXu.zXLXyXPXPXPXPXPXKXLXDXzXKXe.q.iXLX:.* u @ 5.cX  gXy.@ 5 5 5 5 * 5.1.9.5.y.t.w.( q.q.( 0.j - 5 5 5 5 5 5 5 5 5 * 9.5.5.5.b 1.0.y.( u.9.( 5 5 5 5 5 5 5 5 5 5 5 5 = q.b 9.j 5.q.n n qX=.j 5.P.&.&.,.* 5 5 5 5 5 5 5 5 = =.w.5.0.5.( 5.1.y.P.t.w 5.rX%.= 5 5 5 5 - p ",
"P P P P P P P P P P P G : 5 5 5 h 5 5 5 s 1.<.<.<.<.<.<.<.9.9.9.9.9.9.9.9.q.q.q.0.0.0.0.0.0.0.t.t.t.t.t.t.y.y.i.i.i.u.u.u.u.u.u.u.u.qXqXqXqXqXqXqXeXeXeXeXwXwXwXwXwXwXwXwXwXyXwXv - 5 5 h 5 5 = ,.y.=.&.5 5 :.w 5 5 @ <.LXDXzXBXq.cXPXFXwXP.bXeXkXP.cXIXeXrXFXwXcXyXnXPXKXPXPXKXLXDXgXLX0.. cXLX:.* u @ 5.cX  gXy.@ 5 5 5 5 = &.a %.,.5.&.&.<.&.j w.&.- 5 5 5 5 5 5 5 5 5 5 = &.i &.,.p %.j 1.&.l 9.m - 5 5 5 5 5 5 5 5 5 5 5 - &.p &.a %.&.b = 1.,.%.5.=.b b ( = 5 5 5 5 5 5 5 5 = &.i - :.1.%.1.:.5.&.%.q.:.c ,.5 5 5 5 5 5 i ",
"P P P P P P P P P P P G : 5 5 5 h 5 5 5 s 1.<.<.<.<.<.<.9.9.9.9.9.9.9.q.q.q.q.0.0.0.0.0.0.0.t.t.t.t.t.t.t.y.y.y.i.i.u.u.u.u.u.u.qXqXqXqXqXqXqXqXeXeXeXeXwXwXwXwXwXwXwXwXwXwXyXwXb - 5 5 h 5 5 5 = = - = 5 5 = 5 5 5 * ,.LXKXKXIXJXFXKXPXHXHXKXJXFXKXKXPXHXHXPXHXJXKXHXKXKXKXKXKXPXSXdXLXHXzXPXLX=.* u @ 5.cX  gXy.@ 5 5 5 5 5 = 5 - = = = = = - - = = 5 5 5 5 5 5 5 5 5 5 5 5 = 5 = = 5 - - = - - = 5 5 5 5 5 5 5 5 5 5 5 5 5 5 = 5 - 5 - = - 5 = - - = = - - - 5 5 5 5 5 5 5 5 5 5 = 5 5 = = - = = = = = = = - = 5 5 5 5 5 5 5 ",
"P P P P P P P P P I I G : 5 5 5 h 5 5 5 s ,.1.1.1.<.<.<.<.<.<.<.5.9.9.9.9.9.9.9.q.q.q.0.0.0.0.0.0.0.0.t.t.t.t.t.t.t.y.y.i.i.i.u.u.u.u.u.u.u.qXqXqXqXqXqXqXqXqXeXeXeXeXeXeXwXwXeXm - 5 5 h 5 5 5 5 5 5 5 5 5 5 5 5 5 5 w BXLXLXLXLXLXLXLXLXLXLXLXLXLXLXLXLXLXLXLXLXLXLXLXLXLXLXLXLXGXlXLXLXLXLXnX5 5 5 @ 5.cX  gXy.@ 5 5 5 5 5 5 5 5 5 5 5 5 5 5 5 5 5 5 5 5 5 5 5 5 5 5 5 5 5 5 5 5 5 5 5 5 5 5 5 5 5 5 5 5 5 5 5 5 5 5 5 5 5 5 5 5 5 5 5 5 5 5 5 5 5 5 5 5 5 5 5 5 5 5 5 5 5 5 5 5 5 5 5 5 5 5 5 5 5 5 5 5 5 5 5 5 5 5 5 5 5 5 ",
"4 4 4 1 1 1 1 1 1 1 1 2 : 5 5 5 h 5 5 5 w i i i i s s s s s s s s a a a a a a a a a a a a a a a a a j j j j j l c c c c c c c c c c c c c c c c c c c b b b b b b b b b b b b m a 5 5 5 h 5 5 5 5 5 5 5 5 5 5 5 5 5 5 - i 1.5.<.<.<.5.5.<.<.5.<.<.<.5.5.<.<.5.<.<.<.<.5.5.5.5.<.5.:.&.5.<.<.1.5 - 5 5 @ 5.cX  gXy.@ 5 5 5 5 5 5 5 5 5 5 5 5 5 5 5 5 5 5 5 5 5 5 5 5 5 5 5 5 5 5 5 5 5 5 5 5 5 5 5 5 5 5 5 5 5 5 5 5 5 5 5 5 5 5 5 5 5 5 5 5 5 5 5 5 5 5 5 5 5 5 5 5 5 5 5 5 5 5 5 5 5 5 5 5 5 5 5 5 5 5 5 5 5 5 5 5 5 5 5 5 5 5 ",
"5 5 5 5 5 5 5 5 5 5 5 5 5 5 5 5 h 5 5 5 5 5 5 5 5 5 5 5 5 5 5 5 5 5 5 5 5 5 5 5 5 5 5 5 5 5 5 5 5 5 5 - - 5 5 5 - - - - - - - - - - - - - - - - - - - - - - - - - - - - - - - - 5 5 5 5 h 5 5 5 5 5 5 5 5 5 5 5 5 5 5 5 5 % @ @ @ @ @ @ @ @ @ @ @ @ @ @ @ @ @ @ @ @ @ @ @ @ % @ @ * = @ @ @ % 5 5 5 5 @ 5.cX  gXy.@ 5 5 5 5 5 5 5 5 5 5 5 5 5 5 5 5 5 5 5 5 5 5 5 5 5 5 5 5 5 5 5 5 5 5 5 5 5 5 5 5 5 5 5 5 5 5 5 5 5 5 5 5 5 5 5 5 5 5 5 5 5 5 5 5 5 5 5 5 5 5 5 5 5 5 5 5 5 5 5 5 5 5 5 5 5 5 5 5 5 5 5 5 5 5 5 5 5 5 5 5 5 5 ",
"- 5 5 5 5 5 5 5 5 5 5 5 5 5 5 5 h 5 5 5 5 5 5 5 5 - - 5 5 5 5 5 5 5 5 5 5 5 5 5 5 5 5 5 5 5 5 5 5 5 5 5 5 5 - 5 5 5 5 5 5 5 5 5 5 5 5 5 5 5 5 5 5 5 5 - 5 5 5 5 5 5 5 5 5 5 5 5 5 5 5 5 h 5 5 5 5 5 5 5 5 5 - = - 5 5 5 5 5 w w 5 5 5 5 5 5 5 5 5 5 5 5 5 5 5 5 5 5 5 5 w 5 - 5 w 5 5 5 5 5 5 5 5 5 5 @ 5.cX  gXy.@ 5 5 5 5 5 5 5 5 5 5 5 5 5 5 5 5 5 5 5 5 5 5 5 5 5 5 5 5 5 5 5 5 5 5 5 5 5 5 5 5 5 5 5 5 5 5 5 5 5 5 5 5 5 5 5 5 - & 5 5 0 0 5 - & - 5 5 5 5 5 5 5 5 5 5 5 5 5 5 5 5 5 5 5 5 5 5 5 5 5 5 5 5 5 5 5 5 5 5 5 5 ",
"i = = i j = = 5 5 5 5 5 5 5 5 5 h 5 5 5 5 5 5 5 5 c j - - 5 = 5 5 = 5 5 5 5 5 5 5 5 5 5 5 5 5 5 5 5 5 5 5 5 c i - 5 5 5 5 5 5 5 5 5 5 5 5 5 5 5 5 5 5 b p - = 5 j - = 5 5 5 5 5 5 5 5 5 h 5 5 5 5 5 5 5 5 5 j ( p = - 5 = 5 = = 5 5 5 5 5 5 5 5 5 5 5 5 5 5 5 5 5 5 5 5 - w ( w - 5 5 5 5 5 5 5 5 5 5 @ 5.cX  gXy.@ 5 5 5 5 5 5 5 5 5 5 5 5 5 5 5 5 5 5 5 5 5 5 5 5 5 5 5 5 5 5 5 5 5 5 5 5 5 5 5 5 5 5 5 5 5 5 5 5 5 5 5 5 5 5 ; - q ] [ }.'.'. X[ { q - 5 5 5 5 5 5 5 5 5 5 5 5 5 5 5 5 5 5 5 5 5 5 5 5 5 5 5 5 5 5 5 5 5 5 5 ",
"j j ( i j a %.i 5 5 5 5 5 5 5 5 h 5 5 5 5 5 5 = ( 1.j i l 5 c u w b i 5 5 5 5 5 5 5 5 5 5 5 5 5 5 5 5 5 5 :.=.1.i 5 5 5 5 5 5 5 5 5 5 5 5 5 5 5 5 u 1.&.j i b u p i b p 5 5 5 5 5 5 5 5 h 5 5 5 5 5 5 5 5 - y.1.j c j i ( = b ( u 5 5 5 5 5 5 5 5 5 5 5 5 5 5 5 5 5 5 5 u w.5.0.u 5 5 5 5 5 5 5 5 5 5 @ 5.cX  gXy.@ 5 5 5 5 5 5 5 5 ; ; : ; : ; ; 5 5 5 5 5 5 5 5 5 5 5 5 5 5 5 5 ; ; : : : : : ; 5 5 5 5 5 5 5 5 5 5 5 5 5 5 - 0 ]  X X}. X].]. X}. X X[ 5 - 5 5 5 5 5 5 5 5 5 5 5 5 5 5 5 5 5 & - & - - 5 5 5 5 5 5 5 5 5 5 5 ",
"c b t.9.1.e.0.9.= 5 5 5 5 5 5 5 h 5 5 5 5 5 5 = ( 1.u 5.%.( <.,.:.,.<.= 5 5 5 5 5 5 5 5 5 5 5 5 5 5 5 - j 1.@ ( &.= 5 5 5 5 5 5 5 5 5 5 5 5 5 5 = ( %.i c i ,.:.&.:.,.,.5 5 5 5 5 5 5 5 h 5 5 5 5 5 5 5 5 - y.&.m eXb 0.t.q.9.u.=.* 5 5 5 5 5 5 5 5 5 5 5 5 5 5 5 5 5 = &.9.  9.&.= 5 5 5 5 5 5 5 5 5 @ 5.cX  gXy.@ 5 5 5 5 5 5 ; w r ~ H.} H.~ r 5 ; 5 5 5 5 5 5 5 5 5 5 5 5 ; ; t ~ H.H.H.H.~ r : 5 5 5 5 5 5 5 5 5 5 5 5 - q }.].]. X'.G.] ] [ '. X}.'.'.q - 5 5 5 5 5 5 5 5 5 5 5 5 5 5 q V f.F f.F q 0 5 5 5 5 5 5 5 5 5 5 ",
"y.>.y.t.1.9.i w.= 5 5 5 5 5 5 5 h 5 5 5 5 5 5 = ( 1.i 1.- ,.1.:.1.5 1.- 5 5 5 5 5 5 5 5 5 5 5 5 5 5 5 - j 1.@  .&.= 5 5 5 5 5 5 5 5 5 5 5 5 5 5 = ( &.i 5.%.,.<.&.:.i :.i 5 5 5 5 5 5 5 h 5 5 5 5 5 5 5 5 - y.=.&.5.- rX1.P.( &.:.* 5 5 5 5 5 5 5 5 5 5 5 5 5 5 5 5 5 = %.q.  9.%.= 5 5 5 5 5 5 5 5 5 @ 5.cX  gXy.@ 5 5 5 5 5 5 r #.OXH.:XH.:XH.OXO.e ; 5 5 5 5 5 5 5 5 5 5 5 e } >X:X3X:X>X>X>X:X~ 5 5 5 5 5 5 5 5 5 5 5 - q /. X X{ q + + o o + + q ] '.].G.q - 5 5 5 5 5 5 5 5 5 5 5 0 F g.h.g.f.g.h.g.f.q 5 5 5 5 5 5 5 5 5 ",
"q.e.0.q.,.<.j 9.= 5 5 5 5 5 5 5 h 5 5 5 5 5 5 = ( b @ ,.5 b 1.l &.1.1.= 5 5 5 5 5 5 5 5 5 5 5 5 5 5 5 5 - =.1.5.u 5 5 5 5 5 5 5 5 5 5 5 5 5 5 5 5 w ,.:.:.,.1.:.&.&.p =.i 5 5 5 5 5 5 5 h 5 5 5 5 5 5 5 5 5 q.= c 5.* 9.5.m 0.qX&.= 5 5 5 5 5 5 5 5 5 5 5 5 5 5 5 5 5 5 5 q.t.e.5 5 5 5 5 5 5 5 5 5 5 @ 5.cX  gXy.@ 5 5 5 5 > O.>XH.OXOX#.} H.OXOX#.OX~ : 5 5 5 5 5 5 5 5 ; w :X:X:X>XOXO.H.:X3XOX:X:X; ; 5 5 5 5 5 5 5 - q }. X X{ + o * ; u u u * X % q '.'.'.q - 5 5 5 5 5 5 5 5 & q g.f.h.g.f.F f.h.g.f.g.f.& 5 5 5 5 5 5 5 ",
"5 i p 5 5 5 5 5 5 5 5 5 5 5 5 5 h 5 5 5 5 5 5 5 5 5 5 5 5 - p i 5 j 1.- 5 5 5 5 5 5 5 5 5 5 5 5 5 5 5 5 5 - c ,.5 5 5 5 5 5 5 5 5 5 5 5 5 5 5 5 5 5 5 j 5 5 i 5 5 5 5 5 5 5 5 5 5 5 5 5 h 5 5 5 5 5 5 5 5 5 w 5 5 5 5 5 b w - 5.:.* 5 5 5 5 5 5 5 5 5 5 5 5 5 5 5 5 5 5 5 - =.q.- 5 5 5 5 5 5 5 5 5 5 @ 5.cX  gXy.@ 5 5 5 ; H.H.3XOXe = O X O 5 t H.:XH.} ; 5 5 5 5 5 5 : ~ H.:X3X} e O O O $ r O.3X:XH.e 5 5 5 5 5 5 5 - [  X X] + X u c v m Y v -.iXm   q '.'.] - 5 5 5 5 5 5 5 - F f.g.h.q 0 @ . . = q f.g.h.f.5 5 5 5 5 5 5 ",
"5 ; ; 5 5 5 5 5 5 5 5 5 5 5 5 5 h 5 5 5 5 5 5 5 5 5 5 5 5 5 5 5 5 5 j 5 5 5 5 5 5 5 5 5 5 5 5 5 5 5 5 5 5 5 - 5 5 5 5 5 5 5 5 5 5 5 5 5 5 5 5 5 5 5 5 - 5 5 5 5 5 5 5 5 5 5 5 5 5 5 5 5 h 5 5 5 5 5 5 5 5 5 5 5 5 5 5 5 5 5 = j j - 5 5 5 5 5 5 5 5 5 5 5 5 5 5 5 5 5 5 5 5 = 5 5 5 5 5 5 5 5 5 5 5 5 @ 5.cX  gXy.@ 5 5 ; r :X3XOX6 : * * ; * X o e H.:XH.5 5 5 5 5 5 5 : H.3X>X} O o * ; ; * o $ O.3X3XO.: 5 5 5 5 5 - ] }./.{ + $ s v v m m Y M cXKXH * + ] [ /.] - 5 5 5 5 5 5 5 f.g.h.q . X * : : X o = f.g.g.q - 5 5 5 5 5 ",
"5 = 5 = 5 5 5 5 5 5 5 5 5 5 5 5 h 5 5 5 5 5 5 5 5 5 5 5 - - - - 5 5 - 5 5 5 5 5 5 5 5 5 5 5 5 5 5 5 5 5 5 - 5 - 5 5 5 5 5 5 5 5 5 5 5 5 5 5 5 5 5 5 5 5 5 - - - - 5 5 5 5 5 5 5 5 5 5 5 h 5 5 5 5 5 5 5 5 5 5 5 5 ; : : : : 5 5 - 5 5 5 5 5 5 5 5 5 5 5 5 5 5 5 5 5 5 5 ; : ; : ; 5 5 5 5 5 5 5 5 5 5 @ 5.cX  gXy.@ 5 5 5 OXOXH.e   q.iXc v v l : o r O.H.O.; 5 5 5 5 : O.:XH.O.O X u c v m M s X O H.H.:X~ : 5 5 5 5 & G. X}.= X u M v v v H c e.LXi.v g X % /.].G.- 5 5 5 5 5 & f.h.f.q o * s M v v c , o - f.f.h.0 5 5 5 5 : ",
"4 I L I G 5 5 5 5 5 5 5 5 5 5 5 h 5 5 5 5 5 5 5 5 5 - 5 j c j c w - 5 5 5 5 5 5 5 5 5 5 5 5 5 5 5 5 - 5 i c j b i 5 - 5 5 5 5 5 5 5 5 5 5 5 5 5 5 5 5 - w c j c j 5 - 5 5 5 5 5 5 5 5 5 h 5 5 5 5 5 5 5 5 5 5 ; ; r ` ^ ` ^ 5 ; 5 5 5 5 5 5 5 5 5 5 5 5 5 5 5 5 5 5 ; 5 r ^ ^ ^ r ; ; 5 5 5 5 5 5 5 5 @ 5.cX  gXy.@ w ; e :X3X} O % <.LXqXg %.Y M * O } :XH.5 5 5 5 5 : #.3X:XO X s v m m Y Y v ;   = ,X3XO.: 5 5 5 5 5 G. X/.+ * g v v v m v -.IXbXM %.m ; o ] '.[ 0 5 5 5 5 5 5 f.g.f.+ > a v m m Y -.H 3 . q g.g.q - 5 5 5 - ",
"l.n.v.n.b.b.l.5 5 5 5 5 5 5 5 5 h 5 5 5 5 5 5 5 - 5 =.&.1.<.,.9.&.,.i - 5 5 5 5 5 5 5 5 5 5 5 5 5 - m ,.=.q.=.0.=.,.b - 5 5 5 5 5 5 5 5 5 5 5 5 5 - p ,.%.9.,.5.1.=.&.5 5 5 5 5 5 5 5 5 h 5 5 5 5 5 5 5 5 ; : ^ W.Z.Q.K.Q.W.K.Z.; ; 5 5 5 5 5 5 5 5 5 5 5 5 5 5 ; ; ` Z.Z.W.Z.W.` Z.^ : ; 5 5 5 5 5 5 @ 5.cX  gXy.@ w : O.:X>Xe o s s uXPX,.v Y Y a o r OXH.~ ; 5 5 ; r OX>XH.o : c v v m m v <.i.%.O H.:XO.5 5 5 5 - q  X X]   , M M v v m g m.KX2.v Y Y a o q '.'.q - 5 5 5 - V h.g.V o , M v v m v g M s o = h.h.F - 5 5 : K ",
"n.b.l.b.n.n.v.b.L = 5 5 5 5 5 5 h 5 5 5 5 5 5 - ( =.,.0.9.:.&.9.q.<.&.=.5 5 5 5 5 5 5 5 5 5 5 - j ,.&.0.9.<.%.<.9.0.&.:.a - 5 5 5 5 5 5 5 5 5 5 5 =.&.<.q.9.&.,.9.0.,.=.b - 5 5 5 5 5 5 h 5 5 5 5 5 5 5 ; r K.K.Q.Q.Q.Z.W.Q.Q.Z.Z.^ : 5 5 5 5 5 5 5 5 5 5 5 5 : ^ Z.Z.W.K.K.` K.W.W.` Z.r ; 5 5 5 5 5 @ 5.cX  gXy.@ w : H.3XOX$ > a c Y kX,.v H Y c > = H.:X} : 5 5 ; r >X>X~ o u M M v M ,.GXLXKX0.O } OXH.5 5 5 5 - q }.}.q o u M M M v v v Y 1.v H m Y g X 5 /.'.] - 5 5 5 & F g.h.0 X s M M v M 1.yXiXyX-.@ f.g.f.& 5 5 : K ",
"L 1 = ; L Q v.n.v.G 5 5 5 5 5 5 h 5 5 5 5 5 5 j :.0.%.b i = = 5 b m 9.9.m 5 5 5 5 5 5 5 5 5 5 p ( 0.,.m j - = - j m ,.0.&.i 5 5 5 5 5 5 5 5 5 u b <.9.m b 5 = = i m %.<.%.p 5 5 5 5 5 5 h 5 5 5 5 5 5 ; r ` Q.!.` ` 6 = 5 ^ ` ` W.Z.^ ; 5 5 5 5 5 5 5 5 5 5 5 ^ ` W.Z.^ r = = 6 ^ ` K.W.` 6 5 5 5 5 5 @ 5.cX  gXy.@ w : O.OXH.O * a M M a M m m m M > * O.H.~ : 5 5 ; r H.OXr o u c M v M =.kXt.=.; o ~ H.O.5 5 5 5 - q '.'.0 o s M M M v v v v M m m m H g X 5 [ G.q - 5 5 5 - q f.f.= X s M M v g e.KXHXJX<.X F f.F 5 5 5 - K ",
". X X X . # L b.n.b.u 5 5 5 5 5 h 5 5 5 5 - j q.9.:.5 . o X X o o = %.<.0.( = 5 5 5 5 5 5 5 5 1.9.<.l @ o o X o o @ c <.q.1.5 5 5 5 5 5 5 5 = ( 0.<.%.= o o X X o   5  .=.=.i 5 5 5 5 5 h 5 5 5 5 5 5 : K.Q.!.Z.> o X X X > O r Z.K.K.r ; 5 5 5 5 5 5 5 5 ; 6 K.K.K.r O o X X X o > ` K.W.Z.: 5 5 5 5 @ 5.cX  gXy.@ w : H.3X:X$ X a c M v v v v m a X - OX:X} : 5 5 ; t >X3X} o ; c c M v M a g c ; o O.:XH.5 5 5 5 - ]  X Xq o u c c M M v v v m v m m m a X 0 '.].] - 5 5 5 & F g.g.0 o u c M M v v Y m c > % f.h.F - 5 5 : K ",
"3 a c g s > # G b.v.Q 5 5 5 5 5 h 5 5 5 5 u %.=.,.- o > ; u s u * o @ &.:.&.i 5 5 5 5 5 5 5 m &.1.j o X : u s u ; X o c 1.&.b - 5 5 5 5 5 5 a &.,.&.@ o * 3 s u u m * - %.m b 5 5 5 5 5 h 5 5 5 5 5 ; ^ K.W.Z.O X ; a a :.uXa   r K.Z.` 5 5 5 5 5 5 5 5 5 5 ` Z.K.r o % u g c j u X O ` Z.` ^ ; 5 5 5 @ 5.cX  gXy.@ w ; ~ OX>Xt o 1 g c M M v v M 1 o ~ :XH.r ; 5 5 5 5 #.>XH.O % a c c M v v m a X $ H.OX} ; 5 5 5 - q '. X[ o ; g c c M M v v v v v v v u o q './.q - 5 5 5 5 0 f.g.F o : g c M M M M v s o 0 f.f.q 5 5 5 5 e ",
"M m m Y %.M * # U n.n.3 5 5 5 5 h 5 5 5 - j q.1.u o * u a a g g a ; o = &.0.%.= 5 5 5 5 5 5 <.9.b X X 1 s a a g c u X @ c 9.<.5 5 5 5 5 5 = %.0.&.= o : s a a s &XiX; o w %.:.p 5 5 5 5 h 5 5 5 5 5 : K.Q.Z.> X u M m g cXHXM * X r K.W.r ; 5 5 5 5 5 5 ; r K.K.^ O * a v m H Y Y a X * ` W.Z.; 5 5 5 @ 5.cX  gXy.@ w 5 w >X>X} O X u g c M M M u X $ } OXH.5 5 5 5 5 : H.3XOX: o : a c M M M a * o w H.:X~ : 5 5 5 5 - G. X'.X X s c c M M M M v v v v c * X [ ].[ ; 5 5 5 5 5 - f.g.f.& X ; a c M M M a > X q f.h.0 5 5 5 5 : ",
"v v m v M M 3 o 3 n.b.G 5 5 5 5 h 5 5 5 5 b 1.1.* X 3 a a a a g c a * . %.9.( 5 5 5 5 5 5 a =.9.p o : s a a a s s s : o p 9.=.i 5 5 5 5 5 w ( 9.%.. > u a a s 9.bX<.3 X * %.%.a 5 5 5 5 h 5 5 5 5 ; r Z.Q.` o ; c v c <.LXwXM c X 5 K.K.^ ; 5 5 5 5 5 5 ; ^ Z.K.6 o u v v v m H Y H w o ^ W.` 6 5 5 5 @ 5.cX  gXy.@ 5 5 : O.OX>X} o X ; u s u ; X O } H.H.~ ; 5 5 5 5 ; r H.:XOXO o * 3 s s 3 * o 5 H.H.O.5 5 5 5 5 5 & [  X].0 o : a c c c M M M M v M , o - G.].[ - 5 5 5 5 5 - V f.h.f.+ o : u s s ; > . q f.f.F 5 5 5 5 5 - ",
"v v v 1.qXzXcX-.@ v.b.I 9 5 5 5 h 5 5 5 5 1.0.( . * s s s a a s s a ; o j q.5.i 5 5 5 5 = ( 0.1.* X 3 s s a s -.q.u.u.a = =.1.c - 5 5 5 5 p 9.9.a o : s s a s wXi.s a * X b ,.( 5 5 5 5 h 5 5 5 5 : ^ Q.Q.r o u M v g 9.BX-.m v * > Z.W.Z.: 5 5 5 5 5 5 : Z.W.Z.> * a M v m m m H Y a X 6 K.W.^ ; 5 5 @ 5.cX  gXy.@ 5 5 5 5 :X3X>XO.$ X X X X X * } OXOXH.: 5 5 5 5 5 5 : #.3X>XOX6 X X X X X X e H.OX:X~ : 5 5 5 5 5 - q /.'.'.* o ; a c c M M M M g 3 o % [ G.[ q - 5 5 5 5 5 5 & f.g.g.f.= X o X X X % q f.f.f.0 5 5 5 5 5 5 ",
"M m a wXPXJXzXm @ L l.L 5 5 5 5 h 5 5 5 5 ( =.j o * s s s s a 0.<.c ; o u &.&.i 5 5 5 5 - c =.( @ X u s s a u t.nXyXt.u * c m a 5 5 5 5 5 i &.&.5 o ; s s a s g a a a : . a m c 5 5 5 5 h 5 5 5 5 ; ^ K.Z.5 X s M M v M M m m v ; X ^ Z.` ; 5 5 5 5 5 5 ; ^ Z.^ X * g M M a M m m H g X - ` Z.^ ; 5 5 @ 5.cX  gXy.@ 5 5 5 ; t H.3XOX: 5 - = - 5 ; H.:XO.e 5 5 5 5 5 5 5 5 5 O.>X3Xt ; 5 = = 5 ; ~ :XH.~ 5 5 5 5 5 5 5 5 & ]  X X/.+ o * 3 s a a a u * o + [ ].].] & 5 5 5 5 5 5 5 5 0 f.g.h.5 5 - = - 5 5 F h.F q 5 5 5 5 5 5 5 ",
"M v v Y -.v s X @ l.b.I 6 5 5 5 h 5 5 5 5 ,.q.n o * u s s s c yXcXzX1.X a 9.<.i 5 5 5 5 - ( 0.:.* X 3 s s s s a c s ; o = %.=.j - 5 5 5 5 i 9.9.i o : s s s a s a a a * . c =.( 5 5 5 5 h 5 5 5 5 : ^ Q.!.6 o u c M M v v v m M * X ` W.Z.: 5 5 5 5 5 5 : Z.W.` O * a g %.zX=.M m m a X 6 K.W.^ ; 5 5 @ 5.cX  gXy.@ 5 5 5 5 : ~ :Xt : 5 5 5 5 5 : ~ H.r ; 5 5 5 5 5 5 5 5 5 : H.H.: 5 5 5 5 5 5 : H.O.: 5 5 5 5 5 5 5 5 5 - '.]. X'.5 X o X > > X o X 5 [ ]./.G.5 5 5 5 5 5 5 5 5 5 5 0 f.F & 5 5 5 5 5 5 0 f.V - 5 5 5 5 5 5 5 ",
"c M M M M v a X 1 v.l.L 5 5 5 5 h 5 5 5 5 m <.=.@ X 3 s s s s s %.q.=.* m 9.&.u 5 5 5 5 - j ,.<.5 o : s s s s s s a ; o w =.( p 5 5 5 5 5 u &.9.n o * u s s s s a a u X @ %.&.c 5 5 5 5 h 5 5 5 5 ; r K.Q.^ o ; g c M M v v v a X = K.K.^ ; 5 5 5 5 5 5 ; ^ K.K.= X s s uXPX=.g v v u o ^ K.Z.r ; 5 5 @ 5.cX  gXy.@ 5 5 5 5 5 : ; 5 5 5 5 5 5 5 5 5 ; ; 5 5 5 5 5 5 5 5 5 5 5 : 5 5 5 5 5 5 5 5 5 ; ; 5 5 5 5 5 5 5 5 5 5 5 & G. X Xq ; 5 = * * * - 5 0 '.].[ - 5 5 5 5 5 5 5 5 5 5 5 5 - 5 5 5 5 5 5 5 5 5 5 5 5 5 5 5 5 5 5 5 ",
"c M M v v g : . 4 b.v.3 5 5 5 5 h 5 5 5 - j q.<.- o * u s s s s u * o * m ,.b - 5 5 5 5 5 5 1.0.l . X 1 s s s s a u X X a :.%.5 5 5 5 5 5 - %.0.=.@ o : u s s s s s * o 5 &.=.p 5 5 5 5 h 5 5 5 5 5 : K.Q.Z.O X u c M M M v g : o r K.K.r ; 5 5 5 5 5 5 ; r K.W.r o X =.LXqXs v v s @ O ` W.Z.; 5 5 5 @ 5.cX  gXy.@ 5 5 5 5 5 5 5 5 5 5 5 5 5 5 5 5 5 5 5 5 5 5 5 5 5 5 5 5 5 5 5 5 5 5 5 5 5 5 5 5 5 5 5 5 5 5 5 5 5 5 5 5 5 5 /.G.& 5 5 5 5 5 5 5 5 - ] G.5 5 5 5 5 5 5 5 5 5 5 5 5 5 5 5 5 5 5 5 5 5 5 5 5 5 5 5 5 5 5 5 5 5 ",
"u a g a s *   3 Q Q Q 5 5 5 5 5 h 5 5 5 5 i :.&.%.*   * ; u u u : X X j b m p 5 5 5 5 5 5 5 %.=.&.u   X ; u u u ; X o u n m b 5 5 5 5 5 5 - c :.&.b . o : 3 u u 3 * o = b b ( u 5 5 5 5 h 5 5 5 5 5 : ` K.K.^ o X 3 a g a s : o 5 ` ` Z.6 5 5 5 5 5 5 5 5 5 Z.Z.` 5   <.kXg a a u % o ^ ` Z.` ; 5 5 5 @ 5.cX  gXy.@ 5 5 5 5 5 5 5 5 5 5 5 5 5 5 5 5 5 5 5 5 5 5 5 5 5 5 5 5 5 5 5 5 5 5 5 5 5 5 5 5 5 5 5 5 5 5 5 5 5 5 5 5 5 5 - 5 5 5 5 5 5 5 5 5 5 5 - - 5 5 5 5 5 5 5 5 5 5 5 5 5 5 5 5 5 5 5 5 5 5 5 5 5 5 5 5 5 5 5 5 5 5 ",
"X X * > X X 3 l.b.v.u 5 5 5 5 5 h 5 5 5 5 - c q.9.( = . o X X X o * j =.,.c - 5 5 5 5 5 5 5 5 <.0.,.w X o X X X o X w %.,.%.5 5 5 5 5 5 5 5 - %.0.<.l % o o X X o . = b =.=.i 5 5 5 5 5 h 5 5 5 5 5 5 : K.Q.!.^ X X X * > X X 5 Z.W.K.r ; 5 5 5 5 5 5 5 5 ; r K.W.Z.5 ; * X * X . X ^ K.W.Z.; 5 5 5 5 @ 5.cX  gXy.@ 5 5 5 5 5 5 5 5 5 5 5 5 5 5 5 5 5 5 5 5 5 5 5 5 5 5 5 5 5 5 5 5 5 5 5 5 5 5 5 5 5 5 5 5 5 5 5 5 5 5 5 5 5 5 5 5 5 5 5 5 5 5 5 5 5 5 5 5 5 5 5 5 5 5 5 5 5 5 5 5 5 5 5 5 5 5 5 5 5 5 5 5 5 5 5 5 5 5 5 5 5 5 ",
"- * @ * - 6 Q b.Q L 5 5 5 5 5 5 h 5 5 5 5 5 5 %.,.0.b - = @ @ * - i =.%.b i 5 5 5 5 5 5 5 5 5 b :.q.:.5 - * @ * - 5 ( =.b a 5 5 5 5 5 5 5 5 5 i =.<.9.i - * @ % = - j ,.m c 5 5 5 5 5 5 h 5 5 5 5 5 5 ; ^ K.Q.!.w - * @ * = : ` W.Z.` 5 5 5 5 5 5 5 5 5 5 5 ; ` Z.W.` : = * @ * - 5 K.K.` ^ ; 5 5 5 5 @ 5.cX  gXy.@ 5 5 5 5 5 5 5 5 5 5 5 5 5 5 5 5 5 5 5 5 5 5 5 5 5 5 5 5 5 5 5 5 = 5 5 5 = 5 - = 5 5 5 5 5 5 5 5 5 5 5 5 5 5 5 5 - = 5 = = 5 5 5 - 5 5 - 5 5 5 5 5 5 5 5 5 5 5 5 5 5 5 5 - 5 5 = 5 5 5 = 5 5 5 5 5 5 5 5 5 5 ",
"w 5 5 5 5 5 4 b.L = 5 5 5 5 5 5 h 5 5 5 5 5 5 - =.<.5 5 5 5 5 5 5 5 m %.5 5 5 5 5 5 5 5 5 5 5 - c 9.c - 5 5 5 5 5 - j =.p - 5 5 5 5 5 5 5 5 5 5 u <.=.- 5 5 5 5 5 5 5 &.n - 5 5 5 5 5 5 h 5 5 5 5 5 5 5 : ^ Q.Z.: 5 5 5 5 5 ; r K.` : 5 5 5 5 5 5 5 5 5 5 5 5 : ` K.r ; 5 5 5 5 5 : ` K.r : 5 5 5 5 5 @ 5.cX  gXy.@ 5 5 5 5 5 5 5 5 5 5 5 5 5 5 5 5 5 5 5 5 5 5 5 5 5 5 5 5 5 5 5 5 ( p - i ( = l b - 5 5 5 5 5 5 5 5 5 5 5 5 5 5 5 p %.5 b ( - 5 - p u i p 5 5 5 5 5 5 5 5 5 5 5 5 5 5 5 5 j 5 i ( 5 5 i ( 5 5 5 5 5 5 5 5 5 5 ",
"5 5 5 5 5 5 5 4 5 5 5 5 5 5 5 5 h 5 5 5 5 5 5 5 5 i 5 5 5 5 5 5 5 5 5 w 5 5 5 5 5 5 5 5 5 5 5 5 5 i 5 5 5 5 5 5 5 5 5 u 5 5 5 5 5 5 5 5 5 5 5 5 5 w u 5 5 5 5 5 5 5 5 u 5 5 5 5 5 5 5 5 h 5 5 5 5 5 5 5 5 ; r 6 ; 5 5 5 5 5 5 ; r 5 5 5 5 5 5 5 5 5 5 5 5 5 5 5 ; r 5 5 5 5 5 5 5 5 6 r ; 5 5 5 5 5 5 @ 5.cX  gXy.@ 5 5 5 5 5 5 5 5 5 5 5 5 5 5 5 5 5 5 5 5 5 5 5 5 5 5 5 5 5 5 = <.5.i - 9.w.1.q.w.l - 5 5 5 5 5 5 5 5 5 5 5 5 5 = ( q.5.( 0.&.= 5 rX( w.9.% 5 5 5 5 5 5 5 5 5 5 5 5 5 - j yXj 5.t.&.* 9.t.=.= 5 5 5 5 5 5 5 5 ",
"5 5 5 5 5 5 5 5 5 5 5 5 5 5 5 5 h 5 5 5 5 5 5 5 5 5 5 5 5 5 5 5 5 5 5 5 5 5 5 5 5 5 5 5 5 5 5 5 5 5 5 5 5 5 5 5 5 5 5 5 5 5 5 5 5 5 5 5 5 5 5 5 5 5 5 5 5 5 5 5 5 5 5 5 5 5 5 5 5 5 5 5 h 5 5 5 5 5 5 5 5 5 ; 5 5 5 5 5 5 5 5 5 ; 5 5 5 5 5 5 5 5 5 5 5 5 5 5 5 5 ; 5 5 5 5 5 5 5 5 5 ; 5 5 5 5 5 5 5 @ 5.cX  gXy.@ 5 5 5 5 5 5 5 5 5 5 5 5 5 5 5 5 5 5 5 5 5 5 5 5 5 5 5 5 5 i p P.q.b i q.5 yX%. .,.* 5 5 5 5 5 5 5 5 5 5 5 5 i p @ b 9.i y.( % &.e.b m 5.* 5 5 5 5 5 5 5 5 5 5 5 5 5 5 - 5.%.<.a 9.5 q.i q.= 5 5 5 5 5 5 5 5 ",
"5 5 5 5 5 5 5 5 5 5 5 5 5 5 5 5 h 5 5 5 5 5 5 5 5 5 5 5 5 5 5 5 5 5 5 5 5 5 5 5 5 5 5 5 5 5 5 5 5 5 5 5 5 5 5 5 5 5 5 5 5 5 5 5 5 5 5 5 5 5 5 5 5 5 5 5 5 5 5 5 5 5 5 5 5 5 5 5 5 5 5 5 h 5 5 5 5 5 5 5 5 5 5 5 5 5 5 5 5 5 5 5 5 5 5 5 5 5 5 5 5 5 5 5 5 5 5 5 5 5 5 5 5 5 5 5 5 5 5 5 5 5 5 5 5 5 5 @ 5.cX  gXy.@ 5 5 5 5 5 5 5 = = 5 5 = = 5 * = 5 5 5 5 5 5 5 5 5 5 5 5 5 ,.:.q.b 0.5 q.j wX=.=.:.* 5 5 5 5 5 5 5 5 5 5 5 - &.:.i q.w 5 5.,.i P.eX<.c 5.* 5 5 5 5 5 5 5 5 5 5 5 5 5 5 % 9.( 5.b q.5 q.c q.= 5 5 5 5 5 5 5 5 ",
"= = 5 = = 5 5 5 - 5 = = 5 5 5 5 h 5 5 5 5 5 = - 5 = 5 - - 5 = 5 5 5 5 5 5 5 5 5 5 5 5 5 5 5 5 5 5 5 5 5 5 5 5 = 5 5 - 5 5 5 5 5 5 5 5 5 5 5 5 - - 5 5 = 5 5 = 5 5 5 5 - 5 = - 5 5 5 5 5 h 5 5 5 5 5 5 5 - - * = - * - = = 5 5 - 5 - 5 5 5 5 5 5 5 5 5 5 5 5 5 5 5 = - 5 5 = = 5 = 5 5 = 5 5 5 5 5 5 5 @ 5.cX  gXy.@ 5 5 5 5 5 5 - &.,.5 5 <.,.i q.( = 5 5 5 5 5 5 5 5 5 5 5 5 = = 1.e.,.=.:.u. .9.t.p 5 5 5 5 5 5 5 5 5 5 5 5 5 - @ 0.P.:.1.q.1.,.i q.&.l 1.= 5 5 5 5 5 5 5 5 5 5 5 5 5 5 = 5.j ,.y.:.=.:.u.( = 5 5 5 5 5 5 5 5 ",
"( b = ( b 5 5 @ =.j &.( - 5 5 5 h 5 5 5 5 5 c p i b - j j - b i - i i 5 i = = 5 5 5 5 5 5 5 5 5 5 5 5 i i - w b 5 p c 5 5 5 5 5 5 5 5 5 5 5 - j l 5 5 b i 5 b 5 5 5 = ( i m j 5 5 5 5 5 h 5 5 5 5 5 5 5 j l &.( j &.j b  .5 5 j 5 p u % = 5 5 5 5 5 5 5 5 5 5 5 - m c - - b b - %.i i %.5 5 5 5 5 5 5 @ 5.cX  gXy.@ 5 5 5 5 5 - c P.( =  .9.1.u.:.q.i 5 5 5 5 5 5 5 5 5 5 5 5 5 5 5 i 5 w 5 i = w u - 5 5 5 5 5 5 5 5 5 5 5 5 5 5 5 w p p p i - 5 = - - 5 5 5 5 5 5 5 5 5 5 5 5 5 5 5 5 5 5 5 5 5 i - 5 5 i - 5 5 5 5 5 5 5 5 5 ",
"w.9.>.0.j - u &.t.,.0.9.&.= 5 5 h 5 5 5 - m ,.p :.,.&.,.:.&.1.:.=  .n 5 ,.b ( u 5 5 5 5 5 5 5 5 5 5 - q.%.* =.1.&.:.1.c - 5 5 5 5 5 5 5 5 - j 1.j = b 1.=.=.1.%.= i ( 1.%.:.,.c - 5 5 5 h 5 5 5 5 5 - j yX( :.i.y.q.j  .0.=.* e.% :.,.&.( - 5 5 5 5 5 5 5 5 5 = b t.0.i l t.9.5.e.5.9.e.:.= 5 5 5 5 5 @ 5.cX  gXy.@ 5 5 5 5 5 = :.0.q.p &. .( yX- 9.j - 5 5 5 5 5 5 5 5 5 5 5 5 5 5 5 5 = 5 = 5 5 5 5 5 5 5 5 5 5 5 5 5 5 5 5 5 5 5 5 - - 5 = 5 - 5 5 5 5 5 5 5 5 5 5 5 5 5 5 5 5 5 5 5 5 5 5 5 5 5 5 5 5 5 5 5 5 5 5 5 5 5 5 5 ",
"qXq.0.t.:.* 1.5.t.:.t.w.( = 5 5 h 5 5 5 - 1.,.=.&.u e.j n 0.5 :.5 m <.=.,.j 0.i 5 5 5 5 5 5 5 5 5 - b ,.b - ,.5 q.%.j =.= 5 5 5 5 5 5 5 5 = =.<.%.= =.p =.5.5 ,.= =.=.1. .1.,.j - 5 5 5 h 5 5 5 5 5 5 :.w.5 i <.&.t.%.i i.( % i.<.u.%.q.0.* 5 5 5 5 5 5 5 5 5 = 1.m ,.b &.%.%.yX5 e.e.u 0.= 5 5 5 5 5 @ 5.cX  gXy.@ 5 5 5 5 5 = &.<.1.,.%.5.1.y.:.0.i 5 5 5 5 5 5 5 5 5 5 5 5 5 5 5 - i b 5 j 5 5 5 5 5 5 5 5 5 5 5 5 5 5 5 5 5 5 5 5 5 5 = b i i p - 5 5 5 5 5 5 5 5 5 5 5 5 5 5 5 5 5 5 5 5 - - - 5 5 - - 5 5 5 5 5 5 5 5 5 5 ",
"1.5.qXj e.5 0.p 5.1.5.1.1.= 5 5 h 5 5 5 - 1.p 5.:.j 0.b ( q.p ,.5 ( :.b :.m b = 5 5 5 5 5 5 5 5 5 u 5.9.1.5 :.p 9.&.b &.= 5 5 5 5 5 5 5 5 = :.c >.i &.c :.5.p ,.- 1.u :.&.&.=.m = 5 5 5 h 5 5 5 5 = ( P.rX%.<.&.@ i y.5 5.1.@ i.( 0.&.1.5 5 5 5 5 5 5 5 5 5 5 = :.&.1.( &.:.=.wXj e.e.c q.= 5 5 5 5 5 @ 5.cX  gXy.@ 5 5 5 5 5 5 5 1.:.( l ,.,.u q.( = 5 5 5 5 5 5 5 5 5 5 5 5 5 5 5 5 :.5.5.0.9.5 5 5 5 5 5 5 5 5 5 5 5 5 5 5 5 5 5 5 5 5 u 0.:.e.q.&.= 5 5 5 5 5 5 5 5 5 5 5 5 5 5 5 5 5 5 5 p p p i = j j 5 5 5 5 5 5 5 5 5 5 ",
"q.5.=.t.1.* ( t.e.%.y.q.( = 5 5 h 5 5 5 - b <.( &.<.c ,.:.c <.&.= m b 5 =.5.:.u 5 5 5 5 5 5 5 5 5 5 i &.=.( m 5.b &.<.p 5 5 5 5 5 5 5 5 5 - j 1.&.%.c <.&.n 5.m = ( 1.,.m 1.,.j - 5 5 5 h 5 5 5 5 5 i j 0.( 5.5 &.e.:.,.0.( = 9.=  .0.&X&.- 5 5 5 5 5 5 5 5 5 - p t.5.:.( 0.q.( u.:.:.u.( = 5 5 5 5 5 @ 5.cX  gXy.@ 5 5 5 5 5 5 5 = = = - = = 5 * = 5 5 5 5 5 5 5 5 5 5 5 5 5 5 5 5 q.u.5.9.,.w.5 5 5 5 5 5 5 5 5 5 5 5 5 5 5 5 5 5 5 = ( w.P.:.q.<.1.= 5 5 5 5 5 5 5 5 5 5 5 5 5 5 5 5 5 = b P.y.t.9.%.P.m - 5 5 5 5 5 5 5 5 5 ",
"i 5 = i 5 5 - u 5 5 i i - 5 5 5 h 5 5 5 5 5 w 5 5 w - 5 5 - w 5 5 5 5 5 5 5 i 5 5 5 5 5 5 5 5 5 5 5 - - 5 5 5 w - 5 5 5 5 5 5 5 5 5 5 5 5 5 5 w 5 5 5 5 5 - w 5 5 5 w 5 5 i 5 - 5 5 5 5 h 5 5 5 5 5 5 - - 5 5 5 u i - i i - 5 5 5 5 5 i i 5 5 5 5 5 5 5 5 5 5 5 - 5 5 5 5 5 5 = i 5 - i - 5 5 5 5 5 5 @ 5.cX  gXy.@ 5 5 5 5 5 5 5 5 5 5 5 5 5 5 5 5 5 5 5 5 5 5 5 5 5 5 5 5 5 5 = b 5.p 5.q.5.0.u 5 5 5 5 5 5 5 5 5 5 5 5 5 5 5 5 5 5 * 5.c :.,.e.5.1.= 5 5 5 5 5 5 5 5 5 5 5 5 5 5 5 5 5 = ( 1.=.%.1.( <.&.- 5 5 5 5 5 5 5 5 5 ",
"5 5 5 5 5 5 5 5 5 5 5 5 5 5 5 5 h 5 5 5 5 5 5 5 5 5 5 5 5 5 5 5 5 5 5 5 5 5 5 5 5 5 5 5 5 5 5 5 5 5 5 5 5 5 5 5 5 5 5 5 5 5 5 5 5 5 5 5 5 5 5 5 5 5 5 5 5 5 5 5 5 5 5 5 5 5 5 5 5 5 5 5 h 5 5 5 5 5 5 5 5 5 5 5 5 5 5 5 5 5 5 5 5 5 5 5 5 5 5 5 5 5 5 5 5 5 5 5 5 5 5 5 5 5 5 5 5 5 5 5 5 5 5 5 5 5 5 @ 5.cX  gXy.@ 5 5 5 5 5 5 5 5 5 5 5 5 5 5 5 5 5 5 5 5 5 5 5 5 5 5 5 5 5 5 5 u 0.t.5.q.1.e.i 5 5 5 5 5 5 5 5 5 5 5 5 5 5 5 5 5 5 = %.0.i.:.e.<.5.= 5 5 5 5 5 5 5 5 5 5 5 5 5 5 5 5 5 = ( 1.:.&.<.m 5.e.= 5 5 5 5 5 5 5 5 5 ",
"5 5 5 5 5 5 5 5 5 5 5 5 5 5 5 5 h 5 5 5 5 5 5 5 5 5 5 5 5 5 5 5 5 5 5 5 5 5 5 5 5 5 5 5 5 5 5 5 5 5 5 5 5 5 5 5 5 5 5 5 5 5 5 5 5 5 5 5 5 5 5 5 5 5 5 5 5 5 5 5 5 5 5 5 5 5 5 5 5 5 5 5 h 5 5 5 5 5 5 5 5 5 5 5 5 5 5 5 5 5 5 5 5 5 5 5 5 5 5 5 5 5 5 5 5 5 5 5 5 5 5 5 5 5 5 5 5 5 5 5 5 5 5 5 5 5 5 @ 0.zX  yXP.@ 5 5 5 5 5 5 5 5 5 5 5 5 5 5 5 5 5 5 5 5 5 5 5 5 5 5 5 5 5 5 5 - p ( u j &.p - 5 5 5 5 5 5 5 5 5 5 5 5 5 5 5 5 5 5 5 - b c 5 ( ( 5 5 5 5 5 5 5 5 5 5 5 5 5 5 5 5 5 5 5 5 u i i i i i ( i 5 5 5 5 5 5 5 5 5 5 ",
"5 5 5 5 5 5 5 5 5 5 5 5 5 5 5 w j 5 5 5 5 5 5 5 5 5 5 5 5 5 5 5 5 5 5 5 5 5 5 5 5 5 5 5 5 5 5 5 5 5 5 5 5 5 5 5 5 5 5 5 5 5 5 5 5 5 5 5 5 5 5 5 5 5 5 5 5 5 5 5 5 5 5 5 5 5 5 5 5 5 5 5 j w 5 5 5 5 5 5 5 5 5 5 5 5 5 5 5 5 5 5 5 5 5 5 5 5 5 5 5 5 5 5 5 5 5 5 5 5 5 5 5 5 5 5 5 5 5 5 5 5 5 5 5 5 w . kXP.  w.xX. w 5 5 5 5 5 5 5 5 5 5 5 5 5 5 5 5 5 5 5 5 5 5 5 5 5 5 5 5 5 5 5 5 - 5 5 = 5 5 5 5 5 5 5 5 5 5 5 5 5 5 5 5 5 5 5 5 5 5 - - 5 - = 5 5 5 5 5 5 5 5 5 5 5 5 5 5 5 5 5 5 5 5 5 5 5 5 5 5 = 5 5 5 5 5 5 5 5 5 5 5 ",
"@ @ @ @ @ @ @ @ @ @ @ @ @ @ @ @ = @ @ @ @ @ @ @ @ @ @ @ @ @ @ @ @ @ @ @ @ @ @ @ @ @ @ @ @ @ @ @ @ @ @ @ @ @ @ @ @ @ @ @ @ @ @ @ @ @ @ @ @ @ @ @ @ @ @ @ @ @ @ @ @ @ @ @ @ @ @ @ @ @ @ @ = @ @ @ @ @ @ @ @ @ @ @ @ @ @ @ @ @ @ @ @ @ @ @ @ @ @ @ @ @ @ @ @ @ @ @ @ @ @ @ @ @ @ @ @ @ @ @ @ @ @ @ @ @ . 9.JXp - 5 BXt.. @ @ @ @ @ @ @ @ @ @ @ @ @ @ @ @ @ @ @ @ @ @ @ @ @ @ @ @ @ @ @ @ @ @ @ @ @ @ @ @ @ @ @ @ @ @ @ @ @ @ @ @ @ @ @ @ @ @ @ @ @ @ @ @ @ @ @ @ @ @ @ @ @ @ @ @ @ @ @ @ @ @ @ @ @ @ @ @ @ @ @ @ @ @ @ @ @ @ @ @ @ ",
"5.5.5.5.5.5.5.5.5.5.5.5.5.5.5.5.5.5.5.5.5.5.5.5.5.5.5.5.5.5.5.5.5.5.5.5.5.5.5.5.5.5.5.5.5.5.5.5.5.5.5.5.5.5.5.5.5.5.5.5.5.5.5.5.5.5.5.5.5.5.5.5.5.5.5.5.5.5.5.5.5.5.5.5.5.5.5.5.5.5.5.5.5.5.5.5.5.5.5.5.5.5.5.5.5.5.5.5.5.5.5.5.5.5.5.5.5.5.5.5.5.5.5.5.5.5.5.5.5.5.5.5.5.5.5.5.5.5.5.5.5.5.5.5.5.0.kXHX&.= w = c SXlXq.5.5.5.5.5.5.5.5.5.5.5.5.5.5.5.5.5.5.5.5.5.5.5.5.5.5.5.5.5.5.5.5.5.5.5.5.5.5.5.5.5.5.5.5.5.5.5.5.5.5.5.5.5.5.5.5.5.5.5.5.5.5.5.5.5.5.5.5.5.5.5.5.5.5.5.5.5.5.5.5.5.5.5.5.5.5.5.5.5.5.5.5.5.5.5.5.5.5.5.5.",
"cXcXcXcXcXcXcXcXcXcXcXcXcXcXcXcXcXcXcXcXcXcXcXcXcXcXcXcXcXcXcXcXcXcXcXcXcXcXcXcXcXcXcXcXcXcXcXcXcXcXcXcXcXcXcXcXcXcXcXcXcXcXcXcXcXcXcXcXcXcXcXcXcXcXcXcXcXcXcXcXcXcXcXcXcXcXcXcXcXcXcXcXcXcXcXcXcXcXcXcXcXcXcXcXcXcXcXcXcXcXcXcXcXcXcXcXcXcXcXcXcXcXcXcXcXcXcXcXcXcXcXcXcXcXcXcXcXcXcXcXcXcXcXcXcXzXqXj = i 5 i - i t.zXcXcXcXcXcXcXcXcXcXcXcXcXcXcXcXcXcXcXcXcXcXcXcXcXcXcXcXcXcXcXcXcXcXcXcXcXcXcXcXcXcXcXcXcXcXcXcXcXcXcXcXcXcXcXcXcXcXcXcXcXcXcXcXcXcXcXcXcXcXcXcXcXcXcXcXcXcXcXcXcXcXcXcXcXcXcXcXcXcXcXcXcXcXcXcXcXcXcXcXcX",
"                                                                                                                                                                                                                                                                                                      . @ . . . @ .                                                                                                                                                                                                             ",
"gXgXgXgXgXgXgXgXgXgXgXgXgXgXgXgXgXgXgXgXgXgXgXgXgXgXgXgXgXgXgXgXgXgXgXgXgXgXgXgXgXgXgXgXgXgXgXgXgXgXgXgXgXgXgXgXgXgXgXgXgXgXgXgXgXgXgXgXgXgXgXgXgXgXgXgXgXgXgXgXgXgXgXgXgXgXgXgXgXgXgXgXgXgXgXgXgXgXgXgXgXgXgXgXgXgXgXgXgXgXgXgXgXgXgXgXgXgXgXgXgXgXgXgXgXgXgXgXgXgXgXgXgXgXgXgXgXgXgXgXgXgXgXgXgXgXgXdXdXdXdXdXdXdXgXgXgXgXgXgXgXgXgXgXgXgXgXgXgXgXgXgXgXgXgXgXgXgXgXgXgXgXgXgXgXgXgXgXgXgXgXgXgXgXgXgXgXgXgXgXgXgXgXgXgXgXgXgXgXgXgXgXgXgXgXgXgXgXgXgXgXgXgXgXgXgXgXgXgXgXgXgXgXgXgXgXgXgXgXgXgXgXgXgXgXgXgXgXgXgXgXgXgXgXgXgX",
"y.y.y.y.y.y.y.y.y.y.y.y.y.y.y.y.y.y.y.y.y.y.y.y.y.y.y.y.y.y.y.y.y.y.y.y.y.y.y.y.y.y.y.y.y.y.y.y.y.y.y.y.y.y.y.y.y.y.y.y.y.y.y.y.y.y.y.y.y.y.y.y.y.y.y.y.y.y.y.y.y.y.y.y.y.y.y.y.y.y.y.y.y.y.y.y.y.y.y.y.y.y.y.y.y.y.y.y.y.y.y.y.y.y.y.y.y.y.y.y.y.y.y.y.y.y.y.y.y.y.y.y.y.y.y.y.y.y.y.y.y.y.y.y.y.y.y.y.y.y.y.y.y.y.y.y.y.y.y.y.y.y.y.y.y.y.y.y.y.y.y.y.y.y.y.y.y.y.y.y.y.y.y.y.y.y.y.y.y.y.y.y.y.y.y.y.y.y.y.y.y.y.y.y.y.y.y.y.y.y.y.y.y.y.y.y.y.y.y.y.y.y.y.y.y.y.y.y.y.y.y.y.y.y.y.y.y.y.y.y.y.y.y.y.y.y.y.y.y.y.y.y.y.y.y.y.",
"@ @ @ @ @ @ @ @ @ @ @ @ @ @ @ @ @ @ @ @ @ @ @ @ @ @ @ @ @ @ @ @ @ @ @ @ @ @ @ @ @ @ @ @ @ @ @ @ @ @ @ @ @ @ @ @ @ @ @ @ @ @ @ @ @ @ @ @ @ @ @ @ @ @ @ @ @ @ @ @ @ @ @ @ @ @ @ @ @ @ @ @ @ @ @ @ @ @ @ @ @ @ @ @ @ @ @ @ @ @ @ @ @ @ @ @ @ @ @ @ @ @ @ @ @ @ @ @ @ @ @ @ @ @ @ @ @ @ @ @ @ @ @ @ @ @ @ @ @ @ @ @ @ @ @ @ @ @ @ @ @ @ @ @ @ @ @ @ @ @ @ @ @ @ @ @ @ @ @ @ @ @ @ @ @ @ @ @ @ @ @ @ @ @ @ @ @ @ @ @ @ @ @ @ @ @ @ @ @ @ @ @ @ @ @ @ @ @ @ @ @ @ @ @ @ @ @ @ @ @ @ @ @ @ @ @ @ @ @ @ @ @ @ @ @ @ @ @ @ @ @ @ @ @ @ @ ",
"5 5 5 5 5 5 5 5 5 5 5 5 5 5 5 5 5 5 5 5 5 5 5 5 5 5 5 5 5 5 5 5 5 5 5 5 5 5 5 5 5 5 5 5 5 5 5 5 5 5 5 5 5 5 5 5 5 5 5 5 5 5 5 5 5 5 5 5 5 5 5 5 5 5 5 5 5 5 5 5 5 5 5 5 5 5 5 5 5 5 5 5 5 5 5 5 5 5 5 5 5 5 5 5 5 5 5 5 5 5 5 5 5 5 5 5 5 5 5 5 5 5 5 5 5 5 5 5 5 5 5 5 5 5 5 5 5 5 5 5 5 5 5 5 5 5 5 5 5 5 5 5 5 5 5 5 5 5 5 5 5 5 5 5 5 5 5 5 5 5 5 5 5 5 5 5 5 5 5 5 5 5 5 5 5 5 5 5 5 5 5 5 5 5 5 5 5 5 5 5 5 5 5 5 5 5 5 5 5 5 5 5 5 5 5 5 5 5 5 5 5 5 5 5 5 5 5 5 5 5 5 5 5 5 5 5 5 5 5 5 5 5 5 5 5 5 5 5 5 5 5 5 5 5 5 5 ",
"5 5 5 5 5 5 5 5 5 5 5 5 5 5 5 5 5 5 5 5 5 5 5 5 5 5 5 5 5 5 5 5 5 5 5 5 5 5 5 5 5 5 5 5 5 5 5 5 5 5 5 5 5 5 5 5 5 5 5 5 5 5 5 5 5 5 5 5 5 5 5 5 5 5 5 5 5 5 5 5 5 5 5 5 5 5 5 5 5 5 5 5 5 5 5 5 5 5 5 5 5 5 5 5 5 5 5 5 5 5 5 5 5 5 5 5 5 5 5 5 5 5 5 5 5 5 5 5 5 5 5 5 5 5 5 5 5 5 5 5 5 5 5 5 5 5 5 5 5 5 5 5 5 5 5 5 5 5 5 5 5 5 5 5 5 5 5 5 5 5 5 5 5 5 5 5 5 5 5 5 5 5 5 5 5 5 5 5 5 5 5 5 5 5 5 5 5 5 5 5 5 5 5 5 5 5 5 5 5 5 5 5 5 5 5 5 5 5 5 5 5 5 5 5 5 5 5 5 5 5 5 5 5 5 5 5 5 5 5 5 5 5 5 5 5 5 5 5 5 5 5 5 5 5 5 5 ",
"5 5 5 5 5 5 5 5 5 5 5 5 5 5 5 5 5 5 5 5 5 5 5 5 5 5 5 5 5 5 5 5 5 5 5 5 5 5 5 5 5 5 5 5 5 5 5 5 5 5 5 5 5 5 5 5 5 5 5 5 5 5 5 5 5 5 5 5 5 5 5 5 5 5 5 5 5 5 5 5 5 5 5 5 5 5 5 5 5 5 5 5 5 5 5 5 5 5 5 5 5 5 5 5 5 5 5 5 5 5 5 5 5 5 5 5 5 5 5 5 5 5 5 5 5 5 5 5 5 5 5 5 5 5 5 5 5 5 5 5 5 5 5 5 5 5 5 5 5 5 5 5 5 5 5 5 5 5 5 5 5 5 5 5 5 5 5 5 5 5 5 5 5 5 5 5 5 5 5 5 5 5 5 5 5 5 5 5 5 5 5 5 5 5 5 5 5 5 5 5 5 5 5 5 5 5 5 5 5 5 5 5 5 5 5 5 5 5 5 5 5 5 5 5 5 5 5 5 5 5 5 5 5 5 5 5 5 5 5 5 5 5 5 5 5 5 5 5 5 5 5 5 5 5 5 5 ",
"5 5 5 5 5 5 5 5 5 5 5 5 5 5 5 5 5 5 5 5 5 5 5 5 5 5 5 5 5 5 5 5 5 5 5 5 5 5 5 5 5 5 5 5 5 5 5 5 5 5 5 5 5 5 5 5 5 5 5 5 5 5 5 5 5 5 5 5 5 5 5 5 5 5 5 5 5 5 5 5 5 5 5 5 5 5 5 5 5 5 5 5 5 5 5 5 5 5 5 5 5 5 5 5 5 5 5 5 5 5 5 5 5 5 5 5 5 5 5 5 5 5 5 5 5 5 5 5 5 5 5 5 5 5 5 5 5 5 5 5 5 5 5 5 5 5 5 5 5 5 5 5 5 5 5 5 5 5 5 5 5 5 5 5 5 5 5 5 5 5 5 5 5 5 5 5 5 5 5 5 5 5 5 5 5 5 5 5 5 5 5 5 5 5 5 5 5 5 5 5 5 5 5 5 5 5 5 5 5 5 5 5 5 5 5 5 5 5 5 5 5 5 5 5 5 5 5 5 5 5 5 5 5 5 5 5 5 5 5 5 5 5 5 5 5 5 5 5 5 5 5 5 5 5 5 5 ",
"5 5 5 5 5 5 5 5 5 5 5 5 5 5 5 5 5 5 5 5 5 5 5 5 5 5 5 5 5 5 5 5 5 5 5 5 5 5 5 5 5 5 5 5 5 5 5 5 5 5 5 5 5 5 5 5 5 5 5 5 5 5 5 5 5 5 5 5 5 5 5 5 5 5 5 5 5 5 5 5 5 5 5 5 5 5 5 5 5 5 5 5 5 5 5 5 5 5 5 5 5 5 5 5 5 5 5 5 5 5 5 5 5 5 5 5 5 5 5 5 5 5 5 5 5 5 5 5 5 5 5 5 5 5 5 5 5 5 5 5 5 5 5 5 5 5 5 5 5 5 5 5 5 5 5 5 5 5 5 5 5 5 5 5 5 5 5 5 5 5 5 5 5 5 5 5 5 5 5 5 5 5 5 5 5 5 5 5 5 5 5 5 5 5 5 5 5 5 5 5 5 5 5 5 5 5 5 5 5 5 5 5 5 5 5 5 5 5 5 5 5 5 5 5 5 5 5 5 5 5 5 5 5 5 5 5 5 5 5 5 5 5 5 5 5 5 5 5 5 5 5 5 5 5 5 5 ",
"5 5 5 5 5 5 5 5 5 5 5 5 5 5 5 5 5 5 5 5 5 5 5 5 5 5 5 5 5 5 5 5 5 5 5 5 5 5 5 5 5 5 5 5 5 5 5 5 5 5 5 5 5 5 5 5 5 5 5 5 5 5 5 5 5 5 5 5 5 5 5 5 5 5 5 5 5 5 5 5 5 5 5 5 5 5 5 5 5 5 5 5 5 5 5 5 5 5 5 5 5 5 5 5 5 5 5 5 5 5 5 5 5 5 5 5 5 5 5 5 5 5 5 5 5 5 5 5 5 5 5 5 5 5 5 5 5 5 5 5 5 5 5 5 5 5 5 5 5 5 5 5 5 5 5 5 5 5 5 5 5 5 5 5 5 5 5 5 5 5 5 5 5 5 5 5 5 5 5 5 5 5 5 5 5 5 5 5 5 5 5 5 5 5 5 5 5 5 5 5 5 5 5 5 5 5 5 5 5 5 5 5 5 5 5 5 5 5 5 5 5 5 5 5 5 5 5 5 5 5 5 5 5 5 5 5 5 5 5 5 5 5 5 5 5 5 5 5 5 5 5 5 5 5 5 5 ",
"5 5 5 5 5 5 5 5 5 5 5 5 5 5 5 5 5 5 5 5 5 5 5 5 5 5 5 5 5 5 5 5 5 5 5 5 5 5 5 5 5 5 5 5 5 5 5 5 5 5 5 5 5 5 5 5 5 5 5 5 5 5 5 5 5 5 5 5 5 5 5 5 5 5 5 5 5 5 5 5 5 5 5 5 5 5 5 5 5 5 5 5 5 5 5 5 5 5 5 5 5 5 5 5 5 5 5 5 5 5 5 5 5 5 5 5 5 5 5 5 5 5 5 5 5 5 5 5 5 5 5 5 5 5 5 5 5 5 5 5 5 5 5 5 5 5 5 5 5 5 5 5 5 5 5 5 5 5 5 5 5 5 5 5 5 5 5 5 5 5 5 5 5 5 5 5 5 5 5 5 5 5 5 5 5 5 5 5 5 5 5 5 5 5 5 5 5 5 5 5 5 5 5 5 5 5 5 5 5 5 5 5 5 5 5 5 5 5 5 5 5 5 5 5 5 5 5 5 5 5 5 5 5 5 5 5 5 5 5 5 5 5 5 5 5 5 5 5 5 5 5 5 5 5 5 5 ",
"5 5 5 5 5 5 5 5 5 5 5 5 5 5 5 5 5 5 5 5 5 5 5 5 5 5 5 5 5 5 5 5 5 5 5 5 5 5 5 5 5 5 5 5 5 5 5 5 5 5 5 5 5 5 5 5 5 5 5 5 5 5 5 5 5 5 5 5 5 5 5 5 5 5 5 5 5 5 5 5 5 5 5 5 5 5 5 5 5 5 5 5 5 5 5 5 5 5 5 5 5 5 5 5 5 5 5 5 5 5 5 5 5 5 5 5 5 5 5 5 5 5 5 5 5 5 5 5 5 5 5 5 5 5 5 5 5 5 5 5 5 5 5 5 5 5 5 5 5 5 5 5 5 5 5 5 5 5 5 5 5 5 5 5 5 5 5 5 5 5 5 5 5 5 5 5 5 5 5 5 5 5 5 5 5 5 5 5 5 5 5 5 5 5 5 5 5 5 5 5 5 5 5 5 5 5 5 5 5 5 5 5 5 5 5 5 5 5 5 5 5 5 5 5 5 5 5 5 5 5 5 5 5 5 5 5 5 5 5 5 5 5 5 5 5 5 5 5 5 5 5 5 5 5 5 5 ",
"5 5 5 5 5 5 5 5 5 5 5 5 5 5 5 5 5 5 5 5 5 5 5 5 5 5 5 5 5 5 5 5 5 5 5 5 5 5 5 5 5 5 5 5 5 5 5 5 5 5 5 5 5 5 5 5 5 5 5 5 5 5 5 5 5 5 5 5 5 5 5 5 5 5 5 5 5 5 5 5 5 5 5 5 5 5 5 5 5 5 5 5 5 5 5 5 5 5 5 5 5 5 5 5 5 5 5 5 5 5 5 5 5 5 5 5 5 5 5 5 5 5 5 5 5 5 5 5 5 5 5 5 5 5 5 5 5 5 5 5 5 5 5 5 5 5 5 5 5 5 5 5 5 5 5 5 5 5 5 5 5 5 5 5 5 5 5 5 5 5 5 5 5 5 5 5 5 5 5 5 5 5 5 5 5 5 5 5 5 5 5 5 5 5 5 5 5 5 5 5 5 5 5 5 5 5 5 5 5 5 5 5 5 5 5 5 5 5 5 5 5 5 5 5 5 5 5 5 5 5 5 5 5 5 5 5 5 5 5 5 5 5 5 5 5 5 5 5 5 5 5 5 5 5 5 5 ",
"5 5 5 5 5 5 5 5 5 5 5 5 5 5 5 5 5 5 5 5 5 5 5 5 5 5 5 5 5 5 5 5 5 5 5 5 5 5 5 5 5 5 5 5 5 5 5 5 5 5 5 5 5 5 5 5 5 5 5 5 5 5 5 5 5 5 5 5 5 5 5 5 5 5 5 5 5 5 5 5 5 5 5 5 5 5 5 5 5 5 5 5 5 5 5 5 5 5 5 5 5 5 5 5 5 5 5 5 5 5 5 5 5 5 5 5 5 5 5 5 5 5 5 5 5 5 5 5 5 5 5 5 5 5 5 5 5 5 5 5 5 5 5 5 5 5 5 5 5 5 5 5 5 5 5 5 5 5 5 5 5 5 5 5 5 5 5 5 5 5 5 5 5 5 5 5 5 5 5 5 5 5 5 5 5 5 5 5 5 5 5 5 5 5 5 5 5 5 5 5 5 5 5 5 5 5 5 5 5 5 5 5 5 5 5 5 5 5 5 5 5 5 5 5 5 5 5 5 5 5 5 5 5 5 5 5 5 5 5 5 5 5 5 5 5 5 5 5 5 5 5 5 5 5 5 5 ",
"5 5 5 5 5 5 5 5 5 5 5 5 5 5 5 5 5 5 5 5 5 5 5 5 5 5 5 5 5 5 5 5 5 5 5 5 5 5 5 5 5 5 5 5 5 5 5 5 5 5 5 5 5 5 5 5 5 5 5 5 5 5 5 5 5 5 5 5 5 5 5 5 5 5 5 5 5 5 5 5 5 5 5 5 5 5 5 5 5 5 5 5 5 5 5 5 5 5 5 5 5 5 5 5 5 5 5 5 5 5 5 5 5 5 5 5 5 5 5 5 5 5 5 5 5 5 5 5 5 5 5 5 5 5 5 5 5 5 5 5 5 5 5 5 5 5 5 5 5 5 5 5 5 5 5 5 5 5 5 5 5 5 5 5 5 5 5 5 5 5 5 5 5 5 5 5 5 5 5 5 5 5 5 5 5 5 5 5 5 5 5 5 5 5 5 5 5 5 5 5 5 5 5 5 5 5 5 5 5 5 5 5 5 5 5 5 5 5 5 5 5 5 5 5 5 5 5 5 5 5 5 5 5 5 5 5 5 5 5 5 5 5 5 5 5 5 5 5 5 5 5 5 5 5 5 5 "
};
