/* XPM */
static char *sc_deesser_mono[] = {
/* columns rows colors chars-per-pixel */
"256 256 256 2 ",
"   c #030303",
".  c #0C0202",
"X  c #07080E",
"o  c #0C0C0C",
"O  c #060807",
"+  c #120101",
"@  c #170706",
"#  c #081607",
"$  c #0A0B11",
"%  c #060B16",
"&  c #140C15",
"*  c #0D1316",
"=  c #131313",
"-  c #14151B",
";  c #1B151C",
":  c #16191D",
">  c #1B1B1C",
",  c #191915",
"<  c #13150D",
"1  c #2D0D0D",
"2  c #250607",
"3  c #2C1313",
"4  c #281A1A",
"5  c #341414",
"6  c #3B1515",
"7  c #361919",
"8  c #3A1B1B",
"9  c #371817",
"0  c #30140D",
"q  c #192418",
"w  c #072F18",
"e  c #24251C",
"r  c #3A271A",
"t  c #303417",
"y  c #1B1C22",
"u  c #1B1A26",
"i  c #1C1D35",
"p  c #1D1E3A",
"a  c #0C1725",
"s  c #231C24",
"d  c #36192F",
"f  c #1E2125",
"g  c #1B2C2C",
"h  c #162828",
"j  c #1A3434",
"k  c #132F2F",
"l  c #232323",
"z  c #24252A",
"x  c #2B2B2B",
"c  c #272928",
"v  c #3D2222",
"b  c #332727",
"n  c #353629",
"m  c #272931",
"M  c #2B2C32",
"N  c #292630",
"B  c #2F3135",
"V  c #243737",
"C  c #333333",
"Z  c #393A36",
"A  c #3B3B3B",
"S  c #353639",
"D  c #2A322A",
"F  c #471716",
"G  c #571B19",
"H  c #4B0E0E",
"J  c #6F1917",
"K  c #48261B",
"L  c #582618",
"P  c #4B3013",
"I  c #68291A",
"U  c #4C1C2A",
"Y  c #442424",
"T  c #442A2A",
"R  c #4B2C2C",
"E  c #482725",
"W  c #582824",
"Q  c #493434",
"!  c #563737",
"~  c #4D3528",
"^  c #6B3329",
"/  c #6E1636",
"(  c #3A4515",
")  c #025925",
"_  c #104E2D",
"`  c #364A30",
"'  c #006829",
"]  c #00732E",
"[  c #057A35",
"{  c #0F6B37",
"}  c #155629",
"|  c #4B5512",
" . c #546900",
".. c #53660B",
"X. c #464538",
"o. c #4F4D2B",
"O. c #674A2E",
"+. c #5F6E25",
"@. c #1D1E50",
"#. c #133948",
"$. c #3C3D42",
"%. c #3E2B50",
"&. c #2D195C",
"*. c #4B1652",
"=. c #5B1565",
"-. c #6A1772",
";. c #682771",
":. c #5A265C",
">. c #124656",
",. c #3A4446",
"<. c #31534A",
"1. c #10566E",
"2. c #096464",
"3. c #187174",
"4. c #2C7573",
"5. c #276D51",
"6. c #4A4B4C",
"7. c #444548",
"8. c #4C4D52",
"9. c #525355",
"0. c #5B5B5D",
"q. c #55565A",
"w. c #514F4E",
"e. c #694C4C",
"r. c #5E5F63",
"t. c #505363",
"y. c #4E4C6A",
"u. c #566667",
"i. c #636466",
"p. c #696B6D",
"a. c #65666A",
"s. c #6E6F71",
"d. c #6F7072",
"f. c #717274",
"g. c #75767A",
"h. c #7A7B7F",
"j. c #77787B",
"k. c #737067",
"l. c #566A4E",
"z. c #901818",
"x. c #B01918",
"c. c #903129",
"v. c #AF2F27",
"b. c #A1261D",
"n. c #CF1919",
"m. c #FC1919",
"M. c #E81818",
"N. c #D2221D",
"B. c #EE211E",
"V. c #D02E27",
"C. c #EE2E26",
"Z. c #EA1E27",
"A. c #9C5531",
"S. c #E05333",
"D. c #A01355",
"F. c #F8066D",
"G. c #CF0F60",
"H. c #8F706F",
"J. c #9C6352",
"K. c #DD6759",
"L. c #028637",
"P. c #00973C",
"I. c #00A13F",
"U. c #758E18",
"Y. c #739027",
"T. c #0B9344",
"R. c #02A745",
"E. c #01B74A",
"W. c #0CB753",
"Q. c #319551",
"!. c #5E935D",
"~. c #00C54E",
"^. c #03CE54",
"/. c #01FB69",
"(. c #12DB5F",
"). c #71D16A",
"_. c #97A320",
"`. c #A9D009",
"'. c #DAEC02",
"]. c #A49758",
"[. c #DDA55D",
"{. c #F6D072",
"}. c #E7D577",
"|. c #AEB34E",
" X c #761C88",
".X c #0D7091",
"XX c #0B7DA3",
"oX c #386DA0",
"OX c #7C7D81",
"+X c #505F90",
"@X c #2A2BD3",
"#X c #91149A",
"$X c #9A12A6",
"%X c #A50EB7",
"&X c #9B24A4",
"*X c #A424A4",
"=X c #972198",
"-X c #BB19C9",
";X c #B405CA",
":X c #AE2ED3",
">X c #D60CE3",
",X c #C943B7",
"<X c #1C9A9B",
"1X c #249898",
"2X c #0989B2",
"3X c #28A59D",
"4X c #619892",
"5X c #0698C7",
"6X c #09A7D8",
"7X c #08B6EC",
"8X c #2DA1E8",
"9X c #09CCFD",
"0X c #37D3D3",
"qX c #7AEEED",
"wX c #63DBD5",
"eX c #5AD2B2",
"rX c #878789",
"tX c #929495",
"yX c #999A9C",
"uX c #989596",
"iX c #948E90",
"pX c #A98989",
"aX c #A29495",
"sX c #B69798",
"dX c #B38E8C",
"fX c #9E9EA1",
"gX c #9FA0A4",
"hX c #9EB5B5",
"jX c #A3A3A4",
"kX c #ABABAC",
"lX c #A6A7A9",
"zX c #B2B3B5",
"xX c #BCBDBD",
"cX c #B6B7B9",
"vX c #B2AEAE",
"bX c #9EA696",
"nX c #D7B8B8",
"mX c #CBAAAA",
"MX c #DBA49F",
"NX c #DBD2A1",
"BX c #BDBEC1",
"VX c #8AFDFD",
"CX c #8FF6F5",
"ZX c #9DDAD0",
"AX c #C4C4C4",
"SX c #C5C6C9",
"DX c #CACBCB",
"FX c #D6D0D0",
"GX c #E7C8C8",
"HX c #F6D7D7",
"JX c #EFD1D1",
"KX c #E5E6E8",
"LX c #FEE6E6",
"PX c #F5F4F6",
"IX c #DEDFE1",
"UX c #A5DBA5",
/* pixels */
"y y y y y y y y y y y y y y y y y y y y y y y y y y y y y y y y y y y y y y y y y y y y y y y y y y y y y y y y y y y y y y y y y y y y y y y y y y y y y y y y y y y y y y y y y y y y y y y y y y y y y y y y y y y y y y y y y y y y y y y y y y y y y y y y y y y y y y y y y y y y y y y y y y y y y y y y y y y y y y y y y y y y y y y y y y y y y y y y y y y y y y y y y y y y y y y y y y y y y y y y y y y y y y y y y y y y y y y y y y y y y y y y y y y y y y y y y y y y y y y y y y y y y y y y y y y y y y y y ",
"y y y y y y y y y y y y y y y y y y y y y y y y y y y y y y y y y y y y y y y y y y y y y y y y y y y y y y y y y y y y y y y y y y y y y y y y y y y y y y y y y y y y y y y y y y y y y y y y y y y y y y y y y y y y y y y y y y y y y y y y y y y y y y y y y y y y y y y y y y y y y y y y y y y y y y y y y y y y y y y y y y y y y y y y y y y y y y y y y y y y y y y y y y y y y y y y y y y y y y y y y y y y y y y y y y y y y y y y y y y y y y y y y y y y y y y y y y y y y y y y y y y y y y y y y y y y y y y y ",
"y y y y y y y y y y y y y y y y y y y y y y y y y y y y y y y y y y y y y y y y y y y y y y y y y y y y y y y y y y y y y y y y y y y y y y y y y y y y y y y y y y y y y y y y y y y y y y y y y y y y y y y y y y y y y y y y y y y y y y y y y y y y y y y y y y y y y y y y y y y y y y y y y y y y y y y y y y y y y y y y y y y y y y y y y y y y y y y y y y y y y y y y y y y y y y y y y y y y y y y y y y y y y y y y y y y y y y y y y y y y y y y y y y y y y y y y y y y y y y y y y y y y y y y y y y y y y y y y ",
"y y y y y y y y y y y y y y y y y y y y y y y y y y y y y y y y y y y y y y y y y y y y y y y y y y y y y y y y y y y y y y y y y y y y y y y y y y y y y y y y y y y y y y y y y y y y y y y y y y y y y y y y y y y y y y y y y y y y y y y y y y y y y y y y y y y y y y y y y y y y y y y y y y y y y y y y y y y y y y y y y y y y y y y y y y y y y y y y y y y y y y y y y y y y y y y y y y y y y y y y y y y y y y y y y y y y y y y y y y y y y y y y y y y y y y y y y y y y y y y - - - : : y y - - $ y y - : y y $ ",
"y y y y y y y y y y y y y y y y y y y y y y y y y y y y y y y y y y y y y y y y y y y y y y y y y y y y y y y y y y y y y y y y y y y y y y y y y y y y y y y y y y y y y y y y y y y y y y y y y y y y y y y y y y y y y y y y y y y y y y y y y y y y y y y y y y y y y y y y y y y y y y y y y y y y y y y y y y y y y y y y y y y y y y y y y y y y y y y y y y y y y y y y y y y y y y y y y y y y y y y y y y y y y y y y y y y y y y y y y y y y y y y y y y y y y y y y y y y y y y - ,.yXrX$.jXi.M fXfXd.- A fXfXq.: rX",
"y y y y y y y y y y y y y y y y y y y y y y y y y y y y y y y y y y y y y y y y y y y y y y y y y y y y y y y y y y y y y y y y y y y y y y y y y y y y y y y y y y y y y y y y y y y y y y y y y y y y y y y y y y y y y y y y y y y y y y y y y y y y y y y y y y y y y y y y y y y y y y y y y y y y y y y y y y y y y y y y y y y y y y y y y y y y y y y y y y y y y y y y y y y y y y y y y y y y y y y y y y y y y y y y y y y y y y y y y y y y y y y y y y y y y y y y y y y y y y $ lXOXB z kX6.7.zXx zXr.6.zXA f rXtX",
"y y y y y y y y y y y y y y y y y y y y y y y y y y y y y y y y y y y y y y y y y y y y y y y y y y y y y y y y y y y y y y y y y y y y y y y y y y y y y y y y y y y y y y y y y y y y y y y y y y y y y y y y y y y y y y y y y y y y y y y y y y y y y y y y y y y y y y y y y y y y y y y y y y y y y y y y y y y y y y y y y y y y y y y y y y y y y y y y y y y y y y y y y y y y y y y y y y y y y y y y y y y y y y y y y y y y y y y y y y y y y y y y y y y y y y y y y y y y y y - 9.zXp.= fX$.7.fX  0.tX$.SXyX7.lXS ",
"y y y y y y y y y y y y y y y y y y y y y y y y y y y y y y y y y y y y y y y y y y y y y y y y y y y y y y y y y y y y y y y y y y y y y y y y y y y y y y y y y y y y y y y y y y y y y y y y y y y y y y y y y y y y y y y y y y y y y y y y y y y y y y y y y y y y y y y y y y y y y y y y y y y y y y y y y y y y y y y y y y y y y y y y y y y y y y y y y y y y y y y y y y y y y y y y y y y y y y y y y y y y y y y y y y y y y y y y y y y y y y y y y y y y y y y y y y y y y y y - f AX6.tX$.7.jX  tXj.7.fX* = lXi.",
"y y y y y y y y y y y y y y y y y y y y y y y y y y y y y y y y y y y y y y y y y y y y y y y y y y y y y y y y y y y y y y y y y y y y y y y y y y y y y y y y y y y y y y y y y y y y y y y y y y y y y y y y y y y y y y y y y y y y y y y y y y y y y y y y y y y y y y y y y y y y y y y y y y y y y y y y y y y y y y y y y y y y y y y y y y y y y y y y y y y y y y y y y y y y y y y y y y y y y y y y y y y y y y y y y y y y y y y y y y y y y y y y y y y y y y y y y y y y y y : OXgXyX7.AXp.A SXfXlXf 7.AXfX8.$.zX",
"y y y y y y y y y y y y y y y y y y y y y y y y y y y y y y y y y y y y y y y y y y y y y y y y y y y y y y y y y y y y y y y y y y y y y y y y y y y y y y y y y y y y y y y y y y y y y y y y y y y y y y y y y y y y y y y y y y y y y y y y y y y y y y y y y y y y y y y y y y y y y y y y y y y y y y y y y y y y y y y y y y y y y y y y y y y y y y y y y y y y y y y y y y y y y y y y y y y y y y y y y y y y y y y y y y y y y y y y y y y y y y y y y y y y y y y y y y y y y y y z A y y S M y B S : : y B $.m - z ",
"y y y y y y y y y y y y y y y y y y y y y y y y y y y y y y y y y y y y y y y y y y y y y y y y y y y y y y y y y y y y y y y y y y y y y y y y y y y y y y y y y y y y y y y y y y y y y y y y y y y y y y y y y y y y y y y y y y y y y y y y y y y y y y y y y y y y y y y y y y y y y y y y y y y y y y y y y y y y y y y y y y y y y y y y y y y y y y y y y y y y y y y y y y y y y y y y y y y y y y y y y y y y y y y y y y y y y y y y y y y y y y y y y y y y y y y y y y y y y y y : - y y - : y : - y y y : - : y y ",
"y y y y y y y y y y y y y y y y y y y y y y y y y y y y y y y y y y y y y y y y y y y y y y y y y y y y y y y y y y y y y y y y y y y y y y y y y y y y y y y y y y y y y y y y y y y y y y y y y y y y y y y y y y y y y y y y y y y y y y y y y y y y y y y y y y y y y y y y y y y y y y y y y y y y y y y y y y y y y y y y y y y y y y y y y y y y y y y y y y y y y y y y y y y y y y y y y y y y y y y y y y y y y y y y y y y y y y y y y y y y y y y y y y y y y y y y y y y y y y y y y y y y y y y y y y y y y y y y ",
"y y y y y y y y y y y y y y y y y y y y y y y y y y y y y y y y y y y y y y y y y y y y y y y y y y y y y y y y y y y y y y y y y y y y y y y y y y y y y y y y y y y y y y y y y y y y y y y y y y y y y y y y y y y y y y y y y y y y y y y y y y y y y y y y y y y y y y y y y y y y y y y y y y y y y y y y y y y y y y y y y y y y y y y y y y y y y y y y y y y y y y y y y y y y y y y y y y y y y y y y y y y y y y y y y y y y y y y y y y y y y y y y y y y y y y y y y y y y y y y y y y y y y y y y y y y y y y y y ",
"y y y y y y y y y y y y y y y y y y y y y y y y y y y y y y y y y y y y y y y y y y y y y y y y y y y y y y y y y y y y y y y y y y y y y y y y y y y y y y y y y y y y y y y y y y y y y y y y y y y y y y y y y y y y y y y y y y y y y y y y y y y y y y y y y y y y y y y y y y y y y y y y y y y y y y y y y y y > y y y y y y y y y y y y y y y y y y y y y y y y y y y y y y y y y y y - - y y y y f y y y y y y : y y y y y y y y y y y y y y y y y y : y y y y y y y y y y y y y y y y y y y y y y y y y y y y y y y y ",
"y y y y y y y y y y y y y y y y y y y y y y y y y y y y y y y y y y y y y y y y y y y y y y y y y y y y y y y y y y y y y y y y y y y y y y y y y y y y y y y y y y y y y y y y y y y y y y y y y y y y y y y y y y y y y y y y y y y y y y y y y y y y y y y y y y y y y y y y y y y y y y y y y y y y y y y y y y y g y y y y y y y y y y y y y y y y y y y y y y y y y y y y y y y y y y z q.q.l - - z r.- : : y - - S f y y - - : : - y : : : : : y : - z C : y y y y y y y y y y y y y y y y y y y y y y y y y y y y y y y ",
"y y y y y y y y y y y y y y y y y y y y y y y y y y y y y y y y y y y y y y y y y y y y y y y y y y y y y y y y y y y y y y y y y y y y y y y y y y y y y y y y y y y y y y y y y y y y y y y y y y y y y y y y y y y y y y y y y y y y y y y y y y y y y y y y y y y y y y y y y y y y y y y y y y y y y y y y y > >.#.> y y y y y y y y y y y y y y y y y y y y y y y y y y y y y y y y = q.r.z l 6.q.S r.M r.$.z i.8.rX0.- M 0.i.M $.r.S 8.9.M 0.8.z q.7.q.rXM : y y y y y y y y y y y y y y y y y y y y y y y y y y y y y y ",
"y y y y y y y y y y y y y y y y y y y y y y y y y y y y y y y y y y y y y y y y y y y y y y y y y y y y y y y y y y y y y y y y y y y y y y y y y y y y y y y y y y y y y y y y y y y y y y y y y y y y y y y y y y y y y y y y y y y y y y y y y y y y y y y y y y y y y y y y y y y y y y y y y y y y y y y y ; >.>., y y y y y y y y y y y y y y y y y y y y y y y y y y y y y y y y y : M s.,.$.f.p.p.q.p.i.g.p.7.f a.M - $.p.S r.i.6.6.s.s.s.p.z 0.p.f.i.9.: y y y y y y y y y y y y y y y y y y y y y y y y y y y y y y y ",
"y y y y y y y y y y y y y y y y y y y y y y y y y y y y y y y y y y y y y y y y y y y y y y y y y y y y y y y y y y y y y y y y y y y y y y y y y y y y y y y y y y y y y y y y y y y y y y y y y y y y y y y y y y y y y y y y y y y y y y y y y y y y y y y y y y y y y y y y y y y y y y y y y y y y y y y y > g 1.k > y y y y y y y y y y y y y y y y y y y y y y y y y y y y y y y y y : - i.s.a.C $.r.f.6.M p.M $ a.z = A 0.y i.r.x 9.i.S z A i.s.q.M 6.9.= y y y y y y y y y y y y y y y y y y y y y y y y y y y y y y y ",
"y y y y y y y y y y y y y y y y y y y y y y y y y y y y y y y y y y y y y y y y y y y y y y y y y y y y y y y y y y y y y y y y y y y y y y y y y y y y y y y y y y y y y y y y y y y y y y y y y y y y y y y y y y y y y y y y y y y y y y y y y y y y y y y y y y y y y y y y y y y y y y y y y y y y y y y y y ; k #.> y y y y y y y y y y y y y y y y y y y y y y y y y y y y y y y y : $.r.r.C r.q.$.q.7.a.,.$.d.,.q.0.- S h.a.7.9.S m a.8.$.q.r.$.i.6.S s.M : y y y y y y y y y y y y y y y y y y y y y y y y y y y y y y ",
"y y y y y y y y y y y y y y y y y y y y y y y y y y y y y y y y y y y y y y y y y y y y y y y y y y y y y y y y y y y y y y y y y y y y y y y y y y y y y y y y y y y y y y y y y y y y y y y y y y y y y y y y y y y y y y y y y y y y y y y y y y y y y y y y y y y y y y y y y y y y y y y y y y y y y y y y y y > ; y y y y y y y y y y y y y y y y y y y y y y y y y y y y y y y y y y y M l - y M y y : x m : z z y m - A r.y y y y : z M y M y - z m y z z y y y y y y y y y y y y y y y y y y y y y y y y y y y y y y y ",
"y y y y y y y y y y y y y y y y y y y y y y y y y y y y y y y y y y y y y y y y y y y y y y y y y y y y y y y y y y y y y y y y y y y y y y y y y y y y y y y y y y y y y y y y y y y y y y y y y y y y y y y y y y y y y y y y y y y y y y y y y y y y y y y y y y y y y y y y y y y y y y y y y y y y y y y y y y y y y y y y y y y y y y y y y y y y y y y y y y y y y y y y y y y y y y y : y y y : y y y : : y : y y y - S 6.- y y y y y : y : y y y : y y y y y y y y y y y y y y y y y y y y y y y y y y y y y y y y y y ",
"f f f f f f f f f f f f f f f f f f f f f f f f f f f f f f f f f f f f f f f f f f f f f f f f f f f f f f f f f f f f f f f f f f f f f f f f f f f f f f f f f f f f f f f f f f f f f f f f f f f f f f f f f f f f f f f f f f f f f f f f f f f f f f f f f f f f f f f f f f f f f f f f f f f f f f f f f f f f f f f f f f f f f f f f f f f f f f f f f f f f f f f f f f f f f f f f f f f f f f f f f f f f f f f y y l f f f f f f f f f f f f f f f f f f f f f f f f f f f f f f f f f f f f f f f f f f f f f f ",
"X X X X X X X X X X X X X X X X X X X X X X X X X X X X X X X X X X X X X X X X X X X X X X X X X X X X X X X X X X X X X X X X X X X X X X X X X X X X X X X X X X X X X X X X X X X X X X X X X X X X X X X X X X X X X X X X X X X X X X X X X X X X X X X X X X X X X X X X X X X X X X X X X X X X X X X X X X X X X X X X X X X X X X X X X X X X X X X X X X X X X X X X X X X X X X X X X X X X X X X X X X X X X X X X X X X X X X X X X X X X X X X X X X X X X X X X X X X X X X X X X X X X X X X X X X X X X X X X ",
"yXyXyXyXyXyXyXyXyXyXyXyXyXyXyXyXyXyXyXyXyXyXyXyXyXyXyXyXyXyXyXyXyXyXyXyXyXyXyXyXyXyXyXyXyXyXyXyXyXyXyXyXyXyXyXyXyXyXyXyXyXyXyXyXyXyXyXyXyXyXyXyXyXyXyXyXyXyXyXyXyXyXyXyXyXyXyXyXyXyXyXyXyXyXyXyXyXyXyXyXyXyXyXyXyXyXyXyXyXyXyXyXyXyXyXyXyXyXyXyXyXyXyXyXyXyXyXyXyXyXyXyXyXyXyXyXyXyXyXyXyXyXyXyXyXyXyXyXyXyXyXyXyXyXyXyXyXyXyXyXyXyXyXyXyXyXyXyXyXyXyXyXyXyXyXyXyXyXyXyXyXyXyXyXyXyXyXyXyXyXyXyXyXyXyXyXyXyXyXyXyXyXyXyXyXyXyXyXyXyXyXyXyXyXyXyXyXyXyXyXyXyXyXyXyXyXyXyXyXyXyXyXyXyXyXyXyXyXyXyXyXyXyXyXyXyXyXyXyXyXyXyXyXyXyXyX",
"h.h.h.h.h.h.h.h.h.h.h.h.h.h.h.h.h.h.h.h.h.h.h.h.h.h.h.h.h.h.h.h.h.h.h.h.h.h.h.h.h.h.h.h.h.h.h.h.h.h.h.h.h.h.h.h.h.h.h.h.h.h.h.h.h.h.h.h.h.h.h.h.h.h.h.h.h.h.h.h.h.h.h.h.h.h.h.h.h.h.h.h.h.h.h.h.h.h.h.h.h.h.h.h.h.h.h.h.h.h.h.h.h.h.h.h.h.h.h.h.h.h.h.h.h.h.h.h.h.h.h.h.h.h.h.h.h.h.h.h.h.h.h.h.h.h.h.h.h.h.h.h.h.h.h.h.h.h.h.h.h.h.h.h.h.h.h.h.h.h.h.h.h.h.h.h.h.h.h.h.h.h.h.h.h.h.h.h.h.h.h.h.h.h.h.h.h.h.h.h.h.h.h.h.h.h.h.h.h.h.h.h.h.h.h.h.h.h.h.h.h.h.h.h.h.h.h.h.h.h.h.h.h.h.h.h.h.h.h.h.h.h.h.h.h.h.h.h.h.h.h.h.h.h.h.h.",
"$ $ $ $ $ $ $ $ $ $ $ $ $ $ $ $ $ $ $ $ $ $ $ $ $ $ $ $ $ $ $ $ $ $ $ $ $ $ $ $ $ $ $ $ $ $ $ $ $ $ $ $ $ $ $ $ $ $ $ $ $ $ $ $ $ $ $ $ $ $ $ $ $ $ $ $ $ $ $ $ $ $ $ $ $ $ $ $ $ $ $ $ $ $ $ $ $ $ $ $ $ $ $ $ $ $ $ $ $ $ $ $ $ $ $ $ $ $ $ $ $ $ $ $ $ $ $ $ $ $ $ $ $ $ $ $ $ $ $ $ $ $ $ $ X $ $ $ $ $ $ $ $ $ $ $ $ $ $ $ $ $ $ $ $ $ $ $ $ $ $ $ $ $ $ $ $ $ $ $ $ $ $ $ $ $ $ $ $ $ $ $ $ $ $ $ $ $ $ $ $ $ $ $ $ $ $ $ $ $ $ $ $ $ $ $ $ $ $ $ $ $ $ $ $ $ $ $ $ $ $ $ $ $ $ $ $ $ $ $ $ $ $ $ $ $ $ $ $ $ $ $ $ $ $ $ ",
"y y y y y y y y y y y y y y y y y y y y y y y y y y y y y y y y y y y y y y y y y y y y y y y y y y y y y y y y y y y y y y y y y y y y y y y y y y y y y y y y y y y y y y y y y y y y y y y y y y y y y y y y y y y y y y y y y y y y y y y y y y y y y y y y y y y y y y y y y y y y y y y y y y y y y y y y y y y y y y y f f y y y y y y y f l f f l f f l f y f y f y f f f l f f f y f f y f f f f y y y y y y y y y y y y y y y y y y y y y y y y y y y y y y y y y y y y y y y y y y y y y y y y y y y y y y y y y y y ",
"y y y y y y y y y y y y y y y y y y y y y y y y y y y y y y y y y y y y y y y y y y y y y y y y y y y y y y y y y y y y y y y y y y y y y y y y y y y y y y y y y y y y y y y y y y y y y y y y y y y y y y y y y y y y y y y y y y y y y y y y y y y y y y y y y y y y y y y y y y m x y x M y y y y y y y y y y y y y y y y y : y y y y y y y y - : y - - : - : y : y : y : - - - - - : y - : y : y y y y y y y y y y y y y y y y y y y y y y y y y y y y y y y y y y y y y y y y y y y y y y y y y y y y y y y y y y y y y y ",
"y y y y y y y y y y y y y y y y y y y y y y y y y y y y y y y y y y y y y y y y y y y y y y y y y y y y y y y y y y y y y y y y y y y y y y y y y y y y y y y y y y y y y y y y y y y y y y y y y y y y y y y y y y y y y y y y y y y y y y y y y y y y y y y y y y y y y y y y : C a.i.yXr.r.6.- y y y y y y y y y - : y y y l m y y y y y y y z 7.z y $.S m ,.z : z y z : m $.S A A S M : A B - x y f z y y y y y y y y y y y y y y y y y y y y y y y y y y y y y y y y y y y y y y y y y y y y y y y y y y y y y y y y y y y ",
"y y y y y y y y y y y y y y y y y y y y y y y y y y y y y y y y y y y y y y y y y y y y y y y y y y y y y y y y y y y y y y y y y y y y y y y y y y y y y y y y y y y y y y y y y y y y y y y y y y y y y y y y y y y y y y y y y y y y y y y y y y y y y y y y y y y y y y y y : C p.tXg.tX8.6.- y y y y y y y y y q.s.$.: y y M - y : y y y = 0.p.i.9.g.M p.a.p.7.a.= a.7.d.q.6.rXr.p.q.8.a.s.B j.r.C q.- y y y y y y y y y y y y y y y y y y y y y y y y y y y y y y y y y y y y y y y y y y y y y y y y y y y y y y y y y y ",
"y y y y y y y y y y y y y y y y y y y y y y y y y y y y y y y y y y y y y y y y y y y y y y y y y y y y y y y y y y y y y y y y y y y y y y y y y y y y y y y y y y y y y y y y y y y y y y y y y y y y y y y y y y y y y y y y y y y y y y y y y y y y y y y y y y y y y y y y : z zX6.  q.tX$.- y y y y y y y - 8.i.z f A a.7.7.q.g.8.- y y = 0.p.r.9.f.x a.z $.f.i.- r.g.$.$ $ 0.x 7.8.s.- C a.q.OX9.8.- y y y y y y y y y y y y y y y y y y y y y y y y y y y y y y y y y y y y y y y y y y y y y y y y y y y y y y y y y y ",
"y y y y y y y y y y y y y y y y y y y y y y y y y y y y y y y y y y y y y y y y y y y y y y y y y y y y y y y y y y y y y y y y y y y y y y y y y y y y y y y y y y y y y y y y y y y y y y y y y y y y y y y y y y y y y y y y y y y y y y y y y y y y y y y y y y y y y y y y : x tXOXz iXtX$.- y y y y y y y = a.C 7.a.C f.f.q.p.S s.: y y = q.OXr.7.s.y a.z 7.s.i.$ a.d.7.$ - i.S 6.6.s.y S a.q.7.tX9.- y y y y y y y y y y y y y y y y y y y y y y y y y y y y y y y y y y y y y y y y y y y y y y y y y y y y y y y y y y ",
"y y y y y y y y y y y y y y y y y y y y y y y y y y y y y y y y y y y y y y y y y y y y y y y y y y y y y y y y y y y y y y y y y y y y y y y y y y y y y y y y y y y y y y y y y y y y y y y y y y y y y y y y y y y y y y y y y y y y y y y y y y y y y y y y y y y y y y y y - S 9.s.uXcXPXr.$ y y y y y y y - 7.p.$.j.g.g.g.0.a.x d.y y y = q.S q.r.g.$.a.f.s.z 0.s.q.M g.r.l q.B i.q.7.s.s.M r.y d.r.= y y y y y y y y y y y y y y y y y y y y y y y y y y y y y y y y y y y y y y y y y y y y y y y y y y y y y y y y y y ",
"y y y y y y y y y y y y y y y y y y y y y y y y y y y y y y y y y y y y y y y y y y y y y y y y y y y y y y y y y y y y y y y y y y y y y y y y y y y y y y y y y y y y y y y y y y y y y y y y y y y y y y y y y y y y y y y y y y y y y y y y y y y y y y y y y y y y y y y y : m a.6.9.q.gX6.- y y y y y y y y : 7.i.A 7.8.A S A z $.y y y y y y y z M M z B l y f C y y z B l l f m m y M m y z y y z y y y y y y y y y y y y y y y y y y y y y y y y y y y y y y y y y y y y y y y y y y y y y y y y y y y y y y y y y y y ",
"$ $ $ $ $ $ $ $ $ $ $ $ $ $ $ $ $ $ $ $ $ $ $ $ $ $ $ $ $ $ $ $ $ $ $ $ $ $ $ $ $ $ $ $ $ $ $ $ $ $ $ $ $ $ $ $ $ $ $ $ $ $ $ $ $ $ $ $ $ $ $ $ $ $ $ $ $ $ $ $ $ $ $ $ $ $ $ $ $ $ $ $ $ $ $ $ $ $ $ $ $ $ $ $ $ $ $ $ $ $ $ $ $ $ $ $ $ $ $ $ $ $ $ $ $ $ - f y y y y y y y y y y y f y y $ : y y y y y y y y y y - * - - - - : : y - y y y y y y y $ X X X X X $ X X $ $ X X X X X X X $ X X $ X $ $ X $ $ $ $ $ $ $ $ $ $ $ $ $ $ $ $ $ $ $ $ $ $ $ $ $ $ $ $ $ $ $ $ $ $ $ $ $ $ $ $ $ $ $ $ $ $ $ $ $ $ $ $ $ $ $ $ $ $ $ ",
"i.i.i.i.i.i.i.i.i.i.i.i.i.i.i.i.i.i.i.i.i.i.i.i.i.i.i.i.i.i.i.i.i.i.i.i.i.i.i.i.i.i.i.i.i.i.i.i.i.i.i.i.i.i.i.i.i.i.i.i.i.i.i.i.i.i.i.i.i.i.i.i.i.i.i.i.i.i.i.i.i.i.i.i.i.i.i.i.i.i.i.i.i.i.i.i.i.i.i.i.i.i.i.i.i.i.i.i.i.i.i.i.i.i.i.i.i.i.i.i.i.i.i.i.i.0.S X y y y y y y y y y y y y y M A f y y y y y y y y y y y y y y y y y y y y y y y y y * - 9.a.i.i.a.i.i.i.a.i.i.i.a.i.i.i.i.i.i.i.i.i.i.i.i.i.i.i.i.i.i.i.i.i.i.i.i.i.i.i.i.i.i.i.i.i.i.i.i.i.i.i.i.i.i.i.i.i.i.i.i.i.i.i.i.i.i.i.i.i.i.i.i.i.i.i.i.i.i.i.i.i.i.i.i.",
"gXjXjXjXjXgXjXjXjXjXjXjXjXjXjXjXjXjXjXjXjXjXjXjXjXjXjXjXjXjXjXjXjXjXjXjXjXfXjXjXjXjXjXjXjXjXjXjXjXjXjXjXjXjXjXjXjXjXjXjXjXjXjXjXjXjXjXjXjXjXjXjXjXjXjXjXjXjXjXjXjXjXjXjXjXjXjXjXjXlXlXlXjXlXlXlXlXlXlXlXlXlXlXlXlXlXlXlXlXlXlXlXlXlXlXlXlXlXlXlXlXlXlXlXlXlXAXuX- y y y y y y y y : 8.OX4XlXkXS - y y y y y y y y y y y y y y y y y y y y y y y $ 6.AXlXyXyXyXyXyXyXyXyXyXyXyXyXyXyXyXyXyXyXyXyXyXyXyXfXfXfXyXyXfXfXfXfXfXfXfXfXjXjXjXjXjXjXjXjXjXjXjXjXjXjXjXjXjXjXfXgXjXjXjXjXjXjXjXjXjXjXjXjXjXjXjXjXjXjXjXjXjXjXjXjXjXjXjXjX",
"                                                O     O             O   O * O O O O O O O O O O o O O O O O O O O O O O O o o O O O o o o o o o o o o o o o o o o o o o o o o o o o o o = o o o = o o = o o o o = o o o = o = = = = = = = = = = = = = = = , M zXtXX y y y y y y y : t.SXIXKXlXM : y y y y y y y y y y y y y y y y y y l y y y - S DX7.                                                                                                              & o O     O O O O O O O O O O O o O O O O O O o o o o o o o ",
", > , > , C > , > > > C , > > > C , > > C > , c x , c C , > > 4 4 4 7 9 Z <Xj j j g g f > > 4 : E b > 4 l l l l l l l l > o.x > l l l l l > C x > l l l c <.l l l l l A l l l x C l c l A c l x Z l x A l c c c c c c c c c c c c c c c c c c c S A V V ,.V 3.4.nX$.- y y y y y y : t.BXFXIX4Xy y y y y y y y y u t '.'.'.'.'.'.'.'.'.+.a y y X tXs.  = = = = = = = = = = = = = x , = = = = = = = = = , , = l c = , , , , , , , , > , , > C > > > > > > > > > > y # %X;.q > > > > > > > > > > s > l S > l l l l l l l l l l l > ",
"= = = = = x = = = = , x = , = > x = , , x , = l c = l x = , > 4 4 4 7 5 C <Xj j g g h f > > > - Y 7 : > > > > > > > > > > o.c > > > > > > > x x > > > 4 f <.s > > l > S l l > x C > l l S l > c C > c A l l l l l l l l l l l l l l l l l l l l C S m V V V 4.3.aXp.X y y y y y y : t.BXDXDXOXy y y y y y y y y u n _._._._._._._._._.o.a y y = cXC O o o o o o o o o o o o o o c = o = = = = = = = = = = o l l o = = = = = = = = = = = = x = , , , , , , , , , > # %X;.q ; , > > , > > > , > , > s C > > > > > > > > > > > l , ",
"= = = = = x = = = = , x = , = > x = , , x , = l c = l x = , > 4 4 4 7 5 C <Xj j g g h f > > > - Y 7 : > > > > > > > > > > o.c > > > > > > > x x > > > 4 f <.s > > l > S l l > x C > l l S l > c C > c A l l l l l l l l l l l l l l l l l l l l C S m V V V 4.2.aXp.X y y y y y y : t.SXFXFXOXy y y y y y y y y > @.@X@X@X@X@X@X@X@X@X&., y y = BXc   o o o o o o o o o o o o o c = o = = = = = = = = = = o l l o = = = = = = = = = = = = x = , , , , , , , , , > # %X&X#X=.*., > s > > , s d *., > S > =.> :.d , > > > > > l , ",
"= = = = = x = = = = , x = , = > x = , , x , = l c = l x = , > 4 4 4 7 5 C <Xj j g g h f > > > - Y 7 : > > > > > > > > > > o.c > > > > > > > x x > > > 4 f <.s > > l > S l l > x C > l l S l > c C > c A l l l l l l l l l l l l l l l l l l l l C S m V V V 4.2.aXp.X y y y y y y : t.zXcXcXOXy y y y y y y y y > @.@X@X@X@X@X@X@X@X@X&.> y y = xXx   o o o o o o o o o o o = o c = o = = = = = = = = = = o l l o = = = = = = = = = = = = x = , , , , , , , , , > # %X;.:.d #X=.=.=.=.#X-.=.*.#X=.*.=X*.-.-.#Xd , > > > > > l , ",
"= = = = = x = = = = , x = , = > x = , , x , = l c = l x = , > 4 4 4 7 5 C <Xj j g g h f > > > - Y 7 : > > > > > > > > > > o.c > > > > > > > x x > > > 4 f <.s > > l > S l l > x C > l l S l > c C > c A l l l l l l l l l l l l l l l l l l l l C S m V V V 4.2.aXp.X y y y y y y : ,.6.$.,.8.f y y y y y y y y > @.@X@X@X@X@X@X@X@X@X&., y y = xXx   o o o o o o o o o o o = o c = o = = = = = = = = = = o l l o = = = = = = = = = = = = x = , , , , , , , , , > # %X;.;.*.*.=.-.d  X=.*.=.*.*.=.-.:.-. X=.:.*., > > > > > l , ",
"= = = = = x = = = = , x = , = > x = , , x , = l c = l x = , > 4 4 4 7 5 C <Xj j g g h f > > > - Y 7 : > > > > > > > > > > o.c > > > > > > > x x > > > 4 f <.s > > l > S l l > x C > l l S l > c C > c A l l l l l l l l l l l l l l l l l l l l C S m V V V 4.2.aXp.X y y y y y y - 0.C   , i.y y y y y y y y y > i @.@.@.@.@.@.@.@.@.@.> y y = xXx   o o o o o o o o o o o = o c = o = = = = = = = = = = o l l o = = = = = = = = = = = = x = , , , , , , , , , > # %X;.:.d *.*.*.s *.=.*.-.*.*.*.*.=X*.*.-. Xd , > > > > > l , ",
"= = = = = x = = = = , x = , = > x = , , x , = l c = l x = , , 4 4 4 7 5 C <Xj j g g h f > > > - Y 7 : > > > > > > > > > > o.c > > > > > > > x x > > > 4 f <.s > > l > S l l > x C > l l S l > c C > c A l l l l l l l l l l l l l l l l l l l l C S m V V V 4.2.aXp.X y y y y y y - r.S   > a.y y y y y y y y y y y i i i i i i i i i u y y y = xXx   o o o o o o o o o o o = o c = o = = = = = = = = = = o l l o = = = = = = = = = = = = x = , , , , , , , , , > # %X;.q , , , , > , s s > , > , > C , > > > > > > > > > > l , ",
"= = = = = x = = = = , x = , = > x = , , x , = l c = l x = , , 4 4 4 7 5 C <Xj j g g h f > > > - Y 7 : > > > > > > > > > > o.c > > > > > > > x x > > > 4 f <.s > > l > S l l > x C > l l S l > c C > c A l l l l l l l l l l l l l l l l l l l l C S m V V V 4.2.aXp.X y y y y y y - r.S   > a.y y y y y y y y y y u i p i p p p p i p u y y y = xXx   o o o o o o o o o o o = o c = o = = = = = = = = = = o l l o = = = = = = = = = = = = x = , , , , , , , , , > # %X;.q ; > > > > > > > > > > > s C > > > > > > > > > > > l , ",
"= = = = = x = = = = , x = , = > x = , , x , = l c = l x = , , 4 4 4 7 5 C <Xj j g g h f > > > - Y 7 : > > > > > > > > > > o.c > > > > > > > x x > > > 4 f <.s > > > > S l l > x C > l l S l > c C > c A l l l l l l l l l l l l l l l l l l l l C S m V V V 4.2.aXp.X y y y y y y - r.S   > p.y y y y y y y y y y y i p p p p p p i p u y y y = xXx   o o o o o o o o o o o = o c = o = = = = = = = = = = o l l o = = = = = = = = = = = = x = , , , , , , , , , > # %X;.q ; > > > > > > > > > > > > C > > > > > > > > > > > > , ",
"= = = = = x = = = = , x = , = > x = , , x , = l c = l x = , , 4 4 4 7 5 C <Xj j g g h f > > > - Y 7 : > > > > > > > > > > o.c > > > > > > > x x > > > 4 f <.s > > > > S l l > x C > l l S l > c C > c A l l l l l l l l l l l l l l l l l l l l C S m V V V 4.2.aXp.X y y y y y y - r.S   > p.y y y y y y y y y y y p p p p p p p p p u y y y = xXx   o o o o o o o o o o o = o c = o = = = = = = = = = = o l l o = = = = = = = = = = = = x = , , , , , , , , , > # %X;.q ; > , > > > > > > > > > > C > > > > > > > > > > > > , ",
"= = = = = x = = = = , x = , = > x = , , x , = l c = l x = , , 4 4 4 7 5 C <Xj j g g h f > > > - Y 7 : > > > > > > > > > > o.c > > > > > > > x x > > > > f <.s > > > > S l l > x C > l l S l > c C > c A l l l l l l l l l l l l l l l l l l l l C S m V V V 4.2.aXp.X y y y y y y - r.S   > p.y y y y y y y y y y y i i i i i i i i i u y y y = xXx   o o o o o o o o o o o = o c = o = = = = = = = = = = o l l o = = = = = = = = = = = = x = , , , , , , , , , > # %X;.q ; > , > > > > > > > > > > C > > > > > > > > > > > l = ",
"= = = = = x = = = = , x = , = > x = , , x , = l c = l x = , , 4 4 4 7 5 C <Xj j g g h f > > > - Y 7 : > > > > > > > > e e +.n e e > > > > > x x > > > > f <.s > > > > S l l > x C > l l S l > c C > l A l l l l l l l l l l l l l l l l l l l l C S m V V V 4.2.aXp.X y y y y y y - i.S   > p.y y y y y y y y y y y p p p p p p p p p u y y y = xXx   o o o o o o o o o o o = o c = o = = = = = = = = = = o l l o = = = = = = = = = = = = x = , , , , , , , , , > # %X;.q ; > , > > > > > > > > > > C > > > > > > > > > > > l = ",
"= = = = = x , = = = , x = , = > x = , > x , = l c = l x = > , 4 4 4 7 5 C <Xj j g g h f > > > : E b : > > > > > > e t ( | +.o.( t e > > > > x x > > > > f <.s q l l > S l l > x C > l l S l > c C > c A l l l l l l l l l l l l l l l l l l l l C S m V V V 4.2.aXp.X y y y y y y - i.Z   > p.y y y y y y y y y y y i i i i i i i i i u y y y = xXc   o o o o o o o o o o o = o c = o = = = = = = = = = = o l l o = = = = = = = = = = = = x = , , , , , , , , , > # %X;.q ; > > > > > > > > > > > > C > > > > > > > > > > > l , ",
"o = = = = x = = = = = x = = = , x = = , x = = l l o l x = , , , 4 4 4 5 C <Xj j g h h : , , , = Y 4 - , , , > > > t ( | ..Y.+.| | t e > > , x c , > > > q <.4 > > > > C > > > c x > > > S l > c C > l Z > l > > > > > > l l l l l l l l l l l > B S g V V V 4.2.aXp.X y y y y y y - i.Z   > p.y y y y y y y y y y y p p p p p p p p p u y y y = xXx   o O o o o o o o o o o o o l o o o o o o o o o o o = o > l o = = = = = = = = = = = = x = = = = = = = = = = ; # %X;.q = , , , , , , , , , , , > x , > > > > > > > > > > > = ",
"e l l l l C l l l l l C l l l l C l l l C l l x C l x C l l l c b b v F A <XV ,.V V M x c c c z R b z c c c c c n o.+.+.U._.Y.+.+.o.` x x c S C c x x x D <.x x x x x A x x x C Z x x x A x x C A x C 7.x x x x x x x x x x x x x x x x x x x x A ,.S ,.<.,.1X2.aXp.X y y y y y y - i.Z   > p.y y y y y y y y y y y i i i i i i i i i u y y y = BXc o > , > > > > > > > > > > > x > > > > > > > > > > > > > x x > l l l l l l l l l l l l C l l l l l l l l l l z q %X;.e l c l l c c c c c c c c x Z c c c c c c c c c c x x l ",
"l l l l l C l l l l z C l l l z C l z z S l l M C l x S l c c c b b v Y Q <X,.,.V V M m c c c z R b z c c c x x ` o.+.Y.Y.+.+._.Y.+.o.n x x S C x x x x D <.M x x x x A M x x S S x M x A B x C A x C 7.x B M M M M M M M M C C C C C C C C C M A ,.S ,.<.,.1X2.aXp.X y y y y y y - i.Z   > p.y y y y y y y y y y y p p p p p p p p p u y y y = BXc o > > > > > > > > > > > > > x l > l l l l l l l l l l l x x > l l l l l l l l l l l l C l c c c c c c c c c x q %X;.D c c c c c c c c c x x x x A c x x x x x x x x x x x c ",
"< , , , , D , , , , , n , , , > D , , , n , , c c < e n , , , 4 4 4 7 6 Z <Xj j g g h q q > q , E r , q q q q e ( | +.U.+.`._.+.U.+.| t e q n D q e e e q <.e e e e e Z e e e D n e e e Z l e x Z e c Z e e e e e e e e e e e l l l l l l l c e C Z D V ` V Q.2.aXp.X y y y y y y - i.A   > s.y y y y y y y y y y y i i i i i i i i i u y y y = xXx   o O O o o o o o o o o o o l o o o o o o o o o o o o o > l o = = = = = = = = = = = = x = = = = = = = = = = - # %X;.q = , = = = , , , , , , , > x = > , , , , > > > > > > = ",
"t t t t t o.t t t t ( o.t ( t ( o.t ( ( o.( t o.o.t o.o.t ( ( t P P P P o.3X` ` ` ` ` ( ( ( ( ( O.o.( ( ( ( ( ( | +.U.U.U.'._.U._.+.+.| ( ( o.o.( ( ( ( ( l.o.( ( ( ( o.o.( ( o.o.( o.( o.o.( o.o.( o.o.( o.o.o.o.o.o.o.o.o.o.o.o.o.o.o.o.o.o.o.o.o.` X.` ` Q.2.aXp.X y y y y y y - i.A   > f.y y y y y y y y y y y i p p p p p p p p u y y y = xXc O o o o o o o o o o o o o o c = o = = = = = = = = = = o l l o = = = = = = = = = = = , x = , , , , , , , , , ; # %X;.q ; > > > > > > > > > > > > C > > > > > > > > > > > l , ",
"$ & = = = x = = = = - x = = = - x = = - x = = l l $ y x = - - ; 4 4 4 5 C <Xk j k h h y - - - * Y 4 - - - - - > t | +.`.U.+.+.`._.| ( e : - x z - > > ; f <.s > > > > C y > : c M : y > C y > z B : l S > y y y y y y y y y y y y y y y y y s y M B g V V V 4.2.aXp.X y y y y y y - i.A   > f.y y y y y y y y y y y i p p p p p p p p u y y y = xXc   o o o o o o o o o o o o o c = o = = = = = = = = = = o l l o = = = = = = = = = = = = x = = , , , , , , , , ; # %X;.q - > > > , > > > > > > > > C , > > > > > > > > > > > = ",
"= = = , = x , = , = , x = , , > x = , > x , = l c = l x = > , 4 4 4 7 5 C <Xj j g g h f > > > : E r : > > > > > t ( _._.U._._.U.`.+.t e > > x x > q > 4 f <.s q e e > C l e > x C > l q S l > c C > c A e l l l l l l l l l l l l l l l l l l l C S m V V V 4.2.aXp.X y y y y y y - a.A   > f.y y y y y y y y y y y i i i i i i i i i u y y y = xXc   o o o o o o o o o o o o o c = o o = = = = = = = = = o l l o = = = = = = = = = = = = x = = , , , , , , , , ; # %X;.q - , > , > , > > > > > > > C , > > > > > > > > > > > = ",
"= = = = = x = = = = , x = , = > x = , , x , = l c = l x = , , ; 4 4 7 5 C <Xj j g g h f > > > - Y 7 : > > > > > - +._.+.+._.Y.+.+._.t : q > x x > > > > f <.s > > > > C l > > x C > l > S l > c C > l Z > l l l l l l l l l l l l l l l l l l l C S m V V V 4.2.aXp.X y y y y y y - a.A   > f.y y y y y y y y y y y p p p p p p p p p u y y y = xXc   o o o o o o o o o o o o o c = o o = = = = = = = = = o l l o = = = = = = = = = = = = x = = = , , , , , , , ; # %X;.q - , > > > , > > > > > > > C , > > > > > > > > > > > = ",
"= = = = = x = = = = , x = , = > x = , , x , = l c = l x = , , ; 4 4 7 5 C <Xj j g g h f > > > - Y 7 : > > > > - | _.| | | Y.+.| ( +._.> > > x x > > > > f <.s > > > > C l > > x C > l > S l > c C > l Z > l l l l l l l l l l l l l l l l l l l C S m V V V 4.2.aXp.X y y y y y y - a.A   > f.y y y y y y y y y y y i i i i i i i i i u y y y = xXc   o o o o o o o o o o o o o c = o o = = = = = = = = = o l l o = = = = = = = = = = = = x = = = , , , , , , , ; # %X;.q - , , > , > , > > > > > > C , > > > > > > > > > > > = ",
"= = = = = x = = = = , x = , = > x = , , x , = l c = l x = , , ; 4 4 7 5 C <Xj j g g h f > > > - Y 4 : > > > & ( _.| e ( ( +.o.( t e U.U.: - x c > > > > f <.s > > > > C l > > x C > l > S l > c C > l Z > l l l l l l l l l l l l l l l l l l > B S m V V V 4.2.aXp.X y y y y y y - a.A   > f.y y y y y y y y y y y p p p p p p p p p u y y y = xXc   o o o o o o o o o o o o o c = o o = = = = = = = = o o l l o = = = = = = = = = = = = x = = = = , , , , = = ; # %X;.q - , , > , > , > , > , , > C , > > > > > > > > > > > = ",
"= = = = = x = = = = , x = , = > x = , , x , = l c = l x = , , > 4 4 7 5 C <Xj j g g h f > > > - E 7 : > : & | _.| e t t t +.n t t t e U._.e z x > > > > f <.s > > > > C l > > x x > l > S l > c C > l Z > l l l l l l l l l l l l l l l l l l > B S g V V V 4.2.aXp.X y y y y y y - a.A   > f.y y y y y y y y y y y i i i i i i i i i u y y y = xXc   = O O o o o o o = > = > o c = o o o = = = = o = = > = > l o = = = = = = = l > = l , x = = = = , , , = > c ; # %X;.q - , , , > , > , > > l l > C , > > > > > > > > > > > = ",
"= = = = = x = = = = , x = , = > x = , , x , = l c = l x = , , ; 4 4 7 5 C <Xj j g g h f > > 4 4 W K 7 4 e U._.( e t t t q o.n t t t t e +._.o.u - e e > f <.s > > > > C l > > x x > l > S l > c C > l Z > l l l l l l l l l l l l l l l l l l > B S g V V V 4.2.aXp.X y y y y y y - a.A   > g.y y y y y y y y y y y p p p p p p p p p u y y y = xXc O > > > o o o o O x c c A > l = o o o = = = = o Z S S C l l o = = = = = = = x A C C = x = = = = , , , = l A x D :X;.q - , , , > > , = 7.C c 7.c x > > > > > > > > > > > > = ",
"= = = = = x = = = = , x = , = > x = , , x , = l c = l x = , , ; 4 4 7 5 C <Xj j g g h f > 7 F F J G G O._.U.t e t t e t ].[.O.e t t t t e | _.Y.t : - > f <.s > > e > C l > > x x > l > S l > c C > l Z > l l l l l l l l l l l l l l l l l l > B S g V V V 4.2.aXp.X y y y y y y - p.A   > g.y y y y y y y y y y y i i i i i i i i i u y y y = BXc O S S C , o o o = A x C , x l = o o o = = = = l A x A C > l o = = = = = = = > A 7.S > x = = = = = , , > = c S ` *X;.q - , , , > , > , x x = Z l x , > > > > > > > > > > > = ",
"= = = = = x , = = = , x = , = > x = , > x , = l c = l x = > , 4 4 4 7 5 Z <Xj j g h h y 4 F G J b.A.A.A.^ r t t t e ~ [.{.{.{.O.e t t t t e ` Y._.U.| e f <.u : > > > Z l e > x C > l e Z l > c C > l Z > l l l l l l l l l l l l l l l l l l > B S g V V V 4.2.aXp.X y y y y y y - p.A   > g.y y y y y y y y y y y i p p p p p p p p u y y y = BXc O A c c > o o = c C x A x c l = o o o = = = c x A 7.C C l l o = = = = = > x , Z 7.C x c = = = = = = , x x A x ` *X;.q - , , , , , x c x x S Z > C , > > > > > > > > > > > = ",
"= = = = = x = = = = = x = = = , x = = , x = = l l $ y x & - - ; ; 4 4 1 B <Xk k k g D n O.A.A.A.v.b.b.J I L r t e n }.{.o.o.[.{.n t t t t t ` n t +._._.Y.Y.| n t e > M u u - z N - y : C y > z C > l S > l l l l l l l l l l l l l l l l l l l C S m V V V 4.2.aXp.X y y y y y y - p.A   > g.y y y y y y y y y y y i p p p p p p p p u y y y = xXc O l > > = o o o O > x , C = l = = = = = = = o o = > x l > l o = = = = = = = C c > C , x = , , , , , , = x A l # %X;.q ; > > > , > , , l l S S l x > > > > > > > > > > > > = ",
"- : : : : B > : : : > B : > : > B : > > C > > x D q t n e t t t P P | | +.3XY.Y.Y.Y.Y._.A.A.b.z.J z.z.z.I L K P o.}.[.o.r +.~ {.].q t t t e ` n e q q t | Y.U.U.U.U.U.Y.+.+...+.o.( ( t X.t t n Z e c Z q q q q q > > > y y y y : : - - - - - - z M h V V V 4.2.aXp.X y y y y y y - p.A   > j.y y y y y y y y y y y i i i i i i i i i u y y y = xXc           O O O O     O   O l o O O O O o o o o o O O   > > O o o o o o o o O o o O o c o o o o o = = = o o = # %X;.< = = = = = = = = = = o o , x = = = = = = = = , , , , o ",
"qXqXqXqXqXqXqXqXqXqXqXqXqXqXqXqXqXqXqXqXqXqXCXCXCXCXCXCXZXZXZXUXUXUX|.].Y.3X+.l.l.l.` X.^ ^ c.J n.M.J c.c.^ ~ A.{.}.` o.o.l.` ].{.O.~ O.^ ^ O.O.^ ^ ^ c.^ A.c.c.c.A.A.A.S._._._.|.|.|.|.|._._._._._._._._._._._._._._._._._._._._._._.].|.|.|.[.[.[.[.}.NX}.UX3.aXp.X y y y y y y - p.A   > j.y y y y y y y y y y y p p p p p p p p p u y y y = BXl x 0.9.9.9.9.9.9.9.9.9.9.q.9.0.q.9.9.9.9.q.q.q.q.q.q.q.q.0.0.q.q.q.q.q.q.q.q.0.0.0.0.0.0.0.0.0.0.0.0.0.0.0.0.0.l.:X=Xl.0.0.0.0.0.0.0.0.0.0.0.0.0.i.0.0.0.0.0.0.0.0.0.0.0.0.0.",
"4X4X4X4X4X4X4X4X4X4X4X4X4X4X4X4X4X4X4X4XeXeXeXeXeXeXeXeXeXwXwXwXqXqXCXZXZX0X4X4.<.<.,.X.^ ^ b.J x.x.J c.c.^ J.{.[.o.O.A.A.A.A.A.}.[.c.c.O.V.A.O.O.O.O.O.O.l.O.X.X.! ! w.Q Q Q 7.6.Q Q X.w.X.X.X.l.X.o.l.o.o.o.o.o.o.l.l.k.].|.}.{.{.{.{.}.}.[.[.|.].].].!.].4X3.aXp.X y y y y y y - p.A   > j.y y y y y y y y y y y i i i i i i i i i u y y y = BXc = l l l l l l l l l l l l l S c l c c c c c c c c c c l C C l c c c c c x c c c x x x A x x x x x x x x x x x q -X;.D x x x x x x x x x x x x C 7.x C C C C C C C C C C x 7.",
"2 2 2 2 2 8 2 2 2 2 2 8 2 2 2 2 8 2 2 1 r 1 1 r r , e n e t ( ` ` <.l.l.4X0XqXqXqXwXeX4X!.H.J.A.c.c.c.A.e.].NXNXH.H.H.H.k.!.k.u.!.NX!.4.4.H.H.4.4.4.4.4.4.!.4.4.4.4.4.!.4.4.4.u.u.4.4.4.!.4.4.4.u.4.4.u.4.4.4.4.u.!.bXNXNXNXNXNXbXtX!.p.u.u.t.<.4.4.5.4.4.4.3X2.aXp.X y y y y y y - p.X.  > j.y y y y y y y y y y y p p p p p p p p p u y y y = xXc   O O O O O O O O O O O O O l o O o o o o o o o o o o O > > O o o o o o o o o o o o o c o o = = = = = = = = = # %X;.< = = = = = = = = = = = = , x = = = = = , , , , , = x Z ",
"3 3 3 3 3 T 4 4 4 4 7 T 3 4 4 7 T 3 4 7 T 3 3 v v 3 v T 3 5 5 5 6 6 6 0 T 1X<.u.4XeXwXqXZXhXjXaXpXH.dXsXcXZXCXqXVXVXVXqXqXVXVXVXVXVXVXVXVXVXVXVXVXVXVXVXVXVXVXVXVXVXVXVXVXVXVXVXVXVXVXVXVXVXVXVXVXVXqXVXVXVXVXVXVXVXVXVXVXVXVXVXqXqXVXVXVXVXVXVXVXVXVXVXqXVXqX3.aXp.X y y y y y y - p.X.  > h.y y y y y y y y y y y i i i i i i i i i u y y y = xXc   o o o o o o o o o o o o o c = o = = = = = = = = = = o l l o = = = = = = = = = = = = x = = = , = = = , , , ; # %X;.q - , , , , , , , > > > > > C , > > > > > > > > , x 7., ",
"3 3 3 3 3 T 3 3 3 3 3 T 3 3 3 7 T 3 3 3 T 3 3 v v 3 v T 3 7 7 7 8 7 G z.Q 1Xx c 4 4 4 4 8 E ^ c.J.[.[.[.].5.9.J.9.l.l.0.9.!.l.l.9.K.NX].<.J.J.5.J.J.5.<.5.!.<.<.<.<.<.u.<.9.K.k.5.<.<.<.J.J.<.5.J.J.!.NXNXNX].k.<.<.<.<.<.<.<.<.<.<.<.<.<.<.<.<.t.t.<.<.5.<.1X2.aXp.X y y y y y y - s.7.  > h.y y y y y y y y y y y p p p p p p p p p u y y y = xXc   o o o o o o o o o o o o o l = o o o o o o = = = = = o l l o = = = = = = = = = = = = x = = = = = = = = , , ; # %X;.q = , , , , , , , , , > , > x , > > > > > > > , x 7.l = ",
"3 3 3 3 3 T 3 3 3 3 3 T 3 3 3 7 T 3 3 3 T 3 3 v v 3 v T 3 7 7 9 9 6 z.m.! <XB B C x c 4 F J V.K.[.[.S.c.{ T.Q.A.o.P t v.z.o.~ t P B.[.[.e N.v.k x.c.w q e ` h I K q K Z w K B.c.j q w I C.b.w X.[.{.{.[.O.T , = , , , , , , , , , , , , , , , , c x f g j g 4.2.aXp.X y y y y y y - s.7.  > h.y y y y y y y y y y y i i i i i i i i i u y y y = xXc   o o o o o o o o o o o o o l = o o o o o o = = = = = o l l o = = = = = = = = = = = = x = = = = = = = = = , ; # %X;.q = , , , , , , , , , > , > x , > > > > > > , x 7.l > = ",
"3 3 3 3 3 T 3 3 3 3 3 T 3 3 3 7 T 3 3 3 T 3 3 v v 3 v T 3 4 7 9 3 z.m.M.! <XQ S M c F z.S.[.{.[.A.E m.n.4 q O.J.!.Q.5.v.v.v.^ ` O.C.S.{.J.N.A.j V.c.k k c.A.k V.C.~ V.c.~ ^ V.V.` D j c.C.A.].{.{.].Z B * > l l l l l l l l l l l l l l l l l f B S g V V V 4.2.aXp.X y y y y y y - s.7.  > h.y y y y y y y y y y y p p p p p p p p p u y y y = xXc   o o o o o o o o o o o o o l = o o o o o o o = = = = o l l o = = = = = = = = = = = = x = = = = = = = = = = ; # %X;.q = , , , , , , , , , , , > x , > > > > > , c 7.l , > = ",
"3 3 3 3 3 T 3 3 3 3 3 T 3 3 3 7 T 3 3 3 T 3 3 v v 3 v b J z.4 9 3 z.m.m.^ <Xv.^ b c.K.{.{.[.O.= 8 F m.n.K > z.n.N.S.Q.!.J.C.b.^ c.C.C.[.{.C.v.j V.V.~ n C.v.n v.V.c.V.C.V.C.v.v.^ ^ v.V.[.{.{.K.C.n.J Q > l l l l l l l l l l l l l l l l l l > B B g V V V 4.2.aXp.X y y y y y y - d.7.  > h.y y y y y y y y y y y i p i p p p p i p u y y y = xXc   o o o o o o o o o o o o o c = o o o o o o o = = = = o > l o = = = = = = = = = = = = x = = = = = = = = = = ; # %X;.q = , , , , , , , , , , , > x , > , > > , c 6.l , > > = ",
"3 3 3 3 3 T 3 3 3 3 3 T 3 3 3 7 T 3 3 5 T 3 3 v v 3 v x z.n., 9 7 x.m.m.^ 1XV.V.K.{.{.].v.M.z.> x.G M.n.L e x.z.x.m.z.c.].!.A.V.b.C.C.S.{.K.V.c.V.C.b.^ C.v.V.V.c.V.V.C.V.C.c.v.C.V.S.{.{.[.C.m.m.m.B.Q e l f l l l l l l l l l l l l l l l l > B B g V V V 4.2.aXp.X y y y y y y - f.7.  e OXy y y y y y y y y y y i i i i i i i i i u y y y = xXc   o o o o o o o o o o o o o l = o o o o o o o = = = = o > l o = = = = = = = = = = = = x = = = = = = = = = = ; # %X;.q = , , , , , , , , , , , > x , > , > = c 6.c , > > > = ",
"3 3 3 3 3 T 3 3 3 3 3 T 3 3 3 7 T 3 3 4 b 3 3 v v 3 v T x.n.4 6 4 x.m.m.^ 4XK.}.}.[.C.4 J m.n.K M.J n.n.I r x.J x.m.m.n.z.C.].!.A.N.V.N.[.{.S.C.C.C.C.V.v.V.C.V.^ C.C.C.C.C.c.v.V.[.{.[.A.m.m.m.m.m.m.! e c.G l l l l l l l l l l l l l l l l > B B g V V V 4.2.aXp.X y y y y y y - f.7.  e OXy y y y y y y y y y y p p p p p p p p p u y y y = xXc   o o o o o o o o o o o o o l = o o o o o o o o = = = o > l o = = = = = = = = = = = = x = = = = = = = = = = ; # %X;.q = , , , , , , , , , , , > x , > > = l 7.c , > > > > = ",
"3 3 4 3 3 T 3 3 3 3 3 T 3 3 3 7 T 3 3 F W 3 3 v v 3 l v.m.n.4 4 G n.m.m.S.eXNX].O.Z.m.J z.m.n.I m.J x.n.z.n.m.J x.n.M.M.G m.M.O.].!.^ ^ c.{.[.B.V.v.C.C.^ V.V.v.n v.C.C.C.C.^ O.{.{.[.B.v.B.m.m.B.B.m.^ K B.b.r e f l l l l l l l l l l l l l > B B g V V V 4.2.aXp.X y y y y y y - f.7.  l rXy y y y y y y y y y y i i i i i i i i i u y y y = xXc   o o o o o o o o o o o o o l = o o o o o o o o = = = o > l o = = = = = = = = = = = = x = = = = = = = = = = ; # %X;.q = , , , , , , , , , , , > x , > = l 7.c = > > > > > = ",
"3 F z.3 3 T 3 3 3 3 4 T 3 3 , 4 T 3 = x.x., 6 v v 3 4 V.m.n.F G x.m.S.[.}.eXS.c.^ C.C.x.x.m.n.J m.z.x.x.m.m.m.J G G n.n.F m.b.J B.!.Q.o.L J.{.S.v.n v.C.^ v.~ n n n W v.C.V.A.}.}.S.M.B.v.B.m.m.B.M.m.c.x.m.N.b.r > 4 l l l l l l l l l l l l > B B g V V V 4.2.aXp.X y y y y y y - f.7.  l rXy y y y y y y y y y y p p p p p p p p p u y y y = xXc   o o o o o o o o o o o o o l = o o o o o o o o o = = o > l o = = = = = = = = = = = = x = = = = = = = = = = ; # %X;.q = , , , , , , , , , , , > x , , l 7.c = > > > > > > = ",
"= z.m.3 z.b.4 3 3 5 9 T 3 5 z.F b 5 z.M.n.x.x.b v 3 7 N.M.n.n.M.V.[.{.[.S.1X! C.C.C.V.M.m.M.n.x.m.b.x.G z.J M.J 4 4 n.z.F B.F G m.J 5.Q.o.W {.[.v.n n ^ n 6.n n n n D O.C.A.{.}.o.M.N.M.v.B.m.B.B.N.m.B.B.B.B.m.L e e > 4 l l l l l l l l l l > B B g V V V 4.2.aXp.X y y y y y y - f.7.  l rXy y y y y y y y y y y i i i i i i i i i u y y y = xXc   o o o o o o o o o o o o o l = o o o o o o o o o = = o > l o = = = = = = = = = = = = x = = = = = = = = = = ; # %X;.q = , , , , , , , , , , , > x = > 7.c = > , , > > > > = ",
"= n.m.5 n.n., 3 , z.n.b 3 G m.z.c F m.m.m.M.x.x.G , 8 N.G z.m.K.{.[.A.z.c.1X! V.C.C.V.B.N.L N.M.n.x.x.4 4 7 M.G 7 8 F F F N.Y G m.G 5 ` Q.o.A.{.A.c n n n w.n n n n n ^ S.{.}.o.^ B.N.M.c.c.B.N.M.N.B.B.m.b.B.m.J K K l y l l l l l l l l l l > B B g V V V 4.2.aXp.X y y y y y y - f.7.  l rXy y y y y y y y y y y p p p p p p p p p u y y y = xXc   o o o o o o o o o o o o o l = o o o o o = = = = = = o > l o = = = = = = = = = = = = x = = = = = = = = = = ; # %X;.q = , , , , , , , , , , , > x > 7.x = > > > > > > > > = ",
"H n.n.H M.n.3 6 = x.M.T , J m.z.E G m.n.n.J M.m.z.J F n.G A.{.{.S.x.F J Q 1X! C.^ v.v.M.x.L M.n.x.m.x.3 6 9 G 6 9 9 7 7 9 O.v F m.G 4 H o.Q.X.[.[.n n b n X.n n n n c O.{.}.o.W ^ B.N.N.^ L z.c.N.n.x.c.M.L N.m.z.b.I e > > > > > > > > > > > > x B h g j g 4.2.aXp.X y y y y y y - f.7.  l rXf y y y y y y y y y y i i i i i i i i i u y y y = xXc   O O O O O O O O O O O o O l o o o o o o o o o o o o O > > O o o o o o o o o o o o = c o = o = = = = = = = = # %X;.< = = = = = = = = = = = = , C 7.c = = = = = = = = = , o ",
"J n.n.J M.M.M.b.b M.M.! z z.M.n.M.n.n.W W W M.m.n.n.z.C.[.{.].v.n.W ^ I ! 3XO.V.O.c.c.N.N.~ b.c.x.m.b.b E E T T E E E R E O.R W B.I T R U l.Q.A.{.J.n X.X.l.Q X.X.X.Q [.}.o.^ ^ ^ B.v.v.^ ^ ^ ^ ^ v.V.! c.R c.v.v.N.b.C C C C C C C C C C C C C A ,.S ,.<.,.1X2.aXp.X y y y y y y = g.7.  l rXf y y y y y y y y y y p p p p p p p p p u y y y = BXc o l > > > > > > > > > > l > x l l l l l l l l l l l l l x x l l l l l l l l l l l l l C l c c c c c c c c c x q %X;.D c c c c c c c c c c x c c 6.A c x x x x x x x x x x l ",
"n.x.x.n.M.M.x.n.x.x.n.v.J z.n.m.n.m.x.F W G n.m.m.m.K.{.[.O.5 8 8 L I J ! 3Xo.X.O.! ~ b.z.L I K z.x.G v Y Y Y Y Y Y Y Y v O.T E M.W v Y v F Q.Q.].}.Q n ` l.Q n Q n ].{.l.F ^ ^ ^ N.c.Y ! ^ W W Q x.N.Q v E ~ ^ N.B.v.n c c c c c c c c c c c c S S V V ,.V 1X2.aXp.X y y y y y y = g.7.  l rXf y y y y y y y y y y i i i i i i i i p u y y y = xXc O = = = = = = = = = = = , = x , , , , , , , , , , , > , c c , > > > > > > > > > > > > x > > > > > > > > > > s < %X;.q > l > > > > > l l l > l 6.Z > l l l l l l l l l l l > ",
"m.z.x.m.z.I F z.m.z.x.B.M.n.x.m.x.m.z.6 W 6 n.n.v.{.{.J.8 1 9 6 6 G I J ! 3Xo.o.~ ~ W L F L L L W K 3 9 9 9 9 9 9 9 9 9 9 O.v F n.F 7 8 7 8 ^ Q.!.{.J.e n X.n n c O.{.].4 K L ^ ^ L I K R L 8 Y b z.x.T 8 8 8 L B.m.N.r > > > > > > > > > > > > x B h g j g 4.2.aXp.X y y y y y y = g.7.  l rXf y y y y y y y y y y i i i i i i i i i u y y y = xXc   O O O O O O O o o o o o O l o o o o o o o o o o o o o > l o o o o o o o o o = = = = c = = = = = = = = = = = # %X;.q = = = = = = = = = = , A C x = , = = = = = , , , , , o ",
"n.z.H n.H W F F x.G x.m.m.n.G M.z.M.z.6 W 5 z.[.{.[.! 8 5 8 9 6 6 G I J ^ 3Xo.o.n ~ W L F 8 K K W F 7 8 8 8 8 8 8 8 8 8 9 O.Y 7 8 8 8 8 8 8 ^ ! Q.|.{.n n l.n n ~ {.|.o.L L L ^ ^ L L 8 ! W 8 Y n z.x.Q 8 8 8 8 M.M.N.v.K > > 4 > > 4 > > > l > B B g V j j 4.2.aXp.X y y y y y y = g.7.  l rXf y y y y y y y y y y p p p p p p p p p u y y y = xXc   o o o o o o o o o o o o o l = o o o o o o o o o o = o > l o = = = = = = = = = = = = x = = = = = = = = = = - # %X;.q = = = , , , , , = > A x , x = , , , , , , , , > > > = ",
"H F F 6 F W F F F 6 x.m.z.J 6 z.I M.z.6 G A.{.{.J.1 7 R 5 9 9 6 6 L I J ^ 3Xo.o.C ~ W L F 7 8 7 W F 7 9 8 8 8 8 8 8 8 8 9 O.Y 7 8 8 8 8 8 8 ^ I o.!.{.].` l.` D ].}.o.^ I I K ^ ^ L K 7 R Y 8 Y T J z.Q 8 8 8 7 N.n.z.m.z.K L > 4 4 > > > > l > B B g V j j 4.2.aXp.X y y y y y y = g.7.  l rXf y y y y y y y y y y i i i i i i i i i u y y y = xXc   o o o o o o o o o o o o o l = o o o o o o o o o o = o > l o = = = = = = = = = = = = c = = = = = = = = = = - # %X;.q = = = = , , , = , A C = > x = , , , , , , , , , , > = ",
"F F F F F W F F F 6 z.m.G 6 F F W M.J F [.{.].! 7 5 r E 5 9 9 6 6 L I J ! 3Xo.! M ~ ~ L 8 7 8 7 W F 7 8 7 8 8 8 8 8 8 8 9 O.Y 7 8 8 8 8 8 8 ^ ^ I Q.).}.l.Q.<.!.}.!.K ^ I I K ^ W L K 8 R 8 8 Y R 7 v Q 8 8 8 7 b.z.J m.b.x.v.a b.z.: 4 > > l > B B g V j j 4.2.aXp.X y y y y y y = j.7.  l rXf y y y y y y y y y y p p p p p p p p p u y y y = xXc   o o o o o o o o o o o o o l = o o o o o o o o o o = o > l o = = = = = = = = = = = = c = = = = = = = = = = - # %X;.q = = = = = , = = A C = , > x = , , , , , , , , , , > = ",
"H F F F F W F F F 6 z.m.G F F G W J A.{.{.O.2 8 Y 5 8 E 5 9 9 6 F L I J ! 3XQ C x T E L 8 9 8 7 W F 7 8 7 7 8 8 8 8 8 8 9 O.Y 7 8 8 8 8 8 8 ^ ^ L o.W.).).Q.Q.|.).` L ^ I I K ^ W L K 8 R 8 8 Y R 8 Y Q 8 8 8 8 L K G N.x.N.N.I x.b.q > 4 > > > B B g V j j 4.2.aXp.X y y y y y y = j.7.  l rXf y y y y y y y y y y i i i i i i i i i u y y y = xXc   o o o o o o o o o o o o o l = o o o o o o o o o o = o > l o = = = = = = = = = = = = c = = = = = = = = = = - # %X;.q = = = = = = = A S = , = > x = , , , , , , , , , , > o ",
"F F F F F W F F F 6 z.M.F F F H ^ [.{.].~ 1 9 Y Y 5 8 E 5 9 9 9 F L G H Q 3XQ B C b v L 8 9 8 7 W F 7 8 7 7 8 8 8 8 8 8 9 O.Y 9 8 8 8 8 8 8 ^ W ~ o.Q.(.).Q.).).Q.` o.! I I K W W L K 8 R 8 8 Y R 8 Y Q 8 8 8 8 K K 4 J N.N.m.N.N.v.e > 4 > l > B B g V j j 4.2.aXp.X y y y y y y = j.7.  l rXf y y y y y y y y y y p p p p p p p p p u y y y = xXc   o o o o o o o o o o o o o l o o o o o o o o o o o = o > l o = = = = = = = = = = = = c = = = = = = = = = = - # %X;.q = = = = = = A S = , , = > x = , , , , , , , , , , > o ",
"H F F F H W F F F 6 z.n.F H H A.{.{.O.1 Y 9 5 Y Y 5 8 E 5 6 9 6 F G F H Q 1XZ C b b b K 8 9 9 5 G F 9 9 9 9 9 9 8 8 8 8 9 O.Y 9 8 8 8 8 8 8 ^ E n o.5.W.5.Q.Q.(.Q.` o.! I I K W W F 8 8 R 8 8 Y R 9 v Q 8 8 8 8 8 8 7 G N.B.m.M.B.m.J : 4 > 4 > x B g V j g 4.2.aXp.X y y y y y y = j.7.  l rXf y y y y y y y y y y i i i i i i i i i u y y y = xXc   o o o o o o o o o o o o o l o o o o o o o o o o o o o > l o = = = = = = = = = = = = x = = = = = = = = = = - # %X;.q = = = = = A S = , , , = > x = , , , , , , , , , , > $ ",
"F F F F F W F F F F G W 6 L [.{.].r 3 8 T 7 7 v Y 5 v T K L 7 8 L L F F Q 1XC S C n b b 8 8 8 7 W K 7 8 8 8 8 8 8 r r r 8 O.Y 8 r r r r r r ^ ~ ` <.Q.5.W./.T.5.Q.<.o.Q K L K R R 8 v r Q v r Y R 8 v Q r v v v r Y v W B.N.N.m.m.m.b.w l q q q D V g j j j 4.2.aXp.X y y y y y y = h.6.  l rXf y y y y y y y y y y p p p p p p p p p u y y y = xXc   o o o o o o o o o o o o o l o o o o o o o o o o o o o > l o = = = = = = = = = = = = c = = = = = = = = = = = # %X;.q = = = = A S = = = , , = > x = , , , , , , , , : : > = ",
"K ~ ~ ~ E ~ ~ ~ ~ ~ E ~ J.{.{.O.n t n n X.n n ` ` n n o.~ ~ ~ ~ ^ ~ ~ P X.3X` ` ` ` ` n n n n n ~ ~ n n n n n n n n n n n +.` n n n n n n n O.X.` 5.Q.Q.{ W.5.Q.Q.l.o.X.n n n X.X.n n n X.n n X.X.n ` X.n n n Z ` ! &X;.F.v.v.Z.B.m.b._ ,.;.` _ <.` y.<.y.y.Q.2.aXp.X y y y y y y = h.6.  l rXf y y y y y y y y y y i i i i i i i i p u y y y = xXc   o o o o o o o o o o o o o l o o o o o o o o o o o o o > l o = o = = = = = = = = = = c = = = = = = = = = = = # %X;.q = = = S Z = = = = = , = > x = , , , : : : : = = < @ . ",
"H H H H H W H F F 1 L [.{.].8 1 E 5 5 5 E 5 5 F Y 1 8 ^ L L L L G F F H Q 1XC C b b v 7 9 9 9 5 G F 5 9 9 9 9 9 9 9 9 9 9 O.Y 9 9 9 9 9 8 9 ^ E n ` 5.Q.Q.5.Q.Q.5.o.~ R 8 8 9 Y E 9 8 8 R 8 9 Y R 9 8 R 9 8 8 8 8 9 -.U F.G.D.G.G.F.G.-.d #X-.*. X;.:. X=X:.3.2.aXp.X y y y y y y = h.6.  l rXf y y y y y y y y y y i i i i i i i i p u y y y = xXc   o o o o o o o o o o o o o l o o o o o o o o o o o o o > l o = o = = = = = = = = = = c = = = = = = = = = = = # %X;.q = = C Z = = = = = = = = > x = : = = < @ @ < : k >..X2X",
"F F F F F W F F 6 A.{.{.O.1 3 8 E 5 5 9 E 5 5 v Y 5 8 ^ 6 F L I F F F H Q 1XC C C b b 8 7 9 9 5 W F 7 8 7 7 7 7 7 7 8 8 9 O.Y 9 8 8 8 8 8 7 ^ E b ` ` 5.Q.Q.Q.5.` o.~ R 8 8 8 Y T 7 8 8 R r 8 Y R 8 v Q 8 8 8 8 8 8 -.*.D.-.D.D.G.F.D.;.:.:.:. X:. X;. X:.;.3.2.aXp.X y y y y y y = h.6.  l iXf y y y y y y y y y y p p p p p p p p p u y y y = xXc   o o o o o o o o o o o o o l o o o o o o o o o o o o o > l o = o o = = = = = = = = = c = = = = = = = = = = = # %X;.q $ C A = = = - - - - = = < e @ @ , h >.3.XX5X7X9X9X7X6X",
"F F F F F W 6 G [.{.].R 1 9 5 9 E 5 5 9 E 5 5 v Y 5 8 ^ 5 F L F F F F H Q 1XC C x b b 8 7 9 8 5 W F 7 8 8 8 8 8 8 8 8 8 9 O.Y 9 8 8 8 8 8 7 E Y 8 n ` ` l.!.l.` ` ~ L R 8 8 8 Y T 8 8 8 R 8 8 Y R 8 v Q 8 8 8 8 8 8 :.U *.*.:.U / F.G.-.*.*.*.%. X:.%.;. X%.3.2.aXp.X y y y y y y = h.6.  l iXf y y y y y y y y y y i i i i i i i i i u y y y = xXc   o o o o o o o o o o o o o l o o o o o o o o o o o o o > l o = = = = = = = = = = = = c = = = = = = = = = = - # %X;.< C A = = = = @ @ @ @ = h #.3..X5X7X9X9X9X6X2X.X>.j y . ",
"H F F F H U A.{.{.O.1 Y 5 5 5 9 E 5 5 9 E F 6 v Y 3 8 ^ 5 9 6 6 6 F F H Q 1XC C b b b 8 9 9 9 5 G F 5 9 9 9 9 9 9 9 9 9 9 O.Y 9 8 8 8 8 8 9 E Y 9 8 b n o.l.o.n b K F R 8 8 7 Y T 9 8 8 R 8 8 Y R 9 v R 8 8 8 8 8 8 7 8 8 8 8 7 F n.N.: > > > , x B h g j g 4.2.uXp.X y y y y y y = h.6.  l iXf y y y y y y y y y y p p p p p p p p p u y y y = xXc   O O O O O O O O O O O O O l o O O O O o o o o o o o O > > O o o o o o o o o o o o o c o o o o o o o * a h h w %X;.D A o @ @ < : #.1..X2X7X7X9X9X6X2X.X1.j h < + @ @ @ = o ",
"K K P K I |.{.].P 0 r ~ r r r r ~ r r r ~ I P r P P P ^ r r r r K K K G X.<X` ` n n n r r r r r L K r r r r r r r r r r r O.T r r r r r r r ~ ~ r r r r o.o.~ r r r r ~ r r r ~ ~ r r r ~ r r ~ ~ r K ~ r r r r r r K r K K K K t I N.D D D D D ` ` _ ` ` ` Q.2.aXp.X y y y y y y = OX6.  l iXf y y y y y y y y y y i i i i i i i i i u y y y = BXl = l l l l l l l l l l l l l C c l l l l l l l l l c c l x C l c c c c c c c c c c c c S c c c c c x V <.>.1.1.>.:X X` 4 V 1.2X6X9X9X9X7X8X1XoX<.,.x e 4 b b x x B B B M B c ",
"*X$X#X$X,XMX,X#X#X&X=X*X=X=X=X=X*X=X=X=X*X*X*X*X*X*X*X*X=X=X&X*X*X*X*X*X*X:X&X&X&X&X&X&X&X&X&X&X*X*X&X&X&X&X&X&X&X&X&X&X&X*X*X&X&X&X&X&X&X&X*X*X&X&X&X*X&X*X*X&X&X&X&X*X*X*X&X*X*X&X*X&X*X*X&X*X*X&X*X*X*X*X*X*X*X*X*X*X*X*X*X*X&X*X,X&X&X&X&X&X&X&X&X&X&X&X:X1.uXp.X y y y y y y = OX6.  l tXf y y y y y y y y y y p p p p p p p p p u y y y = xXc O = = = = = = = = = = = = = c = = = = = = = = = = = = = l l = , , , , , , , , , , , , x , , , , , h #.>.1.3..X2.:X+X>.XX9X9X6X2X1.>.h = < @ < , x > y y > > > > > > > > > = ",
";X-X,X,X-X;X;X-X-X-X-X-X-X-X-X-X-X-X-X-X-X-X-X-X-X-X-X-X-X-X-X-X-X-X-X-X-X:X-X-X-X-X-X-X-X-X-X-X-X-X-X-X-X-X-X-X-X-X-X-X-X-X-X-X-X-X-X-X-X-X-X-X-X-X-X-X-X-X-X-X-X-X-X-X-X-X-X-X-X-X-X-X-X-X-X-X-X-X-X-X-X-X-X-X-X-X-X-X-X-X-X-X-X-X>X-X-X-X-X-X-X-X-X-X-X-X:X1.uXp.X y y y y y y = OX6.  l tXf y y y y y y y y y y i i i i i i i i i u y y y = xXc   O O O O O O O O O O O o O l o o o o o o o o o o o o O > > O o o o o o o o o o o o o c o o o o * k >.1..XXXXXXX8X8X9X7X.Xk < @ @ @ < = = = = : x = = = = = = = = = = = = o ",
"I [.{.A.0 r 0 0 0 1 0 r 1 0 0 0 r 1 0 F I F P L L P L P 1 0 0 0 0 0 6 H T <XD D c e e 3 0 0 0 0 L 6 0 0 0 0 0 0 0 0 0 0 0 | r 0 0 0 0 0 0 0 r r 0 0 0 0 e o.5 0 0 0 0 E 0 0 0 r r 0 5 0 T 7 0 r Y 0 r T 0 5 5 5 5 5 5 5 5 0 0 9 0 F n.q P e # < c D w k k h 3.2.aXp.X y y y y y y = 4X6.  l tXf y y y y y y y y y y p p p p p p p p p u y y y = xXc   o O O O o o o o o o o o o l o o o o o o o o o o o o o > l o o o o o o o o = = = = = c = = = = a #.1..XXX.X3.5X9X7X.Xh + o = = - = = = = = = , x = = = = = = = , , , , , o ",
"{.[.E 2 5 E 5 5 5 5 9 E 5 5 5 9 E 5 5 L ^ G L I I G I E 5 9 9 6 F F F H Q 1XC C C b b 8 7 9 8 7 W F 7 8 9 9 9 8 8 8 8 8 9 O.Y 9 8 8 8 8 8 9 E Y 9 8 8 8 r X.8 8 8 8 8 R 8 8 8 Y R 8 8 8 R v 8 Y R 8 v Q 8 8 8 8 8 8 8 8 8 U U 8 U U N.Y W v N > M D g V $.g 4.2.uXp.X y y y y y y * rX6.  l tXf y y y y y y y y y y i i i i i i i i i u y y y = xXc   o O O O O o o o o o o o O l o o o o o o o o o o o o o > l o o o o o o o o o = = = = c = = = = h >.1.XX3.6X7XXX8XoX>.k - = = = = = = = = = = , x = = = = = = = = = , , , o ",
"A.1 1 5 5 Y 5 5 5 5 5 Y 5 5 5 9 E 5 F L ^ G G L W F L E 5 9 9 6 6 F F H Q 1XC C x b b 7 9 9 9 5 G F 9 9 9 9 9 9 9 7 7 8 9 O.Y 9 7 7 8 8 8 9 E Y 9 8 8 8 r X.8 8 8 8 8 R 8 8 7 Y E 7 8 8 R 8 8 Y R 7 8 R 8 8 8 8 8 8 8 8 8 :.-.-.-.U n.G.G.:.-.d c :.;.;. X:.3.2.uXp.X y y y y y y * rX6.  l tXf y y y y y y y y y y i p i i i i i i p u y y y = xXc   o O O O O O o o o o o o O l o o o o o o o o o o o o o > l o o o o o o o o o o = = = c = = = = h >.1.XX.X7X9X3.8XoX>.k = = = = = = = = = = = , x = = = = = = = = = = = , o ",
"2 5 5 5 5 Y 5 5 5 5 5 Y 5 6 L F Y 5 L L E 6 G W E F I E 5 9 9 6 6 F F H Q 1XC C x b b 7 9 9 9 5 G F 9 9 9 9 9 9 9 9 7 8 9 O.Y 9 8 7 7 8 8 9 E Y 9 8 8 8 r X.8 8 8 8 8 R 8 8 7 Y E 9 8 8 R 8 8 Y R 7 8 R 8 8 8 8 8 8 8 8 8 0 :.-.-.U M.m.G.b :.*.%.=X;.;.=X:.3.2.uXp.X y y y y y y * rX6.  l tXf y y y y y y y y y y p p p p p p p p p u y y y = xXc   O O O O O O o o o o o o O l o o o o o o o o o o o o o > l o o o o o o o o o o o = = c = = = = h #.1.5X7X.X.X.X8XoX>.h = = = = = = = = = = = , x = = = = = = = = = = = , o ",
"5 5 5 5 5 Y 5 5 5 5 5 Y 3 6 L F Y 6 L 6 Y 3 G W v 5 K E 5 5 9 6 6 F F H Q 1XC C x b b 7 9 9 9 5 G F 9 9 9 9 9 9 9 9 7 8 9 O.Y 9 8 7 7 7 8 9 E Y 9 8 8 8 r X.8 8 8 8 8 R 8 8 7 Y E 9 8 7 R 8 8 Y R 7 8 R 8 8 8 8 8 8 7 U :.:.-.7 :.D.n.F.D.R -.< ;.:.;.;.;.;.3.2.uXp.X y y y y y y * rX6.  l tXf y y y y y y y y y y i i i i i i i i i u y y y = xXc   O O O O O O O o o o o o O l o o o o o o o o o o o o o > > o o o o o o o o o o o o = c = = = = - k 2X9X6XXXXX.XoX+X#.: = = = = = = = = = = = , x = = = = = = = = = = = , o ",
"5 5 5 5 5 Y 5 5 5 5 5 Y 3 F L F W L F 5 E 5 F W v 5 8 Y 5 5 5 6 6 F F H Q 1XC C x b b 7 9 9 9 5 G F 9 9 9 9 9 9 9 9 9 8 9 O.Y 9 8 7 7 7 8 9 E Y 9 8 8 8 r X.8 7 8 8 8 R 8 8 7 Y E 9 8 7 R 8 7 Y R 7 8 R 8 8 8 8 8 8 8 8 7 -.-.:.-.*.Z.F.G.D.=Xd B  X:.:. X%.3.2.uXp.X y y y y y y * rX6.  l tXf y y y y y y y y y y p p p p p p p p p u y y y = xXc   o O O O O O O O o o o o O l o o o o o o o o o o o o o > > O o o o o o o o o o o o = c = = = = + .X9XXX1.1..X2.:X+Xk = = = = = = = = = = = = , x = = = = = = = = = = = , o ",
"5 5 F 5 5 Y 5 5 5 5 5 Y 3 F L K W L F 5 E 3 F W v 5 8 Y 5 5 5 6 6 F F H Q 1XC C x b b 7 9 9 9 5 G F 9 9 9 9 9 9 9 9 9 9 9 O.Y 9 8 7 7 7 8 9 Y Y 9 8 8 8 r X.8 8 8 8 7 R 8 8 7 Y E 9 8 7 R 8 7 v R 9 8 R 8 8 8 8 8 8 8 8 8 7 7 8 7 7 n.n.m.x.r 4 c D h g j g 3.2.uXp.X y y y y y y * rX6.  c uXf y y y y y y y y y y i i i i i i i i i u y y y = xXc   O O O O O O O O o o o o O l o o o o o o o o o o o o o > > O o o o o o o o o o o o o c = = = + .X9X1.k #.>.>.>.:X;.q = = = = = = = = = = = = , x = = = = = = = = = = = , o ",
"3 6 L 5 5 Y 5 5 5 5 F Y 5 F G L ^ L F 5 E 5 F E v 5 8 Y 5 5 5 6 6 F F H Q 1XC C x b b 7 9 9 9 5 G F 5 9 9 9 9 9 9 9 9 9 9 O.Y 9 8 7 7 7 8 9 Y Y 9 8 8 8 r X.8 8 8 8 7 R 8 8 7 Y E 9 8 7 R 8 7 v R 9 8 R 7 8 8 8 8 8 8 8 8 8 8 8 8 7 n.x.M.N.K 4 x B h g j g 3.2.uXp.X y y y y y y * rX6.  c uXf y y y y y y y y y y p p p p p p p p p u y y y = xXc   O O O O O O O O O o o o O l o o o o o o o o o o o o o > > O o o o o o o o o o o o o c $ = + .X9X1.+ : h k k w %X;.< = = = = = = = = = = = = , c = = = = = = = = = = = , o ",
"3 F L 5 5 Y 5 5 5 G L Y F L F L W G 6 5 E 5 5 8 Y 5 8 Y 5 5 5 6 6 F F H Q 1XC C x b b 7 9 9 9 5 G F 5 9 9 9 9 9 9 9 9 9 5 O.Y 9 8 7 7 7 8 9 Y Y 9 8 8 8 r X.8 8 8 8 7 R 8 8 7 Y E 9 8 7 R 8 7 v R 9 8 R 7 8 8 8 8 8 8 8 8 8 8 8 8 7 n.z.G n.K 4 x B h g j g 3.2.uXp.X y y y y y y * rXw.  c uXf y y y y y y y y y y i i i i i i i i i u y y y = xXl   o O O O O O O O O o o o O l o o o o o o o o o o o o O > > O o o o o o o o o o o o o c = . 3.9X.X@ = = = = = # %X;.< & = = = = = = = = = = = , x = = = = = = = = = = = = o ",
"3 F L 5 3 E L F 6 L L E G L F K E 5 5 5 E 5 5 8 Y 5 8 Y 5 5 5 6 6 F F H Q 1XC C x b b 7 9 9 9 5 G F 5 9 9 9 9 9 9 9 9 9 5 O.v 9 8 7 7 7 8 9 Y Y 9 7 8 8 r X.8 8 8 8 7 R 8 8 9 Y E 7 8 7 R 8 7 v R 9 8 R 7 8 8 8 8 8 8 8 8 8 8 8 8 7 n.z.8 n.N.7 m B h g j g 3.2.uXp.X y y y y y y * rX9.  c yXf y y y y y y y y y y p p p p p p p p p u y y y = xXl   o O O O O O O O O O o o O l o o o o o o o o o o o o O > > O o o o o o o o o o o o = c . 1.9X.X+ = = = = = = # %X;.< & = = = = = = = = = = = , x = = = = = = = = = = = = o ",
"3 F L 6 3 W L F 6 F G ^ L L F 5 E 5 5 5 E 5 5 8 Y 5 8 E 5 9 5 6 6 F F H Q 1XC C x b b 7 7 9 9 5 G F 5 9 9 9 9 9 9 9 9 9 9 O.Y 9 8 8 8 8 8 9 Y Y 9 8 8 9 r X.8 8 8 8 8 R 8 8 9 Y E 9 8 8 R 8 7 Y R 9 8 R 7 8 8 8 8 8 8 8 8 8 8 8 8 7 b.J 4 M.m.F m B h g j g 3.2.uXp.X y y y y y y * rX9.  c yXf y y y y y y y y y y i i i i i i i i i u y y y = xXl   o O O O O O o o o o o o O l o o o o o o o o o o o o O > > o o o o o o o o o o o o = 4 1.9X.X+ = = = = = = = # %X;.< = = = = = = = = = = = = , x = = = = = = = = = = = , o ",
"1 F L 5 1 W G F F F F ^ G G 6 5 Y 3 5 5 Y 5 3 8 8 1 8 Y 3 5 5 6 6 F F H Q 1XB B x b b 7 5 5 5 3 G F 5 5 5 5 5 9 9 9 9 9 5 O.v 5 9 9 9 9 9 5 Y Y 5 9 9 9 7 X.8 9 9 9 9 R 8 9 9 Y Y 5 7 9 R 8 9 v T 5 8 R 9 7 7 7 7 7 7 7 7 7 7 7 7 7 8 8 7 n.m.F g B h g j g 3.2.uXp.X y y y y y y * rX9.  c yXf y y y y y y y y y y i p p p p p p p p u y y y = xXl   O O O O O O O O O O O O O l o O O O O O O O O o o o O > > O o o o o o o o o o o o . 1.9X.X. o o o o o o o & O %X;.< o o o o o = = = = = = o = c o = = = = = = = = = = = O ",
"Y W I W E ^ W I ^ W W ^ I Y Y E R Y Y E R Y Y R R Y R Q Y E E E E W W G ! 3X,.7.Q Q Q T T E R T ^ W T E E E E R R R R R E O.R E R R R R R R Q Q R R R R R X.R R R R R ! R R R Q ! R R R ! R R R ! R R ! R R R R R R R R R R R R R R R R T N.m.W S ,.S ,.<.,.1X2.uXp.X y y y y y y * rX9.  c yXf y y y y y y y y y y i p p p p p p p p u y y y = xXl o l > l > > > l l l l l l l x l l l l l l l l l l l l l x x l l l l l l l l l l c 4 1.9X1X4 c c c c c c c c c q %X;.D c c c c c c c c c c c c x S c x x x x x x x x x x x l ",
"3 L F L L ^ F L L F F ^ F 5 5 9 E 5 9 9 E 9 5 Y Y 5 8 E 5 9 9 6 F F F H Q 1XC C C b b 8 7 9 8 7 W F 7 8 8 8 8 8 8 8 8 8 9 O.Y 9 8 8 8 8 8 7 E Y 8 8 8 8 r X.8 8 8 8 8 R 8 8 8 Y E 8 8 8 R 8 8 Y R 8 v R 8 8 8 8 8 8 8 8 8 8 8 8 8 8 8 8 7 b.m.F m B g j j j 4.2.uXp.X y y y y y y * rX9.  c yXf y y y y y y y y y y i i i i i i i i i u y y y = xXl   o o o o o o o o o o o o o l = o o o o o o o o o o = o > l o = = = = = = = = = + >.9X2X+ = = = = = = = = = - # %X;.q = = = = = = = = = = = = , x = , , , , , , , , , , , o ",
"1 G 5 F F W 6 G F 3 F I 3 5 5 5 Y 3 5 5 Y 5 5 8 v 1 8 Y 5 5 5 6 6 F F H R 1XC B x b b 7 9 5 5 3 G F 5 9 9 9 9 9 9 9 9 9 5 O.v 5 9 9 9 9 9 5 Y Y 9 9 9 9 7 X.8 9 9 7 9 R 8 8 9 Y E 9 8 9 R 8 9 8 E 9 8 R 7 8 8 8 8 8 8 8 8 8 8 8 8 8 8 8 8 7 n.G g B h g j g 3.2.uXp.X y y y y y y * rX9.  c yXf y y y y y y y y y y p p p p p p p p p u y y y = xXl   O O O O O O O O O O O O O l o O O O O o o o o o o o O > > O o o o o o o o $ . >.9XXX4 o o o o o o o o o o & # %X;.< o = = = = = = = = = = = = c o = = = = = = = = = = = O ",
"5 G 6 5 5 Y 5 F 6 3 F I 3 5 5 5 Y 5 5 5 E 5 5 8 v 3 8 Y 5 5 5 6 6 F F H Q 1XC C x b b 7 9 5 9 3 G F 5 9 9 9 9 9 9 9 9 9 9 O.v 9 9 9 9 9 9 5 Y Y 9 8 7 9 r X.8 7 7 7 9 R 8 8 9 Y E 9 8 9 R 8 9 v R 9 8 R 9 8 8 8 8 8 8 8 8 8 8 8 8 8 8 8 8 7 n.G g B h g j g 3.2.uXp.X y y y y y y * rX9.  c yXf y y y y y y y y y y i i i i i i i i i u y y y = xXl   O O O O O O O O O O O o O l o o o o o o o o o o o o O > > O o o o o o o * . #.9X2Xo l o o o o o o o o o o = # %X;.< $ = = = = = = = = = = = = c = = = = = = = = = = = = o ",
"G G 5 5 5 Y 5 5 5 5 6 W 3 5 5 5 Y 5 5 5 Y 5 5 8 v 3 8 Y 5 5 5 6 6 F F H Q 1XC C x b b 7 9 5 9 3 G F 5 9 9 9 9 9 9 9 9 9 5 O.v 9 9 9 9 9 9 5 Y Y 9 8 7 9 r X.8 7 7 7 9 R 8 8 9 Y E 9 8 9 R 8 9 v R 9 8 R 9 8 8 8 8 8 8 8 8 8 8 8 8 8 8 8 8 7 n.x.g B h g j g 3.2.uXp.X y y y y y y $ rX9.  c yXf y y y y y y y y y y p p p p p p p p p u y y y = xXl   O O O O O O O O O O O o O l o O o o o o o o o o o o O > > O o o o o o * . #.9X2X. o c o o o o o o o o o o = # %X;.< $ = = = = = = = = = = = = c = = = = = = = = = = = = o ",
"F G 5 5 5 Y 5 5 5 5 5 Y 5 5 5 5 Y 5 5 5 Y 5 5 8 v 3 8 Y 5 5 5 6 6 F F H Q 1XC C x b b 7 9 5 9 3 G F 5 9 9 9 9 9 9 9 9 9 5 O.v 5 9 9 9 9 9 5 Y Y 5 7 7 9 r X.8 7 7 7 9 R 8 7 9 Y E 9 8 9 R 8 9 v R 9 8 R 9 8 8 8 8 8 8 8 8 8 8 8 8 8 8 8 8 4 x.M.c B h g j g 3.2.uXp.X y y y y y y $ rX9.  c yXf y y y y y y y y y y i i i i i i i i i u y y y = xXl   O O O O O O O O O O O o O l o O o o o o o o o o o o O > > O o o o o $ . k 9X2Xo o * c o o o o o o o o o o & # %X;.< $ = = = = = = = = = = = = c o = = = = = = = = = = = o ",
"5 6 5 5 5 Y 5 5 5 5 5 Y 5 5 5 5 Y 5 5 5 Y 5 5 8 v 3 8 Y 5 5 5 6 6 F F H Q 1XC C x b b 7 9 5 9 3 G F 5 9 9 9 9 9 9 9 9 9 5 O.v 9 9 9 9 9 9 5 Y Y 5 9 9 9 r X.8 7 7 7 9 R 8 7 9 Y Y 9 8 7 R 8 9 v R 9 8 R 9 8 8 8 8 8 8 8 8 8 8 8 8 8 8 8 8 4 x.M.c B h g j g 3.2.uXp.X y y y y y y $ rX9.  c yXf y y y y y y y y y y p p p p p p p p p u y y y = xXl   O O O O O O O O O O O O O l o O O o o o o o o o o o O > > O o o o $ . k 9X2Xo o o o c o o o o o o o o o o & # %X;.< $ = = = = = = = = = = = = c o = = = = = = = = = = = o ",
"3 3 5 5 5 Y 5 5 5 5 5 Y 5 5 5 5 Y 5 5 5 Y 5 5 8 v 3 8 Y 5 5 5 6 6 F F H Q 1XC C x b b 7 9 5 9 3 G F 5 9 9 9 9 9 9 9 9 9 5 O.v 5 9 9 9 9 9 5 Y Y 5 9 9 9 r X.8 7 7 7 9 R 8 7 9 Y Y 9 8 9 R 8 9 v R 9 8 R 9 8 8 8 8 8 8 8 8 8 8 8 8 8 8 8 8 4 x.M.c B h g j g 3.2.uXp.X y y y y y y $ rX9.  c fXf y y y y y y y y y y i i i i i i i i i u y y y = xXl   O O O O O O O O O O O O O l o O O O o o o o o o o o O > > O o o $ . h 9X2Xo o $ o o l o o o o o o o o o o & # %X;.< $ = = = = = = = = = = = = c o = = = = = = = = = = = O ",
"5 5 5 5 5 Y 5 5 5 5 5 Y 5 5 5 5 Y 5 5 5 Y 5 5 8 v 3 8 Y 5 5 5 6 6 F F H Q 1XC C x b b 7 9 5 9 3 G F 5 9 9 9 9 9 9 9 9 9 5 O.v 5 9 9 9 9 9 5 Y Y 5 9 9 9 7 X.8 7 7 7 9 R 8 7 9 Y Y 9 8 9 R 8 9 v R 9 8 R 9 8 8 8 8 8 8 8 8 8 8 8 8 8 8 8 8 4 x.M.c B h g j g 3.2.uXp.X y y y y y y $ iX9.  c jXf y y y y y y y y y y i p p p p p p p p u y y y = xXl   O O O O O O O O O O O O O l o O O O O o o o o o o o O > > O o $ . h 7X5Xo o $ o o o l o o o o o o o o o o & # %X;.< o = = = = = = = = = = = = c o = = = = = = = = = = = O ",
"5 5 5 5 5 Y 5 5 5 5 5 Y 5 5 5 5 Y 5 5 5 Y 5 5 8 v 3 8 Y 5 5 5 6 6 F F H Q 1XC C x b b 7 9 5 9 3 G F 5 9 9 5 9 9 9 9 9 9 5 O.v 5 9 9 9 9 9 5 Y Y 5 9 9 9 7 X.8 9 7 7 9 R 8 7 9 Y Y 9 8 9 R 8 9 v R 9 8 R 9 8 8 8 8 8 8 8 8 8 8 8 8 8 8 8 8 4 x.M.x m h g j g 3.2.uXp.X y y y y y y $ iX9.  c jXf y y y y y y y y y y i p p p p p p p p u y y y = xXl   O O O O O O O O O O O O O l o O O O O O o o o o o o O > > O $ . h 7X5X* o o o o o o l o o o o o o o o o o & # %X;.< o o o = = = = = = = = o = c o = = = = = = = = = = = O ",
"5 5 5 5 5 Y 5 5 5 5 5 Y 5 5 5 5 Y 5 5 5 Y 5 5 8 8 1 8 Y 5 5 5 6 6 F F H Q 1XC C x b b 7 5 5 9 3 G F 5 9 9 9 5 9 9 9 9 9 5 O.v 5 9 9 9 9 9 5 Y Y 5 9 9 9 7 X.8 9 9 7 9 R 8 7 9 Y Y 9 8 9 R 8 9 8 E 5 8 R 9 8 8 8 8 8 8 8 8 8 8 8 8 8 8 8 8 4 x.m.v.D h g j g 3.2.uXp.X y y y y y y $ iX9.  c jXf y y y y y y y y y y i i i i i i i i i u y y y = xXl   O O O O O O O O O O O O O l o O O O O O o o o o o o O > > X . a 7X6X* . o o o o o o l o o o o o o o o o o & O %X;.< o = o o = = = = = = = o = c o = = = = = = = = = = = O ",
"5 5 5 5 5 Y 5 5 5 5 5 Y 5 5 5 5 Y 5 5 5 Y 5 5 8 8 1 8 Y 5 5 5 6 6 F F H Q 1XC C x b b 7 5 5 9 3 G F 5 9 9 9 9 5 9 9 9 9 5 O.v 5 9 9 9 9 9 5 Y Y 5 9 9 9 7 X.8 9 9 9 9 R 8 7 9 Y Y 9 8 9 R 8 9 8 E 5 8 R 9 8 8 8 8 8 8 8 8 8 8 8 8 8 8 8 8 4 b.m.V.C h g j g 3.2.uXp.X y y y y y y $ iX9.  c jXf y y y y y y y y y y p p p p p p p p p u y y y = xXl   O O O O O O O O O O O O O l o O O O O O O o o o o o O , f . a 7X6Xa . o o o o o o o l o o o o o o o o o o & O %X;.< o o o o o o = = = = = o = c o = = = = = = = = = = = O ",
"5 5 5 5 5 Y 5 5 5 5 5 Y 5 5 5 5 Y 5 5 5 Y 5 5 8 8 1 8 Y 5 5 5 6 6 F F H R 1XC C x b b 7 5 5 5 3 G F 5 9 9 9 9 9 5 9 9 9 5 O.v 5 9 9 9 9 9 5 Y Y 5 9 9 9 7 X.8 9 9 9 9 R 8 9 9 Y Y 9 8 9 R 8 9 8 E 5 8 R 9 8 7 7 8 8 8 8 8 8 8 8 8 8 8 8 8 4 b.m.V.C h g j g 3.2.uXp.X y y y y y y $ iXq.  c jXf y y y y y y y y y y i i i i i i i i i u y y y = xXl   O O O O O O O O O O O O O l o O O O O O O O o o o o O > , * 7X7Xa . o o o o o o o o l o o o o o o o o o o & O %X;.# o = o o o o o o = = = o = c o = = = = = = = = = = = O ",
"5 5 5 5 5 Y 5 5 5 5 5 Y 5 5 5 5 Y 5 5 5 Y 5 5 8 v 1 8 Y 5 5 5 6 6 F F H R <XC C x b b 7 5 5 5 3 G F 5 9 9 9 9 9 9 9 9 9 5 O.v 5 9 9 9 9 9 5 Y Y 5 9 9 9 7 X.8 9 9 9 9 R 7 9 9 Y Y 9 8 9 R 8 9 8 E 5 8 R 9 8 7 7 7 7 7 8 8 8 8 8 8 8 8 8 8 4 b.m.C.n h g j g 3.2.uXp.X y y y y y y $ iXq.  c jXf y y y y y y y y y y p p p p p p p p p u y y y = xXl   O O O O O O O O O O O O O l o O O O o O o o O o o o O , g 5X7Xa . o o o o o o o o o l o o o o o o o o o o & O %X;.# o = o o o o o o o = = o = c o = = = = = = = = = = = O ",
"1 5 5 5 5 Y 5 5 5 5 5 Y 5 5 5 5 Y 1 5 5 Y 5 3 8 8 1 8 Y 3 5 5 6 6 F F H R <XB B x b b 7 5 5 5 3 G F 5 5 5 5 5 5 5 5 5 5 5 O.v 5 9 9 9 9 9 5 Y v 5 9 9 9 7 X.9 9 9 9 9 R 9 9 5 Y Y 5 7 9 R 8 9 8 E 5 8 R 9 9 9 9 9 9 9 9 9 9 9 9 9 9 9 7 8 4 z.m.C.n h g j g 3.2.uXp.X y y y y y y $ iXq.  c jXf y y y y y y y y y y i i i i i i i i i u y y y = xXl   O           O O O O O O   > o O O O O O O O O O O o   - 6X7Xa . o o o o o o o o o o l o o o o o o o o o o & O %X;.# o o o o o o o o o o o o = c o = o o o o o o o = = = O ",
"Y Y E E Y Q E E E Y E Q E E E E Q E E E ! E E R R Y R Q Y E E E W W W W ! 3X7.7.Q Q Q R R R R T ^ W T R R R R R R R R R R O.R R R R R R R R ! Q R R R R Q X.R R R R R ! R R R Q ! R R R ! R R Q ! R R ! R R R R R R R R R R R R R R R R R n b.m.B.X.V ,.<.,.1X2.uXp.X y y y y y y $ tXq.  x jXf y y y y y y y y y y p p p p p p p p p u y y y = xXl o l l l l l l l l l l l l l C l l l l l l l l l l z l c 5X7XV 4 c c c c c c c c c c c C c c c c c c c c c c x q -X;.D c c c c c x x x x x x c x S c x x x x x x x x x x x l ",
"5 5 5 5 5 Y 5 5 5 5 5 Y 5 5 5 5 Y 5 5 5 Y 5 5 8 v 1 8 Y 5 5 5 6 6 F F H Q <XB C x b b 7 9 5 9 3 G F 5 9 9 9 9 9 9 9 9 9 5 O.v 5 9 9 9 9 9 5 Y Y 5 9 9 9 7 X.8 7 7 7 9 R 8 7 9 Y Y 9 8 9 R 8 9 v R 9 8 R 9 8 8 8 8 8 8 8 8 8 8 8 8 8 8 8 8 4 z.m.B.R h g j g 3.2.aXp.X y y y y y y $ tXq.  x lXf y y y y y y y y y y i i i i i i i i i u y y y = xXl   O O O O O O O O O O O O O l o O O O O O o o o o O o 5X9Xk . $ o o o o o o o o o o o l o o o o o o o o o o & O %X;.< o = o o o = = = = = = o = c o = = = = = = = = = = = O ",
"1 5 5 5 5 Y 5 5 5 5 5 Y 5 5 5 5 Y 5 5 5 Y 5 5 8 8 1 8 Y 3 5 5 6 6 F F H R <XB B b b b 7 5 5 5 3 G F 5 5 5 5 5 5 5 5 5 9 5 O.8 5 9 9 9 9 9 5 Y Y 5 9 9 9 7 X.9 9 9 9 9 R 7 9 5 Y Y 5 9 9 R 8 9 8 E 5 8 R 9 7 9 9 9 9 9 9 9 9 9 9 9 9 9 9 8 4 z.m.B.R h g j g 3.2.aXp.X y y y y y y $ tXq.  x lXf y y y y y y y y y y i p p p p p p p p u y y y = xXl   O     O O O O O O O O O   > o O O O O O O O o O o 5X9Xj , O o o o o o o o o o o o o l o o o o o o o o o o & O %X;.# o o o o o o o o o o o o = c o o o o = = = = = = = = O ",
"1 5 5 5 5 Y 5 1 1 5 5 Y 5 5 5 5 Y 5 5 5 Y 5 5 8 8 1 8 Y 1 5 5 6 6 F F H R <XB B b b b 7 5 5 5 3 G F 3 5 5 5 5 9 9 9 9 9 5 O.8 5 9 9 9 9 9 5 Y 8 5 5 9 9 7 X.9 9 9 9 9 R 7 9 5 Y Y 5 7 5 E 9 5 8 E 5 8 R 9 8 7 7 7 7 7 7 7 7 7 7 7 7 7 7 8 7 F M.m.R h g j g 3.2.aXp.X y y y y y y $ tXq.  x lXf y y y y y y y y y y i p p p p p p p p u y y y = xXl   O     O O O O O O O O O   > o O O O O O O O O O 2X9Xk < y O o o o o o o o o o o o o l o o o o o o o o o o & O %X;.# o o o o o o o o o o o o = c o = o o o o = = = = = = O ",
"1 5 5 5 5 ! E Y R 5 5 Y 5 5 5 5 Y 5 5 5 Y 5 5 8 v 1 8 ! 8 Y E 6 6 F F H R <XB B b b 7 7 5 5 5 3 W ! Y Q R 5 5 5 9 9 9 9 5 O.8 5 9 9 5 9 9 9 ! Q Y Q 8 5 7 X.9 9 9 9 9 R 7 9 5 Y Y 5 9 v e.E R Q E 5 8 R 9 9 9 9 9 7 7 7 7 7 7 7 7 7 7 7 9 7 8 n.m.W h g j g 3.2.aXp.X y y y y y y $ tX0.  x lXf y y y y y y y y y y i i i i i i i i i u y y y = xXl   O       O O O O O O O O   > o O O O O O O O O 2X9X#.  : > O o o o o o o o o o o o o l o o o o o o o o o o & O %X;.# o o o o o o o o o o o o = c o = o o o o o o = = = = O ",
"1 5 5 1 Y ! 1 Q R 1 5 Y 5 5 5 5 Y 5 5 5 Y 5 5 8 8 1 ! R 5 ! Y 5 6 F F H R <XB B b b 7 7 5 5 5 7 ^ F 5 Y R 5 5 5 5 9 9 9 5 O.8 5 9 9 9 9 5 E ! 8 R ! Y 5 7 X.9 9 9 9 9 R 9 9 5 Y Y 5 9 ! Q E Q ! R 5 8 R 9 9 9 9 9 9 9 9 9 7 7 7 7 7 7 7 9 7 8 n.m.W h g j g 3.2.aXp.X y y y y y y $ tX0.  x lXf y y y y y y y y y y p p p p p p p p p u y y y = xXl   O         O O O O O O O O > o O O O O O O . 2X9X#.. O , >   o o o o o o o o o o o o l o o o o o o o o o o & O %X;.# o o o o o o o o o o o o = c o = o o o o o o o o o = O ",
"1 5 5 1 E ! 2 5 R Y 1 Y 5 5 5 5 Y 5 5 5 Y 5 5 8 8 1 ! Y 9 ! R F 6 F F H R <XB B b b 7 7 5 5 5 8 ^ 6 3 R 8 5 5 5 5 5 5 9 5 O.8 5 9 9 9 9 5 R R 9 R ! Y 5 7 X.9 9 9 9 9 R 9 9 5 Y Y 5 8 ! R 9 R e.R 5 8 R 9 9 9 9 9 9 9 9 9 9 9 9 9 9 7 7 9 7 8 n.m.W h g j g 3.2.aXp.X y y y y y y $ tX0.  x kXf y y y y y y y y y y i i i i i i i i i u y y y = xXl   O           O O O O O O   > o O O O O O . XX9X#.. o O , >   o O o o o o o o o o o o l o o o o o o o o o o $ O %X;.# o o o o o o o o o o o o = l o o o o o o o o o o o = O ",
"1 5 5 1 9 ! Y 8 R 8 5 Y 5 5 5 5 Y 5 5 5 Y 5 5 8 8 1 R ! 8 R R 6 6 F F H R <XB B b b 7 7 5 5 5 3 ^ W 8 R 5 5 5 5 5 5 5 5 5 O.8 5 9 9 9 9 5 8 e.R R ! Y 5 7 X.9 9 9 9 9 R 9 9 5 v Y 5 5 R e.Y R ! E 5 8 R 9 9 9 9 9 9 9 9 9 9 9 9 9 9 9 9 9 9 9 n.m.b.h g j g 3.2.aXp.X y y y y y y $ tX0.  x kXl y y y y y y y y y y p p p p p p p p p u y y y = xXl   O             O O O O O   > o O O O O . XX9X#.. o O O , >   o O O o o o o o o o o o l o o o o o o o o o o $   %X;.# o o o o o o o o o o o o = l o o o o o o o o o o o = O ",
"1 5 5 5 1 E 8 9 9 1 5 Y 1 5 5 9 Y 5 5 9 E 5 5 8 8 1 8 R 5 9 9 6 6 F F H R <XC B b b b 7 9 5 5 3 G E 7 9 5 9 9 5 5 9 9 9 5 O.v 9 9 9 9 9 9 5 E E 9 8 5 9 7 X.8 7 7 7 9 R 8 9 5 Y E 5 9 9 Q 8 8 8 E 9 8 R 9 8 8 8 9 7 8 8 9 9 9 9 9 7 7 7 8 7 7 n.m.N.h g j g 3.2.aXp.X y y y y y y $ uX0.  x kXl y y y y y y y y y y i i i i i i i i i u y y y = xXl   O               O O O O   > o O O O . .X9X#.. o O O   , >   o O O O o o o o o o o o l o o o o o o o o o o $ O %X;.# o o o o o o o o o o o o = l o o o o o o o o o o o = O ",
"1 2 1 5 2 8 2 2 1 1 2 8 5 1 2 1 8 1 5 2 8 5 1 5 8 1 5 8 2 1 5 0 1 6 F H T <Xc C c 4 4 7 1 1 5 1 F 6 2 5 5 1 1 5 5 1 1 1 1 O.5 1 9 5 1 3 9 1 8 5 2 5 5 1 3 X.5 1 1 1 9 E 1 5 9 8 8 5 9 1 Y 1 1 v Y 2 8 R 1 3 1 5 8 5 1 1 9 9 9 9 5 5 5 5 5 5 5 n.m.N.f h j g 3.2.aXp.X y y y y y y $ uX0.  x kXl y y y y y y y y y y p p p p p p p p p u y y y = xXl   O                 O O O   > O O O . .X9X>.. o O O O   , >   o O O O O o o o o o o o l o o o o o o o o o o $ O %X;.# o o o o o o o o o o o o = l o o o o o o o o o o o = O ",
"R mXH.+ H.H.pXsX5 E mXH.+ H.sXsXmX5 Y mXH.+ H.nX! 1 dXH.mXH.@ J.mX! H H.rXeXrX> p.mX6.3 sXsX2 e.H.H.mX! 1 dXsX1 ! sXpXmXe.P dXsX5 ! nXH.@ H.H.sXsX5 ! mXH.e H.sXsXsX9 ! nXH.2 H.nXR 8 dXH.mXH.2 H.nX! 8 sXpXmXH.2 H.mXpXE 5 8 5 ! e.e.e.e.e.e.N.C.C.9.k j g 3.2.aXp.X y y y y y y $ uX0.  x kXl y y y y y y y y y y i i i i i i i i i u y y y = xXl   O                 O O O   > O O . .X9X1.. X O O O O   , >   o O O O O O o o o o o o l o o o o o o o o o o $ O %X;.# o o o o o o o o o o o o = l o o o o o o o o o o o = O ",
"! PXpX. sXmXnXHX5 R PXdX+ pXGXJXHX9 R LXsX+ pXPX! 1 nXdXLXsX+ H.LXe.6 MXsXwXlX= rXPXe.1 GXGX2 e.MXsXPXe.2 GXJX1 e.HXnXLXe.r GXJX1 e.PXpX+ sXmXGXJX5 ! PXpX< sXGXJXJX9 ! PXdX+ dXPX! 8 GXdXLXsX+ pXPX! 5 GXnXLXsX+ pXLXnXR 5 8 5 e.sXsXsXsXmXmXC.K.S.H.k j g 3.2.aXp.X y y y y y y $ yX0.  x kXl y y y y y y y y y y p p p p p p p p p u y y y = xXl   O                   O O   > o   .X9X1.. O O O O O O   , >   O O O O O O O O o o o o l o o o o o o o o o o o   %X;.# o o o o o o o o o o o o = l o o o o o o o o o o o =   ",
"! LXpX+ pXsXnXGX5 R LXpX+ pXnXGXGX9 R HXdX+ H.LX! 1 nXpXHXdX+ H.HX^ 6 MXsXwXjX, H.LXe.1 nXnX2 e.MXdXLXe.2 nXGX1 e.GXnXHXe.P nXGX1 ! LXH.+ sXsXnXGX5 ! LXpX< pXnXGXGX9 ! LXpX+ pXLX! 8 nXpXHXpX+ pXLX! 5 nXmXHXdX+ pXHXnXR 5 8 5 e.sXsXmXmXsXvXC.K.S.H.k j g 3.2.aXp.X y y y y y y $ yX0.  x kXl y y y y y y y y y y i p i i i i i i p u y y y = xXl   O                     O   f . .X9X1.  O O O O O O O   , >   O O O O O O O O O o o o l o o o o o o o o o o o   %X;.# o o o o o o o o o o o o = l o o o o o o o o o o o =   ",
"! LXpX+ pXsXnXJX5 R LXpX+ pXGXGXJX9 R LXdX+ H.LX! 1 nXpXHXsX+ H.HX^ 6 MXsXwXjX- H.LXe.1 GXGX2 e.MXdXLXe.2 nXGX1 e.GXnXLXe.r nXGX1 ! LXH.+ sXsXnXGX5 ! LXpX< dXGXGXGX5 ! LXpX+ pXLX! 8 nXpXLXdX+ pXLX! 5 nXnXHXdX+ pXLXnXR 5 8 5 e.sXsXdXk.k.k.Z.K.K.H.k j g 3.2.aXp.X y y y y y y $ yX0.  x vXl y y y y y y y y y y i i i i i i i i i u y y y = xXl                         O   , 1.9X1.  O O O O O O O O   , >   O O O O O O O O O O O o l o o o o o o o o o o o   %X=.# o o o o o o o o o o o o = l o o o o o o o o o o o o   ",
"! LXpX+ pXsXnXJX5 R LXpX+ pXGXGXJX9 R LXdX+ H.LX! 1 nXpXHXsX+ H.HX^ 6 MXsXwXjX- H.LXe.1 GXGX2 e.MXdXLXe.2 nXGX2 e.GXnXLXe.r nXGX1 ! LXH.+ sXsXnXGX5 ! LXpX< dXGXGXGX5 ! LXpX+ pXLX! 8 nXpXLXdX+ pXLX! 5 nXnXHXdX+ pXLXnXR 5 8 5 e.sXsXH.pXmXsXC.K.K.J.k j g 3.2.aXp.X y y y y y y $ yX0.  x vXl y y y y y y y y y y p p p p p p p p p u y y y = xXl   O   O   O O   O O O O O   1.9X1.. O O O O O O O O O   , > O o O O O o o o o o o o o l o o o o o o o o o o o O %X;.# o o o o o o o o o o o o = l o o o o o o o o o o o = O ",
"! LXpX+ dXsXnXJX5 Q LXpX+ pXGXGXJX8 R LXdX+ H.LX! 5 nXpXHXsX+ H.HX^ H MXsXwXjX: rXLXe.3 GXGX2 e.MXdXLXe.2 nXGX1 e.GXnXLXe.P nXGX3 e.LXH.+ sXsXnXGX5 ! LXpX< dXGXGXGX9 ! LXpX+ pXLX! 8 nXpXLXdX+ pXLX! 9 GXnXHXsX+ pXLXnX! Y R Y e.sXsXH.H.mXpXN.K.K.J.<.,.V 1X2.iXp.X y y y y y y $ yX0.  x zXl y y y y y y y y y y i i i i i i i i i u y y y = xXy o > > > > > > > > > > f , 1.9X.X, f y > > > > > > > l > c x > l l l l l l l l l l l l x l l l l l l l l l l z q %X;.q l l l l l l l l l l l l c C l l l l l l l l l l l c > ",
"E LXpX  pXsXnXJX2 Y LXpX  pXGXGXJX1 Y LXpX  H.LX! 2 nXpXHXdX. H.HX! 2 MXsXwXgXo h.LXw.+ GXGX+ e.MXdXLXe.+ nXGX+ e.GXnXLXe.0 nXGX2 ! LXH.. dXsXnXGX2 Q LXpX. pXGXGXGX1 R LXpX. pXLXR 1 nXpXLXpX. H.LX! 1 nXnXHXdX. H.LXnXR 5 9 5 e.sXmXH.! mXe.n.dXK.J.k k h 3.2.iXp.X y y y y y y $ yX0.  x zXl y y y y y y y y y y p p p p p p p p p u y y y = xXl                     O   >.9X.X  O O           O O O O   = ,   O O O O O O O O O O O O l O O O O O O O O O O o   %X=.# O o o o o o o o o o o o o l O o o o o o o o o o o o   ",
"pXHXmXH.nXsXnXJXH.pXHXmXH.nXnXGXJXH.pXHXmXH.mXHXH.H.GXpXHXmXH.mXJXH.H.MXsXwXcXf.vXIXiXH.GXGXH.sXMXsXLXpXH.GXGXH.sXGXnXHXpXH.GXGXH.dXHXmXH.nXdXnXJXH.dXHXvXk.nXnXGXGXH.dXHXmXH.nXHXH.pXnXpXHXmXH.nXHXpXH.GXnXHXmXH.mXHXnXR 5 8 5 e.sXsXdXH.dXH.V.K.K.J.k k h 3.2.iXp.X y y y y y y $ yX0.  x zXl y y y y y y y y y y i i i i i i i i i u y y y = xXl                   O   >.9X.X, O O O O O O O O O O O O   , >   O O O O O O O O O o O o l O o o o o o o o o o o   %X;.# o o o o o o o o o o o o = l o o o o o o o o o o o o   ",
"HXJXGXGXHXpXnXJXnXHXJXGXGXHXnXGXJXnXHXJXGXGXHXJXnXHXGXpXJXGXGXHXGXMXGXnXsXwXSXSXIXFXnXJXHXGXnXLXsXsXHXnXJXHXGXnXHXnXnXHXnXNXHXGXnXHXJXGXGXHXpXnXJXnXHXJXnXAXHXnXGXJXnXHXJXGXGXHXJXnXHXGXpXHXGXGXHXJXnXHXJXmXHXGXGXHXJXnXR 5 7 5 e.sXsXsXsXsXvXC.K.K.A.k k h 3.2.iXp.X y y y y y y $ yX0.  x zXl y y y y y y y y y y p p p p p p p p p u y y y = xXl                 O   >.9XXX  > O       O O O O O O O O   , >   O O O O O O O O O O O o l O O O O O o o o o o o   %X=.# o o o o o o o o o o o o = l o o o o o o o o o o o o   ",
"JXHXnXnXHXdXnXJXmXGXHXnXnXHXnXGXJXmXGXHXnXnXJXJXmXGXGXpXHXGXnXJXGXMXnXnXsXwXAXcXFXFXmXGXHXGXmXHXMXsXHXnXGXHXGXmXJXGXnXHXnXMXHXGXmXJXHXnXnXHXpXnXJXmXJXHXnXvXHXnXGXJXmXJXHXnXnXJXJXmXGXGXpXHXnXnXJXJXnXGXJXnXHXGXnXJXJXnXR 5 8 5 e.sXsXsXsXsXsXK.dXK.A.k k h 3.2.iXp.X y y y y y y $ yX0.  x zXl y y y y y y y y y y i i i i i i i i i u y y y = xXl               O   #.9XXX    > O         O O O O O O O   , >   O O O O O O O O O O O O l O O O O O O o o o o o   %X=.# O o o o o o o o o o o o = l o o o o o o o o o o o o   ",
"JXJXnXnXHXpXnXJXmXJXJXnXnXHXnXGXJXmXGXJXnXnXJXJXmXGXGXpXJXnXnXJXGXMXnXnXsXwXAXcXFXFXmXGXJXGXmXHXMXsXHXnXGXJXGXmXJXnXnXHXnXNXJXGXmXJXJXnXnXHXpXnXJXmXJXHXnXvXHXnXGXJXmXJXJXnXnXJXJXmXGXGXpXHXnXnXJXJXnXGXGXmXJXnXnXJXJXnXR 5 7 5 ! H.H.H.H.H.H.H.k.S.A.k k h 3.2.iXp.X y y y y y y $ yXr.  x zXl y y y y y y y y y y p p p p p p p p p u y y y = xXl             O   k 9X2X      > O           O O O O O O   = >   O O O O O O O O O O O O l O O O O O O O O o o o   %X=.# O o o o o o o o o o o o o l o o o o o o o o o o o o   ",
"Y E Y Y E R Y E Y E E ! Y E Y E ! Y E E ! Y E ! R Y R R Y E Y R W W W G ! 3X,.A Q Q T R R E E T ^ W T E E R R E R E E R Y O.! E E R R E E R R Q R E R R T w.R E R R E ! R R E ! ! Y R R ! R E R ! R R ! R E R R R R R R 9 5 9 9 7 9 9 9 9 9 9 5 b v.c.k j h 3.2.iXp.X y y y y y y $ fXi.  x zXl y y y y y y y y y y i i i i i i i i p u y y y = xXl           O   k 9X2X    O   > O             O O O O O   = ,   O O O O O O O O O O O O l O O O O O O O O O o o   %X=.# O o o o o o o o o o o o o l O o o o o o o o o o o o   ",
"2 2 1 1 2 8 1 2 1 2 1 8 1 1 1 1 8 1 1 1 8 1 2 9 8 2 5 v 2 1 1 1 0 6 H H T <Xc x l 4 4 3 1 1 1 1 G 6 1 1 1 1 1 1 1 1 1 1 1 o.9 1 3 1 1 1 1 1 8 8 1 5 3 1 3 X.5 3 3 3 1 Y 3 3 1 7 8 1 5 3 Y 5 1 9 Y 1 5 Y 1 5 3 5 5 5 3 5 5 9 5 5 5 5 5 5 5 5 9 5 b c.z.k j h 3.2.iXp.X y y y y y y $ fXi.  x cXl y y y y y y y y y y i i i i i i i i p u y y y = xXl         O   k 9X2X    O     > O               O O O O   = ,   O O O O O O O O O O O O l O O O O O O O O O O o   %X=.# O o o o o o o o o o o o o l O o o o o o o o o o o o   ",
"1 5 5 5 5 Y 5 5 5 1 5 Y 1 5 5 5 Y 1 5 5 Y 5 5 8 8 1 8 Y 1 5 5 5 6 F F H R <Xx B x b 7 7 5 5 5 3 G F 3 5 5 5 5 5 5 5 5 5 5 O.8 5 5 5 5 5 5 5 Y 8 5 9 9 5 7 X.9 5 9 5 5 E 9 9 5 8 Y 5 9 5 E 7 5 8 E 5 8 R 5 5 9 5 5 5 9 9 9 5 9 9 9 9 9 9 9 9 9 5 b c.b.w k h 3.2.iXp.X y y y y y y $ fXi.  x cXl y y y y y y y y y y p p p p p p p p p u y y y = xXl           k 9X2X            > O                   O O   = ,   O O O O O O O O O O O O l O O O O O O O O O O o   %X=.# O O O o o O o O o O o o o q O o O o o o o o o o o o   ",
"1 1 1 1 1 Y 5 Q 8 T Q Q Q 9 1 5 Y 1 5 5 Y 1 1 8 8 1 8 Y 5 Q 8 Y 6 F F H R <Xx x x b 7 7 5 5 5 3 G F b Q T 7 5 5 5 5 5 5 5 O.v Q Q T 5 5 5 5 Y 8 5 5 5 5 7 X.9 Q T T 9 E 9 5 5 8 Y 5 5 5 E 9 5 8 Y 5 8 R 5 ! 8 Q Q T 9 9 5 9 9 9 9 9 9 9 9 9 9 5 b c.v.<.V ,.4.>.iXp.X y y y y y y $ fXi.  x cXl y y y y y y y y y y i i i i i i i i i u y y y = xXl         a 7X2XO             > O                     O   = ,   O O O O O O O O O O O O l O O O O O O O O O O o   %X=.= =.*.=.*.O ; -.d =.*.O   *.:.=.=.& o o o o o o o o o   ",
"1 1 1 1 1 Y 7 ! v T T w.v T 1 5 Y 1 5 5 Y 1 1 8 8 1 8 Y 5 Q v ! Y 6 F H R <Xx x x b 7 7 5 5 5 3 G F 3 Q ! Q 8 5 5 5 5 5 5 O.8 T ! Q Q 5 5 5 Y 8 5 5 5 5 7 X.9 6.v Q Q R 5 5 5 8 Y 5 5 5 E 9 5 8 Y 5 8 R 5 Q Q T Q 6.Q 8 5 9 9 9 9 9 9 9 9 9 9 5 b ^ b.V 8.V +X>.uXp.X y y y y y y $ gXi.  x cXl y y y y y y y y y y p p p p p p p p p u y y y = xXy   O   a 7X5XX               > O                     O   = ,   O O O O O O O O O O O O l O O O O O O O O O O o   %X=.# & -. Xd O O s =.o -.& *.#X;.-.-.& O o o o o o o o o   ",
"1 1 1 1 1 Y 5 5 7.T v w.8 T 1 5 Y 1 5 5 Y 1 1 8 8 1 8 Y 1 T v 9.F 6 F H T <Xx x x b 7 7 5 5 5 3 G F v T Q w.5 5 5 5 5 5 5 O.8 8 Q 9.Q 1 5 5 Y 8 5 5 5 5 7 X.9 7 Q w.7.Y 9 5 5 8 Y 5 5 5 E 9 5 8 Y 5 9 R 5 T Q T T q.! 5 9 5 9 9 9 9 9 9 9 9 9 5 b ^ v.,.,.V u.<.uXp.X y y y y y y $ jXi.  x cXl y y y y y y y y y y i i i i i i i i i u y y y = xXf     a 7X5X%                 > O                     O   = ,   O O O O O O O O O O O O > O O O O O O O O O O o   %X#Xs *.d O -.;   =.& *.d & =.*.;.*.=.d O o o o o o o o o   ",
"1 1 1 1 1 Y 5 T T T Q ! Q 7 1 5 Y 1 5 5 Y 1 1 8 8 1 9 Y 1 T v Q R 6 F H T <Xx x x b 7 7 5 5 5 3 G F ! Q T Q v 5 5 5 5 5 5 o.Y Q Q Q Q 7 5 5 Y 8 5 5 5 5 7 X.9 T Q Q Q Q 5 5 5 8 Y 5 5 5 E 9 5 8 Y 5 9 R 5 T v Q Q T Q 8 5 9 9 9 9 9 9 9 9 9 9 5 b W A.,.V ,.4.>.iXp.X y y y y y y $ jXi.  x cXl y y y y y y y y y y p p p p p p p p p u y y y = xXf   a 7X6X%                   > O                     O   = ,   O O O O O O O O O O O O > O O O O O O O O O O o   %X-.d #X*.*.=.d *.#X*.#X*.o *. X:.-.=.& O o o o o o o o o   ",
"1 1 1 1 1 Y 3 5 1 1 5 Y 3 1 1 5 Y 1 3 5 Y 1 1 8 8 1 9 Y 1 5 5 0 6 6 F H T <Xx x x b 7 7 5 5 5 3 G F 3 9 5 5 5 5 5 5 5 5 5 o.8 5 5 5 5 5 5 5 Y 8 5 5 5 5 7 X.5 7 5 5 5 E 5 5 5 8 Y 5 5 5 E 9 5 8 Y 5 9 T 5 5 5 5 5 5 5 5 5 5 5 5 5 5 5 5 5 5 9 5 v W v.m k h 3.2.iXi.$ y y y y y y $ jXi.  C cXl y y y y y y y y y y i i i i i i i i i u y y y = BX4 % 6X6X%                     > O                     O   = ,   O O O O O O O O O O O O > O O O O O O O O O O o   %X=.# o & & o o o o & o & O o & q $ o O o o o o o o o o o   ",
"5 5 5 5 5 E 5 5 5 5 5 E 5 5 5 9 E 5 5 9 E 5 5 F Y 5 8 E 5 9 6 6 F F F H Q 1XC C b b v 8 9 9 6 5 G F 5 6 9 9 9 9 9 9 9 9 5 O.Y 5 9 9 9 9 8 9 E Y 9 9 9 6 8 X.8 9 9 8 9 R 8 8 9 Y E 9 8 9 R 8 9 F R 9 8 R 9 8 8 8 8 8 8 8 8 8 8 8 8 8 8 8 8 8 8 9 T ! V.x j g 3.3.vX$.- y y y y y y $ jXi.  x cXz y y y y y y y y y y p p p p p p p p p u y y y X jXi.XX7X*   O O O O O O O O O O l o O O O O O O O O O O o O , > O o o o o o o o o o o o o l o o o o o o o o o o o O %X;.# o o o o o o o o o o o o = c o o o o o o o o o o o = O ",
". . . . . . . . . . . . . . . . . . . . + . . . . . . . . . . . . + + + + o . . . . . . . . . . + + . . . . . . + + + + . + + . + + + + + + + + + + + + + @ + + + + + + + + + + + + + + + + + + + + + + + + + + + + + + + + + + + + + + + + + + + @ J .     : gXyX$ y y y y y y y $ uXrX  6.zXy y y y y y y y y y y i i i i i i i i i u y y y = $.DX4.%                                                                                                             X                                                           ",
"tXtXtXtXtXtXtXtXtXtXtXtXtXtXtXtXtXtXtXtXtXtXtXtXtXtXtXtXtXtXtXtXtXtXtXtXtXtXtXtXtXtXtXtXtXtXtXtXtXtXtXtXtXtXtXtXtXtXtXtXtXtXtXtXtXtXtXtXtXtXtXtXtXtXtXtXtXtXtXtXtXtXtXtXtXtXtXtXtXtXtXuXtXuXuXtXtXuXuXtXuXuXuXuXuXuXuXuXuXuXuXuXuXuXuXuXuXuXuXuXuXtXtXuXuXuXxXjX- y y y y y y y y - $.cXyXAXp.= y y y y y y y y y y i i i i i i i i p u y y y y $ 9.cXuXrXiXiXiXiXiXiXiXiXiXiXiXiXiXiXiXiXiXiXiXiXiXiXiXiXiXiXiXiXiXiXiXiXiXiXiXiXiXiXiXiXiXtXtXtXtXtXtXtXtXtXtXtXtXiXiXtXtXtXtXtXtXtXtXtXtXtXtXtXtXtXtXtXtXtXtXtXtXtXtXtXtXtXtX",
"d.d.d.d.d.f.d.d.s.s.s.f.s.s.s.s.f.s.s.s.d.s.s.s.s.s.s.s.s.s.s.s.s.s.s.s.s.d.d.d.s.s.s.s.s.s.s.s.s.s.s.s.s.s.s.s.s.s.s.s.s.d.s.s.s.s.s.s.s.s.s.s.s.s.s.s.s.s.s.s.s.s.s.s.s.s.s.s.s.s.s.s.s.s.s.s.s.s.s.s.s.s.s.s.s.s.s.s.s.s.s.s.s.s.s.s.s.s.s.s.s.s.d.s.s.p.7.$ y y y y y y y y y y - M d.6.- y y y y y y y y y y y p p p p p p p p p u y y y y y $ : r.f.d.f.f.f.f.f.f.f.f.f.f.f.f.f.f.f.f.f.f.f.f.f.f.f.f.f.f.d.f.f.f.f.d.d.d.d.d.d.d.d.f.d.d.d.d.d.d.d.d.d.d.d.d.f.f.d.d.d.d.d.d.d.d.d.d.d.d.d.d.d.d.d.d.d.d.d.d.d.d.d.d.d.d.",
"X X X X X X X X X X X X X X X X X X X X X X X X X X X X X X X X X X X X X X X X X X X X X X X X X X X X X X X X X X X X X X X X X X X X X X X X X X X X X X X X X X X X X X X X X X X X X X X X X X X X X X X X X X X X X X X X X X X X X X X X X X X X X X - y y y y y y y y y y : y : $ * y y y y y y y y y y y y i i i i i i i i i u y y y y y y y $ X X X X X X X X X X X X X X X X X X X X X X X X X X X X X X X X X X X X X X X X X X X X X X X X X X X X X X X X X X X X X X X X X X X X X X X X X X X X X X X X X X X X ",
"f f f f f f f f f f f f f f f f f f f f f f f f f f f f f f f f f f f f f f f f f f f f f f f f f f f f z y f f f l l l l l l l l l l l l l l l l l l l l l l l l l l l l l l l l l l l l l l l l l l l l l l l l l l l l l l l l l l l l l l l l l l l l l y y y y y y y y y y : z y y y z y y z : y y y y y y y y p p p p p p p p p u y y y y y y y f l l l l l l l l l l l l l l l l l l l l l f f l l l l l l l l l l l l l l l l l l l l l l l l l l l f f f f f f f f f f f f f f f f f f f f f f f f f f f f f f f f f f ",
"y y y y y y y y y y y y y y y y y y y y y y y y y y y y y y y y y y y y y y y y y y y y y y y y y y y y m y y y y : : : : : : : : : : : : : : : : : : : : : : : : : : : : : : : : : : : : : : : : : : : : : : : : : : : : : : : : : : : : : : : : : : - : - y y y y y y y y y - 7.h.8.* ,.OX8.9.h.A - y y y y y y y i i i i i i i i i u y y y y y y y : : : : : : : : : : : : : : : : : : : : : : y y : : : : : : : : : : : : : : : : : : : : : : : : : : : y y y y y y y y y y y y y y y y y y y y y y y y y y y y y y y y y y ",
"y y y y y y y y y y y y y y y y y y y y y y y y y y y y y y y y y y y y y y y y y y y y y y y y y y y y m y y : S 0.0.0.0.0.0.0.0.0.0.0.0.0.r.r.i.i.i.i.i.i.i.i.i.i.i.i.i.i.i.i.i.i.i.i.a.a.a.a.a.a.a.a.a.a.p.p.p.p.p.p.p.p.p.p.p.p.p.p.p.p.p.p.p.p.s.f.p.f.0.y y y y y y y y : a.B p.y a.M f.s.C a.- y y y y y y y p p p p p p p p p u y y y y y y z C M B C C C C C C C C C C C C S S S S S S S y y C M M M B C C C C C C C C C C C C C C C S S S S S S A z y y y y y y y y y y y y y y y y y y y y y y y y y y y y y y y y y ",
"y y y y y y y y y y y y y y y y y y y y y y y y y y y y y y y y y y y y y y y y y y y y y y y y y y y y m y y : $.jXkXkXkXkXkXkXkXkXkXkXzXzXzXzXzXzXzXzXzXzXcXcXcXcXcXcXcXcXxXxXxXxXxXxXxXxXxXAXAXAXAXAXAXAXAXAXAXAXSXSXSXSXDXDXDXDXDXDXDXDXDXDXDXFXFXFXFXIXrX: y y y y y y y y a.z p.: i.z f.p.z p.- y y y y y y y i i i i i i i i i u y y y y y : S iXyXyXyXyXyXjXjXjXjXlXlXkXkXkXkXkXzXzXzXxXp.- y f.yXuXyXyXyXyXyXjXjXjXjXjXjXlXkXkXkXkXkXkXzXzXzXzXxXtXl y y y y y y y y y y y y y y y y y y y y y y y y y y y y y y y y y ",
"y y y y y y y y y y y y y y y y y y y y y y y y y y y y y y y y y y y y y y y y y y y y y y y y y y y y m y y : A yXlXjXlXlXlXlXlXlXlXkXkXkXkXkXkXkXkXkXkXkXzXzXzXzXzXzXzXzXzXzXcXxXcXcXcXcXxXcXxXxXxXxXxXxXxXxXxXxXxXAXAXAXAXAXAXAXAXAXAXSXSXSXSXSXDXDXSXFXh.: y y y y y y y - 8.f.r.6.8.f.r.r.f.6.- y y y y y y y p p p p p p p p p u y y y y y : C yXzXzXxXcXxXxXxXAXAXxXAXAXAXDXDXFXDXFXDXFXa.- y j.zXkXcXcXcXcXxXcXxXAXxXAXAXAXAXAXAXDXSXDXFXFXDXDXFXuXy y y y y y y y y y y y y y y y y y y y y y y y y y y y y y y y y y ",
"y y y y y y y y y y y y y y y y y y y y y y y y y y y y y y y y y y y y y y y y y y y y y y y y y y y y m y y : A yXlXjXlXlXlXlXlXlXkXkXkXkXkXkXkXkXkXkXzXzXzXzXzXzXzXzXj.cXyXp.iXa.xXrXuXuXrXyXAXxXxXxXxXxXxXxXxXAXAXAXAXAXAXAXAXAXAXSXSXSXSXSXSXDXDXDXSXFXh.: y y y y y y y y y $.z M y $.l z $.y y y y y y y y y i i i i i i i i i u y y y y y : C yXzXtXh.lXrXrXkXrXyXxXyXkXcXyXjXtXxXkXAXDXa.- y g.zXjXrXiXrXtXh.lXjXrXkXyXiXjXxXkXxXjXcXyXyXkXxXzXFXtXf y y y y y y y y y y y y y y y y y y y y y y y y y y y y y y y y y ",
"y y y y y y y y y y y y y y y y y y y y y y y y y y y y y y y y y y y y y y y y y y y y y y y y y y y y m y y : A yXlXjXlXlXlXlXlXlXkXkXkXkXkXkXkXkXkXkXkXzXzXzXzXzXzXzXp.zXlXh.uX8.tXrXuXq.rXxXcXxXxXxXxXxXxXxXxXAXAXAXAXAXAXAXAXAXAXAXSXSXSXSXSXDXDXDXSXFXh.: y y y y y y y y y - y - y - y y - y y y y y y y y y i p p p p p p p p u y y y y y : C yXzXj.g.h.h.h.OXp.jXDXd.rXuXp.iXrXOXrXSXDXa.- y g.cXrXd.jXs.g.rXh.h.j.uXj.zXh.uXj.zXr.lXrXrXr.fXyXFXtXf y y y y y y y y y y y y y y y y y y y y y y y y y y y y y y y y y ",
"y y y y y y y y y y y y y y y y y y y y y y y y y y y y y y y y y y y y y y y y y y y y y y y y y y y y m y y : A yXlXjXlXlXlXlXlXlXkXkXkXkXkXkXkXkXkXkXkXzXzXzXzXzXzXzXf.xXkXrXtXrXi.h.yX6.rXAXxXBXAXxXxXxXxXxXxXAXAXAXAXAXAXAXAXAXAXAXSXSXSXSXSXSXDXDXSXFXh.: y y y y y y y y y y y z z - : : y y y y y y y y y y y y y y y y y y y y y y y y y : C yXzXg.p.yXp.s.uXf.lXkXrXj.h.rXuXcXp.uXFXSXi.- y g.zXjXg.rXrXOXzXrXg.rXrXuXFXrXj.g.uXr.rXyXyXOXi.jXFXtXf y y y y y y y y y y y y y y y y y y y y y y y y y y y y y y y y y ",
"y y y y y y y y y y y y y y y y y y y y y y y y y y y y y y y y y y y y y y y y y y y y y y y y y y y y m y y : A yXlXjXlXlXlXlXlXkXkXkXkXkXkXkXkXkXkXkXkXzXzXzXzXzXzXcXr.rXiXp.rXuXrX9.uXrXOXrXuXtXtXjXAXxXxXxXxXAXAXAXAXAXAXAXAXAXAXAXAXSXSXSXSXSXSXSXSXFXh.: y y y y y y y y y y $ q.8.i.p.$.: y y y y y y y y y y y y > y y > y y y y y y y y : C yXzXg.yXzXf.rXrXg.jXyXrXd.g.tXrXj.iXrXxXSXi.- y g.zXjXrXp.s.f.g.rXrXrXyXd.jXrXzXtXf.rXj.f.rXlXi.iXFXiXf y y y y y y y y y y y y y y y y y y y y y y y y y y y y y y y y y ",
"y y y y y y y y y y y y y y y y y y y y y y y y y y y y y y y y y y y y y y y y y y y y y y y y y y y y m y y : A yXlXjXlXlXlXlXlXlXkXkXkXkXkXkXkXkXkXkXkXzXzXzXzXzXzXzXyXrXyXyXkXkXcXjXzXkXcXjXkXkXlXzXxXxXxXxXxXxXAXAXAXAXAXAXAXAXAXAXAXAXAXSXSXSXSXSXSXDXh.: y y y y y y y y y z a.rX9.a.6.a.- y y y y y y y y y > i &.@.y &.@.@.&.> y y y y y : C yXkXyXkXkXjXkXjXtXfXAXkXkXvXzXlXfXxXzXxXAXi.- y g.kXyXrXjXuXyXrXkXlXrXkXjXyXkXzXkXlXSXcXfXkXxXcXzXDXiXf y y y y y y y y y y y y y y y y y y y y y y y y y y y y y y y y y ",
"y y y y y y y y y y y y y y y y y y y y y y y y y y y y y y y y y y y y y y y y y y y y y y y y y y y y m y y : A yXlXlXlXlXlXlXlXkXkXkXkXkXkXkXkXkXkXkXkXzXzXzXzXzXzXzXxXxXxXxXcXcXcXxXxXxXxXAXxXxXAXxXxXxXxXxXxXAXAXAXAXAXAXAXAXAXAXAXAXAXSXSXSXSXSXSXSXFXj.: y y y y y y y y - 9.6.8.9.f.s.q.- y y y y y y y y y i > @.@.@.@.@.u &.y y y y y y : C yXzXzXzXzXcXcXxXAXAXxXAXAXAXAXSXDXAXDXSXDXi.- y j.zXzXcXzXcXcXxXcXxXAXxXAXAXAXAXAXSXAXSXDXDXSXDXDXFXtXy y y y y y y y y y y y y y y y y y y y y y y y y y y y y y y y y y ",
"y y y y y y y y y y y y y y y y y y y y y y y y y y y y y y y y y y y y y y y y y y y y y y y y y y y y m y y : $.fXjXjXjXlXlXlXlXlXlXkXkXkXkXkXkXkXkXkXkXkXvXzXzXzXzXzXzXzXzXzXzXcXcXcXcXcXcXcXcXcXxXxXxXxXxXxXxXxXxXBXAXAXAXAXAXAXAXAXAXAXAXAXAXSXSXSXAXDXh.: y y y y y y y y - 7.r.p.q.p.7.f.: y y y y y y y y y @.@.&.i @.&.&.&.@.> y y y y y : C rXrXrXrXrXrXiXiXiXiXtXtXtXtXtXtXuXuXuXuXyX0.: f p.rXrXrXrXrXrXrXiXiXiXiXtXtXtXtXtXtXuXuXuXuXyXyXuXyXh.l y y y y y y y y y y y y y y y y y y y y y y y y y y y y y y y y y ",
"y y y y y y y y y y y y y y y y y y y y y y y y y y y y y y y y y y y y y y y y y y y y y y y y y y y y m y y y C 6.7.7.7.7.6.6.6.6.6.6.6.6.6.6.6.6.6.6.6.6.6.6.6.6.6.6.6.6.6.6.6.6.w.w.w.w.w.9.9.9.9.9.9.9.9.9.9.9.9.9.9.9.9.9.9.9.9.9.9.9.9.9.9.9.9.9.9.q.6.y y y y y y y y y y y 6.9.z 8.r.M : y y y y y y y y y , p &.@.i @.p @.@.y y y y y y y l z l l l l l z z z z z z z z z z z z z z z c y y z l l l l l l z z z z z z z z z z z z z z z z z z z x f y y y y y y y y y y y y y y y y y y y y y y y y y y y y y y y y y ",
"y y y y y y y y y y y y y y y y y y y y y y y y y y y y y y y y y y y y y y y y y y y y y y y y y y y y m y y y y : : : : : : : : : : : : : : : : : : : : : : : : : : : : : : : : : : : : : : : : : : : : : : : : : : : : : : : : : : : : : : : : : : : : - : y y y y y y y y y y y - - y - = y y y y y y y y y y y y > , > y > > > > y y y y y y y y y y y y y y y y y y y y y y y y y y y y y y y y y y y y y y y y y y y y y y y y y y y y y y y y y y y y y y y y y y y y y y y y y y y y y y y y y y y y y y y y y y y y y ",
": : : : : : : : : : : : : : : : : : : : : : : : : : : : : : : : : : : : : : : : : : : : : : : : : : : : y : : : : : : : : : : : : : : : : : : : : : : : : : : : : : : : : : : : : : : : : : : : : : : : : : : : : : : : : : : : : : : : : : : : : : : : : : : : : : : : : : : : : : : : : : : : : : y y y y y y : : : : y y : y y y y : : : : : : : : : : : : : : : : : : : : : : : : : : : : : : : : : : : : : : : : : : : : : : : : : : : : : : : : : : : : : : : : : : : : : : : : : : : : : : : : : : : : : : : : : : : : : ",
"B B B B B B B B B B B B B B B B B B B B B B B B B B B B B B B B B B B B B B B B B B B B B B B B B B B B B B B B B B B B B B B B B B B B B B B B B B B B B B B B B B B B B B B B B B B B B B B B B B B B B B B B B B B B B B B B B B B B B B B B B B B B B B B B B B B B B B B B B B B B B B B B B M - $ y y y z m x x x x x x x x x x x x x x x x x x x x x x x x M C B B B B B B B B B B B B B B B B B B B B B B B B B B B B B B B B B B B B B B B B B B B B B B B B B B B B B B B B B B B B B B B B B B B B B B B B B B B B B ",
"SXSXSXSXSXSXSXSXSXSXSXSXSXSXSXSXSXSXSXSXSXSXSXSXSXSXSXSXSXSXSXSXSXSXSXSXSXSXSXSXSXSXSXSXSXSXSXSXSXSXSXSXSXSXSXSXSXSXSXSXSXSXSXSXSXSXSXSXSXSXSXSXSXSXSXSXSXSXSXSXSXSXSXSXSXSXSXSXSXSXSXSXSXSXSXSXSXSXSXSXSXSXSXSXSXSXSXSXSXSXSXSXSXSXSXSXSXSXSXSXSXSXSXSXSXSXSXSXSXSXSXSXSXSXSXSXSXSXSXSXSXSXSXSXSXBXxXa.* l $ rXPXIXIXIXKXKXKXKXKXKXKXKXKXKXKXKXKXKXKXKXKXKXKXKXKXFXAXSXSXSXSXSXSXSXSXSXSXSXSXSXSXSXSXSXSXSXSXSXSXSXSXSXSXSXSXSXSXSXSXSXSXSXSXSXSXSXSXSXSXSXSXSXSXSXSXSXSXSXSXSXSXSXSXSXSXSXSXSXSXSXSXSXSXSXSXSXSXSXSXSXSXSXSXSX",
"y y y y y y y y y y y y y y y y y y y y y y y y y y y y y y y y y y y y y y y y y y y y y y y y y y y y y y y y y y y y y y y y y y y y y y y y y y y y y y y y y y y y y y y y y y y y y y y y y y y y y y y y y y y y y y y y y y y y y y y y y y y y y y y y y y y y y y y y y y y y y y y y y x 0.DXj.- $ iXPXKXPXPXPXPXKXKXPXKXPXKXKXKXKXPXKXPXKXKXPXPXPXKXPXgX$ z y y y y y y y y y y y y y y y y y y y y y y y y y y y y y y y y y y y y y y y y y y y y y y y y y y y y y y y y y y y y y y y y y y y y y y y y y y y y ",
"y y y y y y y y y y y y y y y y y y y y y y y y y y y y y y y y y y y y y y y y y y y y y y y y y y y y y y y y y y y y y y y y y y y y y y y y y y y y y y y y y y y y y y y y y y y y y y y y y y y y y y y y y y y y y y y y y y y y y y y y y y y y y y y y y y y y y y y y y y y y y y y y y y $ z SX6.O iXPXKXxXkXIXPXPXPXKXPXPXPXPXPXPXPXPXPXPXPXKXKXKXKXPXfX$ y y y y y y y y y y y y y y y y y y y y y y y y y y y y y y y y y y y y y y y y y y y y y y y y y y y y y y y y y y y y y y y y y y y y y y y y y y y y y ",
"y y y y y y y y y y y y y y y y y y y y y y y y y y y y y y y y y y y y y y y y y y y y y y y y y y y y y y y y y y y y y y y y y y y y y y y y y y y y y y y y y y y y y y y y y y y y y y y y y y y y y y y y y y y y y y y y y y y y y y y y y y y y y y y y y y y y y y y y y y y y y y y y y y z $ OXtX  tXPXKXh.cXrXKXzXDXKXlXIXxXcXDXkXIXvXFXDXzXKXPXKXKXPXfX$ f y y y y y y y y y y y y y y y y y y y y y y y y y y y y y y y y y y y y y y y y y y y y y y y y y y y y y y y y y y y y y y y y y y y y y y y y y y y y ",
"y y y y y y y y y y y y y y y y y y y y y y y y y y y y y y y y y y y y y y y y y y y y y y y y y y y y y y y y y y y y y y y y y y y y y y y y y y y y y y y y y y y y y y y y y y y y y y y y y y y y y y y y y y y y y y y y y y y y y y y y y y y y y y y y y y y y y y y y y y y y y y y y y y y $ r.zX  tXPXKXiXPXlXOXrXrXrXrXOXh.SXrXzXlXOXrXg.cXPXKXKXKXPXyX$ f y y y y y y y y y y y y y y y y y y y y y y y y y y y y y y y y y y y y y y y y y y y y y y y y y y y y y y y y y y y y y y y y y y y y y y y y y y y y ",
"y y y y y y y y y y y y y y y y y y y y y y y y y y y y y y y y y y y y y y y y y y y y y y y y y y y y y y y y y y y y y y y y y y y y y y y y y y y y y y y y y y y y y y y y y y y y y y y y y y y y y y y y y y y y y y y y y y y y y y y y y y y y y y y y y y y y y y y y y y y y y y y y y y y $ r.zX  tXPXKXrXKXtX4XrXcXf.yXxXDXrXFXyXf.iXxXrXKXPXKXKXKXPXOX$ y y y y y y y y y y y y y y y y y y y y y y y y y y y y y y y y y y y y y y y y y y y y y y y y y y y y y y y y y y y y y y y y y y y y y y y y y y y y y ",
"y y y y y y y y y y y y y y y y y y y y y y y y y y y y y y y y y y y y y y y y y y y y y y y y y y y y y y y y y y y y y y y y y y y y y y y y y y y y y y y y y y y y y y y y y y y y y y y y y y y y y y y y y y y y y y y y y y y y y y y y y y y y y y y y y y y y y y y y y y y y y y y y y y y $ r.zX  tXPXKXrXrXzXKXtXxXAXtXAXjXyXkXtXBXyXBXlXKXKXKXKXPXKX$.- y y y y y y y y y y y y y y y y y y y y y y y y y y y y y y y y y y y y y y y y y y y y y y y y y y y y y y y y y y y y y y y y y y y y y y y y y y y y y ",
"y y y y y y y y y y y y y y y y y y y y y y y y y y y y y y y y y y y y y y y y y y y y y y y y y y y y y y y y y y y y y y y y y y y y y y y y y y y y y y y y y y y y y y y y y y y y y y y y y y y y y y y y y y y y y y y y y y y y y y y y y y y y y y y y y y y y y y y y y y y y y y y y y y y $ r.zX  tXPXKXPXPXPXPXPXKXPXKXKXKXPXPXPXPXKXKXPXPXPXPXPXPXf.= y y y y y y y y y y y y y y y y y y y y y y y y y y y y y y y y y y y y y y y y y y y y y y y y y y y y y y y y y y y y y y y y y y y y y y y y y y y y y y ",
"y y y y y y y y y y y y y y y y y y y y y y y y y y y y y y y y y y y y y y y y y y y y y y y y y y y y y y y y y y y y y y y y y y y y y y y y y y y y y y y y y y y y y y y y y y y y y y y y y y y y y y y y y y y y y y y y y y y y y y y y y y y y y y y y y y y y y y y y y y y y y y y y y y y $ r.zX  tXPXIXKXKXKXKXKXKXKXKXKXKXKXKXKXKXKXKXKXKXKXFXxXr.- y y y y y y y y y y y y y y y y y y y y y y y y y y y y y y y y y y y y y y y y y y y y y y y y y y y y y y y y y y y y y y y y y y y y y y y y y y y y y y y ",
"y y y y y y y y y y y y y y y y m y y y y y y y y y y y y y y y y y y y y y y y y y y y y y y y y y y y y y y y y y y y y y y y y y y y y y y y y y y y y y y y y y y y y y y y y y y y m y y y y y y y y y y y y y y y y y y y y y y y y y y y y y y y y y y y y y y y y y y y y y y y y y y y y y y $ r.zX  fXOX: M m m m m m m m m m m m m m m m m m m z : = y y y y y y y y y y y y y y y y y y y y y y y y y y y y y y y y y y y y y y y y y y y y y y y y y y y y y y y y y y y y y y y y y y y y y y y y y y y y y y y y ",
": : : : : : : : : : : : > y y y m y y y f : : : : : : : : : : : : : : : : : : : : : : : : : : : : : : : : : : : : : : : : : : : : : : : : : : : : : : : : : : : : : : : : : : : : y y y m y y y y y y y y y y y y y y y - = - - - - - - - - - - - - - - - - - - - - - - - - - - = - - = - - = - y y y $ r.zX  gXg.X y : : : : : : : : : : : : : : : : : : : y y y y y y y y y y y y y y y y y y y y y y y y y y y y y y y y y y y y y y y y y y y y y y y y y y y y y y y y y y y y y y y y y y y y y y y y y y y y y y y y y y ",
"( ( ( ( ( ( ( ( t t t t , u y y m y y y ) L.L.L.L.L.L.L.[ [ [ [ [ [ ] ] ] ] ] ] ] ] ] ] ] ' ' ' ' ' ' ' ' ' ' ' ' ) ) ) ) ) ) ) ) ) ) ) ) ) ) ) ) ) ) ) ) ) ) ) w w w w w w w w w y y y m y y y y y y y y y y y y y y : 7.h.rXrXrXrXrXrXrXrXrXrXrXrXrXrXrXrXrXrXrXrXrXrXrXrXrXrXrXs.r.rX4XrXOX$.- y y $ r.zX  gXg.$ f y y y y y y y y y y y y y y y y y y y y y y y y y y y y y y y y y y y y y y y y y y y y y y y y y y y y y y y y y y y y y y y y y y y y y y y y y y y y y y y y y y y y y y y y y y y y y y y y y y y y y ",
" . . . . . . . . . . .| , u y y m y y y ) ^.^.^.^.^.~.~.~.~.~.~.~.E.E.E.E.E.E.E.E.E.E.R.R.R.R.R.R.R.R.R.R.I.I.P.P.P.P.P.P.L.L.L.L.L.L.L.L.L.[ [ [ ] ] ] ] ] ] ' ' ' ' ' ' ' ' ) w y y y m y y y : y y - - y - - y y : M lXcXcXzXzXcXcXcXcXzXzXzXzXzXzXzXzXzXzXzXzXzXzXzXzXzXzXzXxXyXh.xXzXzXcXgXz y y $ r.zX  gXg.$ y y y y y y y = - y y y y y z y y y y y y y y y y y y y y y y y y y : : - y y y y y y y y y y y y y y y y y y y y y y y y - * - y y y y y y y y y y y y y y y y y y y y y y y y y y y y y - y y y y y y y y ",
" . . . . . . . . . . .( , u y y m y y y ) ~.~.~.~.~.~.~.E.E.E.E.E.E.E.E.E.E.R.R.R.R.R.R.R.R.R.R.R.[ [ L.[ L.L.L.[ L.L.{ L.L.L.L.L.L.[ [ [ [ ] ] ] ] ] ] ] ' ' ' ' ' ' ' ) ) ) ) w y y y m y y : S z y 7.6.l $.8.M y - 7.zXlXtXjXzXrXrXrXyXkXlXkXkXkXkXkXkXkXkXkXkXkXkXkXkXkXkXlXvXiXf.xXrX7.kXzX$.- f $ r.zX  gXg.$ y y y y y y z i.q.l - - l y m z - - y y y y y y y y y y y y y y y z A M 7.$ - : : - y - - y y y y y y y y y y y y y y y y 9.a.q.r.$ y - - y - : : $ q.M $ y y y y y y y y y y y y y y y z 8.: z y z : : - y ",
" . . . . . . . . . . .( , u y y m y y y ) ~.~.~.~.~.~.~.~.~.E.E.E.E.E.E.E.E.E.E.R.R.R.R.R.R.R.R.R.[ { { [ [ { [ _ L.P.] [ L.L.L.L.L.L.[ [ [ ] ] ] ] ] ] ] ' ' ' ' ' ' ' ' ) ) ) w y y y m y y - 9.x y q.7.8.9.B y y - 7.cXp.s.p.yXq.h.q.jXkXkXkXkXkXkXkXkXkXkXkXkXkXkXkXkXkXkXkXzXiXg.zXB   i.cX$.- f $ r.zX  gXg.$ y y y y y - $.a.0.9.,.9.r.OX7.x q.r.y y y y y y y y y y y y y y : C d.i.A q.a.M S r.z 8.9.y y y y y y y y y y y y y y y y S OXB OXa.C 6.q.M r.A 8.8.a.g.6.: y y y y y y y y y y y y y - $.rXz rXi.rX$.8.9.z ",
" . . . . . . . . . . .( , u y y m y y y ) ~.^.~.~.~.~.~.~.~.E.E.E.E.E.E.E.E.E.E.R.R.R.R.R.R.R.R.R.{ [ [ [ { _ { _ L.L.{ L.L.L.L.L.L.L.[ [ [ [ ] ] ] ] ] ] ' ' ' ' ' ' ' ' ) ) ) w y y y m y y - 8.z y i.9.M q.9.m y - 6.yXa.AXj.f.r.h.q.lXkXkXkXkXkXkXkXkXkXkXkXkXkXkXkXkXkXkXkXzXiXj.kXrXiXrXzX$.- f $ r.zX  gXg.$ y y y y y - C rXj.z $.g.s.6.q.a.8.9.8.- y y y y y y y y y y y y : z jXi.- h.7.a.d.f.rXf.OX7.- y y y y y y y y y y y y y y y i.y f.7.r.g.S i.g.j.j.$.i.8.p.z y y y y y y y y y y y y y - a.rX6.i.S s.y 6.j.f.",
" . . . . . . . . . . .( , u y y m y y y ) ^.^.^.~.~.~.~.~.~.~.E.E.E.E.E.E.E.E.E.R.R.R.R.R.R.R.R.R.L.I.L.{ [ L.[ [ L.[ ) L.L.L.L.L.L.L.[ [ [ [ ] ] ] ] ] ] ] ' ' ' ' ' ' ' ) ) ) w y y y m y y - q.C z q.y : q.z y y - 6.yXa.AXj.h.h.yXg.zXkXkXkXkXkXkXkXkXkXkXkXkXkXkXkXkXkXkXkXzXiXj.lX9.8.s.cX$.- f $ r.zX  gXg.$ y y y y y - $.a.r.0.s.g.s.6.q.a.8.8.8.- y y y y y y y y y y y y - S p.i.8.r.M s.g.9.q.OX8.x : y y y y y y y y y y y y y y z s.m p.x p.a.: a.s.$.B s.OXm a.M : y y y y y y y y y y y : M g.q.s.s.S a.7.g.j.h.",
" . . . . . . . . . . .( , u y y m y y y ) ^.^.^.^.~.~.~.~.~.~.E.E.E.E.E.E.E.E.E.R.R.R.R.R.R.R.R.R.R.I.I.P.P.P.P.P.P.P.P.L.L.L.L.L.L.L.[ [ [ [ ] ] ] ] ] ] ' ' ' ' ' ' ' ' ) ) ) w y y y m y y : ,.0.A A y y $.y y y - 7.zXp.s.p.yXf.tXf.zXkXkXkXkXkXkXkXkXkXkXkXkXkXkXkXkXkXkXkXzXtXg.xX8.X rXcX$.- f $ r.zX  gXg.$ y y y y y : M ,.M q.q.q.A 0.8.M q.r.y y y y y y y y y y y y y y : x 7.x q.7.m 7.S i.M 8.q.l y y y y y y y y y y y y y y y f 6.z 6.z 7.6.y m r.7.9.q.8.z 7.z y y y y y y y y y y y y - S $.$ 7.q.6.8.9.r.9.S ",
" . . . . . . . . . . .( , u y y m y y y ) ^.^.^.^.^.~.~.~.~.~.~.E.E.E.E.E.E.E.E.E.R.R.R.R.R.R.R.R.R.R.I.P.P.P.P.P.P.P.L.L.L.L.L.L.L.L.L.[ [ [ ] ] ] ] ] ] ] ' ' ' ' ' ' ' ' ) ) w y y y m y y y : - : : y y : y y y - $.zXlXtXjXkXjXlXjXkXlXlXlXlXlXlXlXlXlXlXlXlXlXlXlXlXlXlXlXvXiXg.cXfXh.zXzXA - f $ r.zX  gXg.$ y y y y y y y : y - - - : - - : - - y y y y y y y y y y y y y y y y : y - : y : : - y - : y y y y y y y y y y y y y y y y y - y - y - - y y - : : - - y - y y y y y y y y y y y y y y : : y - - : - - - - : ",
" . . . . . . . . . . .( , u y y m y y y ) ^.^.~.~.~.~.~.~.E.E.E.E.E.E.E.E.E.R.R.R.R.R.R.R.R.I.I.I.P.P.P.P.P.P.P.P.L.L.L.L.L.L.L.L.L.[ [ ] ] ] ] ] ] ] ' ' ' ' ' ' ' ' ' ) ) ) ) w y y y m y y y y y y y y y y y y y y y rXcXcXcXzXcXzXcXzXzXzXzXzXzXzXzXzXzXzXzXzXzXzXzXzXzXzXzXxXyXh.BXzXcXzXOXy y y $ r.zX  gXg.$ y y y y y y y y y y y y y y y y y y y y y y y y y y y y y y y y y y y y y y y y y y y y y y y y y y y y y y y y y y y y y y y y y y y y y y y y y y y y y y y y y y y y y y y y y y y y y y y y y y y y y y ",
"t t q q q q q q q q q q , y y y m y y y w ) _ _ _ _ _ _ _ _ _ _ _ _ _ _ _ _ _ _ _ _ _ _ w w w w w w w w w w w w w w w w w w w w w w w w w w w w w w w w w w w w w w w w w w w w * y y y m y y y y y y y y y y y y y y : f 7.7.7.7.7.7.7.7.7.7.7.7.7.7.7.7.7.7.7.7.7.7.7.7.7.7.7.7.$.S 6.7.7.,.y y y y $ r.zX  gXg.$ y y y y y y y y y y y y y y y y y y y y y y y y y y y y y y y y y y y y y y y y y y y y y y y y y y y y y y y y y y y y y y y y y y y y y y y y y y y y y y y y y y y y y y y y y y y y y y y y y y y y y y ",
"u u u u u u u u u u u u y y y y m y y y y u y y u u u y y y y y y y y y y y y y y y y y y y y y y y y y y y y y y y y y y y y y y y y y y y y y y y y y y y y y y y y y y y y y y y y y m y y y y y y y y y y y y y y y y - - - - - - - - - - - - - - - - - - - - - - - - - - - - - - - - - - y y y y $ r.zX  gXg.$ y y y y y y y y y y y y y y y y y y y y y y y y y y y y y y y y y y y y y y y y y y y y y y y y y y y y y y y y y y y y y y y y y y y y y y y y y y y y y y y y y y y y y y y y y y y y y y y y y y y y y y ",
": y y y y y y y y y y y y y y y m y y y y y y y y - : y y y y y y y y y y y y y y y y y y y y y y y y y y y - y y y y y y y y y y y y y y y y y y y y - : y y y : y y y y y y y y y y y m y y y y y y y y y y - y y y y y y y y y y y y y y y y y y y y y y y y y y y y y y : y y y y y y y y y y y y $ r.zX  gXg.$ y y y y y y y y y y y y y y y y y y y y y y y y y y y y y y y y y y y y y y y y y y y y y y y y y y y y y y y y y y y y y y y y : : y s s s y : * y y y y y y y y y y y y y y y y y y y y y y y y y y y y y ",
"z - - z M - - y y y y y y y y y m y y y y y y y l $.S : - y - y y - : y y y y y y y y y y y y y y y y y y y $.z : y y y y y y y y y y y y y y y y : y $.M : - y S : - : y y y y y y y y m y y y y y y y y y z S z : y y - y : : y y y y y y y y y y y y y y y y y y y y y y C y y y y y y y y y y y y $ r.zX  gXg.$ y y y y y y y y y y y y y y y y y y y y y y y y y y y y y y y y y y y y y y y y y y y y y y y y y y y y y y y y y y y y y y : : *.*.$X>X#X;X;X=.=.u : y y y y y y y y y y y y y y y y y y y y y y y y y y y ",
"M M $.z M x 7.z y y y y y y y y m y y y y y y = 8.f.S m A y $.z z 7.m y y y y y y y y y y y y y y y y y : a.r.s.M : y y y y y y y y y y y y y y y z s.0.A z 7.z M z ,.M : y y y y y y y m y y y y y y y y : 0.7.x M x z S : M C y y y y y y y y y y y y y y y y y y y y y 9.6.9.y y y y y y y y y y y $ r.zX  gXg.$ y y y y y y y y y > > ; ; ; ; > y y y y y y y y y y y y y y y y y y y y ; ; ; ; , ; ; y y y y y y y y y y y y y y y y y y : d  X>X>X>X>X%X>X>X>X>X$Xd : : y y y y y y y y y y y y y y y y y y y y : : : : y ",
"C S f.i.q.d.p.i.- y y y y y y y m y y y y y y = 8.s.z h.9.8.g.p.i.p.g.- y y y y y y y y y y y y y y y - S s.  8.q.* y y y y y y y y y y y y y y = 8.q.z $.m s.i.0.a.s.s.y y y y y y y y m y y y y y y y y : 0.A B a.M 9.q.8.8.r.$.- y y y y y y y y y y y y y y y y y - A 8.X 8.A - y y y y y y y y y $ r.zX  gXg.$ y y y y y y y > y k j 1.1.1.1.j h ; y y y y y y y y y y y y y y y y ; h #.1.2X1.2X>.#.y > y y y y y y y y y y y y y y y : -.>X$X>X>X$X-.*.=. X;X>X X$X#Xs : y y y y y y y y y y y y y y y y y d d D.D.D.D.U ",
"j.9.g.f.q.i.z s.- y y y y y y y m y y y y y y = 8.f.m d.: s.s.i.d.y s.- y y y y y y y y y y y y y y y : C f.O 9.q.= y y y y y y y y y y y y y y - 8.q.z OX9.s.g.0.i.m a.z y y y y y y y m y y y y y y y y : 0.$.S 6.y p.7.r.B S $.- y y y y y y y y y y y y y y y y y - S 8.X 8.S - y y y y y y y y y $ r.zX  gXg.$ y y y y y y > g >.2X.X5X.X2X2X2X.Xj y y y y y y y y y y y y y y y y j 2X7X5X9X2X9X5X9X.Xg > y y y y y y y y y y y y y : *.%X>X%X*.u # O O O O o d =.;X;X=.s : y y y y y y y y y y y y y y s U F.G.F.G.G.F.G.",
"a.s.s.a.9.0.M i.: y y y y y y y m y y y y y y = 8.7.X p.y $.s.A 0.g.f.- y y y y y y y y y y y y y y y y : r.s.j.z y y y y y y y y y y y y y y y y l s.i.a.p.d.a.q.r.M i.z y y y y y y y m y y y y y y y y y 8.- m 6.- 8.6.C 9.i.A - y y y y y y y y y y y y y y y y y y y 8.q.q.y y y y y y y y y y y $ r.zX  gXg.$ y y y y y ; g 7XXXXX2X.X>.1.XX5X.X2X.X; y y y y y y y y y y y y & 1.7XXX7X6XXX1.2X7X7XXX7X>., y y y y y y y y y y y : =.>X>X;Xd O o , s l l l 7.< * =.%X%X#Xy y y y y y y y y y y y y y y G.G.G.F.G./ D.G.F.",
"y z m y y y y y y y y y y y y y m y y y y y y y y f y f y : M m : S f.- y y y y y y y y y y y y y y y y y - $.s.y y y y y y y y y y y y y y y y y : y S l y M y y y y y y y y y y y y y m y y y y y y y y y y y y y y y M y y 6.$.- y y y y y y y y y y y y y y y y y y y : $.8.y y y y y y y y y y y $ r.zX  gXg.$ y y y y ; >.XX6X7X#.y o o o = g 1.5X.X1.y y y y y y y y y y y > .X2X9X2Xj - @ o @ y #.5X9X2X1.; y y y y y y y y y y y $X>X;Xu O = c C A X.C rXSXx O # =.;X$Xd : y y y y y y y y y y y d D.G.F./ s * X X * s ",
"y > > y y y y y y y y y y y y y m y y y y y y y y y y y y f : y y y S y y y y y y y y y y y y y y y y y y f - y f y y y y y y y y y y y y y y y y y y - y y : y y y y y y y y y y y y y m y y y y y y y y y y y y y y y : y : z z y y y y y y y y y y y y y y y y y y y y y : y y y y y y y y y y y y $ r.zX  gXg.$ y y y y ; XX9X7X#.= , o > , o O = 1.5X2X#.; y y y y y y y y > g 6X9X2Xy . o , > , o . g 5X9X5Xy y y y y y y y y u *  X;X#Xd O , x Z A A A X.IXzXC x o = =.-.#Xs y y y y y y y y y y : / F.F./ $ O = , , = O ",
"u a a a u y y y y y y y y y y y m y y y y y y y y y y y ; ; ; ; y y : y y y y y y y y y y y y y y y y y y ; u ; y y y y y y y y y y y y y y y y y y y y y u u u u y y y y y y y y y y y m y y y y y y y y y y y y y : : : : y y y y y y y y y y y y y y y y y y y y y y y y y : y y y y y y y y y y y $ r.zX  gXg.$ y y y ; 1.5XXX>.. S jXw.C A C l O = 1.1..Xg > y y y y y y y y 2X2X.Xu . , x Z A Z C > . #.XX2X.X; y y y y y y y y y ;X>X#X# & x Z Z Z A C g.PX0.A X.l O d ;X;X*.: y y y y y y y y : U G.D./ X o l C Z A Z c ",
"t ..| ..( u a y y y y y y y y y m y y y y y y y y y ; y _ } } { h ; y y y y y y y y y y y y y y y y ; y j { _ { j y ; y y y y y y y y y y y y y y y y y h _ _ _ _ y u y y y y y y y y y m y y y y y y y y y y y y l C M S M y : y y y y y y y y y y y y y y y y y y y y z x z M l y y y y y y y y y y $ r.zX  gXg.$ y y y ; .X9X2X@ o c FXSXZ X.X.A l O y 2X5X#.; y y y y y y > g 6X9X>.. - C Z A A X.X.x o . 1.9X5Xy y y y y y y y : d $X>X*.O 4 C Z Z Z A Z DXBXZ X.X.Z = o #X$X*.> y y y y y y y y : / F.G.* o l Z A A X.7.X.",
"U.'._.'._.`.U.a u y y y y y y y m y y y y y y y ; h W.R.^.(.~./.R.~.k ; y y y y y y y y y y y y y ; [ ~.R./.R./.R.^.{ ; y y y y y y y y y y y y y ; k T.{ ~.T.E.R.L.[ y u y y y y y y y m y y y y y y y y y : M 9.7.a.6.i.9.8.7.y : y y y y y y y y y y y y y y y y S A A 6.A w.A 7.c : y y y y y y y $ r.zX  gXg.$ y y ; j 2X7X1.. > x 0.PXrXC X.X.Z = & .X2X1.> y y y y y y ; 1.6X6Xh o c Z Z Z A Z 7.p.p.4 j 6XXX#.; y y y y y u * -.>X;X; o c Z Z Z Z C w.IXp.C X.X.A > O =.;X#Xy y y y y y y y y s D.F.D.O , C Z Z A A C C ",
"'.`.U.`.'.'._.`.| a y y y y y y m y y y y y y ; T.W.~././.W.R././.(.R.R.y y y y y y y y y y y ; _ ~.R././.(.T.(././.T.W._ ; y y y y y y y y y y y L.[ E.~.E.[ T.E.^.T.L.{ u y y y y y y m y y y y y y y y l 8.7.i.i.0.7.q.i.p.6.6.S : y y y y y y y y y y y y : M $.A 9.6.7.S 6.6.6.S A l y y y y y y $ r.zX  gXg.$ y y ; #.7X7Xj . l Z x rXh.C ` X.A > o 1.5X.X; y y y y y y , .X9X2Xo = x Z Z A C uXKXPXzXx - .X5X>.; y y y y y u * -.>X%X* o x C C Z Z Z Z X.A A A ` ` l O *.%X#Xs y y y y y y y y s G.F.U O 4 C Z Z Z 7.rXtX",
"| q - > | +._.'._.( u y y y y y m y y y y y y } W./.T.{ k - - h { [ /./.{ f y y y y y y y y y j T./.W.{ _ : - q } { W./.T.k y y y y y y y y y h _ R.E.{ _ h - - k } { ^.T._ y y y y y y m y y y y y y y z S i.0.A C y - : m A 7.p.8.M y y y y y y y y y y y y z S 9.A M z - - : x C 7.6.C y y y y y y $ r.zX  gXg.$ y y ; j 2XXXh O l C Z C C A A A A > O #..X1.> y y y y y y ; 1.2X1.o = x C Z Z C rXtXr.Z o - 1..X#.; y y y y y y : =.%X Xo = x C C Z Z Z Z Z A A A A A l O d  X-.u y y y y y y y y s D.D.d O e C C Z C 6.FXIX",
"X o o o X % | `.'.`.l u y y y y m y y y y ; _ /./.W.h . O o o o . - T././.T.; y y y y y y y y ^./.(.} @ . o o o . @ { (./.^.y y y y y y y y ; { ~.E.{ - . o o o O . h T.E.~.j u y y y y m y y y y y y : 6.a.0.$.= O O o o O X z 9.i.i.z y y y y y y y y y y y 6.6.7.z o O o o O O = C 7.6.A : y y y y $ r.zX  gXg.$ y y ; #.9X9X#.. l C C Z Z Z Z A Z , . 1.5X.X; y y y y y y , .X9X5X& o x C C Z Z C x C x o y 2X5X>.; y y y y y u *  X>X;X= o x C C C Z Z Z Z Z A A A A l O *.;X%Xs y y y y y y y y s F.F./ O > C C C Z Z X.X.",
"e x C C c , X ( `._...u y y y y m y y y y h T.W.~.: . = c C C x q o & R.W.T.j y y y y y y y { R.^._ . o l D C C l < . } ^.R.{ ; y y y y y y j [ T.{ & O > x C C c , O : T.L.{ f y y y y m y y y y y y M 7.9.$.X O = e c l > o O l q.6.$.y y y y y y y y y y C A 7.l O o > l c l , O o C 7.S x y y y y $ r.zX  gXg.$ y y y f .X7X.X. = x C C C Z Z Z x o - 2XXX#.> y y y y y y ; #.2X7Xj . q C C C Z Z A Z q . #.5X.Xk > y y y y y y : =.>X>Xs O l C C C C Z Z Z Z Z Z A Z , # -.%X-.y y y y y y y y y y / F.D.$ o x C C C Z Z Z ",
"Z A A X.Z c q % ( `.`.e u y y y m y y y ; _ /.^.h O , C Z A X.7.X.c o - R./.T.; f y y y y y ^./.{ @ < c Z A ` X.7.C < $ { /.(.y y y y y y ; { ^.[ ; O e C A A X.X.Z > X h T.^._ u y y y m y y y y y : 6.p.7.* O > c x x C C c = o m 0.i.z y y y y y y y y f 6.6.z X o l x x D C D e O = C 6.$.y y y y $ r.zX  gXg.$ y y y , XX9X.X= O > x C C Z Z x = o g XX5X#.; y y y y y y > h 7X7X>.@ o l C C C Z C l o & >.5XXX> y y y y y y y y s %X>X-.  , D C C C C Z Z Z Z Z Z x o ; $X%X*.: y y y y y y y y : / F.D.: O , x C C C Z C ",
"Z Z A Z 0.zXjXz q `.U.t u y y y m y y y y { ^.^.= o x Z Z A A C Z x = . T./.T.y y y y y y _ W./._ . e Z Z Z A Z C C q . _ /.W.j y y y y y h { E.{ X = C Z A A A X.X.C o & R.R._ y y y y m y y y y y z 7.i.A O = c x x x x c c >   : 0.q.M y y y y y y y y x $.6.> O > c x x x x C D , O M 6.S y y y y $ r.zX  gXg.$ y y y ; #.XX6XXX@ O = l c c q = . h XX.X1.y y y y y y y y y ; 1.2X6X>.. o > l c l > o + >.XX.X#.; y y y y y y y y : %X>X#X# o e C C C C C C Z Z Z D = O d %X;X*.: y y y y y y y y y s D.G.D.* O = e c c e = ",
"Z A C tXPXKXj., * U.`...a y y y m y y y y ^./.T.. , C Z Z Z A f.tXcXrX; _ ^.~.g y y y f ; T./.^.= o x Z Z A Z 0.rXkXkXA = W.^.{ ; y y y y k E.~.k . e Z Z C A A A X.A > o { ^.T.y y y y m y y y y : M a.i.l O > c c x x Z q.p.f.A $ 7.r.,.: y y y y y y : A 9.$.$ o l c x x x x x C l O y 6.6.x y y y $ r.zX  gXg.$ y y y y , .X9X7XXXy o O o o o o j XX2X2Xj > y y y y y y y y y u 6X9X6X>.& o O o o o = >.2X5X.X; y y y y y y y y y : *.#X%X X# o e D C C C C Z Z x , O s #X-.=.y y y y y y y y y y y : / F.F.D.s o O o o o o ",
"Z Z C j.tXX.D = $ | U.| u y y y m y y y y T.W._ . > C C Z Z X.FXIXSXh.= h [ [ h y y y y ; } W.[ & o x C Z A x fXPXDXyXM & { L._ u y y y y h [ [ h O l x C 0.A Z A A A q X _ L.{ y y y y m y y y y y m 6.7.: O > c c x l 9.zXjXiXA o M A M y y y y y y y y M A M o o l c c l c x x D l o : S A z y y y $ r.zX  gXg.$ y y y y y f 1.7X7Xg y : - : y ; >.6X.Xj y y y y y y y y y y y ; #.2X9XXX; y : - : y > .X5X>.h y y y y y y y y y y u # #X>X>X*.# O , l x x x x e = O : #X;X%Xs : y y y y y y y y y y y y / G.F.U y : - - y y ",
"C Z Z C D Z Z = $ U.`...a y y y m y y y y ^./.{ . , C C Z Z Z 7.X.C > . k E.E.h y y y f ; T./.W.& o x C C Z Z ` 7.Z l o = T.~.} ; y y y y k E.E.k O > 6.AXKX6.C A A Z > X { ~.T.y y y y m y y y y : M i.0.y O > c c c c C Z C c o o A w.A y y y y y y y : A 6.S $ o l l C j.A c x x l O > 7.6.x y y y $ r.zX  gXg.$ y y y y y > y 2X1., y y y y y y y .X>.; y y y y y y y y y y y y ; #.5Xj ; y y y y y ; #..Xg ; y y y y y y y y y y y : d ;X;X>X-.* o O o o o o O o d #X%X#X=.: y y y y y y y y y y y y y : D.D.: y y y y y y ",
"C C Z Z A A x o q _.U.| u y y y m y y y y [ /.W.& o x C C Z Z C Z Z > X { E.[ h y y y y ; _ ^.(.h O l C C C Z Z C Z c o h E.T._ u y y y y h [ E.} . 6.KXFXa.Z Z Z Z C < & T.R.{ y y y y m y y y y y z 6.i.M O = l c c c c c x l o - 7.7.M y y y y y y y y x 7.7.- O > q f.zXZ c x x , O x 6.A z y y y $ r.zX  gXg.$ y y y y y y > ; y y y y y y y y y > > y y y y y y y y y y y y y y ; ; y y y y y y y y y > > y y y y y y y y y y y y y : y %X>X;X: y : = * = - y : *.;X;X*.: y y y y y y y y y y y y y y y : y y y y y y y y ",
"C C C Z Z D , X t `._.e u y y y m y y y ; } /.(.: O > x C C Z Z Z l o & L.^.{ ; y y y y y f ^./.} . < c C C C Z Z x = X _ ^.R.y y y y y y ; { ^.[ & A p.C c C Z Z C > O y R.~._ u y y y m y y y y y : 6.p.,.o O > c c c c x l = O f 6.6.z y y y y y y y y l 6.6.l O o Z zXr.> x c e o $ C 9.A y y y y $ r.zX  gXg.$ y y y y y y y y y y y y y y y y y y y y y y y y y y y y y y y y y y y y y y y y y y y y y y y y y y y y y y y y y y y y : d %X*.: y y y y y y y y :  X=.: y y y y y y y y y y y y y y y y y y y y y y y y y ",
"l x C D c ,   e +.+.+.y y y y y m y y y y g W.R.T.& O , c x C x e o o } [ T._ u y y y y y y T.W.R.g . = l x C x c = . k [ L.{ y y y y y y u _ T.R.{ .   > x D D x > O - { [ T.h y y y y m y y y y y : S 8.6.M O O , e l l > = O : S S A y y y y y y y y y y A A A :   7.j.l l l > o O m S A C y y y y $ r.zX  gXg.$ y y y y y y y y y y y y y y y y y y y y y y y y y y y y y y y y y y y y y y y y y y y y y y y y y y y y y y y y y y y y y : : y y y y y y y y y y y : : y y y y y y y y y y y y y y y y y y y y y y y y y y ",
"o o = < o o e U.`._.l u y y y y m y y y y ; { /./.T.- o o < = o O & _ E.^.{ ; y y y y y y y h ^./.~.h o o o = < o o h T.^.R.y y y y y y y y ; T././.} & o o = = o o - { ~.~.j u y y y y m y y y y y y : 6.p.0.x $ O o o o O o : A w.6.l y y y y y y y y y y l 6.w.A : - = O o o O $ z 7.9.A y y y y y $ r.zX  gXg.$ y y y y y y y y y y y y y y y y y y y y y y y y y y y y y y y y y y y y y y y y y y y y y y y y y y y y y y y y y y y y y y y y y y y y y y y y y y y y y y y y y y y y y y y y y y y y y y y y y y y y y y ",
": = $ = : a +.`.+.| u y y y y y m y y y y y f T.^./.{ ; - $ $ = ; g ~.R.{ k y y y y y y y y u { W./.W.u : * $ = : u T.~.[ _ y y y y y y y y y j R.(./.j ; = $ * - ; } ^.L.{ f y y y y y m y y y y y y y M 6.i.0.f : = $ = - y S 9.A B y y y y y y y y y y y y C $.9.S : - = $ = : y 7.6.S m y y y y y $ r.zX  gXg.$ y y y y y y y y y y y y y y y y y y y y y y y y y y y y y y y y y y y y : - y y - : y - y y y y y y y y y y y y y y y y y y y y - - y - - y y - : y - y y y y y y y y y y y y y y y y y y y y : y : - y y : ",
"f y y y y u t `.| a y y y y y y m y y y y y y ; R.(.h y y y y y y u L.R.y y y y y y y y y y y ; { /.} ; y y y y y ; _ E._ ; y y y y y y y y y ; h (.R.; y y y y y y h E.[ ; y y y y y y m y y y y y y y : z 0.,.: y y y y y y z 6.C : y y y y y y y y y y y y : C 6.z y y y y y y : C 6.l : y y y y y $ r.zX  gXg.$ y y y y y y y y y y y y y y y y y y y y y y y y y y y y y y y y y y y : M A y : S M : $.l y y y y y y y y y y y y y y y y y y y S A y $.$.y y $.M y 7.z : y y y y y y y y y y y y y y y y y y M : M S : : m ",
"y y y y y y y t y y y y y y y y m y y y y y y y y k y y y y y y y y h h y y y y y y y y y y y y ; k y y y y y y y y y g y y y y y y y y y y y y y h h y y y y y y y y g y y y y y y y y m y y y y y y y y : z y y y y y y y y y l y y y y y y y y y y y y y y y y l y y y y y y y y y l y y y y y y y $ r.zX  gXg.$ y y y y y y y y y y y y y y y y y y y y y y y y y y y y y y y y y y - M d.$.- A g.r.0.f.0.: y y y y y y y y y y y y y y y y : y 8.p.r.h.$.y z q.p.7.r.a.y y y y y y y y y y y y y y y y y - 7.rXz s.s.S y p.",
"y y y y y y y u y y y y y y y y m y y y y y y y y y y y y y y y y y y y y y y y y y y y y y y y y y y y y y y y y y y y y y y y y y y y y y y y y y y y y y y y y y y y y y y y y y y y m y y y y y y y y y y y y y y y y y y y y y y y y y y y y y y y y y y y y y y y y y y y y y y y y y y y y y y $ r.zX  gXg.$ y y y y y y y y y y y y y y y y y y y y y y y y y y y y y y y y y l y q.h.q.- q.S 9.rXy p.f y y y y y y y y y y y y y y y y z z $ q.q.p.0.f y $ s.z l s.: y y y y y y y y y y y y y y y y y y i.7.9.S q.m 0.",
"y y y y y y y y y y y y y y y y m y y y y y y y y y y y y y y y y y y y y y y y y y y y y y y y y y y y y y y y y y y y y y y y y y y y y y y y y y y y y y y y y y y y y y y y y y y y m y y y y y y y y y y y y y y y y y y y y y y y y y y y y y y y y y y y y y y y y y y y y y y y y y y y y y y $ r.zX  gXg.$ y y y y y y y y y - : y y = - : = : y y y y y y y y y y y y y y : S 9.i.,.i.B 8.7.q.rXx p.y y y y y y y y y y y y y y y y y 0.S $.r.- $ p.7.* q.7.- a.M - y y y y y y y y y y y y y y y y y : a.$.q.,.q.x r.",
": y y - y y y y : y - - y y y y m y y y y y y y : - y y : y = - y y y y : y y y y y y y y y y y y y y : : y y - y : - y y y y y y y y y y y y : y - : y y y : : - - y y y : : - - y y y m y y y y y : y y - y y : y : : y - y y y y y y y y y y y y y y y y y y y : : y y : : y - y y - y y y y y y y $ r.zX  gXg.$ y y y y y y y y y 9.6.: l a.7.M p.B : y y y y y y y y y y y y y y y * M f.r.q.$.f.r.7.h.8.- y y y y y y y y y y y y y y y y - y rXa.6.a.r.8.9.rXq.a.rX8.y y y y y y y y y y y y y y y y y y : i.z i.s.8.7.q.",
"M z z 6.z y y $ 6.M 7.$.: y y y m y y y y y z z x $.: y M z 7.S : z z f M - = y y y y y y y y y y y : m z : l 7.y M $.: y y y y y y y y y y l C - A S : y y M B 6.$.y y $ 7.C $.7.y y y m y y y y y x f y S y z S : C x y S l : z z f z - - y y y y y y y y y y : B m : y M M : S l f S y y y y y y y $ r.zX  gXg.$ y y y y y y y - 7.j.C = 9.q.r.g.8.i.: y y y y y y y y y y y y y y y y : z y y y z y : z y y y y y y y y y y y y y y y y y y y y l m z m y y l z M z z x y y y y y y y y y y y y y y y y y y y y y y z y y y ",
"rX8.M r.a.- l 7.f.9.p.i.6.- y y m y y y y = g.p.q.p.$.A rXq.g.M $ 9.7.y p.$.8.z y y y y y y y y y y - rX9.$ r.s.0.a.s.$.- y y y y y y y y - 0.h.M p.a.M - S tXS 9.rXz y $.g.9.s.r.q.- y m y y y y l p.C 7.q.7.8.9.7.9.8.6.q.6.= 7.C y 8.S $.y y y y y y y y y : M q.9.f x q.8.7.q.6.6.q.$.: y y y y y $ r.zX  gXg.$ y y y y y y y - i.r.a.: 0.x 0.4X- p.y y y y y y y y y y y y y y y y y y y y - y : : y : y y y y y y y y y y y y y y y y y y y y y : y : - y : : : y y : y y y y y y y y y y y y y y y y y y y y y y y y y y ",
"8.8.= i.r.$ q.r.f.8.f.s.$.- y y m y y y - S i.r.r.6.s.8.i.7.s.8.$ 8.g.r.s.S rXz y y y y y y y y y - $.p.$.- p.y rX9.C r.= y y y y y y y x z x r.7.q.r.7.- q.s.- M r.$ 8.i.f.8.f.p.6.- y m y y y y : 7.A 6.y i.7.z d.m $.a.y 9.y ,.q.8.8.B a.y y y y y y y y y - 7.B ,.M A S S p.y q.q.f 9.: y y y y y $ r.zX  gXg.$ y y y y y y y - q.8.i.7.9.q.i.f.8.a.: y y y y y y y y y y y y y y y y y y - S z z z : y y y y y y y y y y y y y y y y y y y y y y y y : $.y M l : y y y y y y y y y y y y y y y y y y y y y y y : y : y y : ",
"6.9.= 7.d.- p.x r.q.r.q.q.- y y m y y y y f.4Xj.$.f.rXf.tXC - j.: 8.i.7.a.7.$.= y y y y y y y y y z j.rXs.y a.M rXq.,.0.= y y y y y y y q.$.y s.y 9.rXC 7.OXtXS i.$.$ i.S q.q.a.8.i.- y m y y y y - 7.A 6.x i.7.M p.C 7.i.z 9.: 7.6.$.6.$.B - y y y y y y y y - $.S 7.C S $.$.a.z q.q.M 9.: y y y y y $ r.zX  gXg.$ y y y y y y y y l i.7.7.M r.7.m p.B : y y y y y y y y y y y y y y y y y y z s.8.f.a.$.- y y y y y y y y y y y y y y y y y y y y y y y S p.9.f.a.M : y y y y y y y y y y y y y y y y y y y y y y M z M l : C ",
"$.7.$.p.q.- $.f.s.7.g.a.$.- y y m y y y y z 8.0.$.a.M B p.6.s.9.$ 6.$.y r.OXa.z y y y y y y y y y y z q.r.6.7.OX7.0.g.M : y y y y y y y - - z r.y 0.9.6.7.z s.S r.y : S s.g.,.f.a.6.- y m y y y y - $.M S r.S 7.q.B q.6.S r.,.= $.M y 6.r.6.f y y y y y y y y y z q.6.$.S 9.8.C r.$.$.r.C : y y y y y $ r.zX  gXg.$ y y y y y y y y y = - - : - - : = : y y y y y y y y y y y y y y y y y - 7.s.h.8.i.r.6.- y y y y y y y y y y y y y y y y y y y y y - q.f.d.q.0.p.C : y y y y y y y y y y y y y y y y y y y y - 7.h.g.d.q.8.j.",
"y y l z : y : l y y z z : y y y m y y y y : : : z f : : : y z : y y y y y y z y y y y y y y y y y y : : : y : z : y f : y y y y y y y y y y y y y m y y y - : y y y y : f y y z z : y y m y y y y y y y y f : y y : y y : f y y y y y y y z y y y y y y y y y y y y y y y y y : f y y f y y y y y y y $ r.zX  gXg.$ y y y y y y y y y y y y y y y y y y y y y y y y y y y y y y y y y y y - p.m q.9.s.i.8.- y y y y y y y y y y y y y y y y y y y y y y s.y i.q.p.a.S : y y y y y y y y y y y y y y y y y y y y = 9.7.q.A r.S r.",
"y y y : y y y y y y y y y y y y m y y y y y y y y y y y y y : y y y y y y y : y y y y y y y y y y y y y y y y y y y y y y y y y y y y y y y y y y y y y y y y y y y y y y y y y y y y y m y y y y y y y y y y y y y y y y y y y y y y y y y y y y y y y y y y y y y y y y y y y y y y y y y y y y y y $ r.zX  gXg.$ y y y y y y y y y y y y y y y y y y y y y y y y y y y y y y y y y y y - 6.p.j.8.s.r.q.- y y y y y y y y y y y y y y y y y y y y y - r.p.s.q.i.p.$.- y y y y y y y y y y y y y y y y y y y y = 8.6.q.$.r.C p.",
"y y y y y y y y y y y y y y y y m y y y y y y y y y y y y y y y y y y y y y y y y y y y y y y y y y y y y y y y y y y y y y y y y y y y y y y y y y y y y y y y y y y y y y y y y y y y m y y y y y y y y y y y y y y y y y y y y y y y y y y y y y y y y y y y y y y y y y y y y y y y y y y y y y y $ p.lX  tXOX$ y y y y y y y y y y y y y y y y y y y y y y y y y y y y y y y y y y y y y A M y $.$.y y y y y y y y y y y y y y y y y y y y y y y y f $.m z 7.B : y y y y y y y y y y y y y y y y y y y y y y z z z l z M $.",
"y y y y y y y y y y y y y y y f M y y y y y y y y y y y y y y y y y y y y y y y y y y y y y y y y y y y y y y y y y y y y y y y y y y y y y y y y y y y y y y y y y y y y y y y y y y y M f y y y y y y y y y y y y y y y y y y y y y y y y y y y y y y y y y y y y y y y y y y y y y y y y y y y y f X jXOX  s.zXX f y y y y y y y y y y y y y y y y y y y y y y y y y y y y y y y y y y y y : y y : : y y y y y y y y y y y y y y y y y y y y y y y y y : y y - : y y y y y y y y y y y y y y y y y y y y y y y y y y y y y - ",
"$ $ $ $ $ $ $ $ $ $ $ $ $ $ $ $ - $ $ $ $ $ $ $ $ $ $ $ $ $ $ $ $ $ $ $ $ $ $ $ $ $ $ $ $ $ $ $ $ $ $ $ $ $ $ $ $ $ $ $ $ $ $ $ $ $ $ $ $ $ $ $ $ $ $ $ $ $ $ $ $ $ $ $ $ $ $ $ $ $ $ $ - $ $ $ $ $ $ $ $ $ $ $ $ $ $ $ $ $ $ $ $ $ $ $ $ $ $ $ $ $ $ $ $ $ $ $ $ $ $ $ $ $ $ $ $ $ $ $ $ $ $ $ $ $ X i.DXx : y BXf.X $ $ $ $ $ $ $ $ $ $ $ $ $ $ $ $ $ $ $ $ $ $ $ $ $ $ $ $ $ $ $ $ $ $ $ $ $ $ $ $ $ $ $ $ $ $ $ $ $ $ $ $ $ $ $ $ $ $ $ $ $ $ $ $ $ $ $ $ $ $ $ $ $ $ $ $ $ $ $ $ $ $ $ $ $ $ $ $ $ $ $ $ $ $ $ $ $ $ $ $ $ ",
"r.r.r.r.r.r.r.r.r.r.r.r.r.r.r.r.r.r.r.r.r.r.r.r.r.r.r.r.r.r.r.r.r.r.r.r.r.r.r.r.r.r.r.r.r.r.r.r.r.r.r.r.r.r.r.r.r.r.r.r.r.r.r.r.r.r.r.r.r.r.r.r.r.r.r.r.r.r.r.r.r.r.r.r.r.r.r.r.r.r.r.r.r.r.r.r.r.r.r.r.r.r.r.r.r.r.r.r.r.r.r.r.r.r.r.r.r.r.r.r.r.r.r.r.r.r.r.r.r.r.r.r.r.r.r.r.r.r.r.r.r.r.r.r.r.p.jXFX7.- f - C AXkXa.r.r.r.r.r.r.r.r.r.r.r.r.r.r.r.r.r.r.r.r.r.r.r.r.r.r.r.r.r.r.r.r.r.r.r.r.r.r.r.r.r.r.r.r.r.r.r.r.r.r.r.r.r.r.r.r.r.r.r.r.r.r.r.r.r.r.r.r.r.r.r.r.r.r.r.r.r.r.r.r.r.r.r.r.r.r.r.r.r.r.r.r.r.r.r.r.r.r.r.r.",
"zXzXzXzXzXzXzXzXzXzXzXzXzXzXzXzXzXzXzXzXzXzXzXzXzXzXzXzXzXzXzXzXzXzXzXzXzXzXzXzXzXzXzXzXzXzXzXzXzXzXzXzXzXzXzXzXzXzXzXzXzXzXzXzXzXzXzXzXzXzXzXzXzXzXzXzXzXzXzXzXzXzXzXzXzXzXzXzXzXzXzXzXzXzXzXzXzXzXzXzXzXzXzXzXzXzXzXzXzXzXzXzXzXzXzXzXzXzXzXzXzXzXzXzXzXzXzXzXzXzXzXzXzXzXzXzXzXzXzXzXzXzXzXzXzXlXrXM : z y z : z f.lXzXzXzXzXzXzXzXzXzXzXzXzXzXzXzXzXzXzXzXzXzXzXzXzXzXzXzXzXzXzXzXzXzXzXzXzXzXzXzXzXzXzXzXzXzXzXzXzXzXzXzXzXzXzXzXzXzXzXzXzXzXzXzXzXzXzXzXzXzXzXzXzXzXzXzXzXzXzXzXzXzXzXzXzXzXzXzXzXzXzXzXzXzXzXzXzXzXzXzXzX",
"                                                                                                                                                                                                                                                                                                      O $ X X X $ X                                                                                                                                                                                                             ",
"gXgXgXgXgXgXgXgXgXgXgXgXgXgXgXgXgXgXgXgXgXgXgXgXgXgXgXgXgXgXgXgXgXgXgXgXgXgXgXgXgXgXgXgXgXgXgXgXgXgXgXgXgXgXgXgXgXgXgXgXgXgXgXgXgXgXgXgXgXgXgXgXgXgXgXgXgXgXgXgXgXgXgXgXgXgXgXgXgXgXgXgXgXgXgXgXgXgXgXgXgXgXgXgXgXgXgXgXgXgXgXgXgXgXgXgXgXgXgXgXgXgXgXgXgXgXgXgXgXgXgXgXgXgXgXgXgXgXgXgXgXgXgXgXgXgXgXfXfXfXfXfXfXfXgXgXgXgXgXgXgXgXgXgXgXgXgXgXgXgXgXgXgXgXgXgXgXgXgXgXgXgXgXgXgXgXgXgXgXgXgXgXgXgXgXgXgXgXgXgXgXgXgXgXgXgXgXgXgXgXgXgXgXgXgXgXgXgXgXgXgXgXgXgXgXgXgXgXgXgXgXgXgXgXgXgXgXgXgXgXgXgXgXgXgXgXgXgXgXgXgXgXgXgXgXgX",
"g.g.g.g.g.g.g.g.g.g.g.g.g.g.g.g.g.g.g.g.g.g.g.g.g.g.g.g.g.g.g.g.g.g.g.g.g.g.g.g.g.g.g.g.g.g.g.g.g.g.g.g.g.g.g.g.g.g.g.g.g.g.g.g.g.g.g.g.g.g.g.g.g.g.g.g.g.g.g.g.g.g.g.g.g.g.g.g.g.g.g.g.g.g.g.g.g.g.g.g.g.g.g.g.g.g.g.g.g.g.g.g.g.g.g.g.g.g.g.g.g.g.g.g.g.g.g.g.g.g.g.g.g.g.g.g.g.g.g.g.g.g.g.g.g.g.g.g.g.g.g.g.g.g.g.g.g.g.g.g.g.g.g.g.g.g.g.g.g.g.g.g.g.g.g.g.g.g.g.g.g.g.g.g.g.g.g.g.g.g.g.g.g.g.g.g.g.g.g.g.g.g.g.g.g.g.g.g.g.g.g.g.g.g.g.g.g.g.g.g.g.g.g.g.g.g.g.g.g.g.g.g.g.g.g.g.g.g.g.g.g.g.g.g.g.g.g.g.g.g.g.g.g.g.g.g.",
"$ $ $ $ $ $ $ $ $ $ $ $ $ $ $ $ $ $ $ $ $ $ $ $ $ $ $ $ $ $ $ $ $ $ $ $ $ $ $ $ $ $ $ $ $ $ $ $ $ $ $ $ $ $ $ $ $ $ $ $ $ $ $ $ $ $ $ $ $ $ $ $ $ $ $ $ $ $ $ $ $ $ $ $ $ $ $ $ $ $ $ $ $ $ $ $ $ $ $ $ $ $ $ $ $ $ $ $ $ $ $ $ $ $ $ $ $ $ $ $ $ $ $ $ $ $ $ $ $ $ $ $ $ $ $ $ $ $ $ $ $ $ $ $ $ $ $ $ $ $ $ $ $ $ $ $ $ $ $ $ $ $ $ $ $ $ $ $ $ $ $ $ $ $ $ $ $ $ $ $ $ $ $ $ $ $ $ $ $ $ $ $ $ $ $ $ $ $ $ $ $ $ $ $ $ $ $ $ $ $ $ $ $ $ $ $ $ $ $ $ $ $ $ $ $ $ $ $ $ $ $ $ $ $ $ $ $ $ $ $ $ $ $ $ $ $ $ $ $ $ $ $ $ $ $ $ ",
"y y y y y y y y y y y y y y y y y y y y y y y y y y y y y y y y y y y y y y y y y y y y y y y y y y y y y y y y y y y y y y y y y y y y y y y y y y y y y y y y y y y y y y y y y y y y y y y y y y y y y y y y y y y y y y y y y y y y y y y y y y y y y y y y y y y y y y y y y y y y y y y y y y y y y y y y y y y y y y y y y y y y y y y y y y y y y y y y y y y y y y y y y y y y y y y y y y y y y y y y y y y y y y y y y y y y y y y y y y y y y y y y y y y y y y y y y y y y y y y y y y y y y y y y y y y y y y y y ",
"y y y y y y y y y y y y y y y y y y y y y y y y y y y y y y y y y y y y y y y y y y y y y y y y y y y y y y y y y y y y y y y y y y y y y y y y y y y y y y y y y y y y y y y y y y y y y y y y y y y y y y y y y y y y y y y y y y y y y y y y y y y y y y y y y y y y y y y y y y y y y y y y y y y y y y y y y y y y y y y y y y y y y y y y y y y y y y y y y y y y y y y y y y y y y y y y y y y y y y y y y y y y y y y y y y y y y y y y y y y y y y y y y y y y y y y y y y y y y y y y y y y y y y y y y y y y y y y y ",
"y y y y y y y y y y y y y y y y y y y y y y y y y y y y y y y y y y y y y y y y y y y y y y y y y y y y y y y y y y y y y y y y y y y y y y y y y y y y y y y y y y y y y y y y y y y y y y y y y y y y y y y y y y y y y y y y y y y y y y y y y y y y y y y y y y y y y y y y y y y y y y y y y y y y y y y y y y y y y y y y y y y y y y y y y y y y y y y y y y y y y y y y y y y y y y y y y y y y y y y y y y y y y y y y y y y y y y y y y y y y y y y y y y y y y y y y y y y y y y y y y y y y y y y y y y y y y y y y ",
"y y y y y y y y y y y y y y y y y y y y y y y y y y y y y y y y y y y y y y y y y y y y y y y y y y y y y y y y y y y y y y y y y y y y y y y y y y y y y y y y y y y y y y y y y y y y y y y y y y y y y y y y y y y y y y y y y y y y y y y y y y y y y y y y y y y y y y y y y y y y y y y y y y y y y y y y y y y y y y y y y y y y y y y y y y y y y y y y y y y y y y y y y y y y y y y y y y y y y y y y y y y y y y y y y y y y y y y y y y y y y y y y y y y y y y y y y y y y y y y y y y y y y y y y y y y y y y y y ",
"y y y y y y y y y y y y y y y y y y y y y y y y y y y y y y y y y y y y y y y y y y y y y y y y y y y y y y y y y y y y y y y y y y y y y y y y y y y y y y y y y y y y y y y y y y y y y y y y y y y y y y y y y y y y y y y y y y y y y y y y y y y y y y y y y y y y y y y y y y y y y y y y y y y y y y y y y y y y y y y y y y y y y y y y y y y y y y y y y y y y y y y y y y y y y y y y y y y y y y y y y y y y y y y y y y y y y y y y y y y y y y y y y y y y y y y y y y y y y y y y y y y y y y y y y y y y y y y y ",
"y y y y y y y y y y y y y y y y y y y y y y y y y y y y y y y y y y y y y y y y y y y y y y y y y y y y y y y y y y y y y y y y y y y y y y y y y y y y y y y y y y y y y y y y y y y y y y y y y y y y y y y y y y y y y y y y y y y y y y y y y y y y y y y y y y y y y y y y y y y y y y y y y y y y y y y y y y y y y y y y y y y y y y y y y y y y y y y y y y y y y y y y y y y y y y y y y y y y y y y y y y y y y y y y y y y y y y y y y y y y y y y y y y y y y y y y y y y y y y y y y y y y y y y y y y y y y y y y ",
"y y y y y y y y y y y y y y y y y y y y y y y y y y y y y y y y y y y y y y y y y y y y y y y y y y y y y y y y y y y y y y y y y y y y y y y y y y y y y y y y y y y y y y y y y y y y y y y y y y y y y y y y y y y y y y y y y y y y y y y y y y y y y y y y y y y y y y y y y y y y y y y y y y y y y y y y y y y y y y y y y y y y y y y y y y y y y y y y y y y y y y y y y y y y y y y y y y y y y y y y y y y y y y y y y y y y y y y y y y y y y y y y y y y y y y y y y y y y y y y y y y y y y y y y y y y y y y y y ",
"y y y y y y y y y y y y y y y y y y y y y y y y y y y y y y y y y y y y y y y y y y y y y y y y y y y y y y y y y y y y y y y y y y y y y y y y y y y y y y y y y y y y y y y y y y y y y y y y y y y y y y y y y y y y y y y y y y y y y y y y y y y y y y y y y y y y y y y y y y y y y y y y y y y y y y y y y y y y y y y y y y y y y y y y y y y y y y y y y y y y y y y y y y y y y y y y y y y y y y y y y y y y y y y y y y y y y y y y y y y y y y y y y y y y y y y y y y y y y y y y y y y y y y y y y y y y y y y y ",
"y y y y y y y y y y y y y y y y y y y y y y y y y y y y y y y y y y y y y y y y y y y y y y y y y y y y y y y y y y y y y y y y y y y y y y y y y y y y y y y y y y y y y y y y y y y y y y y y y y y y y y y y y y y y y y y y y y y y y y y y y y y y y y y y y y y y y y y y y y y y y y y y y y y y y y y y y y y y y y y y y y y y y y y y y y y y y y y y y y y y y y y y y y y y y y y y y y y y y y y y y y y y y y y y y y y y y y y y y y y y y y y y y y y y y y y y y y y y y y y y y y y y y y y y y y y y y y y y ",
"y y y y y y y y y y y y y y y y y y y y y y y y y y y y y y y y y y y y y y y y y y y y y y y y y y y y y y y y y y y y y y y y y y y y y y y y y y y y y y y y y y y y y y y y y y y y y y y y y y y y y y y y y y y y y y y y y y y y y y y y y y y y y y y y y y y y y y y y y y y y y y y y y y y y y y y y y y y y y y y y y y y y y y y y y y y y y y y y y y y y y y y y y y y y y y y y y y y y y y y y y y y y y y y y y y y y y y y y y y y y y y y y y y y y y y y y y y y y y y y y y y y y y y y y y y y y y y y y ",
"y y y y y y y y y y y y y y y y y y y y y y y y y y y y y y y y y y y y y y y y y y y y y y y y y y y y y y y y y y y y y y y y y y y y y y y y y y y y y y y y y y y y y y y y y y y y y y y y y y y y y y y y y y y y y y y y y y y y y y y y y y y y y y y y y y y y y y y y y y y y y y y y y y y y y y y y y y y y y y y y y y y y y y y y y y y y y y y y y y y y y y y y y y y y y y y y y y y y y y y y y y y y y y y y y y y y y y y y y y y y y y y y y y y y y y y y y y y y y y y y y y y y y y y y y y y y y y y y "
};
