/* XPM */
static char *deesser_stereo[] = {
/* columns rows colors chars-per-pixel */
"256 256 256 2 ",
"   c #15161C",
".  c #16191D",
"X  c #181A1F",
"o  c #161417",
"O  c #0C1011",
"+  c #211C1D",
"@  c #2A1B1A",
"#  c #311E1C",
"$  c #2A1508",
"%  c #26251D",
"&  c #373218",
"*  c #1C1E24",
"=  c #151A23",
"-  c #231E24",
";  c #281E28",
":  c #2E1E2A",
">  c #1F2025",
",  c #1E2229",
"<  c #17282C",
"1  c #1B2934",
"2  c #1C2B39",
"3  c #182733",
"4  c #19323A",
"5  c #212126",
"6  c #2A2B26",
"7  c #25262D",
"8  c #26282F",
"9  c #2B2628",
"0  c #332428",
"q  c #323229",
"w  c #333227",
"e  c #252730",
"r  c #262931",
"t  c #2A2B33",
"y  c #262D3D",
"u  c #2D2F38",
"i  c #2C2434",
"p  c #35253C",
"a  c #382B36",
"s  c #2C303B",
"d  c #27333A",
"f  c #31323C",
"g  c #383733",
"h  c #2F302B",
"j  c #14211F",
"k  c #4B2D3A",
"l  c #473437",
"z  c #513130",
"x  c #6F3331",
"c  c #5F3518",
"v  c #37472D",
"b  c #585801",
"n  c #4A4B08",
"m  c #747407",
"M  c #545033",
"N  c #795E2B",
"B  c #6E4B37",
"V  c #685D22",
"C  c #183849",
"Z  c #163851",
"A  c #262F42",
"S  c #2B2C47",
"D  c #3A2945",
"F  c #263145",
"G  c #273249",
"H  c #293847",
"J  c #343641",
"K  c #373944",
"L  c #393B46",
"P  c #3B3D4B",
"I  c #38384A",
"U  c #393755",
"Y  c #2F3555",
"T  c #2E3C67",
"R  c #123F61",
"E  c #453B44",
"W  c #483C47",
"Q  c #463C49",
"!  c #493E49",
"~  c #433648",
"^  c #563B46",
"/  c #453758",
"(  c #4D2B54",
")  c #6B354D",
"_  c #5C2B66",
"`  c #5D3F61",
"'  c #553369",
"]  c #4C376A",
"[  c #653E68",
"{  c #683173",
"}  c #4E1E57",
"|  c #184955",
" . c #3E414E",
".. c #384346",
"X. c #2A4C58",
"o. c #254954",
"O. c #3C4457",
"+. c #25474D",
"@. c #1A5A66",
"#. c #114A72",
"$. c #314A70",
"%. c #136873",
"&. c #2E6776",
"*. c #2B6979",
"=. c #396E79",
"-. c #35695E",
";. c #4C414D",
":. c #474247",
">. c #53434A",
",. c #55494D",
"<. c #5A4448",
"1. c #424453",
"2. c #4F4451",
"3. c #42465A",
"4. c #45495B",
"5. c #4A4C5D",
"6. c #484857",
"7. c #514653",
"8. c #544956",
"9. c #554B5A",
"0. c #594E5D",
"q. c #5B4953",
"w. c #5B505E",
"e. c #5C5158",
"r. c #51554C",
"t. c #654846",
"y. c #6B4A46",
"u. c #664A4A",
"i. c #734C47",
"p. c #77534B",
"a. c #634952",
"s. c #674956",
"d. c #715056",
"f. c #4A4E62",
"g. c #454C63",
"h. c #584668",
"j. c #4D5163",
"k. c #4E5369",
"l. c #525465",
"z. c #5D5261",
"x. c #53566A",
"c. c #56596C",
"v. c #595B6E",
"b. c #5A5D71",
"n. c #555A74",
"m. c #4D4A77",
"M. c #674468",
"N. c #6D4E6D",
"B. c #5E6176",
"V. c #5D6279",
"C. c #456E6F",
"Z. c #61657B",
"A. c #65697E",
"S. c #776772",
"D. c #61674C",
"F. c #93342F",
"G. c #8E5533",
"H. c #B16932",
"J. c #9B6620",
"K. c #D87728",
"L. c #C9712F",
"P. c #E47B27",
"I. c #E37D30",
"U. c #DD711F",
"Y. c #87394C",
"T. c #9A3D5E",
"R. c #8C4B4A",
"E. c #894D6A",
"W. c #AF4771",
"Q. c #A86553",
"!. c #CC6159",
"~. c #CB3B24",
"^. c #8A8A09",
"/. c #E4812D",
"(. c #CC8445",
"). c #763185",
"_. c #0E5199",
"`. c #085597",
"'. c #0F558C",
"]. c #3C5183",
"[. c #324E8F",
"{. c #106C8F",
"}. c #30738A",
"|. c #185AA9",
" X c #175FAD",
".X c #3557A8",
"XX c #3B5AB6",
"oX c #2E58A9",
"OX c #0C6AAE",
"+X c #2863BA",
"@X c #4E518F",
"#X c #6B5291",
"$X c #686C84",
"%X c #6D728A",
"&X c #747995",
"*X c #6E7291",
"=X c #4658AB",
"-X c #465BB3",
";X c #565CB6",
":X c #5758A7",
">X c #6B5AAE",
",X c #4E63B8",
"<X c #6B65B3",
"1X c #596489",
"2X c #067ACB",
"3X c #316DCB",
"4X c #3777EE",
"5X c #355EC8",
"6X c #4969D8",
"7X c #5B6AD9",
"8X c #5969D6",
"9X c #5066C9",
"0X c #6768CE",
"qX c #4B6DE6",
"wX c #566DE6",
"eX c #4A76F9",
"rX c #5375F9",
"tX c #4E72EB",
"yX c #6570EA",
"uX c #5A5ECC",
"iX c #872B93",
"pX c #AD3FBC",
"aX c #A63EB5",
"sX c #A03DAE",
"dX c #9739A5",
"fX c #905593",
"gX c #AE40BD",
"hX c #945BA0",
"jX c #D34C84",
"kX c #B742CA",
"lX c #8A63CF",
"zX c #C144D2",
"xX c #CB46DC",
"cX c #CE49CE",
"vX c #D448E5",
"bX c #078A97",
"nX c #0498A7",
"mX c #3392A7",
"MX c #3496AC",
"NX c #359EB4",
"BX c #328EA2",
"VX c #01A9B8",
"CX c #01AAB8",
"ZX c #36A3B9",
"AX c #32889B",
"SX c #7682A2",
"DX c #00B2C1",
"FX c #0096FD",
"GX c #018AEA",
"HX c #3F80EB",
"JX c #0386DC",
"KX c #4081EC",
"LX c #4D89F7",
"PX c #858CAD",
"IX c #9BA3CD",
"UX c #7F800A",
/* pixels */
"7 7 7 7 7 7 7 7 7 7 7 7 7 7 7 7 7 7 7 7 7 7 7 7 7 7 7 7 7 7 7 7 7 7 7 7 7 7 7 7 7 7 7 7 7 7 7 7 7 7 7 7 7 7 7 7 7 7 7 7 7 7 7 7 7 7 7 7 7 7 7 7 7 7 7 7 7 7 7 7 7 7 7 7 7 7 7 7 7 7 7 7 7 7 7 7 7 7 7 7 7 7 7 7 7 7 7 7 7 7 7 7 7 7 7 7 7 7 7 7 7 7 7 7 7 7 7 7 7 7 7 7 7 7 7 7 7 7 7 7 7 7 7 7 7 7 7 7 7 7 7 7 7 7 7 7 7 7 7 7 7 7 7 7 7 7 7 7 7 7 7 7 7 7 7 7 7 7 7 7 7 7 7 7 7 7 7 7 7 7 7 7 7 7 7 7 7 7 7 7 7 7 7 7 7 7 7 7 7 7 7 7 7 7 7 7 7 7 7 7 7 7 7 7 7 7 7 7 7 7 7 7 7 7 7 7 7 7 7 7 7 7 7 7 7 7 7 7 7 7 7 7 7 7 7 7 ",
"7 7 7 7 7 7 7 7 7 7 7 7 7 7 7 7 7 7 7 7 7 7 7 7 7 7 7 7 7 7 7 7 7 7 7 7 7 7 7 7 7 7 7 7 7 7 7 7 7 7 7 7 7 7 7 7 7 7 7 7 7 7 7 7 7 7 7 7 7 7 7 7 7 7 7 7 7 7 7 7 7 7 7 7 7 7 7 7 7 7 7 7 7 7 7 7 7 7 7 7 7 7 7 7 7 7 7 7 7 7 7 7 7 7 7 7 7 7 7 7 7 7 7 7 7 7 7 7 7 7 7 7 7 7 7 7 7 7 7 7 7 7 7 7 7 7 7 7 7 7 7 7 7 7 7 7 7 7 7 7 7 7 7 7 7 7 7 7 7 7 7 7 7 7 7 7 7 7 7 7 7 7 7 7 7 7 7 7 7 7 7 7 7 7 7 7 7 7 7 7 7 7 7 7 7 7 7 7 7 7 7 7 7 7 7 7 7 7 7 7 7 7 7 7 7 7 7 7 7 7 7 7 7 7 7 7 7 7 7 7 7 7 7 7 7 7 7 7 7 7 7 7 7 7 7 7 ",
"7 7 7 7 7 7 7 7 7 7 7 7 7 7 7 7 7 7 7 7 7 7 7 7 7 7 7 7 7 7 7 7 7 7 7 7 7 7 7 7 7 7 7 7 7 7 7 7 7 7 7 7 7 7 7 7 7 7 7 7 7 7 7 7 7 7 7 7 7 7 7 7 7 7 7 7 7 7 7 7 7 7 7 7 7 7 7 7 7 7 7 7 7 7 7 7 7 7 7 7 7 7 7 7 7 7 7 7 7 7 7 7 7 7 7 7 7 7 7 7 7 7 7 7 7 7 7 7 7 7 7 7 7 7 7 7 7 7 7 7 7 7 7 7 7 7 7 7 7 7 7 7 7 7 7 7 7 7 7 7 7 7 7 7 7 7 7 7 7 7 7 7 7 7 7 7 7 7 7 7 7 7 7 7 7 7 7 7 7 7 7 7 7 7 7 7 7 7 7 7 7 7 7 7 7 7 7 7 7 7 7 7 7 7 7 7 7 7 7 7 7 7 7 7 7 7 7 7 7 7 7 7 7 7 7 7 7 7 7 7 7 7 7 7 7 7 7 7 7 7 7 7 7 7 7 7 ",
"7 7 7 7 7 7 7 7 7 7 7 7 7 7 7 7 7 7 7 7 7 7 7 7 7 7 7 7 7 7 7 7 7 7 7 7 7 7 7 7 7 7 7 7 7 7 7 7 7 7 7 7 7 7 7 7 7 7 7 7 7 7 7 7 7 7 7 7 7 7 7 7 7 7 7 7 7 7 7 7 7 7 7 7 7 7 7 7 7 7 7 7 7 7 7 7 7 7 7 7 7 7 7 7 7 7 7 7 7 7 7 7 7 7 7 7 7 7 7 7 7 7 7 7 7 7 7 7 7 7 7 7 7 7 7 7 7 7 7 7 7 7 7 7 7 7 7 7 7 7 7 7 7 7 7 7 7 7 7 7 7 7 7 7 7 7 7 7 7 7 7 7 7 7 7 7 7 7 7 7 7 7 7 7 7 7 7 7 7 7 7 7 7 7 7 7 7 7 7 7 7 7 7 7 7 7 7 7 7 7 7 7 7 7 7 7 7 7 7 7 7 7 7 7 7 7 7 7 7 7 7 7 7 7 7 7 7 7 7 7 7 7 7 7 7 7 7 7 7 7 7 7 7 7 7 7 ",
"7 7 7 7 7 7 7 7 7 7 7 7 7 7 7 7 7 7 7 7 7 7 7 7 7 7 7 7 7 7 7 7 7 7 7 7 7 7 7 7 7 7 7 7 7 7 7 7 7 7 7 7 7 7 7 7 7 7 7 7 7 7 7 7 7 7 7 7 7 7 7 7 7 7 7 7 7 7 7 7 7 7 7 7 7 7 7 7 7 7 7 7 7 7 7 7 7 7 7 7 7 7 7 7 7 7 7 7 7 7 7 7 7 7 7 7 7 7 7 7 7 7 7 7 7 7 7 7 7 7 7 7 7 7 7 7 7 7 7 7 7 7 7 7 7 7 7 7 7 7 7 7 7 7 7 7 7 7 7 7 7 7 7 7 7 7 7 7 7 7 7 7 7 7 7 7 7 7 7 7 7 7 7 7 7 7 7 7 7 7 7 7 7 7 7 7 7 7 7 7 7 7 7 7 7 7 7 7 7 7 7 7 7 7 7 7 7 7 7 7 7 7 7 7 7 7 7 7 7 7 7 7 7 7 7 7 7 7 7 7 7 7 7 7 7 7 7 7 7 7 7 7 7 7 7 7 ",
"7 7 7 7 7 7 7 7 7 7 7 7 7 7 7 7 7 7 7 7 7 7 7 7 7 7 7 7 7 7 7 7 7 7 7 7 7 7 7 7 7 7 7 7 7 7 7 7 7 7 7 7 7 7 7 7 7 7 7 7 7 7 7 7 7 7 7 7 7 7 7 7 7 7 7 7 7 7 7 7 7 7 7 7 7 7 7 7 7 7 7 7 7 7 7 7 7 7 7 7 7 7 7 7 7 7 7 7 7 7 7 7 7 7 7 7 7 7 7 7 7 7 7 7 7 7 7 7 7 7 7 7 7 7 7 7 7 7 7 7 7 7 7 7 7 7 7 7 7 7 7 7 7 7 7 7 7 7 7 7 7 7 7 7 7 7 7 7 7 7 7 7 7 7 7 7 7 7 7 7 7 7 7 7 7 7 7 7 7 7 7 7 7 7 7 7 7 7 7 7 7 7 7 7 7 7 7 7 7 7 7 7 7 7 7 7 7 7 7 7 7 7 7 7 7 7 7 7 7 7 7 7 7 7 7 7 7 7 7 7 7 7 7 7 7 7 7 7 7 7 7 7 7 7 7 7 ",
"7 7 7 7 7 7 7 7 7 7 7 7 7 7 7 7 7 7 7 7 7 7 7 7 7 7 7 7 7 7 7 7 7 7 7 7 7 7 7 7 7 7 7 7 7 7 7 7 7 7 7 7 7 7 7 7 7 7 7 7 7 7 7 7 7 7 7 7 7 7 7 7 7 7 7 7 7 7 7 7 7 7 7 7 7 7 7 7 7 7 7 7 7 7 7 7 7 7 7 7 7 7 7 7 7 7 7 7 7 7 7 7 7 7 7 7 7 7 7 7 7 7 7 7 7 7 7 7 7 7 7 7 7 7 7 7 7 7 7 7 7 7 7 7 7 7 7 7 7 7 7 7 7 7 7 7 7 7 7 7 7 7 7 7 7 7 7 7 7 7 7 7 7 7 7 7 7 7 7 7 7 7 7 7 7 7 7 7 7 7 7 7 7 7 7 7 7 7 7 7 7 7 7 7 7 7 7 7 7 7 7 7 7 7 7 7 7 7 7 7 7 7 7 7 7 7 7 7 7 7 7 7 7 7 7 7 7 7 7 7 7 7 7 7 7 7 7 7 7 7 7 7 7 7 7 7 ",
"7 7 7 7 7 7 7 7 7 7 7 7 7 7 7 7 7 7 7 7 7 7 7 7 7 7 7 7 7 7 7 7 7 7 7 7 7 7 7 7 7 7 7 7 7 7 7 7 7 7 7 7 7 7 7 7 7 7 7 7 7 7 7 7 7 7 7 7 7 7 7 7 7 7 7 7 7 7 7 7 7 7 7 7 7 7 7 7 7 7 7 7 7 7 7 7 7 7 7 7 7 7 7 7 7 7 7 7 7 7 7 7 7 7 7 7 7 7 7 7 7 7 7 7 7 7 7 7 7 7 7 7 7 7 7 7 7 7 7 7 7 7 7 7 7 7 7 7 7 7 7 7 7 7 7 7 7 7 7 7 7 7 7 7 7 7 7 7 7 7 7 7 7 7 7 7 7 7 7 7 7 7 7 7 7 7 7 7 7 7 7 7 7 7 7 7 7 7 7 7 7 7 7 7 7 7 7 7 7 7 7 7 7 7 7 7 7 7 7 7 7 7 7 7 7 7 7 7 7 7 7 7 7 7 7 7 7 7 7 7 7 7 7 7 7 7 7 7 7 7 7 7 7 7 7 7 ",
"7 7 7 7 7 7 7 7 7 7 7 7 7 7 7 7 7 7 7 7 7 7 7 7 7 7 7 7 7 7 7 7 7 7 7 7 7 7 7 7 7 7 7 7 7 7 7 7 7 7 7 7 7 7 7 7 7 7 7 7 7 7 7 7 7 7 7 7 7 7 7 7 7 7 7 7 7 7 7 7 7 7 7 7 7 7 7 7 7 7 7 7 7 7 7 7 7 7 7 7 7 7 7 7 7 7 7 7 7 7 7 7 7 7 7 7 7 7 7 7 7 7 7 7 7 7 7 7 7 7 7 7 7 7 7 7 7 7 7 7 7 7 7 7 7 8 8 8 8 8 8 8 8 8 8 8 8 8 8 8 8 8 8 8 8 8 8 8 8 8 8 8 8 8 8 8 8 8 8 8 8 8 8 8 8 8 8 8 8 8 8 8 8 8 8 8 8 8 8 8 8 8 8 8 8 8 8 8 8 8 8 8 8 8 8 8 8 8 8 8 8 8 8 8 8 8 8 8 8 8 8 8 8 8 8 8 8 8 8 8 8 8 8 8 8 8 8 8 8 8 8 8 8 8 8 8 ",
"7 7 7 7 7 7 7 7 7 7 7 7 7 7 7 7 7 7 7 7 7 7 7 7 7 7 7 7 7 7 7 7 7 7 7 7 7 7 7 7 7 7 7 7 7 7 7 7 7 7 7 7 7 7 7 7 7 7 7 7 7 7 7 7 7 7 7 7 7 7 7 7 7 7 7 7 7 7 7 7 7 7 7 7 7 7 7 7 7 7 7 7 7 7 7 7 7 7 7 7 7 7 7 7 7 7 7 7 7 7 7 7 7 7 7 7 7 7 7 7 7 7 7 7 7 7 7 7 7 7 7 7 7 7 7 7 7 7 7 7 7 7 7 8 7 7 7 7 7 7 7 7 7 7 7 7 7 7 7 7 7 7 7 7 7 7 7 7 7 7 7 7 7 7 7 7 7 7 7 7 7 7 7 7 7 7 7 7 7 7 7 7 7 7 7 7 7 7 7 7 7 7 7 7 7 7 7 7 7 7 7 7 7 7 7 7 7 7 7 7 7 7 7 7 7 7 7 7 7 7 7 7 7 7 7 7 7 7 7 7 7 7 7 7 7 7 7 7 7 7 7 7 7 7 7 7 ",
"7 7 7 7 7 7 7 7 7 7 7 7 7 7 7 7 7 7 7 7 7 7 7 7 7 7 7 7 7 7 7 7 7 7 7 7 7 7 7 7 7 7 7 7 7 7 7 7 7 7 7 7 7 7 7 7 7 7 7 7 7 7 7 7 7 7 7 7 7 7 7 7 7 7 7 7 7 7 7 7 7 7 7 7 7 7 7 7 7 7 7 7 7 7 7 7 7 7 7 7 7 7 7 7 7 7 7 7 7 7 7 7 7 7 7 7 7 7 7 7 7 7 7 7 7 7 7 7 7 7 7 7 7 7 7 7 7 7 7 7 7 7 7 8 > * * * * * * * * * * * * * * * * * * * * * * * * * * * * * * * * * * * * * * * * * * * * * * * * * * * * * * * * * * * * * * * * * * * * * * * * * * * * * * * * * * * * * * * * * * * * * * * * * * * * * * * * * * * * * * * ",
"7 7 7 7 7 7 7 7 7 7 7 7 7 7 7 7 7 7 7 7 7 7 7 7 7 7 7 7 7 7 7 7 7 7 7 7 7 7 7 7 7 7 7 7 7 7 7 7 7 7 7 7 7 7 7 7 7 7 7 7 7 7 7 7 7 7 7 7 7 7 7 7 7 7 7 7 7 7 7 7 7 7 7 7 7 7 7 7 7 7 7 7 7 7 7 7 7 7 7 7 7 7 7 7 7 7 7 7 7 7 7 7 7 7 7 7 7 7 7 7 7 7 7 7 7 7 7 7 7 7 7 7 7 7 7 7 7 7 7 7 7 7 8 > * * * * * * * * * * * * * * * * * * * * * * * * * * * * * * * * * * * * * * * * * * * * * * * * * * * * * * * * * * * * * * * * * * * * * * * * * * * * * * * * * * * * * * * * * * * * * * * * * * * * * * * * * * * * * * * * ",
"7 7 7 7 7 7 7 7 7 7 7 7 7 7 7 7 7 7 7 7 7 7 7 7 7 7 7 7 7 7 7 7 7 7 7 7 7 7 7 7 7 7 7 7 7 7 7 7 7 7 7 7 7 7 7 7 7 7 7 7 7 7 7 7 7 7 7 7 7 7 7 7 7 7 7 7 7 7 7 7 7 7 7 7 7 7 7 7 7 7 7 7 7 7 7 7 7 7 7 7 7 7 7 7 7 7 7 7 7 7 7 7 7 7 7 7 7 7 7 7 7 7 7 7 7 7 7 7 7 7 7 7 7 7 7 7 7 7 7 7 7 8 > * * * * * * * * * * * * * * * * * * * * * * * * * * * * * * * * * * * * * * * * * * * * * * . O   * * * * X * * * * * * * = * * * * * * * * * * * * * * * * * * * = * * * * * * * * * * * * * * * * * * * * * * * * * * * * * * * ",
"7 7 7 7 7 7 7 7 7 7 7 7 7 7 7 7 7 7 7 7 7 7 7 7 7 7 7 7 7 7 7 7 7 7 7 7 7 7 7 7 7 7 7 7 7 7 7 7 7 7 7 7 7 7 7 7 7 7 7 7 7 7 7 7 7 7 7 7 7 7 7 7 7 7 7 7 7 7 7 7 7 7 7 7 7 7 7 7 7 7 7 7 7 7 7 7 7 7 7 7 7 7 7 7 7 7 7 7 7 7 7 7 7 7 7 7 7 7 7 7 7 7 7 7 7 7 7 7 7 7 7 7 7 7 7 7 7 7 7 7 8 > * * * * * * * * X * * * * * * * * * * * * * * * * * * * * * * * * * * * * * * * * * * * * * . s l.J = o O u c.. o   *   O * 7   * X   o * X     X O = X O   * o   * 7   * * * * * * * * * * * * * * * * * * * * * * * * * * * * * * ",
"7 7 7 7 7 7 7 7 7 7 7 7 7 7 7 7 7 7 7 7 7 7 7 7 7 7 7 7 7 7 7 7 7 7 7 7 7 7 7 7 7 7 7 7 7 7 7 7 7 7 7 7 7 7 7 7 7 7 7 7 7 7 7 7 7 7 7 7 7 7 7 7 7 7 7 7 7 7 7 7 7 7 7 7 7 7 7 7 7 7 7 7 7 7 7 7 7 7 7 7 7 7 7 7 7 7 7 7 7 7 7 7 7 7 7 7 7 7 7 7 7 7 7 7 7 7 7 7 7 7 7 7 7 7 7 7 7 7 7 8 > * * * * * * * X , @.< X * * * * * * * * * * * * * * * * * * * * * * * * * * * * * * * * * * X 8 %X1. .. 6.K u $X. 5.K o L 6.l.&Xs   t P 5.> r P K t j.5 7 j.J * 5.u 1.SXf X * * * * * * * * * * * * * * * * * * * * * * * * * * * * * ",
"7 7 7 7 7 7 7 7 7 7 7 7 7 7 7 7 7 7 7 7 7 7 7 7 7 7 7 7 7 7 7 7 7 7 7 7 7 7 7 7 7 7 7 7 7 7 7 7 7 7 7 7 7 7 7 7 7 7 7 7 7 7 7 7 7 7 7 7 7 7 7 7 7 7 7 7 7 7 7 7 7 7 7 7 7 7 7 7 7 7 7 7 7 7 7 7 7 7 7 7 7 7 7 7 7 7 7 7 7 7 7 7 7 7 7 7 7 7 7 7 7 7 7 7 7 7 7 7 7 7 7 7 7 7 7 7 7 7 8 > * * * * * * * * < @.4 X * * * * * * * * * * * * * * * * * * * * * * * * * * * * * * * * * * * = 5 *X .O j.Z.$Xc.c.x.B.%X5.$XP x.*Xt O j.&Xx.v.l.&XJ $Xb.$X$Xv.t v.B.$Xb.%Xt * * * * * * * * * * * * * * * * * * * * * * * * * * * * * * ",
"7 7 7 7 7 7 7 7 7 7 7 7 7 7 7 7 7 7 7 7 7 7 7 7 7 7 7 7 7 7 7 7 7 7 7 7 7 7 7 7 7 7 7 7 7 7 7 7 7 7 7 7 7 7 7 7 7 7 7 7 7 7 7 7 7 7 7 7 7 7 7 7 7 7 7 7 7 7 7 7 7 7 7 7 7 7 7 7 7 7 7 7 7 7 7 7 7 7 7 7 7 7 7 7 7 7 7 7 7 7 7 7 7 7 7 7 7 7 7 7 7 7 7 7 7 7 7 7 7 7 7 7 7 7 7 7 7 8 > * * * * * * * * X 2 *.> X * * * * * * * * * * * * * * * * * * * * * * * * * * * * * * * * * * * * . 5 Z.v.%XZ.b.l.b.&XB.v.%X6.O L l.O o 5.5.O $Xc. .t PXl.b.P B.f &Xb.B.j.l.O * * * * * * * * * * * * * * * * * * * * * * * * * * * * * * ",
"7 7 7 7 7 7 7 7 7 7 7 7 7 7 7 7 7 7 7 7 7 7 7 7 7 7 7 7 7 7 7 7 7 7 7 7 7 7 7 7 7 7 7 7 7 7 7 7 7 7 7 7 7 7 7 7 7 7 7 7 7 7 7 7 7 7 7 7 7 7 7 7 7 7 7 7 7 7 7 7 7 7 7 7 7 7 7 7 7 7 7 7 7 7 7 7 7 7 7 7 7 7 7 7 7 7 7 7 7 7 7 7 7 7 7 7 7 7 7 7 7 7 7 7 7 7 7 7 7 7 7 7 7 7 7 7 8 > * * * * * * * * * *   4 %., * * * * * * * * * * * * * * * * * * * * * * * * * * * * * * * * * * * = 7 s f $XB.x.7 L Z.B.f.5 1.$X8 1.$X5 o 5.$X .Z.l.4.5 &Xf t r 4.%XA.5.7 L %X5 * * * * * * * * * * * * * * * * * * * * * * * * * * * * * * ",
"7 7 7 7 7 7 7 7 7 7 7 7 7 7 7 7 7 7 7 7 7 7 7 7 7 7 7 7 7 7 7 7 7 7 7 7 7 7 7 7 7 7 7 7 7 7 7 7 7 7 7 7 7 7 7 7 7 7 7 7 7 7 7 7 7 7 7 7 7 7 7 7 7 7 7 7 7 7 7 7 7 7 7 7 7 7 7 7 7 7 7 7 7 7 7 7 7 7 7 7 7 7 7 7 7 7 7 7 7 7 7 7 7 7 7 7 7 7 7 7 7 7 7 7 7 7 7 7 7 7 7 7 7 7 7 8 > * * * * * * * * * * * * X , , * * * * * * * * * * * * * * * * * * * * * * * * * * * * * * * * * * * * 5 c.Z.s * b.b.J  .7 B.v.5 5.B.r c. .O 6.%Xb.t K K o P A.1.1.Z.f 7 B.c.7 x. .. * * * * * * * * * * * * * * * * * * * * * * * * * * * * * ",
"7 7 7 7 7 7 7 7 7 7 7 7 7 7 7 7 7 7 7 7 7 7 7 7 7 7 7 7 7 7 7 7 7 7 7 7 7 7 7 7 7 7 7 7 7 7 7 7 7 7 7 7 7 7 7 7 7 7 7 7 7 7 7 7 7 7 7 7 7 7 7 7 7 7 7 7 7 7 7 7 7 7 7 7 7 7 7 7 7 7 7 7 7 7 7 7 7 7 7 7 7 7 7 7 7 7 7 7 7 7 7 7 7 7 7 7 7 7 7 7 7 7 7 7 7 7 7 7 7 7 7 7 7 7 8 > * * * * * * * * * * * * * * X * * * * * * * * * * * * * * * * * * * * * * * * * * * * * * * * * * * * * * o o . * o o .   = o o *   o X o X o j.j.O * . . *   o     o . = o o * o . * * * * * * * * * * * * * * * * * * * * * * * * * * * * * * ",
"8 8 8 8 8 8 8 8 8 8 8 8 8 8 8 8 8 8 8 8 8 8 8 8 8 8 8 8 8 8 8 8 8 8 8 8 8 8 8 8 8 8 8 8 8 8 8 8 8 8 8 8 8 8 8 8 8 8 8 8 8 8 8 8 8 8 8 8 8 8 8 8 8 8 8 8 8 8 8 8 8 8 8 8 8 8 8 8 8 8 8 8 8 8 8 8 8 8 8 8 8 8 8 8 8 8 8 8 8 8 8 8 8 8 8 8 8 8 8 8 8 8 8 8 8 8 8 8 8 8 8 8 8 8 > * * * * * * * * * * * * * * * * * * * * * * * * * * * * * * * * * * * * * * * * * * * * * * * * * * * * * * * * * * * * * * * * * * * * * * *   J K X * * * * * * * * * * * * * * * * * * * * * * * * * * * * * * * * * * * * * * * * * * * * * * ",
"5 5 5 5 5 5 5 5 5 5 5 5 5 5 5 5 5 5 5 5 5 5 5 5 5 5 5 5 5 5 5 5 5 5 5 5 5 5 5 5 5 5 5 5 5 5 5 5 5 5 5 5 5 5 5 5 5 5 5 5 5 5 5 5 5 5 5 5 5 5 5 5 5 5 5 5 5 5 5 5 5 5 5 5 5 5 5 5 5 5 5 5 5 5 5 5 5 5 5 5 5 5 5 5 5 5 5 5 5 5 5 5 5 5 5 5 5 5 5 5 5 5 5 5 5 5 5 5 5 5 5 5 5 * * * * * * * * * * * * * * * * * * * * * * * * * * * * * * * * * * * * * * * * * * * * * * * * * * * * * * * * * * * * * * * * * * * * * * * * * * X . * * * * * * * * * * * * * * * * * * * * * * * * * * * * * * * * * * * * * * * * * * * * * * * ",
"X X X X X X X X X X X X X X X X X X X X X X X X X X X X X X X X X X X X X X X X X X X X X X X X X X X X X X X X X X X X X X X X X X X X X X X X X X X X X X X X X X X X X X X X X X X X X X X X X X X X X X X X X X X X X X X X X X X X X X X X X X X X X X X X X X X X X * * * * * * * * * * * * * * * * * * * * * * * * * * * * * * * * * * * * * * * * * X X X X X X X X X X X X X X X X X X X X X X X X X X X X X X X X X = * X X X X X X X X X X X X X X X X X X X X X X X X X X X X X X X X X X X X X X X X X X X X X X X ",
"t t t t t t t t t t t t t t t t t t t t t t t t t t t t t t t t t t t t t t t t t t t t t t t t t t t t t t t t t t t t t t t t t t t t t t t t t t t t t t t t t t t t t t t t t t t t t t t t t t t t t t t t t t t t t t t t t t t t t t t t t t t t t t t t t t t t t * * 5 5 5 5 5 5 5 5 5 5 5 5 5 5 5 5 5 5 5 * * > 5 5 5 5 5 5 5 5 5 5 5 5 5 5 5 * * t t t t t t t t t t t t t t t t t t t t t t t t t t t t t t t t t t t t t t t t t t t t t t t t t t t t t t t t t t t t t t t t t t t t t t t t t t t t t t t t t t ",
"L L L L L L L L L L L L L L L L L L L L L L L L L L L L L L L L L L L L L L L L L L L L L L L L L L L L L L L L L L L L L L L L L L L L L L L L L L L L L L L L L L L L L L L L L L L L L L L L L L L L L L L L L L L L L L L L L L L L L L L L L L L L L L L L L L L P J * * 8 8 8 8 8 8 7 7 7 7 7 7 7 8 8 8 8 8 r > = 7 r 8 8 r r 8 8 8 8 8 8 8 8 8 8 * * L L L P P L P P L P P P L P L L L L P L L P L P L L P P L L P L L L L L L L L L L L L L L L L L L L L L L L L L L L L L L L L L L L L L L L L L L L L L L L L L L L ",
"K K K K K K K K K K K K K K K K K K K K K K K K K K K K K K K K K K K K K K K K K K K K K K K K K K K K K K K K K K K K K K K K K K K K K K K K K K K K K K K K K K K K K K K K K K K K K K K K K K K K K K K K K K K K K K K K K K K K K K K K K K K K K K K K K K K K f * * 7 7 7 7 8 7 s  .K P L  .J 7 8 7 7 7 8 > = 5 8 8 7 > 5 8 8 8 7 7 8 8 7 7 7 * * K K J f f J f f J f f f K f K f J J f f f f f f J J f f J J f K f J K K K K K K K K K K K K K K K K K K K K K K K K K K K K K K K K K K K K K K K K K K K K K K K K ",
"K K K K K K K K K K K K K K K K K K K K K K K K K K K K K K K K K K K K K K K K K K K K K K K K K K K K K K K K K K K K K K K K K K K K K K K K K K K K K K K K K K K K K K K K K K K K K K K K K K K K K K K K K K K K K K K K K K K K K K K K K K K K K K K K K K K L J * * 8 7 7 7 8 5 L P j.V.j.s 1.5 8 7 7 7 8 > = 5 r 7 t 1.L 7 > > K s 5 > 7 8 7 * * K J 1.%X$X .B.%Xj.V.%Xv.L b.f j.6.4.%Xb.Z.*XV.$Xx.P $X$X .4.Z.f x. .J K K K K K K K K K K K K K K K K K K K K K K K K K K K K K K K K K K K K K K K K K K K K K K K ",
"K K K K K K K K K K K K K K K K K K K K K K K K K K K K K K K K K K K K K K K K K K K K K K K K K K K K K K K K K K K K K K K K K K K K K K K K K K K K K K K K K K K K K K K K K K K K K K K K K K K K K K K K K K K K K K K K K K K K K K K K K K K K K K K K K K K L J * * 8 7 7 7 8 7 J c.4.8 j.5.L 7 8 7 7 7 8 > = 7 7 u $Xx.1.r 1.s u u f  .t 7 7 * * K f j.Z.x.A.$X1.K *X .$Xb.%Xs V.b.%X1. . .*XP $Xj.$Xj.5.$Xj.PX1.Z.6.J K K K K K K K K K K K K K K K K K K K K K K K K K K K K K K K K K K K K K K K K K K K K K K K ",
"K K K K K K K K K K K K K K K K K K K K K K K K K K K K K K K K K K K K K K K K K K K K K K K K K K K K K K K K K K K K K K K K K K K K K K K K K K K K K K K K K K K K K K K K K K K K K K K K K K K K K K K K K K K K K K K K K K K K K K K K K K K K K K K K K K K L J * * 8 7 7 7 8 5 J Z.t . f x.L 7 8 7 7 7 8 > = 7 * l.l.8 L u x.B.b.5.%XB.b.> 8 * * K f 4.&X&X1.%X*X5.$Xf 5.$X$Xs c.$XV.u K L $XJ b.l.$XJ f $Xx.Z.$XV.1.J K K K K K K K K K K K K K K K K K K K K K K K K K K K K K K K K K K K K K K K K K K K K K K K ",
"K K K K K K K K K K K K K K K K K K K K K K K K K K K K K K K K K K K K K K K K K K K K K K K K K K K K K K K K K K K K K K K K K K K K K K K K K K K K K K K K K K K K K K K K K K K K K K K K K K K K K K K K K K K K K K K K K K K K K K K K K K K K K K K K K K K L J * * 8 7 7 7 8 7 J f.x.K B.B.P 7 8 7 7 7 8 > = 7 * c.5.t &X6.c.$XB.5.b.8 $X5 8 * * K f f.Z.Z.f.$X1.K *XJ A.b.$XJ Z.b.%XL K P %XK V.f.%X6.1.$Xc.x.b.PX .J K K K K K K K K K K K K K K K K K K K K K K K K K K K K K K K K K K K K K K K K K K K K K K K ",
"K K K K K K K K K K K K K K K K K K K K K K K K K K K K K K K K K K K K K K K K K K K K K K K K K K K K K K K K K K K K K K K K K K K K K K K K K K K K K K K K K K K K K K K K K K K K K K K K K K K K K K K K K K K K K K K K K K K K K K K K K K K K K K K K K K K L J * * 8 7 7 7 8 5 L K 1.x.c.PXx.> r 7 7 7 8 > = 7 7 J %X6.A.$XA.A.Z.j.B.u $X5 8 * * K f 4.x.1.V.A.*Xj.$X%XZ.J l.%XZ.J c.*Xc.L V.L $Xc.1.%X%X1.5.l.J &X .J K K K K K K K K K K K K K K K K K K K K K K K K K K K K K K K K K K K K K K K K K K K K K K K ",
"K K K K K K K K K K K K K K K K K K K K K K K K K K K K K K K K K K K K K K K K K K K K K K K K K K K K K K K K K K K K K K K K K K K K K K K K K K K K K K K K K K K K K K K K K K K K K K K K K K K K K K K K K K K K K K K K K K K K K K K K K K K K K K K K K K K K f * * 8 7 7 7 8 7 s 1.K K K 5.P 7 8 7 7 7 8 > = 5 r 5 J l. .u 5.K J s J r K 7 7 * * K K K J K J J L K J L f K J K J K f K K K J K J K J K K J K J K f K K K K K K K K K K K K K K K K K K K K K K K K K K K K K K K K K L K K K K K K K K K K K K K K K ",
"K L L L L L K L L L L K L L L L K L L L K L L K L L L L L L L L L L L L L L L L L L L L L L L K L L L L K L L L L L L L L K L L L L L L L L K K L L L L L L K L L L L L K L L L L K L L L L K K L L K L L K L L L L L L L L L L L L L L L L L L L L L L L K L L L L L L J * * 8 7 7 7 7 8 7 7 8 8 7 5 7 8 7 7 7 7 8 > = 5 8 8 5 * 5 7 * 5 5 7 7 7 5 8 7 * * K L L L L L L L L L L L L L L L K L L L L L L L L L L L L L L K L L L L L L L L L L L L L L L K L L L L L L L L L L L L L L L K L K f L L L L L L L L L L L K L L L ",
"8 7 7 7 7 7 r 7 7 7 7 8 8 7 7 7 r 7 7 7 8 7 7 r 7 7 7 7 7 7 7 7 7 7 7 7 7 7 7 7 7 7 7 7 7 7 8 8 7 7 7 7 t 7 7 7 7 7 7 7 7 r 7 7 7 7 7 7 7 7 8 t 7 7 7 7 7 7 r 7 7 7 7 7 8 7 7 7 7 r 7 7 7 7 r y 7 7 r 7 7 r 8 7 7 7 7 7 7 7 7 7 7 7 7 7 7 7 7 7 7 7 7 7 7 r 7 7 7 7 7 7 u * * 8 7 7 7 7 7 8 7 7 7 7 7 8 7 7 7 7 7 8 > = 5 8 7 8 r 8 8 r 8 8 8 8 7 8 7 7 * > u 7 7 7 7 7 7 7 7 7 7 7 7 7 7 7 r 7 7 7 7 7 7 7 7 7 7 7 7 7 7 8 8 7 7 7 7 7 7 7 7 7 7 7 7 7 7 r 7 7 7 7 7 7 7 7 7 7 7 7 7 7 7 r 7 i ( 7 7 7 7 7 7 7 7 7 7 7 8 8 7 7 ",
"r * * * * * t * * * * 8 7 * * 5 t * * 5 r * * u 5 * * * * * * * * * * * * * * * * * * * * * 7 8 * * * * l * * * * * * * 5 r * * * * * * * * h q = > * * * > t * * * * * r 5 * * * t > * * * t C * > t * * t 7 * * * * * * * * * * * * * * * * * * * * * 5 t * * * * * * t * * 8 7 7 7 7 7 8 5 = * = > 8 7 7 7 7 7 8 > = 5 8 7 8 8 8 8 8 8 8 8 8 8 8 8 7 * > r * * * * * * * * * * * * * * 5 t * * * * * * * * * * * * * * r 8 * * * * * * * * * * * * * * t > * * * * * * * * * * * * * 5 u . p kX* * * * * * * * * * * 8 7 * * ",
"r * 5 > > > t 5 > 5 * 8 7 * > 5 t * > 5 t * * u 5 > > > > > > > > > > > > > > > > > > > > * 7 8 * 5 > 5 l > > > > > > > 5 t * 5 > > > > 5 * h q * 5 > > > 5 t * > > 5 * t 5 > 5 * t 5 > > > t C > 5 t > * t 7 * > > > > > > > > > > > > > > > > > > > > 5 t * 5 > > > * t * * 8 7 7 7 7 7 8 5 * * * > 8 7 7 7 7 7 8 > = 5 8 7 e e e e e e e e e e 7 8 7 * > t * 5 > > > > > > > > > > > > 5 t * 5 > > > > > > > > > > 5 * t 8 * 5 > > > > > > > > 5 5 5 * t 5 > > > > 5 > > > > 5 > > * 7 u . p pX5 > 5 > > > > > > 5 * r 7 * > ",
"r * > > > > t > > > * 8 7 * > 5 t * * 5 r * * u 5 * > > > > > > > > > > > > > > > > > > > * 7 8 * > > > l > > > > > > * 5 t * > > > > > 5 * h q * 5 > > > 5 t * > > > * t 5 * > * t 5 > > > t C > 5 t > * t 7 * > > > > > > > > > > > > > > > > > > > * 5 t * > > > > * t * * 8 7 7 7 7 7 8 5 * * * > 8 7 7 7 7 7 8 > = 5 8 8 w w w w w w w w w w h 7 7 * > t * > > > > > > > > > > > > * 5 t * > > > > > > > > > > > > * t 8 * > > > > > > > 5 * D iX_ ( u > > 5 > > * 5 i ( > * 5 * p ( 7 ( ~ pX5 > > > > > > > > > * 8 7 * > ",
"r * > > > > t > > > * 8 7 * > 5 t * * 5 r * * u 5 * > > > > > > > > > > > > > > > > > > > * 7 8 * > > > l > > > > > > * 5 t * > > > > > 5 * h q * 5 > > > 5 t * > > > * t 5 * > * t 5 > > > t C > 5 t > * t 7 * > > > > > > > > > > > > > > > > > > > * 5 t * > > > > * t * * 8 7 7 7 7 7 8 5 * * * > 8 7 7 7 7 7 8 > = 7 e h J.J.J.J.J.m J.J.J.J.n 3 7 * > t * > > > > > > > > > > > > * 5 t * > > > > > > > > > > > > * t 8 * > > > > > > > > 5 . _ i { ).~ { ( _ { _ _ p ).{ p _ _ D { { ).~ pX5 > > > > > > > > > * 8 7 * > ",
"r * > > > > t > > > * 8 7 * > 5 t * * 5 r * * u 5 * > > > > > > > > > > > > > > > > > > > * 7 8 * > > > l > > > > > > * 5 t * > > > > > 5 * h q * 5 > > > 5 t * > > > * t 5 * > * t 5 > > > t C > 5 t > * t 7 * > > > > > > > > > > > > > > > > > > > * 5 t * > > > > * t * * 8 7 7 7 7 7 8 7 * * * , 8 7 7 7 7 7 8 > = 7 7 u r.r.r.r.r.r.r.r.r.r.g 7 8 * > t * > > > > > > > > > > > > * 5 t * > > > > > > > > > > > > * t 8 * > > > > > > > > 5 X _ p _ / _ _ p )._ ( ( D ( ( { D ( _ ).D _ ( aX5 > > > > > > > > > * 8 7 * > ",
"r * > > > > t > > > * 8 7 * > 5 t * * 5 r * * u 5 * > > > > > > > > > > > > > > > > > > > * 7 8 * > > > l > > > > > > * 5 t * > > > > > 5 * h q * 5 > > > 5 t * > > > * t 5 * > * t 5 > > > t C > 5 t > * t 7 * > > > > > > > > > > > > > > > > > > > * 5 t * > > > > * t * * 8 7 7 7 7 r 5 o.BXAXmX&.- r 7 7 7 7 8 > = 7 7 A 4X4X4X4X3X+X4X4X4X4X$.5 e * > t * > > > > > > > > > > > > * 5 t * > > > > > > > > > > > > * t 8 * > > > > > > > > 5 X _ p ( / _ ( 7 { ( D { ( ( ( ( _ { ~ { { { ~ pX5 > > > > > > > > > * 8 7 * > ",
"r * > > > > t > > > * 8 7 * > 5 t * * 5 r * * u 5 * > > > > > > > > > > > > > > > > > > > * 7 8 * > > > l > > > > > > * 5 t * > > > > > 5 * h q * 5 > > > 5 t * > > > * t 5 * > * t 5 > > > t C > 5 t > * t 7 * > > > > > > > > > > > > > > > > > > > * 5 t * > > > > * t * * 8 7 7 7 7 r - X.ZXMXZX&.- r 7 7 7 7 8 > = 7 7 A .X.X.X.X.X[..X.X.XoXT 5 8 * > t * > > > > > > > > > > > > * 5 t * > > > > > > > > > > > > * t 8 * > > > > > > > > > > 7 5 5 u 7 7 * 7 p i i > 5 5 > i i * 7 D 7 p pX5 > > > > > > > > > * 8 7 * > ",
"r * > > > > t > > > * 8 7 * > 5 t * * 5 r * * u 5 * > > > > > > > > > > > > > > > > > > > * 7 8 * > > > l > > > > > > * 5 t * > > > > > 5 * h q * 5 > > > 5 t * > > > * t 5 * > * t 5 > > > t C > 5 t > * t 7 * > > > > > > > > > > > > > > > > > > > * 5 t * > > > > * t * * 8 7 7 7 7 r - X.NXmXNX&.- r 7 7 7 7 8 > = 7 7 y 3X4X4X4X3XoX4X4X4X4X$.5 e * > t * > > > > > > > > > > > > * 5 t * > > > > > > > > > > > > * t 8 * > > > > > > > > > > > > * t > * 5 > X * * > > > > * * * 7 t . p pX5 > > > > > > > > > * 8 7 * > ",
"r * > > > > t > > > * 8 7 * > 5 t * * 5 r * * u 5 * > > > > > > > > > > > > > > > > > > > * 7 8 * > > > l > > > > > > * 5 t * > > > > > 5 * h q * 5 > > > 5 t * > > > * t 5 * > * t 5 > > > t C > 5 t > * t 7 * > > > > > > > > > > > > > > > > > > > * 5 t * > > > > * t * * 8 7 7 7 7 r - X.NXmXNX&.- r 7 7 7 7 8 > = 7 7 A oXoXoXoXoX[.oXoXoXoXT 5 e * > t * > > > > > > > > > > > > * 5 t * > > > > > > > > > > > > * t 8 * > > > > > > > > > > > > * t 5 > > > 5 > 5 > > > > 5 5 * 7 u X p pX5 > > > > > > > > > * 8 7 * > ",
"r * > > > > t > > > * 8 7 * > 5 t * * 5 r * * u 5 * > > > > > > > > > > > > > > > > > > > * 7 8 * > > > l > > > > > > * 5 t * > > > > > 5 * h q * 5 > > > 5 t * > > > * t 5 * > * t 5 > > > t C > 5 t > * t 7 * > > > > > > > > > > > > > > > > > > > * 5 t * > > > > * t * * 8 7 7 7 7 r - X.NXmXNX&.- r 7 7 7 7 8 > = 7 7 y 3X4X4X4X3XoX4X4X4X4X$.5 e * > t * > > > > > > > > > > > > * 5 t * > > > > > > > > > > > > * t 8 * > > > > > > > > > > > > * t 5 > > > > > > > > > > > > * 7 u X p pX5 > > > > > > > > > * 8 7 * > ",
"r * > > > > t > > > * 8 7 * > 5 t * * 5 r * * u 5 * > > > > > > > > > > > > > > > > > > > * 7 8 * > > > l > > > > > > * 5 t * > > > > > 5 * h q * 5 > > > 5 t * > > > * t 5 * > * t 5 > > > t C > 5 t > * t 7 * > > > > > > > > > > > > > > > > > > > * 5 t * > > > > * t * * 8 7 7 7 7 r - X.NXmXNX&.- r 7 7 7 7 8 > = 7 7 A oXoXoXoX.X[.oXoXoXoXT 5 8 * > t * > > > > > > > > > > > > * 5 t * > > > > > > > > > > > > * t 8 * > > > > > > > > > > > > * t 5 > > > > > > > > > > > > * 7 u X p pX5 > > > > > > > > > * 8 7 * > ",
"r * > > > > t > > > * 8 7 * > 5 t * * 5 r * * u 5 * > > > > > > > > > > > > > > > > > > > * 7 8 * > > > l > > > > > > * 5 t * > > > > > 5 * h q * 5 > > > 5 t * > > > * t 5 * > * t 5 > > > t C > 5 t > * t 7 * > > > > > > > > > > > > > > > > > > > * 5 t * > > > > * t * * 8 7 7 7 7 r - X.NXmXNX&.- r 7 7 7 7 8 > = 7 7 A 4X4X4X4X3XXX4X4X4X4X$.5 e * > t * > > > > > > > > > > > > * 5 t * > > > > > > > > > > > > * t 8 * > > > > > > > > > > > > * t 5 > > > > > > > > > > > > * 7 u X p pX5 > > > > > > > > > * 8 7 * > ",
"r * > > > > t > > > * 8 7 * > 5 t * * 5 r * * u 5 * > > > > > > > > > > > > > > > > > > > * 7 8 * > > > l > > > > > > * 5 t * > > > > > 5 * h q * 5 > > > 5 t * > > > * t 5 * > * t 5 > > > t C > 5 t > * t 7 * > > > > > > > > > > > > > > > > > > > * 5 t * > > > > * t * * 8 7 7 7 7 r - X.NXmXNX&.- r 7 7 7 7 8 > = 7 7 y T T T T T T T T T T G 7 7 * > t * > > > > > > > > > > > > * 5 t * > > > > > > > > > > > > * t 8 * > > > > > > > > > > > > * t 5 > > > > > > > > > > > > * 7 u X p pX5 > > > > > > > > > * 8 7 * > ",
"r * 5 > > > t 5 > 5 * 8 7 * > 5 t * > 5 t * * u 5 > > > > > > > > > > > > > > > > > > > > * 7 8 * 5 > 5 l > > > > > > > 5 t * 5 > > > > 5 * h q * 5 > > > 5 t * > > 5 * t 5 * 5 * t 5 > > > t C > 5 t > * t 7 * > > > > > > > > > > > > > > > > > > > > 5 t * > > > > * t * * 8 7 7 7 7 r - X.NXmXNX&.- r 7 7 7 7 8 > = 5 8 7 y A A A y r A A A A r 7 7 * > t * 5 > > > > > > > > > > > > 5 t * > > > > > > > > > > > 5 * t 8 * 5 > > > > > > > > > > > * t 5 > > > > > > > > > > > > * 7 u X p pX5 > > > > > > > > 5 * r 7 * > ",
"8 * * * * * t * * * * 8 7 * * 5 r * * 5 r * * u 5 * * * * * * * * * * * * * * * * * * * * * 7 8 * * * * l * * * * * * * 5 r * * * * * * * * h q = * * * * > t * * * * * r 5 * * * t > * * * t C * * t * * t 7 * * * * * * * * * * * * * * * * * * * * * 5 r * * * * * * t * * 8 7 7 7 7 r - X.NXmXNX&.- r 7 7 7 7 8 > = 5 8 e y y y y y y y y y A r 7 7 * > t * * * * * * * * * * * * * * 5 r * * * * * * * * * * * * * * r 8 * * * * * * * * * * * * * * t > * * * * * * * * * * * * * 5 u . p pX* * * * * * * * * * * 8 7 * * ",
"t 7 7 7 7 7 u 7 7 7 7 t t 7 7 8 u 7 7 8 t 7 7 f 8 7 7 7 7 7 7 7 7 7 7 7 7 7 7 7 7 7 7 7 7 7 r t 7 7 7 7 l 7 7 7 7 7 7 7 8 u 7 7 7 7 7 7 7 5 q g 5 7 7 7 7 7 u 7 7 7 7 7 u 8 7 7 7 u 7 7 7 7 u Z 7 7 u 7 7 s t 7 7 7 7 7 7 7 7 7 7 7 7 7 7 7 7 7 7 7 7 7 8 u 7 7 7 7 7 7 t * * 8 7 7 7 7 r - X.NXmXNX&.- r 7 7 7 7 8 > = 5 8 8 F G G G A y G G G G r 7 7 * > t 7 7 7 7 7 7 7 7 7 7 7 7 7 7 8 u 7 7 7 7 7 7 7 7 7 7 7 7 7 7 u t 7 7 7 7 7 7 7 7 7 7 7 7 7 7 u 7 7 7 7 7 7 7 7 7 7 7 7 7 7 r f > D gX7 7 7 7 7 7 7 7 7 7 7 t r 7 7 ",
"u 7 8 8 8 8 s 8 8 8 7 u t 8 8 r u 8 8 t u 8 8 f r 8 8 8 8 8 8 8 8 8 8 8 8 8 8 8 8 8 8 8 8 8 t u 7 8 8 8 l 8 8 8 8 8 8 8 r u 8 8 8 8 8 8 8 7 g g 7 8 8 8 8 r u 8 8 8 8 8 u t 8 8 8 u r 8 8 8 s | 8 8 s 8 7 s t 7 8 8 8 8 8 8 8 8 8 8 8 8 8 8 8 8 8 8 8 8 r u 8 8 8 8 8 7 t * * 8 7 7 7 7 r - X.NXmXNX&.- r 7 7 7 7 8 > = 5 8 e y y y y y y y y y y r 7 7 * > t 7 8 8 8 8 8 8 8 8 8 8 8 8 8 r u 8 8 8 8 8 8 8 8 8 8 8 8 8 7 s u 7 8 8 8 8 8 8 8 8 8 8 8 8 8 s r 8 8 8 8 8 8 8 8 8 8 8 8 8 t f 5 D gXr 8 8 8 8 8 8 8 8 8 7 u t 8 8 ",
"8 * * * * * t * * * * 7 7 * * 5 r * * 5 r * * u 5 * * * * * * * * * * * * * * * * * * * * * 7 8 * * * * l * * * * * * * 5 r * * * * * * * * h q * * * * * > t * * * * * r 5 * * * t > * * * t C * * t * * t 7 * * * * * * * * * * * * * * * * * * * * * 5 r * * * * * * t * * 8 7 7 7 7 r - X.NXmXNX&.- r 7 7 7 7 8 > = 5 8 8 F G G G A y G G G G r 7 7 * > t * * * * * * * * * * * * * * 5 r * * * * * * * * * * * * * * r 8 * * * * * * * * * * * * * * t * * * * * * * * * * * * * * 5 t . p pX* * * * * * * * * * * 8 7 * * ",
"r * 5 > > > t 5 > 5 * 8 7 * > 5 t * > 5 t * * u 5 > > > > > > > > > > > > > > > > > > > > * 7 8 * 5 > 5 l > > > > > > > 5 t * 5 > > > 5 5 = 8 h = 5 > > > 5 t * 5 > 5 * t 5 > 5 * t 5 > > > t C > 5 t > * t 7 * 5 > > > > > > > > > > > > > > > > > > > 5 t * 5 > > 5 * t * * 8 7 7 7 7 r - X.NXmXNX&.- r 7 7 7 7 8 > = 5 8 e y y y y y y y y y y r 7 7 * > t * 5 > > > > > > > > > > > > 5 t * 5 > > > > > > > > > > 5 * t r * 5 > > > > > > > > > > > > t 5 > > > > > > > > > > > > * 7 u X p pX5 > 5 > > > > > > 5 * r 7 * > ",
"r * > > > > t > > > * 8 7 * > 5 t * * 5 r * * u 5 * > > > > > > > > > > > > > > > > > > > * 7 8 * > > > l > > > > > > * 5 t * > > > 5 > = z G.B 5 * 5 > > 5 t * > > > * t 5 * > * t 5 > > > t C > 5 t > * t 7 * > > > > > > > > > > > > > > > > > > > * 5 t * > > > > * t * * 8 7 7 7 7 r - X.NXmXNX&.- r 7 7 7 7 8 > = 5 8 8 A G F G A y G F F G r 7 7 * > t * > > > > > > > > > > > > * 5 t * > > > > > > > > > > > > * t 8 * > > > > > > > > > > > > * t 5 > > > > > > > > > > > > * 7 u X p pX5 > > > > > > > > > * 8 7 * > ",
"r * > > > > t > > > * 8 7 * > 5 t * * 5 r * * u 5 * > > > > > > > > > > > > > > > > > > > * 7 8 * > > > l > > > > > > * 5 t * > 5 5 * * N /.L./.H.0 = 5 > 5 t * > > > * t 5 * > * t 5 > > > t C > 5 t > * t 7 * > > > > > > > > > > > > > > > > > > > * 5 t * > > > > * t * * 8 7 7 7 7 r - X.NXmXNX&.- r 7 7 7 7 8 > = 5 8 e y y y y y y y y y y r 7 7 * > t * > > > > > > > > > > > > * 5 t * > > > > > > > > > > > > * t 8 * > > > > > > > > > > > > * t 5 > > > > > > > > > > > > * 7 u X p pX5 > > > > > > > > > * 8 7 * > ",
"r * 5 5 5 > t 5 5 5 * 8 7 * > 5 t * > 7 t * > u 5 > 5 5 5 5 5 5 5 5 5 5 5 5 5 5 5 5 5 5 5 * 7 8 * 5 5 5 l > 5 5 5 5 5 > 5 t * > 9 l 5 J./.N & c H.L.9 * 5 5 t > 5 5 5 * t 5 > 5 > t 5 > 5 5 t C 5 5 t 5 * t 7 * 5 5 5 5 5 5 5 5 5 5 5 5 5 5 5 5 5 5 5 > 5 t * 5 5 5 5 > t * * 8 7 7 7 7 r - X.NXmXNX&.- r 7 7 7 7 8 > = 5 8 8 A F F G A y G F F F r 7 7 * > t * > > > > > > > > > > > > * 5 t * > > > > > > > > > > > > * t 8 * > > > > > > > > > > > > * t 5 > > > > > > > > > > > > * 7 u X p pX5 > > > > > > > > > * 8 7 * > ",
"e * * * * * r * * * * 7 7 * * * r * * , e * * t * * * * * * * * * * * * * * * * * * * * * * 5 7 * * * * l * * * * * * * * r * * 5 z H.P.M & J.V & L.H.> = * r * * * * * e , * * * r * * * * r C * * r * = r 7 * * * * * * * * * * * * * * * * * * * * * * r * * * * * * t * * 8 7 7 7 7 r - X.NXmXNX&.- r 7 7 7 7 8 > = 5 8 e y A y A y y A y y A r 7 7 * > t * > > > > > > > > > > > > * 5 t * > > > > > > > > > > > > * t 8 * > > > > > > > > > > > > * t 5 > > > > > > > > > > > > * 7 u X p pX5 > > > > > > > > > * 8 7 * > ",
"g w q q q w g q w q w g q w w q g w w q g w w g q w q q q q q q q q q q q q q q q q q q q w q g w q q q z q q q q q q w q g w 6 z L.K.B w n ^.J.& V P.J.6 q g w q q q w g q w q w g q w w w g +.w q g w w g q w q q q q q q q q q q q q q q q q q q q w q g w q q q q 6 t * * 8 7 7 7 7 r - X.NXmXNX&.- r 7 7 7 7 8 > = 5 8 8 A F F F A y F F F F r 7 7 * > t * > > > > > > > > > * > > * 5 t * > > > > > > > > > > > > * t 8 * > > > > > > > > * > > * * t 5 > > > > > > > > > * > > * 7 u X p pX5 > > > > > > > > > * 8 7 * > ",
"g 6 6 6 6 6 g 6 6 6 6 q h 6 6 6 g 6 6 h g 6 6 g 6 6 6 6 6 6 6 6 6 6 6 6 6 6 6 6 6 6 6 6 6 6 h h 6 6 6 6 z 6 6 6 6 6 6 6 h h 5 N /.L.w , V n n & V V B /.G., g 6 6 6 6 6 g h 6 6 6 g 6 6 6 6 g +.6 6 g 6 6 g q 6 6 6 6 6 6 6 6 6 6 6 6 6 6 6 6 6 6 6 6 6 6 g 6 6 6 6 6 6 t * * 8 7 7 7 7 r - X.NXmXNX&.- r 7 7 7 7 8 > = 5 8 e y A A A y y A A A A r 7 7 * > t * 5 * > > > > > > * 5 5 5 > 5 t * > > > > > > > > * * * 5 * r 8 * > > > > > > > > 7 > * 7 > t 5 > > > > > > > > 5 5 * * * 7 u X p pX5 > > > > > * > 5 5 * 8 7 * > ",
"e * * * * * r * * * * 7 7 * * > r * * 5 r * * u > * * * * * * * * * * * * * * * * * * * * * 7 7 * * * * l * * * * * - = = l H.U.J.c + n n & & M M V n G.P.B 3 * * * * * r , * * * r * = 0 9 e C * * r * * t 7 * * * * * * * * * * * * * * * * * * * * * > r * * * * * * t * * 8 7 7 7 7 r - X.NXmXNX&.- r 7 7 7 7 8 > = 5 8 8 A F F F A y F F F F r 7 7 * 5 r 5 7 5 5 * > > 5 * r P r P L 5 t * > > > > > > 5 > 5 1.f  .f 8 r * > > > > > > > 7 L J s L 5 t 5 > > > > > > 5 * u 1.r t  .5 u X p pX5 > > > 5 * L J 8 1.u 7 7 * > ",
"r * 5 > 5 > t 5 > 5 * 8 7 * > 5 t * > 5 t * * u 5 > > > > > > > > > > > > > > > > > > > 5 > 7 r > 5 5 5 z + + + + 5 3 h G.P.(.B.#.&.-.-.| C ..l c c n b J.I.G.* * 5 5 * t 5 > 5 5 t * G.P.H.g C 5 5 t > * t 7 * 5 > > > > > > > > > > > > > > > > > > > 5 t * 5 > > 5 * t * * 8 7 7 7 7 r - X.NXmXNX&.- r 7 7 7 7 8 > = 5 8 e y A A A y y A A A A r 7 7 * 5 8 r P  .P > > > > X K L f f f u 8 * > > > > > > * X f P f 1.f 8 r * > > > > > > * * J P  .J > t 5 > > > > > > * * * u J J L 5 u X p pX5 > > > * X f K X t K 7 7 * > ",
"r * > > > > t > > > * 8 7 * > 5 t * * 5 r * * u 5 > > > > > > > > > > > > > , , > > > * - X 5 9 o + * , L C | #.'.`.V.L.P.G.#.#.=.AX&.'.{.}. X{.&.1.6 & b J./.H.w = * 5 t 5 5 5 * e G./.G.K.J.C 5 5 t > * t 7 * > > > > > > > > > > > > > > > > > > > * 5 t * > > > > * t * * 8 7 7 7 7 r - X.NXmXNX&.- r 7 7 7 7 8 > = 5 8 8 A F A F A y F A A F r 7 7 * 5 8 t 6.t L 7 * * 7 f  .s 5.t f u 8 * > > > > > * r J 1.6.P P J 8 r * > > > > > > f 8 5 1. .f f 7 5 > > > > > * 7 f 5 J f 6.1.7 u X p pX5 > 5 * u t 8 J * L 5 8 7 * > ",
"r * > > > > t > > > * r 7 > > 5 t > > 7 t > > s 5 > > > > > * - - - + + + + + + + + 5 , 1 2 Z #.#.#.'.{.}.{.'.#.k.Q.P.J.l H v n M :Xl 6 q M r.x.&.}.{.#.+.n J.U.P.B 9 = 3 , = = > G./.p.3 G.L.X.3 5 t 5 * t 7 * 5 5 5 5 5 5 5 > > > > > > > > > > > 5 > 5 t * 5 > > 5 * t * * 8 7 7 7 7 r - X.NXmXNX&.- r 7 7 7 7 8 > = 5 8 e A A A A y y A A A A r 7 7 * 5 8 t 1.t K 7 > > 5 7 s P J P P 7 t * 5 > > > > > 7 8 7 P L L J r r * 5 > > > > 5 7 t K L J P t r 5 > > > > > > 5 7 P 1.t t P 7 u X p pX5 > 5 > 7 7 t f K 6.r 8 7 * > ",
"9 X - + + + 9 + + + X 9 5 + + + 9 + + + 9 + + h - X - * * > , , 3 1 C C Z R #.#.#.'.`.`.`.`.`.'.'.#.O.K l l z H.P.K.V v M M M h $.6XM d g M M M M M 6.#.{.OX@.M J.P.K.G.B z z B L.I.u.3 J 5.p.C Z 2 r * * t 7 * * * * * * * * * * * * * * * * * * * * * , r * * * * * * t * * 8 7 7 7 7 r - X.NXmXNX&.- r 7 7 7 7 8 > = 5 8 e A A A A y y A A A A r 7 7 * > r * 5 * > * * * * * * 7 * 5 5 * r * * * * * * * * * * * * 8 * 8 7 * * * * * * * * > 8 * * 7 * t * * * * * * * * * 5 7 5 * * 5 t . p pX* * * * * * * > 5 7 5 7 5 * * ",
"H C C C C C Z C Z Z Z | | R R #.#.#.#.#.#.#.#.'.'.'.'.'.'.{.{.{.{.{.{.{.{.{.{.%.@.@.o.+.v v v v & M z x R.z L.L.G.M v v v ..d < $.6XM d ..M ..M E M M l d | {.OX{.&.Q.(.I.K.K./.H.D.v v -.+.#.OXZ +.g & & w w % & % % % % % % % 9 6 6 6 6 6 6 6 6 6 6 % 6 q % 6 6 6 6 % t * * 8 7 7 7 7 r - X.NXmXNX&.- r 7 7 7 7 8 > = 5 8 e A A A A y y A A A A r 7 7 * > t 7 7 7 7 7 7 7 7 7 7 7 7 7 7 r s 7 7 7 7 7 7 7 7 7 7 7 7 7 7 s u 7 7 7 7 7 7 7 7 7 7 7 7 7 7 s 8 7 7 7 7 7 7 7 7 7 7 7 7 7 t f > D gX8 7 7 7 7 7 7 7 7 7 5 u t 7 7 ",
"}.}.}.}.}.}.}.}.}.}.}.}.}.}.}.=.=.=.=.=.C.C.C.C.C.C.C.D.D.D.D.M M M M M V V V V V V M M M M M M M p.z !.!.B B >.J L L I I ,.:.f m.0Xy.i.i.y.y.R.Y.R.R.R.Y.Y.Y.Y.N.1X@X=X$XS.S.S.d.G.G.G.p.+.nXGX%.r.p.N N N N N N N N N N N N N N N N N N N N N N N N N N N N N N N N N M = * 8 7 7 7 7 r - X.NXmXNX&.- r 7 7 7 7 8 > = 5 8 e A A A A y y A A A A r 7 7 * * s v.b.b.b.b.b.b.b.b.b.b.b.b.b.b.b.b.b.b.b.b.b.b.b.b.b.b.b.b.b.b.b.b.b.b.b.b.b.b.b.b.b.b.b.b.b.b.b.b.b.b.b.b.b.b.b.b.b.b.b.b.b.b.v.Z.kXb.b.b.b.b.b.b.b.b.b.b.b.b.b.b.",
"^ k k k k k ^ k k k k k z z z z z z z z z z z z z z z z z k k k k k k k k k k k k k k k k k ^ ^ k R.G.x G.z ) k k k k k ^ R.Y.Y.W.fXW.T.T.Y.Y.R.fXfXx Y.Y.R.R.x z z z k ~ ~ ~ k k ^ ~ x #Xm.#.{.Z $.3.~ ~ / / ~ ~ ~ ~ ~ ~ ~ ~ ~ ~ ~ ~ ~ ~ ~ I I I I I I P / I I I I I I J * * 8 7 7 7 7 r - X.NXmXNX&.- r 7 7 7 7 8 > = 5 8 8 A F A F A y F A A F r 7 7 * > t 5 5 5 5 5 5 5 5 5 5 5 5 5 5 7 t 5 5 5 5 5 5 5 5 5 5 5 5 5 5 t t 5 5 5 5 5 5 5 5 5 5 5 5 5 5 u 7 5 5 5 5 5 5 5 5 5 5 5 5 5 7 s > D gX5 5 5 5 5 5 5 5 5 5 5 t 8 5 5 ",
"7X8XuX8X7X7X7X7X7X7X7X7X7X7X7X7X7X7X7X7X7X7X7X7X7X7X7X7X7X7X7X7X7X7X7X7X7X7X7X7X7X7X7X7X7X8X8X8X8X0XlX#X@X<X0X8X8X7X7X7X7X0X0X0X0X0X7X7X7X7X8X8XwXwX8X9X8X8X8X8X7X9X8X7X8X8X8X8X7X8X9X8X7XqX+X|.3X8X7X7X8X7X7X8X7X7X7X7X7X7X7X7X7X7X7X7X7X7X7X7X7X7X7X7X7X7X7X7X7X7X8XwXm.o * 8 7 7 7 7 r - X.NXmXNX&.- r 7 7 7 7 8 > = 5 8 e y A A A y y A A A A r 7 7 * > t * > * * * * * * * * * * * * 5 t * * * * * * * * * * * * > * r 8 * * * * * * * * * * * * * * t > * * * * * * * * * * * * * 5 u . p pX* * * * * * * * * > * 8 7 * * ",
"-X-XrX,X=X-X-X=X=X=X=X-X-X=X=X-X-X=X=X-X-X=X=X-X-X=X=X=X=X=X=X=X=X=X=X=X=X=X=X=X=X=X=X=X.X;XlXhX<X.X.X=X>X>X>X>X;XXXXXXX=XeX6X=X9XeXtX-X-X=X-X,XtXqX.XtX,X6XrX-X.XqX6X.X:X=XXX5X.X9XwX<XtXwX=X<X<XXXXXXXXXXXXXXXXXXXXXXXXXXXXXXXXXXXXXXXXXXXXXXXXXXXXXXXXXXXXXXXXXXXXXXX$.. * 8 7 7 7 7 r - X.NXmXNX&.- r 7 7 7 7 8 > = 5 8 8 A F F F A y F F F F r 7 7 * > t * 5 > > > > > > > > > > > > 5 t * > > > > > > > > > > > 5 * t 8 * > > > > > > > > > > > > * t 5 > > > > > > > > > > > > * 7 u X p pX5 > > > > > > > > > * r 7 * > ",
"# D yXI @ # 0 # # # # 0 0 # # # 0 # # 0 0 # # a # # # # # # # # # # # # # # @ # # # @ @ c L.P.J.g @Xx F.F.x z # + X % # @XrX=Xc h.rX6X5 z i 6 l 6XtX=X6X].qXrXf 8 7X$.y <X@XX 9X$.@XwX0XeX8X^ J.K.1 l x < d y < 3 3 3 3 3 3 3 3 3 3 3 3 3 3 3 3 3 3 3 < 1 d < 3 3 3 3 < u * * 8 7 7 7 7 r - X.NXmXNX&.- r 7 7 7 7 8 > = 5 8 e y A A A y y A A A A r 7 7 * > t * > > > > > > > > > > > > * 5 t * > > > > > > > > > > > > * t 8 * > > > > > > > > > > > > * t 5 > > > > > > > > > > > > * 7 u X p pX5 > > > > > > > > > * 8 7 * > ",
"0 ] yX] # 0 a 0 0 0 0 a a 0 0 0 a 0 0 0 a 0 0 a 0 0 0 0 0 0 0 0 0 0 0 0 9 z z 0 # ; l J./.L.<X' Y.hXY.z z = = T A % W s.-XrX:Xh.;XrXqXX A wXG.g qXrXrXrXtXwXrXI ].LXm.#XeXtX:XwXrXrXrXrXtXrX6Xr.I.g f.fX1 F F 2 2 2 2 2 2 2 2 2 2 2 2 2 2 2 2 2 2 2 2 2 2 H 2 2 2 2 2 2 s * * 8 7 7 7 7 r - X.NXmXNX&.- r 7 7 7 7 8 > = 5 8 8 A F F F A y F F F F r 7 7 * > t * > > > > > > > > > > > > * 5 t * > > > > > > > > > > > > * t 8 * > > > > > > > > > > > > * t 5 > > > > > > > > > > > > * 7 u X p pX5 > > > > > > > > > * 8 7 * > ",
"0 ] yXm.# 0 a 0 0 0 0 a a 0 0 0 a 0 0 0 a 0 0 a 0 0 0 0 0 0 0 0 : 0 0 0 # M.N.T @Xc K.K.B ` hXjXhXyXT o z e y tX$.l ;X;X,XrX,X6XrXrXqX[.@XwXfX:XwXtXeXeX9X@XrX3.].eX#X<XeXrXrXrXqX@X9XrXtXwX6XX.K.G.[.eXm.3.2 2 2 2 2 2 2 2 2 2 2 2 2 2 2 2 2 2 2 2 2 2 2 F 2 2 2 2 2 2 s * * 8 7 7 7 7 r - X.NXmXNX&.- r 7 7 7 7 8 > = 5 8 e y A y A y y A y y A r 7 7 * > t * > > > > > > > > > > > > * 5 t * > > > > > > > > > > > > * t 8 * > > > > > > > > > > > > * t 5 > > > > > > > > > > > > * 7 u X p pX5 > > > > > > > > > * 8 7 * > ",
"0 m.yX@X# 0 a 0 0 0 # m.@X# 0 a D 0 0 0 a 0 0 a 0 0 0 0 0 0 0 0 ^ a 0 0 # ;XuX>X!.P.Q.#Xx T.hXwXeXrX[.~ s..X=XtX].9XrX;X9XrX9X6XrXrXtXrXtXtXwXrXtXqX7XhXN.1.qXv.@XqX7X9X6X:X1XtX-Xq m.;X>X8XtXg.U.J.[.eXeX.X1 2 2 2 u y 2 2 2 2 2 2 2 2 2 2 2 2 2 2 2 2 2 F 2 2 2 2 2 2 s * * 8 7 7 7 7 r - X.NXmXNX&.- r 7 7 7 7 8 > = 5 8 8 A F F G A y G F F F r 7 7 * > t * > > > > > > > > > > > > * 5 t * > > > > > > > > > > > > * t 8 * > > > > > > > > > > > > * t 5 > > > > > > > > > > > > * 7 u X p pX5 > > > > > > > > > * 8 7 * > ",
"0 @X0X:X0 0 k F.z 9 # ;X;X# # ] :X0 0 0 a 0 0 a 0 0 z 0 0 # m.@X<X] # 0 : 9XhXU.L.!.fXfX) wXeX6XT >X.X$.qX6XrXrX-X6XeX0X7X:XqXtXrXrXrXtXtXeX;X0X6XqXN.x E l :X0X;X9XeX@Xx.9.c @X-X>.E a z 9XeX@X!.U.@XeXeX=X7 t 2 2 -XY 3 2 2 2 2 2 2 2 2 2 2 2 2 2 2 2 2 F 2 2 2 2 2 2 s * * 8 7 7 7 7 r - X.NXmXNX&.- r 7 7 7 7 8 > = 5 8 e y y y y y y y y y y r 7 7 * > t * > > > > > > > > > > > > * 5 t * > > > > > > > > > > > > * t 8 * > > > > > > > > > > > > * t 5 > > > > > > > > > > > > * 7 u X p pX5 > > > > > > > > > * 8 7 * > ",
"0 @X;X;X0 9 z ~.z 9 # uX:X# # @X0X0 9 9 a 0 0 l 9 ) Y.@ 0 # =XuX0X@X# ; z Q.P.Q.fXfXhX8X-X6XwX9Xz N.8X>XeXtXeXrX8X-X6XrXqXz.7XtXtXrXtXqXrXqXn.0X9X6Xm.f Q ! 5.9XrX=XrX@XM ! Q Q 2.2.;.Q L Q ;XqX0XU.*XeXeXXXQ R.2 A qX$.< 2 2 2 2 2 2 2 2 2 2 2 2 2 2 2 2 F 2 2 2 2 2 2 s * * 8 7 7 7 7 r - X.NXmXNX&.- r 7 7 7 7 8 > = 5 8 8 A G F G A y G F F G r 7 7 * > t * > > > > > > > > > > > > * 5 t * > > > > > > > > > > > > * t 8 * > > > > > > > > > > > > * t 5 > > > > > > > > > > > > * 7 u X p pX5 > > > > > > > > > * 8 7 * > ",
"0 :X:X;Xa ; k fXa : 0 8X;X# # @X0X0 z x a 0 0 l # @X:XU @X@ ;X7XyX:X@Xd.U.K.Q.W.Y.#XtX8XrX@X9X,XM d.7XrXwXtXwXtXwX;Xg.tXtXs.W.8X6XrXtX9XrX@Xz 0X;XuXh.E ! ;.l @XrX@XrXm.;.;.! ! W 7.! ! ! l N.rX9XK.Q.4XeX6XqX0Xa 2 tX$.< 2 2 2 2 2 2 2 2 2 2 2 2 2 2 2 2 F 2 2 2 2 2 2 s * * 8 7 7 7 7 r - X.NXmXNX&.- r 7 7 7 7 8 > = 5 8 e y y y y y y y y y y r 7 7 * > t * > > > > > > > > > > > > * 5 t * > > > > > > > > > > > > * t 8 * > > > > > > > > > > > > * t 5 > > > > > > > > > > > > * 7 u X p pX5 > > > > > > > > > * 8 7 * > ",
"z :X@X;XD # ~ 0X~ # 0 8X;X0 # :XyXp F.~.t 0 0 a 0 :X:X@XuX# uXyXwX:XQ./.L.W.Y.z g @X8X,XeX@X9X:XB u.8XrX0XyXE.=XeX,X2.tX9Xq.!.R.6X-X=X;XtX@XM E.N.q.>.! ! ! ;.m.qXm.=X2.;.;.! ! ! 7.! ! ! Q a.7X9XQ.L.9XeXeXeXeX:XY eX[.< 1 2 2 2 2 2 2 2 2 2 2 2 2 2 2 2 F 2 2 2 2 2 2 s * * 8 7 7 7 7 r - X.NXmXNX&.- r 7 7 7 7 8 > = 5 8 8 F G G G A y G G G G r 7 7 * > t * > > > > > > > > > > > > * 5 t * > > > > > > > > > > > > * t 8 * > > > > > > > > > > > > * t 5 > > > > > > > > > > > > * 7 u X p pX5 > > > > > > > > > * 8 7 * > ",
"l >X@X;XU @ Q 0X~ # a 8XuX0 0 ;XyXD x !.x - # a / yX:X:X;X] yXwXhXL.P.~.T.>XW f Q d.T.,XeXn.N.d.y.t.8X,XS.;X<.l >X#X1.tXm.>.^ l 9X@Xl g.qXm.:.Q.G.L ! ! ! ! 7.! Q W l W 2.;.! ! ! 7.! ! ! Q t.8X:XH.P.:XtX,X,X-XeXtXeX[.F T 1 2 2 2 2 2 2 2 2 2 2 2 2 2 2 F 2 2 2 2 2 2 s * * 8 7 7 7 7 r - X.NXmXNX&.- r 7 7 7 7 8 > = 5 8 e y y y y y y y y y y r 7 7 * > t * > > > > > > > > > > > > * 5 t * > > > > > > > > > > > > * t 8 * > > > > > > > > > > > > * t 5 > > > > > > > > > > > > * 7 u X p pX5 > > > > > > > > > * 8 7 * > ",
"l <Xh.;XU @ / yXU @ a 8X0Xz ~ 0X0XD m.lXx U / 0 ] rX0X0X;X;XfXQ.K.U.W.#X[.9XW Q Q ^ x N.#X8.B y.! l 9X#XB <.! Q x x 1.qXm.;.Q E E.d.E ;.qXm.:.R.i.Q ! ! ! ! 7.! W ! ! ! 2.;.! ! ! 7.! ! ! ! >.>X#XG.K.Q.tXg.H 1.8X6XeX@X[.5X< 2 2 2 2 2 2 2 2 2 2 2 2 2 2 F 2 2 2 2 2 2 s * * 8 7 7 7 7 r - X.NXmXNX&.- r 7 7 7 7 8 > = 5 8 8 F G G G A y G G G G r 7 7 * > t * > > > > > > > > > > > > * 5 t * > > > > > > > > > > > > * t 8 * > > > > > > > > > > > > * t 5 > > > > > > > > > > > > * 7 u X p pX5 > > > > > > > > > * r 7 * f ",
"~ uX^ ;XT @ / yX/ @ D 8X0Xx @X:X;X/ m.rX@X=XhXx T 0X7XuX9X*XL.U.!.fX7X0X9X;XE ! ! Q ;.l l t.p.u.Q W N.M.a.! ! ! Q Q 2.qXf.;.! ! W ^ ! ! @X4.>.,.Q ! ! ! ! ! 7.! ! ! ! ! 2.;.! ! ! 7.! ! ! ! 2.Q.R.P L.Q.qXk.3.4.i.@XeX9X[.5X1 2 2 2 2 2 2 2 2 2 2 2 2 2 2 F 2 2 2 2 2 2 s * * 8 7 7 7 7 r - X.NXmXNX&.- r 7 7 7 7 8 > = 5 8 e y y y y y y y y y y r 7 7 * > t * 5 > > > > > > > > > > > > 5 t * 5 > > > > > > > > > > 5 * t r * 5 > > > > > > > > > > 5 > t 5 > > > > > > > > > > > > * 7 u X p pX5 > 5 > > > > > > 5 * 8 7 s s ",
"m.;Xz <X] $ / yX/ @ U 0X0Xx @X@X>X] @XyX:X=XlXR.=XhXwX:XQ.K.U.W.#X6XqXN.rX-Xl ! W ! y.t.;.y.i.u.Q ! B M q.W W W ! ! W m.;.;.W W Q Q W W l E ,.,.E ! W W W ! 2.W W W W W 2.! W W W 2.! W W W 2.R.R.P G.I.8Xm.4.3.O.5.m.6X9X5X< 1 2 2 2 2 2 2 2 2 2 2 2 1 2 F 1 2 2 2 2 2 s * * 8 7 7 7 7 r - X.NXmXNX&.- r 7 7 7 7 8 > = 5 8 8 F G G G A y G G G G r 7 7 * > t * * * * * * * * * * * * * * 5 r * * * * * * * * * * * * * * r 8 * * * * * * * * * * * * * * t * * * * * * * * * * * * * * 5 t . p pX* * * * * * * * * * * 7 f u * ",
"@X;Xz >X@X# h.yXm.# / <X<XN.:X#X:X:X8XwX8X;XwX#X7X:X<XQ.P.!.E.wX:X9XwX4.tX;X:.7.,.<.i.i.u.u.i.a.2.2.u.a.s.2.2.2.2.2.2.;.2.8.;.2.2.2.2.2.2.2.q.q.;.2.2.2.2.2.8.;.2.2.2.;.8.7.;.2.;.8.2.2.2.2.7.d.p.7.d.K.Q.k.f.4.f.4.O.6XeX9Xh.H F F F F F F F F F F F F F H F F F F F F s * * 8 7 7 7 7 r - X.NXmXNX&.- r 7 7 7 7 8 > = 5 8 e y y y y y y y y y y r 7 7 * > t 8 r r r r r r r r r r r r r t s 8 r r r r r r r r r r r r 8 s u 8 r r r r r r r r r r r r r s r r r r r r r r r r r r r 8 t f 7 D gXt 8 r r r r r r r r 8 f J r r ",
":X>Xz #X@X# m.yXm.@ T <X#X@X:Xh.#XuX7XwX7X0X:X7X0XH.K.P.Q.fX6.qX@X;XqX;.qX:Xl q.u.t.i.y.i.<.a.q.! ;.u.<.a.;.;.;.;.;.;.;.;.7.;.;.;.;.;.;.;.! ,.,.! ;.;.;.;.;.7.;.;.;.;.;.7.;.;.;.;.7.;.;.;.;.2.e.i.u.6.L.H.g.f.4.4.4.g.6XeXtXrX[.1 2 2 y y y y y y y y 2 F H 2 y y y y 2 s * * 8 7 7 7 7 r - X.NXmXNX&.- r 7 7 7 7 8 > = 5 8 8 F G G G A y G G G G r 7 7 * > t 5 7 7 7 7 7 7 7 7 7 7 7 7 7 7 t 5 7 7 7 7 7 7 7 7 7 7 7 7 5 t t 5 7 7 7 7 7 7 7 7 7 7 7 7 5 u 7 7 7 7 7 7 7 7 7 7 7 7 7 5 8 s > D gX7 7 7 7 7 7 7 7 7 7 f J 7 5 7 ",
";X:Xz #X@X$ m.yX#XF.m.>Xn.>X>Xh.#XwX>X0X7X7Xh.<XQ.P.!.i.^ R.l 9X@XE.#Xl 6X:XB u.i.y.y.t.i.>.;.>.W ! ! ! a.! ! ! ! ! ! W ! 2.W ! ! ! ! ! ! Q ,.,.Q ! ! ! W ! 2.W ! ! ! W 2.! W ! W 2.! W ! ! 2.9.t.t.1.G.K.0.4.3.3.3.3.9XeXeXeX-X1 [.G 3 2 2 2 2 2 2 2 2 2 F 1 2 2 2 2 2 s * * 8 7 7 7 7 r - X.NXmXNX&.- r 7 7 7 7 8 > = 5 8 e y y y y y y y y y y r 7 7 * > t * * * * * * * * * * * * * * 5 t * * * * * * * * * * * * * * r 8 * * * * * * * * * * * * * * t > * * * * * * * * * * * * * 5 u . p pX* * * * * * * * * s u 8 7 * * ",
"7X#Xz N.uX] @X;X0XhXwX#Xh.0X7X7.N.yX#X0XuX7XR.K.U.G.@X3.W L ! g.O.F.G.L 9X:XB y.<.t.y.t.t.! ;.;.W ! ! ! a.! ! ! ! ! ! ! ;.2.! ! ! ! ! ! ! Q ,.,.Q ! ! ! ! ! 7.! ! ! ! W 2.;.! ! ! 7.! ! ! ! 2.5.<.y.1.y.P.R.O.3.3.3.1.9XeXtXqX9XJ eX$.< 2 2 2 2 2 2 2 2 2 F 2 2 2 2 2 2 s * * 8 7 7 7 7 r - X.NXmXNX&.- r 7 7 7 7 8 > = 5 8 8 F G G G A y G G G G r 7 7 * > t * > > > > > > > > > > > > > 5 t * > > > > > > > > > > > 5 * t 8 * > > > > > > > > > > > > * t 5 > > > > > > > > > > > > * 7 u X p pX5 > > > > > > * s f * 8 7 * > ",
"yX#Xz M.yXyX7X@X:XeXhXE.^ #X0X^ R.hX#X:X>XQ.P.!.E.Q E W ! ! ! E W ^ ! E -X#XB y.Q <.t.t.<.Q ;.;.W ! ! ! a.! ! ! ! ! ! ! ;.2.W ! ! ! ! ! ! Q ,.,.Q ! ! ! ! ! 7.! ! ! ! W 2.;.! ! ! 7.! ! ! ! 7.g.>.y.7.! L.H.O.3.3.3.1.=X=XqX3X9X$.eX@X< 2 2 2 2 2 1 2 2 2 H 1 1 2 1 2 2 s * * 8 7 7 7 7 r - X.NXmXNX&.- r 7 7 7 7 8 > = 5 8 e y y y y y y y y y y r 7 7 * > t * > > > > > > > > > > > > * 5 t * > > > > > > > > > > > > * t 8 * > > > > > > > > > > > > * t 5 > > > > > > > > > > > > * 7 u X p pX5 > > > > > * s s > * r 7 * > ",
"rX#Xz h.wX0XwX@Xz >XY.x >.F.~.^ <.~.R.B K.P.H.:X,Xl ! ! ! ! ! ! ! Q Q ! ! t.<.y.! ! ^ >.;.Q ;.;.W ! ! ! a.! ! ! ! ! ! ! ;.2.W ! ! ! ! ! ! Q ,.,.Q ! ! ! ! ! 7.! ! ! ! W 2.;.! ! ! 7.! ! ! ! 7.g.>.t.q.! G.K.6.O.3.3.3. .m.yX>X<X.XeX.X< 3 3 3 < A U < 2 1 4 S U < U A 1 s * * 8 7 7 7 7 r - X.NXmXNX&.- r 7 7 7 7 8 > = 5 8 8 F G G G A y G G G G r 7 7 * > t * > > > > > > > > > > > > * 5 t * > > > > > > > > > > > > * t 8 * > > > > > > > > > > > > * t 5 > > > > > > > > > > > > * 7 u X p pX5 > > > > * s s * > * 8 7 * > ",
"yXd.l 8.7X#XwXm.z x W >.>.R.~.^ 7.R.L.P.L.p.Q f.f.W ! ! ! ! ! ! t.>.Q Q >.t.! >.! ! ! ! ! ! ;.;.W ! ! ! a.! ! ! ! ! ! ! ;.2.W ! ! ! ! ! ! Q ,.,.Q ! ! ! ! ! 7.! ! ! ! W 2.;.! ! ! 7.! ! ! ! 7.g.! t.u.t.t.P.p.O.3.3.3.3.4.lX:XhXyX9XuX` ` ] U ' S ).' y ' ] U ' ] iXS 1 s * * 8 7 7 7 7 r - X.NXmXNX&.- r 7 7 7 7 8 > = 5 8 e y y y y y y y y y y r 7 7 * > t * > > > > > > > > > > > > * 5 t * > > > > > > > > > > > > * t 8 * > > > > > > > > > > > > * t 5 > > > > > > > > > > > > * 7 u X p pX5 > > > * u s * > 5 * 8 7 * > ",
"N.) ^ q.8X#XyXm.z W ^ <.^ i.R.! i.L.P.H.<.L ! ,.W ! ! ! ! ! ! ;.y.<.>.>.>.t.! ! ! ! ! ! ! ! ;.;.W ! ! ! a.! ! ! ! ! ! ! ;.2.W ! ! ! ! ! ! Q ,.,.Q ! ! ! ! ! 7.! ! ! ! W 2.;.! ! ! 7.! ! ! ! 7.g.! t.p.y.Q L.H.O.3.3.3.3.O.#X8.>XlX#X>Xm.lX#X).' S { ' { ] ' ] )./ { S 1 s * * 8 7 7 7 7 r - X.NXmXNX&.- r 7 7 7 7 8 > = 5 8 8 F G G G A y G G G G r 7 7 * > t * > > > > > > > > > > > > * 5 t * > > > > > > > > > > > > * t 8 * > > > > > > > > > > > > * t 5 > > > > > > > > > > > > * 7 u X p pX5 > > * u f * > > > * 8 7 * > ",
"z ^ ^ ^ :XN.W.s.^ ^ ^ <.<.^ ^ G.P.K.G.Q 2.! ! 8.;.! ! ! ! ! >.t.i.t.t.t.>.t.! ! ! ! ! ! ! ! ;.;.W ! ! ! a.! ! ! ! ! ! ! ;.2.W ! ! ! ! ! ! Q ,.,.Q ! ! ! ! ! 7.! ! ! ! W 2.;.! ! ! 7.! ! ! ! 7.g.Q >.p.i.Q G.K.8.O.3.3.3.O.#Xg.fXW.#X>X=XlX7XY { ' ] / { ' { ] ).] ).S 1 s * * 8 7 7 7 7 r - X.NXmXNX&.- r 7 7 7 7 8 > = 5 8 e y y y y y y y y y y r 7 7 * > t * > > > > > > > > > > > > * 5 t * > > > > > > > > > > > > * t 8 * > > > > > > > > > > > > * t 5 > > > > > > > > > > > > * 7 u X p pX5 > * u f > > > > > * r 7 > > ",
"q.^ ^ ^ ^ ^ x ^ ^ ^ ^ <.^ t.H.P.H.<.P ;.7.! ! 7.! ! ! ! ! Q t.y.i.t.t.y.<.t.Q ! ! ! ! ! ! ! ;.;.W ! ! ! a.! ! ! ! ! ! ! ;.2.W ! ! ! ! ! ! Q ,.,.Q ! ! ! ! ! 7.! ! ! ! W 2.;.! ! ! 7.! ! ! ! 7.g.! >.p.i.! u.P.p.O.3.3.3.3.h.g.h./ m.uXwXrXyX] / S S S A / ] y S / ] 2 2 s * * 8 7 7 7 7 r - X.NXmXNX&.- r 7 7 7 7 8 > = 5 8 8 F G G G A y G G G G r 7 7 * > t * > > > > > > > > > > > > * 5 t * > > > > > > > > > > > > * t 8 * > > > > > > > > > > > > * t 5 > > > > > > > > > > > > * 7 u X p pX5 * u f > > > > > , > 8 5 * - ",
"q.^ ^ ^ ^ ^ ! ^ ^ ^ ^ ^ R.K.K.R.2.Q ! ;.7.! ! 8.! ! ! ! ! ! u.i.i.u.y.y.u.t.Q ! ! ! ! ! ! ! ;.2.! ! ! ! a.! ! ! ! ! ! ! ;.7.! ! ! ! ! ! ! Q ,.,.Q ! ! ! ! ! 7.! ! ! ! ! 7.;.! ! ! 7.! ! ! ! 7.g.! ;.i.i.>.6.L.H.3.3.3.3.3.O.3.O.O.1.9XrX9XeX$.< 2 2 2 2 1 F 2 2 3 3 2 2 s * * 8 7 7 7 7 r - X.NXmXNX&.- r 7 7 7 7 8 > = 5 8 e y y y y y y y y y y r 7 7 * > t * > > > > > > > > > > > > * 5 t * > > > > > > > > > > > > * t 8 * > > > > > > > > > > > > * t 5 > > > > > > > > > > > > * 7 u X p pX* t f > > , > - + + X 8 r 1 4 ",
"<.^ ^ ^ ^ ^ <.^ ^ ^ B H.P.H.<.L ;.E E :.;.E E ;.E E E E E E t.y.t.t.t.<.i.<.E E E E E E E E :.:.E E E E <.E E E E E E E :.;.E E E E E E E E >.,.E E E E E E ;.E E E E E ;.:.E E E ;.E E E E ;.O.E E y.y.B ;.G.P.,.O.O.O.O.O.O.O.O.O.d.N.d ,X$.< 3 3 3 3 1 F 3 3 3 3 3 3 s * * 8 7 7 7 7 r - X.NXmXNX&.- r 7 7 7 7 8 > = 5 8 8 F G G G A y G G G G r 7 7 * > t * > > > > > > > > > > > > * 5 t * > > > > > > > > > > > > * t 8 * > > > > > > > > > > > > * t 5 > > > > > > > > > > > > * 7 u X p pXu f , > + + * 4 | %.bXbXnXVXCX",
"M.[ [ [ [ [ M.[ [ d.!.I.Q.` ` M.M.` ` h.M.` ` M.h.s.s.M.M.M.d.E.d.d.d.M.d.M.` ` ` ` ` ` ` ` M.M.` ` ` ` N.` ` ` ` ` ` ` h.M.` ` ` ` ` ` ` ` M.M.` ` ` ` ` h.M.` ` ` ` ` M.h.` ` ` M.h.` ` ` M.m.` ` d.d.E.N.M.L.Q.m.h.h.h.h.h.h.h.h.h.h.h.uX@XD U U U U U / U U U U U Y s * * 8 7 7 7 7 r - X.NXmXNX&.- r 7 7 7 7 8 > = 5 8 e y y y y y y y y y y r 7 7 * > t * > > > > > > > > > > > > * 5 t * > > > > > > > > > > > > * t 8 * > > > > > > > > > > > > * t 5 > > > > > > > > > > > > * 7 t . p gXf 5 + + C %.bXVXCXnXbX{.%.@.| ",
"zXzXzXzXzXzXkXkXzXcXcXkXkXzXzXzXzXzXzXzXzXzXzXzXzXzXzXzXzXzXzXzXzXzXzXzXzXzXzXzXzXzXzXzXzXzXzXzXzXzXzXzXzXzXzXzXzXzXzXzXzXzXzXzXzXzXzXzXzXzXzXzXzXzXzXzXzXzXzXzXzXzXzXzXzXzXzXzXzXzXzXzXzXzXzXzXzXzXzXzXzXzXkXzXzXkXzXzXzXzXzXzXzXzXzXzXzXzXzXzXzXzXzXzXzXzXzXzXzXzXzXkXs * * 8 7 7 7 7 r - X.NXmXNX&.- r 7 7 7 7 8 > = 5 8 8 F G F G A y G G G G r 7 7 * > t * > > > > > > > > > > > > * 5 t * > > > > > > > > > > > > * t 8 * > > > > > > > > > > > > * t 5 > > > > > > > > > > > > * 5 l ~ ` kX- , | bXCXVXbX@.4 1 X 9 - + + ",
"M.[ [ [ [ [ E.!.!.E.[ M.M.[ [ M.M.[ [ M.M.[ [ N.[ N.N.N.N.N.N.E.N.N.N.[ M.M.[ [ [ [ [ [ [ [ M.M.[ [ [ [ N.[ [ [ [ [ [ [ M.M.[ [ [ [ [ [ M.[ M.N.[ M.[ [ [ M.M.[ [ [ [ [ M.M.[ [ [ M.M.[ [ [ M.N.[ M.M.M.E.N.[ E.!.E.m.M.M.M.M.M.M.M.M.M.M.<X:X/ / / / / / ] / / / / / U s * * 8 7 7 7 7 r - X.NXmXNX&.- r 7 7 7 7 8 > = 5 8 e y y y y y y y y y y r 7 7 * > t * > > > > > > > > > > > > * 5 t * > > > > > > > > > > > > * t 8 * > > > > > > > > > > > > * t 5 > > > > > > > > > > > > * a ` Y T ).&.nXCXbX@.1 + + + - * r 7 > , ",
"<.^ ^ W ^ G.P.L.B E E :.:.E E E :.E E :.:.E E ;.:.B B B t.t.>.B <.B B E >.:.E E E E E E E E :.:.E E E E <.E E E E E E E :.:.E E E E E E E E >.,.E E E E E E ;.E E E E E :.:.E E E ;.E E E E ;.O.E E :.>.B u.:.:.K.H.O.O.O.O.O.O.O.O.O.O...-X[.j 2 < < < 1 4 < < 3 < < 3 d * * 8 7 7 7 7 r - X.NXmXNX&.- r 7 7 7 7 8 > = 5 8 8 A G F G A y G F F G r 7 7 * > t * 5 > > > > > > > > > > > > 5 t * 5 > > > > > > > > > > 5 * t r * 5 > > > > > > > > > > 5 > t 5 > > > > > > > > > > 5 > 5 ^ S [.tX[.}.bX| - + - > , > 5 * r 7 * 5 ",
"s.a.8.p.L.P.Q.8.6.8.8.9.9.8.8.8.9.8.8.8.9.8.8.0.q.p.p.d.d.d.q.p.a.a.s.8.q.8.8.8.8.8.8.8.8.8.9.9.8.8.8.8.d.8.8.8.8.8.8.8.8.9.8.8.8.8.8.8.8.8.e.e.7.8.8.8.8.8.9.8.8.8.8.8.9.8.8.8.8.9.8.8.8.8.9.k.8.8.9.q.p.d.9.6.H.K.l.f.f.f.f.f.h.fXN.#X#X=XtX#X] ] )./ H H ] ] ).{ U H s * * 8 7 7 7 7 r - X.NXmXNX&.- r 7 7 7 7 8 > = 5 8 e y y y y y y y y y y r 7 7 * > t t s u u u u u u u u u u u u s f u u u u u u u u u u u u u u f f u u u u u u u u u u u u u u f s u u u u u u u u u u u s u ) A 5XLXXXU U 9 s s s u u u u u f f u u ",
">.^ G.P.L.i.6.! ! ! W ;.;.W ! ! 2.W ! ;.2.W W 7.<.i.i.<.y.i.! t.<.>.<.Q ! ! ! ! ! ! ! ! ! W ;.;.W ! ! ! a.! ! ! ! ! ! ! ! 2.W ! ! ! ! ! ! Q ,.,.Q ! ! ! ! ! 7.W ! ! ! W 2.;.! ! W 2.! ! ! ! 7.g.! ! 2.>.i.d.;.Q t.P.p.O.3.3.3.O.3.h.#XN.N.@XrXlXS { ] { 2 { )./ ).).S 3 s * * 8 7 7 7 7 r - X.NXmXNX&.- r 7 7 7 7 8 > = 5 8 8 A F F G A y G F F F r 7 7 * > t * > > > > > > > > > > > > * 5 t * > > > > > > > > > > > > * r 8 * > > > > > > > > > > > > * t 5 * > > > > > > > > > > * 8 C.&.Y [.T / 7 > > > > > > > > * 8 7 * > ",
"y.L.P.H.>.Q 7.! ! ! W ;.;.! ! ;.7.! ! >.2.W W 2.<.y.i.>.t.y.! >.>.! >.! ! ! ! ! ! ! ! ! ! ! ;.;.W ! ! ! a.! ! ! ! ! ! ! ;.2.W ! ! ! ! ! ! Q ,.,.Q ! ! ! ! ! 7.! ! ! ! W 2.;.! ! ! 7.! ! ! ! 7.g.! ! 2.>.y.p.;.! Q L.H.O.3.3.3.M.3.N.h.f.N.@XeX=X{ ] { { U ] ] ] ' ' U 3 s * * 8 7 7 7 7 r - X.NXmXNX&.- r 7 7 7 7 8 > = 5 8 e y A y A y y A y y A r 7 7 * > t * > > > > > > > > > > > > > 5 t * > > > > > > > > > > > > * t 8 * > > > > > > > > > > > > * t 5 > > > > > > > > > , + t bXCX}./ ( sXy * 5 > > > > > > > * r 7 * > ",
"P.K.B Q Q ! 7.! ! ! W ;.;.! Q <.y.Q >.<.2.! >.q.u.t.y.>.! >.! ! ! ! ! ! ! ! ! ! ! ! ! ! ! ! ;.;.W ! ! ! a.! ! ! ! ! ! ! ;.2.W ! ! ! ! ! ! Q ,.,.Q ! ! ! ! ! 7.! ! ! ! W 2.;.! ! ! 7.! ! ! ! 7.g.! ! 2.>.y.p.>.! Q G.P.q.O.3.3.h.N.dXh.h.N.@XrX;X' U { U S { )./ { { U 3 s * * 8 7 7 7 7 r - X.NXmXNX&.- r 7 7 7 7 8 > = 5 8 8 A F F F A y F F F F r 7 7 * > t * > > > > > > > > > > > > * 5 t * > > > > > > > > > > > > * t 8 * > > > > > > > > > > > > * t 5 > > > > > > > > > + C nXVX@.t 5 ~ gX* > > > > > > > > > * 8 7 * > ",
"H.>.Q ! ! ! 7.! ! ! Q ,.,.W Q <.p.! >.t.>.<.y.a.i.<.y.>.Q ! ! ! ! ! ! ! ! ! ! ! ! ! ! ! ! ! ;.;.W ! ! ! a.! ! ! ! ! ! ! ;.2.W ! ! ! ! ! ! Q ,.,.Q ! ! ! ! ! 7.! ! ! ! W 2.;.! ! ! 7.! ! ! ! 7.g.! ! 2.;.t.u.u.! Q <.K.G.O.3.3.O.f.h.h.4.6.@XrX;Xy A Y 3 2 U S 2 U Y 1 2 d * * 8 7 7 7 7 r - X.NXmXNX&.- r 7 7 7 7 8 > = 5 8 e y A A A y y A A A A r 7 7 * > t * > > > > > > > > > > > > * 5 t * > > > > > > > > > > > > * t 8 * > > > > > > > > > > > > * t 5 > > > > > > > > + | CXnX4 - u . p pX5 > > > > > > > > > * 8 7 * > ",
"1.Q ! ! ! ! 7.! ! ! Q q.<.Q Q t.p.! <.i.<.<.i.d.i.<.<.;.! ! ! ! ! ! ! ! ! ! ! ! ! ! ! ! ! ! ;.;.W ! ! ! a.! ! ! ! ! ! ! ;.2.W ! ! ! ! ! ! Q ,.,.Q ! ! ! ! ! 7.! ! ! ! W 2.;.! ! ! 7.! ! ! ! 7.g.! ! 2.! ^ a.i.! ! Q H.L.3.3.3.3.3.O.O.3.O.z.yX+Xz x 1 l 2 F 3 2 3 3 2 2 s * * 8 7 7 7 7 r - X.NXmXNX&.- r 7 7 7 7 8 > = 5 8 8 A F F F A y F F F F r 7 7 * > t * > > > > > > > > > > > > * 5 t * > > > > > > > > > > > > * t 8 * > > > > > > > > > > > > * t 5 > > > > > > > + %.CXbX< + 7 u X p pX5 > > > > > > > > > * 8 7 * > ",
"7.! >.! ! ! 7.! ! ! Q y.u.Q ! t.p.! <.i.u.t.y.p.y.! ! ! ! ! ! ! ! ! ! ! ! ! ! ! ! ! ! ! ! ! ;.;.W ! ! ! a.! ! ! ! ! ! ! ;.2.W ! ! ! ! ! ! Q ,.,.Q ! ! ! ! ! 7.! ! ! ! W 2.;.! ! ! 7.! ! ! ! 7.g.! ! 7.! Q 7.y.t.! Q i.P.p.O.3.3.3.3.3.3.O.u.fX5Xx E.) F.4 H 2 2 2 2 2 2 s * * 8 7 7 7 7 r - X.NXmXNX&.- r 7 7 7 7 8 > = 5 8 e y A A A y y A A A A r 7 7 * > t * > > > > > > > > > > > > * 5 t * > > > > > > > > > > > > * t 8 * > > > > > > > > > > > > * t 5 > > > > > * + %.DX%.- - > 7 u X p pX5 > > > > > > > > > * 8 7 * > ",
"2.! u.;.! ! 7.! ! ! ! i.u.Q ! y.p.;.<.y.y.t.>.d.u.Q ! ! ! ! ! ! ! ! ! ! ! ! ! ! ! ! ! ! ! ! ;.;.W ! ! ! a.! ! ! ! ! ! ! ;.2.W ! ! ! ! ! ! Q ,.,.Q ! ! ! ! ! 7.! ! ! ! W 2.;.! ! ! 7.! ! ! ! 7.g.! ! 7.! W 2.u.y.! Q ! L.H.O.3.3.3.3.3.3.O.,.fX5Xx hX8Xm.1 H 2 2 2 2 2 2 s * * 8 7 7 7 7 r - X.NXmXNX&.- r 7 7 7 7 8 > = 5 8 8 A F A F y y F A A F r 7 7 * > t * > > > > > > > > > > > > * 5 t * > > > > > > > > > > > > * t 8 * > > > > > > > > > > > > * t 5 > > > > * * %.DX@.- > > * 7 u X p pX5 > > > > > > > > > * 8 7 * > ",
"2.>.i.>.Q ! 7.>.! ! ! i.y.! ;.y.i.>.<.u.i.y.! u.u.Q ! ! ! ! ! ! ! ! ! ! ! ! ! ! ! ! ! ! ! ! ;.;.W ! ! ! a.! ! ! ! ! ! ! ;.2.W ! ! ! ! ! ! Q ,.,.Q ! ! ! ! ! 7.! ! ! ! W 2.;.! ! ! 7.! ! ! ! 7.g.! ! 7.! W 7.>.y.;.! P G.K.8.O.3.3.3.3.3.3.1.1XXXg.tXeXXX1 H 2 2 2 2 2 2 s * * 8 7 7 7 7 r - X.NXmXNX&.- r 7 7 7 7 8 > = 5 8 e A A A A y y A A A A r 7 7 * > t * > > > > > > > > > > > > * 5 t * > > > > > > > > > > > > * t 8 * > > > > > > > > > > > > * t 5 > > > * * {.DX@.+ > > > * 7 u X p pX5 > > > > > > > > > * 8 7 * > ",
"2.>.i.<.Q ! 7.<.! ! ! i.i.! <.t.u.<.y.u.i.y.! a.<.Q ! ! ! ! ! ! ! ! ! ! ! ! ! ! ! ! ! ! ! ! ;.;.W ! ! ! a.! ! ! ! ! ! ! ;.2.W ! ! ! ! ! ! Q ,.,.Q ! ! ! ! ! 7.! ! ! ! W 2.;.! ! ! 7.! ! ! ! 7.g.! ! 7.! W 7.;.t.<.! Q <.P.p.O.3.3.3.3.3.3.1.].XX[.eXeXXX1 H 2 2 2 2 2 2 s * * 8 7 7 7 7 r - X.NXmXNX&.- r 7 7 7 7 8 > = 5 8 e A A A A y y A A A A r 7 7 * > t * > > > > > > > > > > > > * 5 t * > > > > > > > > > > > > * t 8 * > > > > > > > > > > > > * t 5 > > * * {.DX@.+ > > > > * 7 u X p pX5 > > > > > > > > > * 8 7 * > ",
"2.<.i.t.! ! 7.t.! ! ! y.i.! t.<.a.t.i.u.u.y.W q.<.! ! ! ! ! ! ! ! ! ! ! ! ! ! ! ! ! ! ! ! ! ;.;.W ! ! ! a.! ! ! ! ! ! ! ;.2.W ! ! ! ! ! ! Q ,.,.Q ! ! ! ! ! 7.! ! ! ! W 2.;.! ! ! 7.! ! ! ! 7.g.! ! 7.! W 7.;.<.t.! ! Q H.L.O.3.3.3.3.3.3.1.@X-X@XeXeXXX2 H 2 2 2 2 2 2 s * * 8 7 7 7 7 r - X.NXmXNX&.- r 7 7 7 7 8 > = 5 8 e A A A A y y F A A A r 7 7 * > t * > > > > > > > > > > > > * 5 t * > > > > > > > > > > > > * t 8 * > > > > > > > > > > > > * t 5 > > * {.DX@.+ > > > > > * 7 u X p pX5 > > > > > > > > > * 8 7 * > ",
"2.<.t.t.! ! 7.y.>.Q ! y.y.>.t.<.a.y.t.<.u.y.W 8.;.! ! ! ! ! ! ! ! ! ! ! ! ! ! ! ! ! ! ! ! ! ;.;.W ! ! ! a.! ! ! ! ! ! ! ;.2.W ! ! ! ! ! ! Q ,.,.Q ! ! ! ! ! 7.! ! ! ! W 2.;.! ! ! 7.! ! ! ! 7.g.! ! 7.! W 7.;.>.t.! ! ~ G.P.a.O.3.3.3.3.3.1.m.9X:XeXeX-X1 F 2 2 2 2 2 2 s * * 8 7 7 7 7 r - X.NXmXNX&.- r 7 7 7 7 8 > = 5 8 e A A A A y y A A A A r 7 7 * > t * > > > > > > > > > > > > * 5 t * > > > > > > > > > > > > * t 8 * > > > > > > > > > > > > * t 5 > + %.DX@.+ > > > > > > * 7 u X p pX5 > > > > > > > > > * 8 7 * > ",
"2.t.t.t.! Q 7.i.>.Q >.u.u.<.t.>.a.i.<.,.a.t.W 7.! ! ! ! ! ! ! ! ! ! ! ! ! ! ! ! ! ! ! ! ! ! ;.;.W ! ! ! a.! ! ! ! ! ! ! ;.2.W ! ! ! ! ! ! Q ,.,.Q ! ! ! ! ! 7.! ! ! ! W 2.;.! ! ! 7.! ! ! ! 7.g.! ! 7.! W 7.;.! y.! Q Q >.K.G.O.3.3.3.3.3.1.m.tXtXeXeX9Xl H 2 2 2 2 2 2 s * * 8 7 7 7 7 r - X.NXmXNX&.- r 7 7 7 7 8 > = 5 8 8 A F A F A y F A F F r 7 7 * > t * > > > > > > > > > > > > * 5 t * > > > > > > > > > > > > * t 8 * > > > > > > > > > > > > * t 5 + %.DX@.+ > > > > > > > * 7 u X p pX5 > > > > > > > > > * 8 7 * > ",
"2.t.<.t.;.Q q.i.>.Q >.u.u.t.t.>.q.i.<.;.q.>.W 7.! ! ! ! ! ! ! ! ! ! ! ! ! ! ! ! ! ! ! ! ! ! ;.;.W ! ! ! a.! ! ! ! ! ! ! ;.2.W ! ! ! ! ! ! Q ,.,.Q ! ! ! ! ! 7.! ! ! ! W 2.;.! ! ! 7.! ! ! ! 7.g.! ! 7.! W 7.;.W y.<.>.;.P H.L.3.3.3.3.3.3.1.g.qXeXtXeX0XF.H 2 2 2 2 2 2 s * * 8 7 7 7 7 r - X.NXmXNX&.- r 7 7 7 7 8 > = 5 8 e y A A A y y A A A A r 7 7 * > t * > > > > > > > > > > > > * 5 t * > > > > > > > > > > > > * t 8 * > > > > > > > > > > > > > t + %.DX@.+ > > > > > > > > * 7 u X p pX5 > > > > > > > > > * 8 7 * > ",
"2.t.<.t.>.Q q.i.>.Q >.u.<.t.y.>.7.t.>.;.2.W ! 7.! ! ! ! ! ! ! ! ! ! ! ! ! ! ! ! ! ! ! ! ! ! ;.;.W ! ! ! a.! ! ! ! ! ! ! ;.2.! ! ! ! ! ! ! Q ,.,.Q ! ! ! ! ! 7.! ! ! ! W 2.;.! ! ! 7.! ! ! ! 7.g.! ! 7.! W 7.;.Q >.y.y.>.P i.P.p.O.3.3.3.3.3.1.@XeXtXeX7XE.H 1 2 2 2 2 2 s * * 8 7 7 7 7 r - X.NXmXNX&.- r 7 7 7 7 8 > = 5 8 8 A F F F A y F F F F r 7 7 * > t * 5 > > > > > > > > > > > > 5 t * > > > > > > > > > > > 5 * t 8 * > > > > > > > > > > > > > 9 %.DX@.+ > > > > > > > > > * 7 u X p pX5 > > > > > > > > > * r 7 * > ",
";.t.>.t.>.Q q.i.>.Q >.u.>.i.y.;.2.<.>.! 2.W W 7.! W ! ! ! ! ! ! ! ! ! ! ! ! ! ! ! ! ! ! ! W ;.;.W ! ! ! a.! ! ! ! ! ! W ! 2.W ! ! ! ! ! ! Q ,.,.Q ! ! ! ! ! 2.W ! ! ! W 2.;.W ! W 2.! ! ! ! 7.g.! ! 7.! W 7.;.W ! y.i.>.Q ! L.H.O.3.3.3.3.3.1.m.eXtXtXeX6XH 3 2 2 2 2 2 s * * 8 7 7 7 7 r - X.NXmXNX&.- r 7 7 7 7 8 > = 5 8 e y A A A y y A A A A r 7 7 * > t * > * * * * * * * * * * * * 5 t * > * * * * * * * * * * > * r 8 * > * * * * * * * * * > > + %.DX@.+ > > * * * * * * * * * 5 u . p pX> * * * * * * * * > * 8 7 * * ",
"8.y.q.u.q.2.q.p.q.2.q.d.7.u.u.7.8.7.7.7.8.2.2.9.7.7.7.7.7.7.7.7.7.7.7.7.7.7.7.7.7.7.7.7.7.2.7.8.2.7.7.7.s.2.7.7.7.7.7.7.7.8.2.7.7.7.7.7.7.2.q.e.2.7.7.7.7.7.8.2.7.7.7.2.8.7.7.7.2.8.7.7.7.7.8.k.7.7.8.7.2.8.8.2.2.u.p.q.7.1.G.K.9.g.f.f.f.f.4.n.rX-X6XeX6XY F H H H H F s * * 8 7 7 7 7 r - X.NXmXNX&.- r 7 7 7 7 8 > = 5 8 8 A F F F A y F F F F r 7 7 * > t r t t t t t t t t t t t t t t s t t t t t t t t t t t t t r f s t t t t t t t t t t t t 9 %.CX@.9 t t t t t t t t t t t t u f 7 D gXt t t t t t t t t t t s u t t ",
"7.y.;.t.<.Q q.i.<.>.y.u.;.>.<.;.7.! ! ;.2.! ! 8.;.! ! ! ! ! ! ! ! ! ! ! ! ! ! ! ! ! ! ! ! ! ;.2.! ! ! ! a.! ! ! ! ! ! ! ;.7.! ! ! ! ! ! ! Q ,.,.Q ! ! ! ! ! 7.! ! ! ! ! 2.;.! ! ! 7.;.! ! ! 7.g.! ! 7.! ! 7.;.! ! <.i.>.! Q t.P.p.O.3.3.3.3.O.l.tX$.,XeXqXY 1 2 2 2 2 2 s * * 8 7 7 7 7 r - X.NXmXNX&.- r 7 7 7 7 8 > = 5 8 e y y y A y y A y y A r 7 7 * > t * 5 5 5 5 5 5 5 5 5 5 5 5 > 5 t > 5 5 5 5 5 5 5 5 5 5 5 5 * t r * 5 5 5 5 5 5 5 5 5 5 + %.DX%.+ 5 5 5 5 5 5 5 5 5 5 5 5 > 7 u X p pX5 > 5 5 5 5 5 5 5 5 * r 7 > 5 ",
",.y.! t.<.Q q.y.y.y.i.q.;.! ^ ! 2.W ! ;.2.W W 7.! ! ! ! ! ! ! ! ! ! ! ! ! ! ! ! ! ! ! ! ! W ;.;.W ! ! ! a.! ! ! ! ! ! ! ;.2.W ! ! ! ! ! ! Q ,.,.Q ! ! ! ! ! 7.! ! ! ! W 2.;.! ! ! 7.! ! ! ! 7.g.! ! 7.! W 7.;.W Q <.i.<.Q ! Q L.H.O.3.3.3.3.3.4.tXm.g.eXqXH 3 2 2 2 2 2 s * * 8 7 7 7 7 r - X.NXmXNX&.- r 7 7 7 7 8 > = 5 8 8 A G F G A y G F F F r 7 7 * > t * > > > > > > > > > > > > * 5 t * > > > > > > > > > > > > * r 8 * > > > > > > > > > + %.DX@.9 5 > > > > > > > > > > > > * 7 u . p pX5 > > > > > > > > > * 8 7 * > ",
",.t.Q t.<.Q a.t.t.i.<.>.;.W ! ! 2.! ! ;.2.! ! 7.! ! ! ! ! ! ! ! ! ! ! ! ! ! ! ! ! ! ! ! ! ! ;.;.W ! ! ! a.! ! ! ! ! ! ! ;.2.W ! ! ! ! ! ! Q ,.,.Q ! ! ! ! ! 7.! ! ! ! W 2.;.! ! ! 7.! ! ! ! 7.g.! ! 7.! W 7.;.W ! >.i.<.Q ! P G.P.q.O.3.3.3.3.3.$.3.g.tXtXY 1 2 2 2 2 2 s * * 8 7 7 7 7 r - X.NXmXNX&.- r 7 7 7 7 8 > = 5 8 e y y y y y y y y y y r 7 7 * > t * > > > > > > > > > > > > * 5 t * > > > > > > > > > > > > * t 8 * > > > > > > > > + %.CX@.+ t 5 > > > > > > > > > > > > * 7 u X p pX5 > > > > > > > > > * 8 7 * > ",
"q.t.Q <.<.Q a.<.! y.>.;.;.! ! ! 2.! ! ;.2.! ! 7.! ! ! ! ! ! ! ! ! ! ! ! ! ! ! ! ! ! ! ! ! ! ;.;.W ! ! ! a.! ! ! ! ! ! ! ;.2.W ! ! ! ! ! ! Q ,.,.Q ! ! ! ! ! 7.! ! ! ! W 2.;.! ! ! 7.! ! ! ! 7.g.! ! 7.! W 7.;.W ! Q t.t.Q ! Q <.P.R.O.3.3.3.3.3.I 1.g.tXtXY 3 2 2 2 2 2 s * * 8 7 7 7 7 r - X.NXmXNX&.- r 7 7 7 7 8 > = 5 8 8 A G F G A y G F F G r 7 7 * > t * > > > > > > > > > > > > * 5 t * > > > > > > > > > > > > * t 8 * > > > > > > > + %.DX%.+ > t 5 > > > > > > > > > > > > * 7 u X p pX5 > > > > > > > > > * 8 7 * > ",
"q.t.Q <.t.! u.<.Q >.! ;.;.W ! ! 2.! ! ;.2.! ! 7.! ! ! ! ! ! ! ! ! ! ! ! ! ! ! ! ! ! ! ! ! ! ;.;.W ! ! ! a.! ! ! ! ! ! ! ;.2.W ! ! ! ! ! ! Q ,.,.Q ! ! ! ! ! 7.! ! ! ! W 2.;.! ! ! 7.! ! ! ! 7.g.! ! 7.! W 7.;.W ! Q >.y.! ! ! Q H.L.O.3.3.3.3.3.O.3.g.tXtXY 3 2 2 2 2 2 s * * 8 7 7 7 7 r - X.NXmXNX&.- r 7 7 7 7 8 > = 5 8 e y y y y y y y y y y r 7 7 * > t * > > > > > > > > > > > > * 5 t * > > > > > > > > > > > > * t 8 * > > > > > > + %.DX%.* > > t 5 > > > > > > > > > > > > * 7 u X p pX5 > > > > > > > > > * 8 7 * > ",
"u.t.Q >.i.t.i.<.Q ! W ;.;.W ! ! 2.! ! ;.2.! ! 7.! ! ! ! ! ! ! ! ! ! ! ! ! ! ! ! ! ! ! ! ! ! ;.;.W ! ! ! a.! ! ! ! ! ! ! ;.2.W ! ! ! ! ! ! Q ,.,.Q ! ! ! ! ! 7.! ! ! ! W 2.;.! ! ! 7.! ! ! ! 7.g.! ! 7.! W 7.;.W ! ! ! y.;.! ! Q B P.q.O.3.3.3.3.3.3.g.qXeXY 3 2 2 2 2 2 s * * 8 7 7 7 7 r - X.NXmXNX&.- r 7 7 7 7 8 > = 5 8 8 F G G G A y G G G G r 7 7 * > t * > > > > > > > > > > > > * 5 t * > > > > > > > > > > > > * t 8 * > > > > > + %.DX%.- * > * t 5 > > > > > > > > > > > > * 7 u X p pX5 > > > > > > > > > * 8 7 * > ",
"y.<.Q ;.y.y.p.<.Q ! W ;.;.W ! ! 2.! ! ;.2.! ! 7.! ! ! ! ! ! ! ! ! ! ! ! ! ! ! ! ! ! ! ! ! ! ;.;.W ! ! ! a.! ! ! ! ! ! ! ;.2.W ! ! ! ! ! ! Q ,.,.Q ! ! ! ! ! 7.! ! ! ! W 2.;.! ! ! 7.! ! ! ! 7.g.! ! 7.! W 7.;.W ! ! ! y.;.! ! Q >.K.G.O.3.3.3.3.3.3.g.qXeXY 3 2 2 2 2 2 s * * 8 7 7 7 7 r - X.NXmXNX&.- r 7 7 7 7 8 > = 5 8 e y y y y y y y y y y r 7 7 * > t * > > > > > > > > > > > > * 5 t * > > > > > > > > > > > > * t 8 * > > > > + %.DX%.- * > > * t 5 > > > > > > > > > > > > * 7 u X p pX5 > > > > > > > > > * 8 7 * > ",
"p.<.Q ! <.<.p.>.Q ! W ;.;.W ! ! 2.! ! ;.2.! ! 7.! ! ! ! ! ! ! ! ! ! ! ! ! ! ! ! ! ! ! ! ! ! ;.;.W ! ! ! a.! ! ! ! ! ! ! ;.2.W ! ! ! ! ! ! Q ,.,.Q ! ! ! ! ! 7.! ! ! ! W 2.;.! ! ! 7.! ! ! ! 7.g.! ! 7.! W 7.;.W ! ! ! t.<.>.! ! P H.L.3.3.3.3.3.3.3.4.qXeXY 3 2 2 2 2 2 s * * 8 7 7 7 7 r - X.NXmXNX&.- r 7 7 7 7 8 > = 5 8 8 F G G G A y G G G G r 7 7 * > t * > > > > > > > > > > > > * 5 t * > > > > > > > > > > > > * t 8 * > > > + @.DX%.- * > > > * t 5 > > > > > > > > > > > > * 7 u X p pX5 > > > > > > > > > * 8 7 * > ",
"p.<.Q ! <.>.p.>.Q ! W ;.;.W ! ! 2.! ! ;.2.! ! 7.! ! ! ! ! ! ! ! ! ! ! ! ! ! ! ! ! ! ! ! ! ! ;.;.W ! ! ! a.! ! ! ! ! ! ! ;.2.W ! ! ! ! ! ! Q ,.,.Q ! ! ! ! ! 7.! ! ! ! W 2.;.! ! ! 7.! ! ! ! 7.g.! ! 7.! W 7.;.W ! ! ! t.i.t.! ! Q B P.a.O.3.3.3.3.3.g.tXeXT 3 2 2 2 2 2 s * * 8 7 7 7 7 r - X.NXmXNX&.- r 7 7 7 7 8 > = 5 8 e y y y y y y y y y y r 7 7 * > t * > > > > > > > > > > > > * 5 t * > > > > > > > > > > > > * t 8 * > > + @.DX%.- * > > > > * t 5 > > > > > > > > > > > > * 7 u X p pX5 > > > > > > > > > * 8 7 * > ",
"p.<.Q ! >.;.y.>.Q ! W ;.;.W ! ! 2.! ! ;.2.! ! 7.! ! ! ! ! ! ! ! ! ! ! ! ! ! ! ! ! ! ! ! ! ! ;.;.W ! ! ! a.! ! ! ! ! ! ! ;.2.W ! ! ! ! ! ! Q ,.,.Q ! ! ! ! ! 7.! ! ! ! W 2.;.! ! ! 7.! ! ! ! 7.g.! ! 7.! W 7.;.W ! ! ! t.i.t.! ! Q >.K.G.O.3.3.3.3.3.3.:XtXX.3 2 2 2 2 2 s * * 8 7 7 7 7 r - X.NXmXNX&.- r 7 7 7 7 8 > = 5 8 8 F G G G A y G G G G r 7 7 * > t * > > > > > > > > > > > > * 5 t * > > > > > > > > > > > > * t 8 * > + @.DX%.- * > > > > > * t 5 > > > > > > > > > > > > * 7 u X p pX5 > > > > > > > > > * 8 7 * > ",
"i.;.! ! ! ! 7.! ! ! W ;.;.W ! ! 2.! ! ;.2.! ! 7.! ! ! ! ! ! ! ! ! ! ! ! ! ! ! ! ! ! ! ! ! ! ;.;.W ! ! ! a.! ! ! ! ! ! ! ;.2.W ! ! ! ! ! ! Q ,.,.Q ! ! ! ! ! 7.! ! ! ! W 2.;.! ! ! 7.! ! ! ! 7.g.! ! 7.! W 7.;.W ! ! ! t.i.t.! ! ! P H.L.3.3.3.3.3.3.3.Q 6X$.3 2 2 2 2 2 s * * 8 7 7 7 7 r - X.NXmXNX&.- r 7 7 7 7 8 > = 5 8 e y y y y y y y y y y r 7 7 * > t * > > > > > > > > > > > > * 5 t * > > > > > > > > > > > > * t r * + @.DX%.- * > > > > > > * t 5 > > > > > > > > > > > > * 7 u X p pX5 > > > > > > > > > * 8 7 * > ",
"q.! ! ! ! ! 2.! ! ! W ;.;.W ! ! 2.! ! ;.2.! ! 7.! ! ! ! ! ! ! ! ! ! ! ! ! ! ! ! ! ! ! ! ! ! ;.;.W ! ! ! a.! ! ! ! ! ! ! ;.2.W ! ! ! ! ! ! Q ,.,.Q ! ! ! ! ! 7.! ! ! ! W 2.;.! ! ! 7.! ! ! ! 7.g.! ! 7.! W 7.;.W ! ! Q <.i.t.! ! ! Q B P.q.O.3.3.3.3.3.O.6X$.< 2 2 2 2 2 s * * 8 7 7 7 7 r - X.NXmXNX&.- r 7 7 7 7 8 > = 5 8 8 F G G G A y G G G G r 7 7 * > t * > > > > > > > > > > > > * 5 t * > > > > > > > > > > > > * t r X | CX%.- * > > > > > > > * t 5 > > > > > > > > > > > > * 7 u X p pX5 > > > > > > > > > * 8 7 * > ",
"2.W ! ! ! ! 7.! ! ! W ;.;.! ! ! 7.! ! ;.2.! ! 7.! ! ! ! ! ! ! ! ! ! ! ! ! ! ! ! ! ! ! ! ! ! ;.;.W ! ! ! a.! ! ! ! ! ! ! ;.2.! ! ! ! ! ! ! Q ,.,.Q ! ! ! ! ! 7.! ! ! ! W 2.;.! ! ! 7.! ! ! ! 7.g.! ! 7.! W 7.;.W ! ! ! ! y.y.! ! ! Q >.K.G.O.3.3.3.3.3.3.6X$.< 2 2 2 2 2 s * * 8 7 7 7 7 r - X.NXmXNX&.- r 7 7 7 7 8 > = 5 8 e y y y y y y y y y y r 7 7 * > t * > > > > > > > > > > > > > 5 t * > > > > > > > > > > > 5 * t 9 | CX{.- * > > > > > > > > * t 5 > > > > > > > > > > > > * 7 u X p pX5 > > > > > > > > > * r 7 * > ",
";.W ! ! ! W 2.! W ! W ;.;.W W ! 2.W W ;.2.W W 7.! W ! ! ! ! ! ! ! ! ! ! ! ! ! ! ! ! ! ! ! W ;.;.W ! ! ! a.W ! ! ! ! ! W ! 2.W ! ! ! ! ! ! Q ,.,.Q ! ! ! W ! 2.W ! ! ! W 2.! W ! W 2.! W ! W 2.g.W ! 2.W W 7.;.W ! ! ! W t.y.! ! ! ! P H.L.3.3.3.3.3.3.1.6X$.< 2 2 2 2 2 s * * 8 7 7 7 7 r - X.NXmXNX&.- r 7 7 7 7 8 > = 5 8 8 F G G G A y G G G G r 7 7 * > t * * * * * * * * * * * * * * 5 r * * * * * * * * * * * * * * 9 @.CX%.X * > * * * * * * * * * t > * * * * * * * * * * * * * 5 u . p pX* * * * * * * * * * * 8 7 * * ",
"7.;.;.;.;.;.7.;.;.;.;.7.2.;.;.;.7.;.;.;.7.;.;.8.;.;.;.;.;.;.;.;.;.;.;.;.;.;.;.;.;.;.;.;.;.;.2.7.;.;.;.;.a.;.;.;.;.;.;.;.;.7.;.;.;.;.;.;.;.! ,.q.! ;.;.;.;.;.7.;.;.;.;.;.7.;.;.;.;.7.;.;.;.;.7.f.;.;.7.;.;.8.2.;.;.;.;.;.>.y.;.;.;.;.Q G.P.e.O.4.4.4.4.3.9X$.1 F y y y 2 s * * 8 7 7 7 7 r - X.NXmXNX&.- r 7 7 7 7 8 > = 5 8 e y y y y y y y y y y r 7 7 * > t 5 7 7 7 7 7 7 7 7 7 7 7 7 7 7 u 5 7 7 7 7 7 7 7 7 7 7 7 7 - | CX{.5 7 7 7 7 7 7 7 7 7 7 7 7 u 7 7 7 7 7 7 7 7 7 7 7 7 7 7 8 s > D gX7 7 7 7 7 7 7 7 7 7 5 t r 5 7 ",
"8.7.7.7.7.7.9.7.7.7.7.8.8.7.7.7.9.7.7.8.8.7.7.9.7.7.7.7.7.7.7.7.7.7.7.7.7.7.7.7.7.7.7.7.7.7.8.8.7.7.7.7.s.7.7.7.7.7.7.7.7.9.7.7.7.7.7.7.7.2.e.e.2.7.7.7.7.7.9.7.7.7.7.7.9.8.7.7.7.9.7.7.7.7.9.k.7.7.9.7.7.9.8.7.7.7.7.7.8.p.q.7.7.7.2.u.K.G.g.f.f.f.f.5.6X].d H H H H F s * * 8 7 7 7 7 r - X.NXmXNX&.- r 7 7 7 7 8 > = 5 8 8 F G G G A y G G G G r 7 7 * > t t u t t t t t t t t t t t t u f t u t t t t t t t t t u 9 @.CX{.t t u t t t t t t t t t t t f u t t t t t t t t t t t t t s J 8 ~ gXu t u t t t t t t u t f s t t ",
";.W W W W W 2.W W W W ;.;.W W ! 2.W W ! ;.W W 7.! W W W W W W W W W W W W W W W W W W W W W ;.;.W W W W a.W W W W W W W ! 2.W W W W W W W E ,.,.E ! W W W ! 2.W W W W W ;.! W W W 2.! W W W 2.g.W ! 2.W E 7.;.W W W W W ! y.y.! Q W W Q L.H.O.3.3.3.3.1.9X$.< 2 1 1 1 1 s * * 8 7 7 7 7 r - X.NXmXNX&.- r 7 7 7 7 8 > = 5 8 e y y y y y y y y y y r 7 7 * > r * * * * * * * * * * * * * * > r * * * * * * * * * * > o | CXbX7 * * * * * * * * * * * * * * r * * * * * * * * * * * * * * 5 t . p pX* * * * * * * * * * * 8 5 * * ",
";.W ! W ! ! 7.! ! ! ! ;.;.! ! ;.7.! ! ;.2.! ! 7.! ! W W ! ! ! ! ! ! ! ! ! ! ! ! ! ! ! ! ! ! ;.;.W W W ! a.! ! ! ! ! ! ! ;.2.! ! ! ! ! ! ! Q ,.,.Q W ! ! ! ! 7.! ! ! ! ! 2.;.! ! ! 7.! ! ! ! 2.g.W ! 7.! W 7.;.! ! ! ! ! ! y.i.<.Q ! ! P G.K.8.O.3.3.3.1.9X[.< 2 2 2 2 2 s * * 8 7 7 7 7 r - X.NXmXNX&.- r 7 7 7 7 8 > = 5 8 8 F G G G A y G G G G r 7 7 * > t * 5 > > > > > > > > > > > > 5 t * 5 > > > > > > > , + | CX{.8 8 > 5 > > > > > > > > > > 5 > t 5 > > > > > > > > > > > 5 * 7 u X p pX5 > 5 > > > > > > 5 * r 7 * 5 ",
"9.;.;.7.! ! 7.! ! ! W ;.;.W ! ! 2.! ! ;.2.! W 8.8.! ;.;.! ! ! ! ! ! ! ! ! ! ! ! ! ! ! ! ! W ;.9.;.2.7.;.a.! ! ! ! ! ! ! ;.2.W ! ! ! ! ! ! Q ,.e.Q 7.! ! ! ! 7.! ! ! ! W 2.;.! ! ! 7.! ! ! ! 9.g.;.2.2.! W 7.;.W ! ! ! ! ! y.y.t.! ! ! Q t.P.p.O.3.3.3.1.9X[.< 2 2 2 2 2 s * * 8 7 7 7 7 r - X.NXmXNX&.- r 7 7 7 7 8 > = 5 8 e y y y y y y y y y y r 7 7 * > t * > > > > > > > > > > > > * 5 t * > > > > > > > , + | CX{.* 8 r * > > > > > > > > > > > > * t 5 > > > > > > > > > > > > * 7 u X p pX5 > > > > > > > > > * 8 7 * > ",
"z.7.z.9.! ! 7.! ! ! W ;.;.W ! ! 2.! ! ;.2.W ;.z.9.7.z.;.! ! ! ! ! ! ! ! ! ! ! ! ! ! ! ! ! W 0.z.7.8.z.8.a.! ! ! ! ! ! ! ;.2.W ! ! ! ! ! W ;.z.e.8.z.9.W ! ! 7.! ! ! ! W 2.;.! ! ! 7.! ! W 0.z.k.0.w.8.W W 7.;.W ! ! ! ! Q t.t.t.! ! ! ! ;.L.H.O.3.3.3.1.9X[.< 2 2 2 2 2 s * * 8 7 7 7 7 r - X.NXmXNX&.- r 7 7 7 7 8 > = 5 8 8 F G G G A y G G G G r 7 7 * > t * > > > > > > > > > > > > * 5 t * > > > > > > , + | CXbX- * t 8 * > > > > > > > > > > > > * t 5 > > > > > > > > > > > > * 7 u X p pX5 > > > > > > > > > * 8 7 * > ",
"2.E z.0.;.! 7.! ! ! W ;.;.W ! ! 2.! ! ;.2.E 9.z.E 9.z.7.! ! ! ! ! ! ! ! ! ! ! ! ! ! ! ! ! ! z.;.E W 0.! a.! ! ! ! ! ! ! ;.2.W ! ! ! ! ! W 9.e.>.2.v.8.W ! ! 7.! ! ! ! W 2.;.! ! ! 7.! W ;.z.;.k.0.z.0.W W 7.;.W ! ! ! ! ! ! >.y.! ! ! ! P H.L.3.3.3.3.1.9X[.< 2 2 2 2 2 s * * 8 7 7 7 7 r - X.NXmXNX&.- r 7 7 7 7 8 > = 5 8 e y y y y y y y y y y r 7 7 * > t * > > > > > > > > > > > > * 5 t * > > > > > , + | CXbX> - * t 8 * > > > > > > > > > > > > * t 5 > > > > > > > > > > > > * 7 u X p pX5 > > > > > > > > > * 8 7 * > ",
"7.W W 0.9.E 7.! ! ! W ;.;.W ! ! 2.! ! ;.2.E 8.z.E 0.8.z.! ! ! ! ! ! ! ! ! ! ! ! ! ! ! ! ! ! z.7.E 8.0.W a.! ! ! ! ! ! ! ;.2.W ! ! ! ! ! W 9.z.>.8.0.0.W ! ! 7.! ! ! ! W 2.;.! ! ! 7.! ! ;.z.7.g.7.z.9.W W 7.;.W ! ! ! ! ! Q ! y.! ! ! ! Q B P.a.O.3.3.1.,X[.< 2 2 2 2 2 s * * 8 7 7 7 7 r - X.NXmXNX&.- r 7 7 7 7 8 > = 5 8 8 F G G G A y G G G G r 7 7 * > t * > > > > > > > > > > > > * 5 t * > > > > , + | CXbX> - , * t 8 * > > > > > > > > > > > > * t 5 > > > > > > > > > > > > * 7 u X p pX5 > > > > > > > > > * 8 7 * > ",
"z.8.9.w.;.W 7.! ! ! W ;.;.W ! ! 2.! ! ;.2.W ! z.0.2.z.9.W ! ! ! ! ! ! ! ! ! ! ! ! ! ! ! ! W 9.z.7.8.2.W a.! ! ! ! ! ! ! ;.2.W ! ! ! ! ! ! ! z.e.7.z.9.W ! ! 7.! ! ! ! W 2.;.! ! ! 7.! ! W 8.z.k.9.0.2.! W 7.;.W ! ! ! ! ! ! ! t.>.! ! ! Q <.K.G.O.3.3.1.,X[.< 2 2 2 2 2 s * * 8 7 7 7 7 r - X.NXmXNX&.- r 7 7 7 7 8 > = 5 8 e y y y y y y y y y y r 7 7 * > t * > > > > > > > > > > > > * 5 t * > > > , + | CXbX> - > > * t 8 * > > > > > > > > > > > > * t 5 > > > > > > > > > > > > * 7 u X p pX5 > > > > > > > > > * 8 7 * > ",
"2.! ! ! ! ! 7.! ! ! W ;.;.W ! ;.2.! ! ;.2.! W 7.;.! ! ! ! ! ! ! ! ! ! ! ! ! ! ! ! ! ! ! ! ! ;.2.! ! ! ! a.! ! ! ! ! ! ! ;.2.! ! ! ! ! ! ! Q ,.,.Q ! W ! ! ! 7.! ! ! ! W 2.;.! ! ! 7.! ! ! W 7.g.! ! 7.! W 7.;.! ! ! ! ! ! ! ! t.>.Q ! ! ! Q L.H.O.3.3.1.,X[.< 2 2 2 2 2 s * * 8 7 7 7 7 r - X.NXmXNX&.- r 7 7 7 7 8 > = 5 8 8 A G F G A y G G G G r 7 7 * > t * > > > > > > > > > > > > * 5 t * > > , + | CXbX> - , > > * t 8 * > > > > > > > > > > > > * t 5 > > > > > > > > > > > > * 7 u X p pX5 > > > > > > > > > * 8 7 * > ",
"2.W ! ! ! W 2.! ! ! W ;.;.! ! ! 2.! ! ! 2.! W 8.! W ! ! ! W ! ! ! ! W W ! ! W W ! ! W W ! W ;.;.W ! ! ! a.! ! ! W ! W W ;.2.W ! ! ! W ! ! Q ,.,.Q ! ! ! W ! 7.W ! W ! W 7.! W ! ! 2.! ! ! ! 7.g.W ! 7.W W 7.;.W ! W ! ! ! W Q t.<.Q ! ! ! P G.K.7.O.3.1.,X[.< 2 2 2 2 2 s * * 8 7 7 7 7 r - X.NXmXNX&.- r 7 7 7 7 8 > = 5 8 e y y y y y y y y y y r 7 7 * > t * > > > > > > > > > > > > * 5 t * > , + | CXbX, - , > > > * t 8 * > > > > > > > > > > > > * t 5 > > > > > > > > > > > > * 7 u X p pX5 > > > > > > > > > * 8 7 * > ",
"! 9.8.E ! 0.9.E ;.9.7.0.8.E ;.0.7.E 2.0.7.E 7.7.7.0.;.E 7.0.;.E 8.7.9.9.! W 9.9.W W 9.9.W ! 8.! 0.8.E ;.d.7.E ;.8.7.0.7.E 7.0.2.E 7.0.;.E 7.,.e.9.;.E 8.0.! W 8.7.9.9.W ! 9.9.W ! 0.8.E ;.8.;.n.8.E ;.0.7.W 7.8.7.0.2.E 7.0.2.u.<.Q ! ;.9.5.p.P.d.g.k.5.,X.XH F 2 2 2 2 s * * 8 7 7 7 7 r - X.NXmXNX&.- r 7 7 7 7 8 > = 5 8 8 A G F G A y G F F G r 7 7 * > t * > > > > > > > > > > > > * 5 t * , + | CXbX, - > > > > > * t 8 * > > > > > > > > > > > > * t 5 > > > > > > > > > > > > * 7 u X p pX5 > > > > > > > > > * 8 7 * > ",
"! z.0.E ! z.9.E ;.0.8.z.8.E 2.z.7.E 7.z.7.E 9.2.7.z.;.E 9.z.;.E 0.8.0.z.! E 0.z.W W z.0.E ! 0.! z.0.E ;.N.9.E 2.0.8.z.8.E 7.z.7.E 8.z.2.E 9.q.e.z.;.E 9.z.! E 0.8.0.z.W W z.0.E ! z.0.E ;.9.! B.9.E ;.z.8.E 7.0.8.z.7.E 8.z.9.u.t.>.! ;.0.2.q.K.Q.O.f.6.,X[.H H 1 2 2 2 s * * 8 7 7 7 7 r - X.NXmXNX&.- r 7 7 7 7 8 > = 5 8 e y y y y y y y y y A r 7 7 * > t * > > > > > > > > > > > > * 5 t > + 4 VXbX, - , > > > > > * t 8 * > > > > > > > > > > > > * t 5 > > > > > > > > > > > > * 7 u X p pX5 > > > > > > > > > * 8 7 * > ",
"! w.0.E ! z.9.E ;.0.8.z.8.E 2.z.7.E 7.z.7.E 8.2.7.z.;.E 9.z.;.E 9.8.0.w.! E 0.w.W W w.0.E ! 9.! z.9.E ;.N.9.E 2.0.8.z.8.E 7.z.7.E 7.z.2.E 8.q.e.z.;.E 9.z.! E 0.8.0.w.W W 0.0.E ! z.0.E ;.9.! n.9.E ;.z.8.E 7.9.8.z.7.E 7.z.9.>.y.y.>.;.9.;.Q H.L.4.3.1.,X[.d H 1 2 2 2 s * * 8 7 7 7 7 r - X.NXmXNX&.- r 7 7 7 7 8 > = 5 8 8 A F F F A y G F F F r 7 7 * > t * > > > > > > > > > > > > * 5 t + 4 VXbX, - , > > > > > > * t 8 * > > > > > > > > > > > > * t 5 > > > > > > > > > > > > * 7 u X p pX5 > > > > > > > > > * 8 7 * > ",
"! w.0.E ! z.9.E ;.0.8.z.8.E 2.z.7.E 7.z.7.E 8.2.7.z.;.E 9.z.;.E 9.8.0.z.! E 0.w.W W w.0.E ! 9.! z.9.E ;.N.9.E 2.0.8.z.8.E 7.z.7.E 7.z.2.E 9.q.e.z.;.E 9.z.! E 0.8.0.w.W W w.0.E ! z.0.E ;.9.! n.9.E ;.z.8.E 7.0.8.z.7.E 7.z.9.;.<.y.<.;.9.;.Q G.K.$X*Xj.-X.Xd H 1 2 2 2 s * * 8 7 7 7 7 r - X.NXmXNX&.- r 7 7 7 7 8 > = 5 8 e y A y A y y A y y A r 7 7 * > t * > > > > > > > > > > > > * 7 9 4 VXbX, - , > > > > > > > * t 8 * > > > > > > > > > > > > * t 5 > > > > > > > > > > > > * 7 u X p pX5 > > > > > > > > > * 8 7 * > ",
"! w.0.E ! z.9.E ;.0.8.z.8.E 2.z.7.E 7.z.7.E 8.2.7.z.;.E 9.z.;.E 9.8.0.z.! E 0.w.W W w.0.E ! 9.! z.9.E ;.N.9.E 2.0.8.z.8.E 7.z.7.E 7.z.2.E 9.q.e.z.;.E 9.z.! E 0.8.0.w.W W w.0.E ! z.0.E ;.9.! n.9.E ;.z.8.E 7.0.8.z.7.E 7.z.9.;.Q <.<.;.9.;.1.d.P.d.k.Z.,X.Xd H 1 2 2 2 s * * 8 7 7 7 7 r - X.NXmXNX&.- r 7 7 7 7 8 > = 5 8 8 A F F F A y F F F F r 7 7 * > t * > > > > > > > > > > > * > - +.VXbX, - > * > > > > > > > * r 8 * > > > > > > > > > > > > * t 5 * > > > > > > > > > > > * 7 u . p pX5 * > > > > > > > > * 8 7 * > ",
"! w.0.E ! z.9.E ;.0.8.z.8.E 2.z.7.E 7.z.7.E 8.2.7.z.;.E 9.z.;.E 9.8.0.z.! E 0.w.W W w.0.E ! 9.! z.9.E ;.N.9.E 2.0.8.z.8.E 7.z.7.E 7.z.2.E 9.q.e.z.;.E 9.z.! E 0.8.0.w.W W w.0.W ! z.0.E ;.9.! n.9.E ;.z.8.E 7.0.8.z.7.E 7.z.9.;.Q <.t.;.9.;.7.N.K.G.O.l.9X.Xd H 2 2 2 2 s * * 8 7 7 7 7 r - X.NXmXNX&.- r 7 7 7 7 8 > = 5 8 e y A A A y y A A A A r 7 7 * > t > 5 5 5 5 5 5 5 5 5 5 5 5 - 4 VXbX1 - 5 5 5 5 5 5 5 5 5 5 > t r > 5 5 5 5 5 5 5 5 5 5 5 5 5 t 5 5 5 5 5 5 5 5 5 5 5 5 5 5 7 u X p pX5 5 5 5 5 5 5 5 5 5 > r 7 5 5 ",
"! w.0.E ! z.9.E ;.0.8.z.8.E ;.z.7.E 7.z.7.E 8.2.7.z.;.E 9.z.;.E 9.8.0.z.! E 0.w.W W w.0.E ! 9.! z.9.E ;.N.9.E ;.0.8.z.8.E 7.z.7.E 7.z.2.E 8.q.e.z.;.E 9.z.! E 0.8.0.w.W W w.0.E ! z.0.E ;.9.! n.9.E ;.z.8.E 7.0.8.z.7.E 7.z.9.7.2.q.u.7.9.;.;.$X!.H.1X&X,X.Xd Y F H H F s * * 8 7 7 7 7 r - X.NXmXNX&.- r 7 7 7 7 8 > = 5 8 8 A F F F A y F F F F r 7 7 * > t r t t t t t t t t t t t 9 H nXnXd 8 t t t t t t t t t t t r f s r t t t t t t t t t t t t t s t t t t t t t t t t t t t t u f 7 D gXt t t t t t t t t t t s u t t ",
"! w.0.W ;.z.9.E ;.0.8.z.8.E 7.z.8.E 7.z.7.E 9.2.7.z.;.E 9.z.;.E 0.8.0.z.! W 0.w.! ! w.0.W ;.9.! z.9.E ;.N.9.E 7.0.8.z.8.E 7.z.7.E 8.z.2.E 9.q.e.z.;.E 9.z.! W 0.8.0.w.! ! w.0.W ! z.0.E ;.9.! n.9.E ;.z.8.E 7.9.8.z.7.E 8.z.9.! Q >.t.;.9.;.;.b.Q.K.&X$X=X6XU H 1 2 2 2 s * * 8 7 7 7 7 r - X.NXmXNX&.- r 7 7 7 7 8 > = 5 8 e y A A A y y A A A A r 7 7 * > t * * * * * * * * * * > + 4 nXnXd X > * * * * * * * * * * * * r 8 * * * * * * * * * * * * * * t > * * * * * * * * * * * * * 5 u . p pX* * * * * * * * * * * 8 7 * * ",
"! w.0.7.0.z.0.7.w.0.8.z.9.8.w.z.9.8.w.z.8.8.z.;.7.z.8.9.w.z.8.9.z.8.0.z.7.0.w.0.7.0.w.0.7.w.9.! z.0.7.0.N.9.8.z.9.8.z.9.8.w.z.8.8.w.z.8.9.z.,.e.z.8.9.w.w.7.0.w.8.0.w.7.0.w.0.7.0.z.0.7.w.9.! n.9.8.w.z.9.8.z.9.8.z.8.8.w.z.9.;.Q >.y.;.9.;.;.Q p.P.S.3.=XeX$.F 2 2 2 2 s * * 8 7 7 7 7 r - X.NXmXNX&.- r 7 7 7 7 8 > = 5 8 e A F A F y y F A A F r 7 7 * > t * 5 > > > > > > > , + 4 nXnX1 8 > 5 > > > > > > > > > > 5 * t r * 5 > > > > > > > > > > > * t 5 > > > > > > > > > > > > * 7 u X p pX5 > 5 > > > > > > 5 * r 7 * > ",
"! w.0.8.w.z.0.8.z.9.8.z.9.8.z.z.9.9.z.z.9.9.z.;.7.z.8.0.z.w.8.0.z.8.0.w.8.0.z.0.8.0.w.0.8.z.9.! z.0.8.z.d.9.8.z.9.8.z.9.9.z.z.9.9.z.z.8.9.z.,.e.z.8.0.z.w.8.0.w.7.0.w.8.0.w.0.8.w.z.0.8.z.9.! n.9.8.z.z.9.8.z.9.8.z.9.9.z.w.9.;.! ;.t.>.9.;.;.;.<.K.R.O.=XeX$.F 2 2 2 2 s * * 8 7 7 7 7 r - X.NXmXNX&.- r 7 7 7 7 8 > = 5 8 e A A A A y y A A A A r 7 7 * > t * > > > > > > > , + 4 nXnX1 - t * > > > > > > > > > > > > * t 8 * > > > > > > > > > > > > * t 5 > > > > > > > > > > > > * 7 u X p pX5 > > > > > > > > > * 8 7 * > ",
"! z.0.8.w.z.0.8.z.0.8.z.9.8.z.z.9.9.z.z.9.9.z.;.7.z.8.9.z.z.8.0.z.8.0.z.8.0.z.w.8.0.z.0.8.z.9.! z.0.8.z.N.0.8.z.9.8.z.9.9.z.z.9.9.z.z.8.9.z.,.e.z.8.0.z.z.8.0.z.8.0.w.8.0.z.0.8.w.z.0.8.z.9.! n.0.8.z.z.9.8.z.9.9.z.9.9.z.z.9.;.! ! t.,.9.;.;.;.2.L.H.O.@XeX$.H 2 2 2 2 s * * 8 7 7 7 7 r - X.NXmXNX&.- r 7 7 7 7 8 > = 5 8 e A A A A y y A A A A r 7 7 * > t * > > > > > > , + 4 nXnX1 + 5 t * > > > > > > > > > > > > * t 8 * > > > > > > > > > > > > * t 5 > > > > > > > > > > > > * 7 u X p pX5 > > > > > > > > > * 8 7 * > ",
"! 0.0.7.0.0.0.7.w.9.8.w.9.8.0.0.9.8.0.w.8.8.z.;.7.z.8.9.0.0.7.9.w.7.0.0.7.0.0.0.7.0.0.0.7.0.9.! w.9.7.0.d.9.8.w.9.8.w.8.8.w.0.8.8.0.0.8.9.z.,.e.0.8.9.0.0.7.0.0.7.0.0.7.0.0.0.7.0.w.0.7.w.8.! n.9.8.w.0.9.8.z.8.8.w.8.8.0.0.8.;.! ! t.>.9.9.9.9.9.H.L.9.=XeX].r 2 2 2 2 s * * 8 7 7 7 7 r - X.NXmXNX&.- r 7 7 7 7 8 > = 5 8 e A A A F y y F A A A r 7 7 * > t * > > > > > , + 4 nXnX4 + > 5 t * > > > > > > > > > > > > * t 8 * > > > > > > > > > > > > * t 5 > > > > > > > > > > > > * 7 u X p pX5 > > > > > > > > > * 8 7 * > ",
"2.! ! ! ! ! 7.! ! ! ! 2.;.! ! ;.7.! ! ;.2.! ! 7.;.! ! ! ! ! ! ! ! ! ! ! ! ! ! ! ! ! ! ! ! ! ;.;.! ! ! ! a.! ! ! ! ! ! ! ;.7.! ! ! ! ! ! ! Q ,.,.Q ! ! ! ! ! 7.! ! ! ! ! 2.;.! ! ! 7.! ! ! ! 7.g.! ! 7.! W 7.;.! ! ! ! ! ! ! ! ! ! Q t.<.Q ! ! ! Q G.P.<.[.eX.X$.2 2 2 2 s * * 8 7 7 7 7 r - X.NXmXNX&.- r 7 7 7 7 8 > = 5 8 e A A A A y y A A A A r 7 7 * > t * > > > > , + 4 nXnX4 + , * 5 t * > > > > > > > > > > > > * t 8 * > > > > > > > > > > > > * t 5 > > > > > > > > > > > > * 7 u X p pX5 > > > > > > > > > * 8 7 * > ",
"2.W ! ! ! ! 7.! ! ! W ;.;.W ! ! 2.W ! ;.2.W W 7.! ! ! ! ! ! ! ! ! ! ! ! ! ! ! ! ! ! ! ! ! W ;.;.W ! ! ! a.! ! ! ! ! ! ! ;.2.W ! ! ! ! ! ! Q ,.,.Q ! ! ! ! ! 7.! ! ! ! W 2.;.! ! W 7.! ! ! ! 7.g.! ! 7.! W 7.;.W ! ! ! ! ! ! ! ! ! Q <.y.>.! ! ! Q y.P.B [.eXeX5X2 2 2 2 s * * 8 7 7 7 7 r - X.NXmXNX&.- r 7 7 7 7 8 > = 5 8 8 A F A F A y F F F F r 7 7 * > t * > > > , + 4 nXnX4 + , > * 5 t * > > > > > > > > > > > > * t 8 * > > > > > > > > > > > > * t 5 5 5 5 > > 5 5 5 5 5 > > * 7 u X p pX5 > > > > > > > > > * 8 7 * > ",
"2.W W ! W W 2.W ! ! W ;.;.! ! ! 2.! ! ;.2.! ! 7.;.W W ! ! ! ! ! ! ! ! ! ! ! ! ! ! ! ! ! ! ! ;.;.W W W W a.! ! ! ! ! ! ! ;.2.W W W ! ! ! ! Q ,.,.Q ! ! ! ! ! 7.! W ! W W 2.;.! ! ! 7.! ! ! ! 7.g.! ! 7.! W 7.;.W W ! W W W ! ! ! ! ! ! y.t.Q ! ! Q >.K.G.[.eXeX5X2 1 1 2 y * * 8 7 7 7 7 r - X.NXmXNX&.- r 7 7 7 7 8 > = 5 8 e y A A A y y A A A A r 7 7 * > t * > > , + 4 nXnX4 + , > > * 5 t * > > > > > > > > > > > > * t 8 * > > > > > > > > > > > > * r j * X X 5 > X * * X * > 5 * 5 t   p pX5 > > > > > > > > > * 8 7 * > ",
";.;.0.2.8.9.8.l.2.! W ;.;.W ! ! 2.! ! ;.2.! ! 8.! 2.8.2.;.W ! ! ! ! ! ! ! ! ! ! ! ! ! ! ! ! ;.;.;.0.2.2.a.! ! ! ! ! ! ! ;.2.2.9.2.2.W ! ! Q ,.,.Q ! ! ! ! ! 7.! 0.7.2.! ;.;.! ! ! 7.! ! ! ! 7.g.! ! 7.! W 7.;.;.9.! 9.7.2.! ! ! ! ! Q <.y.! ! ! ! Q L.H.].eXtX,XH H O.H K * * 8 7 7 7 7 r - X.NXmXNX&.- r 7 7 7 7 8 > = 5 8 8 A F F F A y F F F F r 7 7 * > t * > , + 4 nXVXC + , > > > * 5 t * > > > > > > > > > > > > * t 8 * > > > > > > > > > > > 5 * D { D ( ( X 5 _ ( D { i * . D D { ( D pX5 > > > > > > > > > * 8 7 * > ",
";.2.l.;.9.8.v.2.9.! W ;.;.W ! ! 2.! ! ;.2.! ! 8.! 8.9.2.9.2.! ! ! ! ! ! ! ! ! ! ! ! ! ! ! ! ;.;.! 2.l.9.0.;.! ! ! ! ! ! ;.2.;.0.0.9.2.! ! Q ,.,.Q ! ! ! ! ! 2.;.l.;.9.8.8.! ! ! ! 7.! ! ! ! 7.g.! ! 7.! W 7.;.2.l.7.8.9.0.8.;.W ! ! ! ;.t.! ! ! ! Q H.L.@X6XqX9XO.O.H 3.P X * 8 7 7 7 7 r - X.NXmXNX&.- r 7 7 7 7 8 > = 5 8 e y A A A y y A A A A r 7 7 * > t * , - 4 nXVXC + , > > > > * 5 t * > > > > > > > > > > > > * t 8 * > > > > > > > > > > > > . u D _ _ _ . i ).p _ ( _ * _ ).( { { ( aX5 > > > > > > > > > * 8 7 * > ",
";.! 7.l.8.;.v.! 0.! W ;.;.W ! ! 2.! ! ;.2.! ! 8.! ;.8.7.v.;.! ! ! ! ! ! ! ! ! ! ! ! ! ! ! ! ;.2.E 8.2.c.z.W ! ! ! ! ! ! ;.2.! 9.9.v.2.W ! Q ,.,.Q ! ! ! ! ! 7.! 2.9.l.l.;.;.! ! ! 7.! ! ! ! 7.g.! ! 7.! W 7.;.! 8.9.;.8.c.l.W ! ! ! ! ;.y.>.! ! ! P G.P.j.$.tX6XP I y g.P X * 8 7 7 7 7 r - X.NXmXNX&.- r 7 7 7 7 8 > = 5 8 8 A F F F A y F F F F r 7 7 * > t > - < bXVXC + , > > > > > * 5 t * > > > > > > > > > > > > * t 8 * > > > > > > > > > > > 5 D 8 ( D i _ . 5 D { ( { _ D ( _ ( { _ ( aX5 > > > > > > > > > * 8 7 * > ",
";.;.2.0.9.9.z.9.9.! W ;.;.W ! ! 2.! ! ;.2.! ! 8.! ;.9.7.l.7.W ! ! ! ! ! ! ! ! ! ! ! ! ! ! ! ;.;.2.l.2.l.z.;.! ! ! ! ! ! ;.7.;.8.l.l.8.! ! Q ,.,.Q ! ! ! ! ! 7.! 2.9.l.l.8.! ! ! ! 7.! ! ! ! 7.g.! ! 7.! W 7.;.! 9.2.0.9.l.l.;.W ! ! ! ! t.y.! ! ! Q y.K.y.O.qX:XH  .O.O. .X * 8 7 7 7 7 r - X.NXmXNX&.- r 7 7 7 7 8 > = 5 8 e y y y y y y A y y A r 7 7 * > t X 1 bXVXC + , > > > > > > * 5 t * > > > > > > > > > > > > * t 8 * > > > > > > > > > > > 5 D ' ).i p _ i i p _ D _ ( p _ { ( { _ _ aX5 > > > > > > > > > * 8 7 * > ",
";.;.8.;.;.2.7.8.;.! W ;.;.! ! ! 2.! ! ;.2.! ! 7.! ! ;.;.;.2.! ! ! ! ! ! ! ! ! ! ! ! ! ! ! ! ;.;.;.8.2.;.a.;.! ! ! ! ! ! ;.2.2.7.;.;.2.! ! Q ,.,.Q ! ! ! ! ! 2.! 8.2.;.;.8.! ! ! ! 7.! ! ! ! 7.g.! ! 7.! W 7.;.! ;.! 2.2.;.;.;.! ! ! ! ! ;.y.;.! ! Q >.K.R.$.qX,XH y H 2 J * * 8 7 7 7 7 r - X.NXmXNX&.- r 7 7 7 7 8 > = 5 8 8 A G F G A y G F F G r 7 7 * , 9 < bXVXC + , > > > > > > > * 5 t * > > > > > > > > > > > > * t 8 * > > > > > > > > > > > > . D ( D 7 i i i ( p i ( > * ~ ( e ' D p pX5 > > > > > > > > > * 8 7 * > ",
"2.W W W W W 7.W W ! W ;.;.W ! ! 2.W W ;.2.W W 7.! W W W W W ! ! ! ! ! ! ! ! ! ! ! ! ! ! ! W ;.;.E W W W a.W ! ! ! ! ! W ! 2.E W W W W ! ! Q ,.,.Q ! ! ! ! ! 7.W W W ! W ;.;.W ! W 2.! ! ! ! 7.g.! ! 7.! W 7.;.W W ! W W W W W ! ! ! ! ! Q t.>.Q ! ! Q L.H.O.tX5X3 1 3 2 y * * 8 7 7 7 7 r 5 X.NXmXNX&.- r 7 7 7 7 8 > = 5 8 e y y y y y y y y y y r 7 7 * - H bXVXC + , > > > > > > > > * 5 t * > > > > > > > > > > > > * t r * > > > > > > > > > > > > - 8 . X > * * * . X * . > > X . 5 8 o p kX5 > > > > > > > > > * r 7 * > ",
"7.! ;.;.;.;.7.;.;.;.! 2.;.! ;.;.7.! ;.;.7.! ;.7.;.;.;.;.;.;.;.;.;.;.;.;.;.;.;.;.;.;.;.;.;.! ;.2.! ;.;.;.q.;.;.;.;.;.;.;.;.7.;.;.;.;.;.;.;.! ,.,.! ;.;.;.;.;.7.;.;.;.;.;.7.;.;.;.;.7.;.;.;.;.7.5.;.;.7.;.! 7.;.! ;.;.;.;.;.;.;.;.;.;.;.;.! y.<.! ;.;.Q H.L.f.tX6X2 2 2 2 s * * 8 7 7 7 7 r - X.ZXMXZX*.- r 7 7 7 7 8 > = 5 8 8 A G F G A y G F F G r 7 7 * - @.nXC + , 5 5 5 5 5 5 5 5 5 > 5 8 > 5 5 5 5 5 5 5 5 5 5 5 5 * 8 7 * 5 5 5 5 5 5 5 5 5 5 5 5 > r 5 5 5 5 5 5 5 5 5 5 5 5 5 5 7 t * i iX5 > 5 5 5 5 5 5 5 5 * 7 7 > 5 ",
"f f f f f f f f f f f f f f f f f f f f f f f f f f f f f f f f f f f f f f f f f f f f f f f f f f f f f f f f f f f f f f f f f f f f f f f f f f f f f f f f f f f f f f f f f f f f f f f f f f f f f f f f f f f f f f f f f f f f f g f f f f f l z f U Y u u u u t * * 8 7 7 7 7 8 5 +.}.}.}.X.5 r 7 7 7 7 8 > = 5 8 e y y y y y y y y y y r 7 7 * * t d r t t t t t t t t t t t t t t t t t t t t t t t t t t t t t t t t t t t t t t t t t t t t t t t t t t t t t t t t t t t t t t t 7 t t t t t t t t t t t t t t t ",
"X X X X X X X X X X X X X X X X X X X X X X X X X X X X X X X X X X X X X X X X X X X X X X X X X = X X X X X X X X X X X X X X X X X X X X X X X X X X X X X X X X X X X X X X X X X X X X X X X X X X X X X X X X X X X X X X X X X X X . X X X X X = = X o o = = = = = * * 8 7 7 7 8 8 7 7 - 5 - 7 r 7 8 7 7 7 8 > = 5 8 8 F G G G A y G G G G r 7 7 * * = X * * * * * * * * * * * * * * * * * * * * * * * * * * * * * * * * * * * * * * * * * * * * * * * * * * * * * * * * * * * * * * = * * * * * * * * * * * * * * * * * ",
"> > > > > > > > > > > 5 5 5 5 5 5 5 5 5 5 5 5 5 5 5 5 5 5 5 5 5 5 5 5 5 5 5 5 5 5 5 5 5 5 , > > * * * > > > > > > > > > > > > > > > > > > > > > > > > > > > > > > > > > > > > > > > > > > > > > > > > > > > > > > > > > > > > > > > > > > > > > > > > 5 5 > , , > > > > > * * 8 7 7 7 7 7 r 7 r 7 r 7 5 r 7 7 7 7 8 > = 5 8 8 y y y y y t y y y y r 7 7 * * > > > > > > > > > > > > > > > > > > > > > > > > > > > > > > > > > > > > > > > > > > > > > > > > > > > > > > > > > > > > > > > > > > > > > > > > > > > > > > > > > > ",
"8 8 8 8 8 8 8 8 8 r 7 + + + + + + + + + + + + + + + + + + + + + + + + + + + + + + + + + + 7 r r > = 7 r 8 8 8 8 8 8 8 8 8 8 8 8 8 8 8 8 8 8 8 8 8 8 8 8 8 8 8 8 8 8 8 8 8 8 8 8 8 8 8 8 8 8 8 8 8 8 8 8 8 8 8 8 8 8 8 8 8 8 8 8 8 8 8 8 8 8 8 8 8 8 8 8 8 8 8 8 8 8 8 8 7 * * 8 7 7 8 7 c.%XP * P %Xj. .%Xj.5 8 7 8 > = 5 8 7 7 7 7 7 7 7 7 7 7 7 7 8 7 * * 8 8 8 7 7 7 7 7 7 7 7 7 7 7 7 7 7 7 7 7 7 7 7 7 7 7 7 8 8 7 7 7 7 7 7 7 7 7 7 7 7 7 7 7 7 7 7 7 7 7 7 7 7 7 7 7 7 7 7 8 8 8 8 8 8 8 8 8 8 8 8 8 8 8 8 8 8 8 8 8 8 8 ",
"7 7 7 7 7 7 7 7 8 7 F $.].].].].].].].].].].].].].].].].].].].].].].].].].].].].].].].].$.H 5 r > * 7 8 7 f J J J J J J J J J J J J J J J J J J J J J J J J J J J J J J J J J J J J J J J J J J J J J J J J J J J J J J J J J J J J J J J J J J J J J J J J J J J f 8 7 7 * * 8 7 8 7 J Z.K Z.* Z.L b.*Xf Z.s 7 8 8 > = 5 8 7 8 8 7 7 7 t y 7 r y 7 8 7 * * 7 7 8 u u u u u u u u u u u u u u u u u u u u u u u u r 7 t u u u u u u u u u u u u u u u u u u u u u u u u u u u u u 8 7 7 7 7 7 7 7 7 7 7 7 7 7 7 7 7 7 7 7 7 7 7 ",
"7 7 7 7 7 7 7 7 r % $.LX4XKXHXHXHXHXHXHXHXHXHXHXHXHXHXHXHXHXHXHXHXHXHXHXHXHXHXHXHXKXKX4XLX].+ r > = 7 8 7 J u r r r r r r r r r r r r r r r r r r r r r r r r r r r r t t r t t t t r t t t t t r r r r r r r r r r r r r r r r r r r r r r r r r r r r r r r r t J 8 7 7 * * 8 7 8 5 L c.r A.X Z.r b.&X> B.J 5 8 8 > = 5 8 7 7 5 G [.5 Y [.T $.Y 7 e 7 * * 7 7 r K f f f f f f f f f f f f f f f f f f f f f f K u 7 J J f f f f f f f f f f f f f f f f f f f f f f f f f f f K r 7 8 7 7 7 7 7 7 7 7 7 7 7 7 7 7 7 7 7 7 7 7 ",
"7 7 7 7 7 7 7 7 r % $.KX'._._._._._._._._._._._._._._._._._._._._._._._._._._._._._._.'.4X].+ r > = 7 8 7 J t 7 7 7 7 7 7 7 7 7 7 7 7 7 7 7 7 7 7 7 7 7 7 7 7 7 7 7 7 5 7 7 > 5 5 7 7 5 7 7 7 5 7 7 7 7 7 7 7 7 7 7 7 7 7 7 7 7 7 7 7 7 7 7 7 7 7 7 7 7 7 7 7 7 8 J 8 7 7 * * 8 7 8 7 u Z.5.Z.J v.j.B.A.5.A.t 7 7 8 > = 5 8 7 y r $.[.5 5 T $.[.F 7 8 7 * * 7 7 t J 7 7 7 5 7 5 5 7 5 5 7 7 7 7 7 7 7 7 7 7 7 5 f u 7 f t 7 7 5 7 7 7 5 7 7 5 5 7 5 5 7 7 7 7 7 7 7 7 7 7 7 7 7 J r 7 7 7 7 7 7 7 7 7 7 7 7 7 7 7 7 7 7 7 7 7 7 ",
"7 7 7 7 7 7 7 7 r % $.KX_.|.|. X|. X|.|. X|. X|.|. X|.|. X|.|.|. X|. X|.|.|.|.|. X X|._.HX].+ r > = 7 8 7 J t 7 8 8 8 8 8 8 8 8 8 8 8 8 8 8 8 8 8 8 8 8 8 8 8 8 8 8 7 K s 7 3.I P J r K s J u P 7 8 8 8 8 8 8 8 8 8 8 8 8 8 8 8 8 8 8 8 8 8 8 8 8 8 8 8 8 8 8 7 r J 8 7 7 * * 8 7 7 8 5 1.Z.J 5.s Z.1.u Z. .5 8 7 8 > = 5 r 7 Y $.[..Xr G $.G [.[.r 7 7 * * 7 7 t J 7 7 t u 7 u u 7 u s 8 8 r 7 r r t t 7 r r 7 f u 7 J t 7 7 s t t r s 8 7 u s 7 u u r r r 8 7 7 t t 8 7 r 8 8 J r 7 7 7 7 7 7 7 7 7 7 7 7 7 7 7 7 7 7 7 7 7 7 ",
"7 7 7 7 7 7 7 7 r % $.KX_. X3X+X3X4X+X3X+X3X3X+X3X3X X3X3X+X|.3X+X3X3X+X3X X X3X3X4X X_.4X].+ r > = 7 8 7 J t 7 8 7 7 7 7 7 7 7 7 7 7 7 7 7 7 7 7 7 7 7 7 7 7 7 7 r > k.P * k.P n.V.t f.P f.j.K 7 8 8 8 7 7 7 7 7 7 7 7 7 7 7 7 7 7 7 7 7 7 7 7 7 7 7 7 7 7 7 7 r J 8 7 7 * * 8 7 7 7 8 5 * 7 5 7 * 5 7 * 5 8 7 7 8 > = 5 8 8 5 7 F T A Y G 7 $.Y 7 8 7 * * 7 7 t J 7 7 x.k.I k.k.I x. .r u 1X5 k.4.f.k.P 4.u 7 f u 7 J t 5  .f.P x.g.x.5.J n.K P x.P 4.5 4.7 n.K 1.f.n.f 3.t 7 J r 7 7 7 7 7 7 7 7 7 7 7 7 7 7 7 7 7 7 7 7 7 7 ",
"7 7 7 7 7 7 7 7 r % $.KX_. X3X|.|.3X|.3X X3X+X3X3X3X3X+X|.3X|.3X|.+X3X3X3X X|.3X|.3X_._.4X].+ r > = 7 8 7 J t 7 8 7 7 7 7 7 7 7 7 7 7 7 7 7 7 7 7 7 7 7 7 7 7 7 7 r > f.P * 4.I 3.n.f.1.J &X4.* 8 7 7 7 7 7 7 7 7 7 7 7 7 7 7 7 7 7 7 7 7 7 7 7 7 7 7 7 7 7 7 7 r J 8 7 7 * * 8 7 7 7 7 8 r r 7 7 7 5 8 r 8 7 7 7 8 > = 5 8 7 e 7 7 5 7 5 5 7 % 5 7 8 7 * * 7 7 t J 7 r f.3.4.4.3.1.n. .5 r $XJ n. .3.u n.3.5 7 f u 7 J u 5 4.4.r 4.4.u O.4.n.I k.t > n.f.n.s n.O.I  .n.x.3.t 7 J r 7 7 7 7 7 7 7 7 7 7 7 7 7 7 7 7 7 7 7 7 7 7 ",
"7 7 7 7 7 7 7 7 r % $.KX_.|. X3X X3X X3X|.3X4X X3X|.3X+X|.3X|.|.3X3X3X|.3X|.|.3X|.3X|._.4X].+ r > = 7 8 7 J t 7 8 7 7 7 7 7 7 7 7 7 7 7 7 7 7 7 7 7 7 7 7 7 7 7 7 r > j.J . 4.L f.J $Xk.I n.x.u r r r r 7 7 7 7 7 7 7 7 7 7 7 7 7 7 7 7 7 7 7 7 7 7 7 7 7 7 7 7 r J 8 7 7 * * 8 7 7 7 7 7 r *  .J u L 8 7 8 7 7 7 8 > = 5 8 7 8 8 7 t 7 A F y G y 8 7 7 * * 7 7 t J 7 7 n.3.r n.n.f k.r P  .j.k.k.P 3.f n.4.5 7 f u 7 J t 7 5 3.j.3.4.u 1.4.g.8 k.t > k.J f.3.1Xn. .3. .k.1X8 7 J r 7 7 7 7 7 7 7 7 7 7 7 7 7 7 7 7 7 7 7 7 7 7 ",
"7 7 7 7 7 7 7 7 r % $.KX_. X3X3X X3X|.3X+X3X+X3X3X3X X3X3X+X|.3X3X3X X_.3X3X+X3X X3X|._.4X].+ r > = 7 8 7 J t 7 8 7 7 7 7 7 7 7 7 7 7 7 7 7 7 7 7 7 7 7 7 7 7 7 7 r > g.V.1.n.3.4.t 3.n.K O.L k.3.1.O.4.8 7 7 7 7 7 7 7 7 7 7 7 7 7 7 7 7 7 7 7 7 7 7 7 7 7 7 7 r J 8 7 7 * * 8 7 7 7 7 8 7 t Z.6.$Xb.B.7 8 8 7 7 8 > = 5 8 7 7 5 Y [.5 Y [.$.$.[.7 8 7 * * 7 7 t J 7 r 4.5 t 3.I 3.x.1.u J 3.k.O.P f.x.J 4.s 5 f u 7 J t 7 P f.4.k.g.n.4.f n.I  .x.L 4.7 3.k.J  .n.f. .s 1Xr 7 J r 7 7 7 7 7 7 7 7 7 7 7 7 7 7 7 7 7 7 7 7 7 7 ",
"7 7 7 7 7 7 7 7 r % $.KX_.|. X|.|.|.|.|.|.|.|.|.|. X|.|.|.|.|. X|.|.|.|.|. X|.|.|.|.|._.HX].+ r > = 7 8 7 J t 7 8 8 8 8 8 8 8 8 8 8 8 8 8 8 8 8 8 8 8 8 8 8 8 8 8 8 7 r s u t t 8 8 7 8 8 r 7 r r r r r 8 8 8 8 8 8 8 8 8 8 8 8 8 8 8 8 8 8 8 8 8 8 8 8 8 8 8 7 r J 8 7 7 * * 8 7 7 7 8 > 6.A.&X6.Z.1.A.7 8 8 7 7 8 > = 5 8 7 y y $.$.5 5 $.r A T 5 e 7 * * 7 7 t J 7 8 r r 8 r 8 r t u 7 7 r 7 8 r t t 7 8 r 7 f u 7 J t 7 t u 7 t r s 8 7 u u 7 u t 8 8 r r 7 7 t t r 7 8 8 8 J r 7 7 7 7 7 7 7 7 7 7 7 7 7 7 7 7 7 7 7 7 7 7 ",
"7 7 7 7 7 7 7 7 r % $.KX'._._._._._._._._._._._._._._._._._._._._._._._._._._._._._._.'.4X].+ r > = 7 8 7 J t 7 7 7 7 7 7 7 7 7 7 7 7 7 7 7 7 7 7 7 7 7 7 7 7 7 7 7 7 7 5 7 7 7 7 7 7 7 7 7 7 7 7 7 7 7 7 7 7 7 7 7 7 7 7 7 7 7 7 7 7 7 7 7 7 7 7 7 7 7 7 7 7 7 8 J 8 7 7 * * 8 7 7 7 r > Z.u j.4.$Xb.B.8 7 8 7 7 8 > = 5 r 7 G $.[.oXy G $.5 [.F 7 8 7 * * 7 7 t J 7 7 7 7 7 7 7 7 7 5 7 7 7 7 7 7 7 7 7 7 7 5 f u 7 f t 7 7 5 7 7 7 5 7 7 5 5 7 5 7 7 7 7 7 7 7 7 7 7 7 7 7 7 J r 7 7 7 7 7 7 7 7 7 7 7 7 7 7 7 7 7 7 7 7 7 7 ",
"7 7 7 7 7 7 7 7 r % $.LX4XKXKXKXKXKXKXKXKXKXKXKXKXKXKXKXKXKXKXKXKXKXKXKXKXKXKXKXKXKXKX4XLX].+ r > = 7 8 7 J u r t t t t t t t t t t t t t t t t t t t t t t t t t t t t t t t t t t t t t t t t t t t t t t t t t t t t t t t t t t t t t t t t t t t t t t t r t J 8 7 7 * * 8 7 7 7 r > x.c.%X5.$XP %Xu 7 8 7 7 8 > = 5 8 8 5 7 y Y y G y 8 G 7 7 8 7 * * 7 7 r K f f f f f f f f f f f f f f f f f f f f f f K u 7 J J f f f f f f f f f f f f f f f f f f f f f f f f f f f K r 7 8 7 7 7 7 7 7 7 7 7 7 7 7 7 7 7 7 7 7 7 7 ",
"7 7 7 7 7 7 7 7 8 7 F $.].].].].].].].].].].].].].].].].].].].].].].].].].].].].].].].$.$.H 5 r > * 7 8 7 f J J J J J J J J J J J J J J J J J J J J J J J J J J J J J J J J J J J J J J J J J J J J J J J J J J J J J J J J J J J J J J J J J J J J J J J J J J J f 8 7 7 * * 7 7 7 7 7 7 r f.5.u 5.v.K 5 8 7 7 7 8 > = 5 8 7 8 8 7 5 7 7 7 7 5 7 7 7 7 * * 7 7 8 u u u u u u u u u u u u u u u u u u u u u u u u r 7 t u u u u u u u u u u u u u u u u u u u u u u u u u u u u u 8 7 7 7 7 7 7 7 7 7 7 7 7 7 7 7 7 7 7 7 7 7 7 ",
"8 8 8 8 8 8 8 8 8 r 7 5 % + + + + + + + + + + + + + + + + + + + + + + + + + + + + + + % + 7 r r > = 7 r 8 8 8 8 8 8 8 8 8 8 8 8 8 8 8 8 8 8 8 8 8 8 8 8 8 8 8 8 8 8 8 8 8 8 8 8 8 8 8 8 8 8 8 8 8 8 8 8 8 8 8 8 8 8 8 8 8 8 8 8 8 8 8 8 8 8 8 8 8 8 8 8 8 8 8 8 8 8 8 8 7 * * 8 8 8 8 8 8 7 > > 7 > * 7 r 8 8 8 8 r > = 7 r 8 8 8 8 r 8 r r 8 r 8 8 8 7 * * 8 8 8 7 7 7 7 7 7 7 7 7 7 7 7 7 7 7 7 7 7 7 7 7 7 7 7 8 8 7 7 7 7 7 7 7 7 7 7 7 7 7 7 7 7 7 7 7 7 7 7 7 7 7 7 7 7 7 7 8 8 8 8 8 8 8 8 8 8 8 8 8 8 8 8 8 8 8 8 8 8 8 ",
"> > > > > > > > > > > , , , , , , , , , , , , , , , , , , , , , , , , , , , , , , , , , , > > > * * * > > > > > > > > > > > > > > > > > > > > > > > > > > > > > > > > > > > > > > > > > > > > > > > > > > > > > > > > > > > > > > > > > > > > > > > > > > > > > > > > > * * * > > > > > > > 5 5 > 5 5 > > > > > > > * * * > > > > > > > > > > > > > > > * * > > > > > > > > > > > > > > > > > > > > > > > > > > > > > > > > > > > > > > > > > > > > > > > > > > > > > > > > > > > > > > > > > > > > > > > > > > > > > > > > > > ",
"X X X X X X X X X X X X X X X X X X X X X X X X X X X X X X X X X X X X X X X X X X X X X X X X = = X X X X X X X X X X X X X X X X X X X X X X X X X X X X X X X X X X X X X X X X X X X X X X X X X X X X X X X X X X X X X X X X X X X X X X X X X X X X X X X X X X X = = X X X X X X X X X X X X X X X X X X X * * = X X X X X X X X X X X X X X X = = X X X X X X X X X X X X X X X X X X X X X X X X X X X X X X X X X X X X X X X X X X X X X X X X X X X X X X X X X X X X X X X X X X X X X X X X X X X X X X X X X X ",
"f f f f f f f f f f f f f f f f f f f f f f f f f f f f f f f f f f f f f f f f f f f f f f f f s s s f f f f f f f f f f f f f f f f f f f f f f f f f f f f f f f f f f f f f f f f f f f f f f f f f f f f f f f f f f f f f f f f f f f f f f f f f f f f f f f f f s s s f f f f f f f f f f f f f f f f f s f 7 X t f s f f f f f f f f f f f f s s s f f f f f f f f f f f f f f f f f f f f f f f f f f f f f f f f f f f f f f f f f f f f f f f f f f f f f f f f f f f f f f f f f f f f f f f f f f f f f f f f f f ",
"L L L L L L L L L L L L L L L L L L L L L L L L L L L L L L L L L L L L L L L L L L L L L L L L L L L L L L L L L L L L L L L L L L L L L L L L L L L L L L L L L L L L L L L L L L L L L L L L L L L L L L L L L L L L L L L L L L L L L L L L L L L L L L L L L L L L L L L L L L L L L L L L L L L L L L L L L P r . s P L L L L L L L L L L L L L L L L L L L L L L L L L L L L L L L L L L L L L L L L L L L L L L L L L L L L L L L L L L L L L L L L L L L L L L L L L L L L L L L L L L L L L L L L L L L L L L L L L L ",
"K K K K K K K K K K K K K K K K K K K K K K K K K K K K K K K K K K K K K K K K K K K K K K K K K K K K K K K K K K K K K K K K K K K K K K K K K K K K K K K K K K K K K K K K K K K K K K K K K K K K K K K K K K K K K K K K K K K K K K K K K K K K K K K K K K K K K K K K K K K K K K K K K K K K K K K K K L e . u L K J L f J K K K K K K K K K K K K K K K K K K K K K K K K K K K K K K K K K K K K K K K K K K K K K K K K K K K K K K K K K K K K K K K K K K K K K K K K K K K K K K K K K K K K K K K K K K K K K ",
"K K K K K K K K K K K K K K K K K K K K K K K K K K K K K K K K K K K K K K K K K K K K K K K K K K K K K K K K K K K K K K K K K K K K K K K K K K K K K K K K K K K K K K K K K K K K K K K K K K K K K K K K K K K K K K K K K K K K K K K K K K K K K K K K K K K K K K K K K K K K K K K K K K K K K K K K K L r . s L f $X%X$XL J L J K L f K L J P K K L J J L K K K K K K K K K K K K K K K K K K K K K K K K K K K K K K K K K K K K K K K K K K K K K K K K K K K K K K K K K K K K K K K K K K K K K K K K K K K K K ",
"K K K K K K K K K K K K K K K K K K K K K K K K K K K K K K K K K K K K K K K K K K K K K K K K K K K K K K K K K K K K K K K K K K K K K K K K K K K K K K K K K K K K K K K K K K K K K K K K K K K K K K K K K K K K K K K K K K K K K K K K K K K K K K K K K K K K K K K K K K K K K K K K K K K K K K K K K L r . s L J %XK V.b.x.$X6.b.$Xj.$Xv.B.$X4.V.Z.f.*Xj.J K K K K K K K K K K K K K K K K K K K K K K K K K K K K K K K K K K K K K K K K K K K K K K K K K K K K K K K K K K K K K K K K K K K K K K K K K K K K ",
"K K K K K K K K K K K K K K K K K K K K K K K K K K K K K K K K K K K K K K K K K K K K K K K K K K K K K K K K K K K K K K K K K K K K K K K K K K K K K K K K K K K K K K K K K K K K K K K K K K K K K K K K K K K K K K K K K K K K K K K K K K K K K K K K K K K K K K K K K K K K K K K K K K K K K K K K K L r . s L J $XK 1.*X&X$X&X*X$X*X$X6.Z.b.c.&X$X*X$Xf L K K K K K K K K K K K K K K K K K K K K K K K K K K K K K K K K K K K K K K K K K K K K K K K K K K K K K K K K K K K K K K K K K K K K K K K K K K K K ",
"K K K K K K K K K K K K K K K K K K K K K K K K K K K K K K K K K K K K K K K K K K K K K K K K K K K K K K K K K K K K K K K K K K K K K K K K K K K K K K K K K K K K K K K K K K K K K K K K K K K K K K K K K K K K K K K K K K K K K K K K K K K K K K K K K K K K K K K K K K K K K K K K K K K K K K K K K L r . s L J *X1.$XV.*Xx.l.&Xx.1.4.&X1.Z.&X%X5.b.V.f L K K K K K K K K K K K K K K K K K K K K K K K K K K K K K K K K K K K K K K K K K K K K K K K K K K K K K K K K K K K K K K K K K K K K K K K K K K K K ",
"K K K K K K K K K K K K K K K K K K K K K K K K K K K K K K K K K K K K K K K K K K K K K K K K K K K K K K K K K K K K K K K K K K K K K K K K K K K K K K K K K K K K K K K K K K K K K K K K K K K K K K K K K K K K K K K K K K K K K K K K K K K K K K K K K K K K K K K K K K K K K K K K K K K K K K K K K L r . u L f V.%Xb.f j.$X1.j.Z.5.Z.v.c.$X1.c.B.f.j.f L K K K K K K K K K K K K K K K K K K K K K K K K K K K K K K K K K K K K K K K K K K K K K K K K K K K K K K K K K K K K K K K K K K K K K K K K K K K K ",
"K K K K K K K K K K K K K K K K K K K K K K K K K K K K K K K K K K K K K K K K K K K K K K K K K K K K K K K K K K K K K K K K K K K K K K K K K K K K K K K K K K K K K K K K K K K K K K K K K K K K K K K K K K K K K K K K K K K K K K K K K K K K K K K K K K K K K K K K K K K K K K K K K K K K K K K K K L r . s L K f f f K J f K J f J f f J f J f J J J K K K K K K K K K K K K K K K K K K K K K K K K K K K K K K K K K K K K K K K K K K K K K K K K K K K K K K K K K K K K K K K K K K K K K K K K K K K K K K ",
"K K K K K K K K K K K K K K K K K K K K K K K K K K K K K K K K K K K K K K K K K K K K K K K K K K K K K K K K K K K K K K K K K K K K K K K K K K K K K K K K K K K K K K K K K K K K K K K K K K K K K K K K K K K K K K K K K K K K K K K K K K K K K K K K K K K K K K K K K K K K K K K K K K K K K K K K K L e . u L K K L K K K K K K K K K K K K K K K K K K K K K K K K K K K K K K K K K K K K K K K K K K K K K K K K K K K K K K K K K K K K K K K K K K K K K K K K K K K K K K K K K K K K K K K K K K K K K K K ",
"e e e e e e e e r r 7 * > , , , , , , , , , , , , , , , , , , , , , , , , , , , , , , , , , , , , , , , , , , , , , , , , , , , , , , , , , , , , , , , , , , , , , , , , , , , , , , , * * 7 r r r r r r r r r r r r r r r r r r r r r r r r r r r r r r r r r r r r r r r r r r r r r r r r r r r r r r r r r r r 5 = 7 r r r r r r r r r r r r r r r r r r r r r r r r r r r r r r r r r r r r r r r r r r r r r r r r r r r r r r r r r r r r r r r r r r r r r r r r r r r r r r r r r r r r r r r r r r r r r r r r r r r ",
"h h h h h h h 6 7 8 5 = * * * * * * * * * * * * * * * * * * * * * * * * * * * * * * * * * * * * * * * * * * * * * * * * * * * * * * * * * * * * * * * * * * * * * * * * * * * * * * * * * = 7 8 7 7 7 7 7 7 7 7 7 7 7 7 7 7 7 7 7 7 7 7 7 7 7 7 7 7 7 7 7 7 7 7 7 7 7 7 7 7 7 7 7 7 7 7 7 7 7 7 7 7 7 7 7 7 7 7 7 8 > = 5 8 7 7 7 7 7 7 7 7 7 7 7 7 7 7 7 7 7 7 7 7 7 7 7 7 7 7 7 7 7 7 7 7 7 7 7 7 7 7 7 7 7 7 7 7 7 7 7 7 7 7 7 7 7 7 7 7 7 7 7 7 7 7 7 7 7 7 7 7 7 7 7 7 7 7 7 7 7 7 7 7 7 7 7 7 7 7 7 7 7 7 7 7 7 7 7 7 7 7 ",
"^.^.^.^.^.^.^.m , 8 7 * * > * 7 t t t t t t t t t t t t t t t t t t t t t t t t t t t t t t t t t t t t t t t t t t t t t t t t t t t t t t t t t t t t t t t t t t t t t t t t t 7 * > * * 7 8 7 8 7 7 8 8 8 8 8 8 7 8 7 * * * * * * * * * * * * * * * * * * * * * * * * * * * * * * * * * * 5 * * * * * * * 5 8 8 > = 5 8 7 7 7 7 r r 8 7 8 7 8 8 7 7 8 7 7 7 7 7 7 7 7 7 7 7 7 8 7 8 8 8 8 7 7 7 7 7 7 7 7 7 7 7 7 7 7 7 7 7 7 7 7 7 7 r r r 7 7 8 7 7 7 7 7 7 7 8 7 7 8 7 7 7 7 7 7 7 7 7 7 7 7 7 8 r 7 8 8 8 8 7 7 7 7 8 7 ",
"b b b b b b m UX, 8 7 * * * * 7 r * > > > > > > > > > > > > > > > > > > > > > > > > > > > > * * > * * * * * * * > * * > > > > > > > > > > > > > > > > > > > > > > > > > > > > * r 7 * * * * 7 8 7 7 7 8 5 5 8 7 > 5 7 8 7 * * * * * * * * * * * X * * * * * * * * * * * * * * * * * * * * * * 5 * * * X * * * 5 8 8 > = 5 8 7 7 7 8 > * 5 8 r r 7 7 s r 8 r 8 7 7 7 7 7 7 7 7 7 7 7 8 5 7 5 5 r r 8 8 r 8 8 r 8 7 7 7 7 7 7 7 7 7 7 7 7 7 > * > t r 8 8 r 8 8 r 8 r 8 t t 8 8 7 7 7 7 7 7 7 7 7 7 7 8 7 > 8 7 8 7 8 8 r 8 r 8 t ",
"b b b b b b m m , 8 7 * * * * 7 e * * * * * * * * * * * * * * * * * * * * * * * * * * * * * , r * e 7 > , > , , * r > * * * * * * * * * * * * * * * * * * * * * * * * * * * * * e 7 * * * * 7 8 7 u 8 7 f P 7 t P K 7 8 7 * = o   * * o * * * * 7 . o   * *   * * * * * * = * * * * * * * * * 5 * * X r * * * 5 8 8 > = 5 8 7 7 8 7 c.A. .5 5 > s 7 f t > > 7 8 7 7 7 7 7 7 7 7 7 8 5 1.f  . .* > 7 7 > 7 7 > 7 8 7 7 7 7 7 7 7 7 7 8 7 8 c.$Xx.A.t * 7 * 7 7 > 7 5 . l.1.  8 8 7 7 7 7 7 7 7 7 7 8 5 P f.> f 5 f 7 5 > 7 7   b.",
"b b b b b b m m , 8 7 * * * * 7 e * * * * * * * * * * * * * * * * * * * * * * * * * * * > * y O.s U r J A y I r , I J * > * * * * * * * * * * * * * * * * * * * * * * * * * * * r 7 * * * * 7 8 8 A.r r %XB.x.x.$X1.8 7 7 = 7 v.j.= 5 l.* *   * b.f A.l.5 7  .O   = X o * 8 . * * * * * * * * 5 * . J SXP   * 5 8 8 > = 5 8 7 7 7 8 $XK %Xf b.1.$X$X1.u j.V.u 7 8 7 7 7 7 7 7 7 7 r * x.b.B.f c.Z.J f B.L J B.L 5 8 7 7 7 7 7 7 7 7 7 7 7 s %Xf Z.$X5.s B. .L B.J j.l.c.%Xc.t 7 8 7 7 7 7 7 7 7 7 r > v.%Xt SXc.SX5. .B.u 5.c.B.",
"b b b b b b m m , 8 7 * * * * 7 e * * * * * * * * * * * * * * * * * * * * * * * * * * * * * y I J I r U I I 3.= * e u * * * * * * * * * * * * * * * * * * * * * * * * * * * * * r 7 * * * * 7 8 8 $Xt t $X5.B.x.x.t 7 8 7 = e t B.f 1.PX*   1.Z.B.5.1.j.1. .6.1.B.5 s b.b.&Xt X * * * * * * * 5 * X n.&XV.* = 5 8 8 > = 5 8 7 7 8 7 %X*Xj.7 l.$XZ. .b.x.c.6.B.* r 7 7 7 7 7 7 7 7 r * 5.PXP t *X1.B.Z.Z.%X%XB.%X7 8 7 7 7 7 7 7 7 7 7 8 7 7 Z.7 A.6.B.j.%X8 %XB.%X%XP x.x.v.6.> 8 7 7 7 7 7 7 7 8 7 t $X$X .A.J $Xu J A.Z.Z.r b.",
"b b b b b b m m , 8 7 * * * * 7 e * * * * * * * * * * * * * * * * * * * * * * * * * * * > * A U 5 U J I I I U r , O.e * * * * * * * * * * * * * * * * * * * * * * * * * * * * * r 7 * * * * 7 8 r Z.> 7 &Xc.7 c.%X1.7 8 7 *   * b.P 5.c.* 7 Z.K B.1.%X$Xu j.1.x.L v.b.s P b.  * * * * * * * * 5 * * t 7 t > = 5 8 8 > = 5 8 7 7 7 r A.x.x.l.A.$XZ.K x.b.j.f Z.* r 7 7 7 7 7 7 7 7 r * x.B.Z.P b.t Z.$Xb.6.&Xc.6.7 7 7 7 7 7 7 7 7 7 7 8 7 8 $Xr A.t v.c.l.> &Xx.1.f Z.$XK 5.5.* r 7 7 7 7 7 7 7 8 > 6.%XZ.v.Z.t A.f A.A.%XB.o B.",
"b b b b b b m m , 8 7 * * * * 7 e * * * * * * * * * * * * * * * * * * * * * * * * * * * * * 7 , * u A > , t 7 e 7 J r * * * * * * * * * * * * * * * * * * * * * * * * * * * * * r 7 * * * * 7 8 7 &X5.P A.> * B.P X r 8 7 * * b.u f.$XPXJ 8 B.7 B.5.1.P $X5.L l.e V.B.* J c.O * * * * * * * * 5 * . n.PX$X* * 5 8 8 > = 5 8 7 7 7 8 b.r b.v.Z.c.5.B.c.K b.$XL 5 8 7 7 7 7 7 7 7 7 r * j.L 6.v.j.s x.P A. .1.Z.1.7 8 7 7 7 7 7 7 7 7 7 8 7 8 b.r c.u j.5.j.* 5.B.1.x.B.b.K 6.1.> 8 7 7 7 7 7 7 7 8 5 x.f * c.B.j.c.b.B.Z.4.b.B.c.",
"b b b b b b m m , 8 7 * * * * 7 e * * * * * * * * * * * * * * * * * * * * * * * * * * * * * * * * * * * * * * * * = * * * * * * * * * * * * * * * * * * * * * * * * * * * * * * r 7 * * * * 7 8 7 6.v.P L r 7 K f 7 8 8 8   P &Xv.f * b.7   j.A.l.P %Xv.x.L . c.A.t P $XP Z.s . * * * * * * * 5 * X 7 *Xu . * 5 8 8 > = 5 8 7 7 7 7 7 7 7 7 t 7 7 r 7 7 7 r 7 8 7 7 7 7 7 7 7 7 7 7 8 7 7 7 7 7 7 7 7 t t 5 t t 7 7 7 7 7 7 7 7 7 7 7 7 7 7 7 7 7 7 7 7 7 8 7 u r t r 5 7 7 7 8 7 7 7 7 7 7 7 7 7 8 7 7 8 7 7 r 7 8 7 r 5 7 t 7 ",
"b b b b b n m m , 8 7 * * * * 7 e * * * * * * * * * * * * * * * * * * * * * * * * * * * * * * * * * * * * * * * * * * * * * * * * * * * * * * * * * * * * * * * * * * * * * * * e 7 * * * * 7 8 8 > * 5 5 7 8 5 7 8 7 8 7 * * * 5 * X . * * X * X = * * . * * X * X X * * * * * * * * * * * * 5 * * = * * * * 5 8 8 > = 5 8 7 7 7 7 8 8 8 8 7 8 8 7 7 8 7 7 8 7 7 7 7 7 7 7 7 7 7 7 7 8 8 8 7 8 7 8 8 7 7 8 7 7 7 7 7 7 7 7 7 7 7 7 7 7 7 7 8 7 8 7 8 8 8 7 8 7 7 7 7 8 7 8 8 7 7 7 7 7 7 7 7 7 7 7 7 8 8 8 8 7 8 7 7 7 8 8 7 7 ",
"m m m m m m m ^., 8 7 * * * * 7 r 5 5 5 5 5 5 5 5 5 5 5 5 5 5 5 5 5 5 5 5 5 5 5 5 5 5 5 5 5 5 5 5 5 5 5 5 5 5 5 5 5 5 5 5 5 5 5 5 5 5 5 5 5 5 5 5 5 5 5 5 5 5 5 5 5 5 5 5 5 5 5 t 7 * * * * 7 8 7 r r 8 8 7 7 8 8 7 7 8 7 * * * = * * * * * * * * * * * * * * * * * * * * * * * * * * * * * * 5 * * * * * * = 5 8 8 > = 5 8 7 7 7 7 7 7 7 7 7 7 7 7 7 7 7 7 7 7 7 7 7 7 7 7 7 7 7 7 7 7 7 7 7 7 7 7 7 7 7 7 7 7 7 7 7 7 7 7 7 7 7 7 7 7 7 7 7 7 7 7 7 7 7 7 7 7 7 7 7 7 7 7 7 7 7 7 7 7 7 7 7 7 7 7 7 7 7 7 7 7 7 7 7 7 7 7 7 7 ",
"m m m m m m ^.V e 8 7 * * * * 5 t r r r r r r r r r r r r r r r r r r r r r r r r r r r r r r r r r r r r r r r r r r r r r r r r r r r r r r r r r r r r r r r r r r r r r r r t 5 * * * * 7 8 7 7 7 7 7 7 7 7 7 7 7 8 7 * * * * * * * * * * * * * * * * * * * * * * * * * * * * * * * * * * 5 * * * * * * * 5 8 8 > = 5 8 7 7 7 7 7 7 7 7 7 7 7 7 7 7 7 7 7 7 7 7 7 7 7 7 7 7 7 7 7 7 7 7 7 7 7 7 7 7 7 7 7 7 7 7 7 7 7 7 7 7 7 7 7 7 7 7 7 7 7 8 r r e e e e r r 8 7 7 7 7 7 7 7 7 7 7 7 7 7 7 7 7 7 7 7 7 7 7 7 7 7 7 7 7 7 ",
", , , , , , , e 7 8 7 * * * * * * * * * * * * * * * * * * * * * * * * * * * * * * * * * * * * * * * * * * * * * * * * * * * * * * * * * * * * * * * * * * * * * * * * * * * * * * * * * * * 7 8 7 7 7 7 7 7 7 7 7 7 7 7 7 8 8 8 8 8 8 8 8 8 8 8 8 8 8 8 8 8 8 8 8 8 8 8 8 8 8 8 8 8 8 8 8 8 8 8 8 8 8 8 8 8 8 8 7 8 > = 5 8 7 7 7 7 7 7 7 7 7 7 7 7 7 7 7 7 7 7 7 7 7 7 7 7 7 7 7 7 7 7 7 7 7 7 7 7 7 7 7 7 7 7 7 7 7 7 7 7 7 7 7 7 7 7 7 7 7 8 r 7 , , , , , , > , 8 r 7 7 7 7 7 7 7 7 7 7 7 7 7 7 7 7 7 7 7 7 7 7 7 7 7 7 7 7 ",
"8 8 8 8 8 8 8 8 7 8 7 * * * * * * * * * * * * * * * * * * * * * * * * * * * * * * * * * * * * * * * * > * > * * * * * * * * * * * * * * * * * * * > * * * * * * * * * * * * * * * * * * * * 7 8 7 7 7 7 7 7 7 8 7 7 7 8 7 7 7 7 7 7 7 7 7 7 7 7 7 7 7 7 7 7 7 7 7 7 7 7 7 7 7 7 7 7 8 7 7 8 7 7 7 7 7 7 7 7 7 7 7 8 > = 5 8 7 7 7 7 7 7 7 7 7 7 7 7 7 7 7 7 7 7 7 7 7 7 7 7 7 7 7 7 7 7 7 7 7 7 7 7 7 7 7 7 7 7 7 7 7 7 7 7 7 7 7 7 7 7 7 7 e 7 > t ' ).dXsXdXdX{ ( 7 > 8 8 7 7 7 7 7 7 7 7 7 7 7 7 7 7 7 7 7 7 7 7 7 7 7 7 7 7 ",
"7 7 8 7 7 7 7 7 7 8 7 * * * * * * * * * * 5 5 * * * * * > * * * * * * * * * * * * * * * * * * * * * * * 5 * * * * * * * * * * * * * * * * * * * * * * 5 * * * 5 t * * * * * * * * * * * * * 7 8 7 7 7 7 7 7 8 7 7 t r 7 7 8 7 8 8 7 8 7 7 7 7 7 7 7 7 7 7 7 7 7 7 7 7 7 7 7 7 7 7 8 5 r 8 5 8 7 7 7 7 7 7 7 7 7 7 8 > = 5 8 7 7 7 7 7 7 7 7 8 r r 8 8 7 7 7 7 7 7 7 7 7 7 7 7 7 7 7 7 7 7 7 7 8 r r r 8 7 7 7 7 7 7 7 7 7 7 7 7 7 7 7 7 7 r , u { kXvXvXvXvXvXvXvXxXdX' 7 7 8 7 7 7 7 7 7 7 7 7 7 7 7 7 7 7 7 8 8 8 8 8 8 7 7 7 ",
"7 r 7 8 7 7 7 7 7 8 7 * * * * * * * , X 1.k.I * , * , , * , * * * * * * * * * * * * * * * * * * * * , 4.f.O.* * * * * * * * * * * * * * * * * > * s f.4.r > 5 * e * , * * * * * * * * * * * 7 8 7 7 7 7 7 8 7 t %XB.K > t 7 t 7 7 t 7 7 7 7 7 7 7 7 7 7 7 7 7 7 7 7 7 7 7 7 7 7 8 5 1.$XA.L 5 8 7 7 7 7 7 7 7 7 7 8 > = 5 8 7 7 7 7 7 7 8 8 7 5 5 7 7 8 8 7 7 7 7 7 7 7 7 7 7 7 7 7 7 7 7 8 8 7 5 5 5 7 8 8 7 7 7 7 7 7 7 7 7 7 7 7 7 7 r > ( gXvXxXdX{ ( D D ( { pXvXxXdXp 7 e 7 7 7 7 7 7 7 7 7 7 7 7 7 8 8 7 , , , , 7 8 8 7 ",
"$X$X .5 8 7 7 7 7 8 7 * * * * * * * , . 4.J . 4.4.t 4.3.u f.x.f = > * * * * * * * * * * * * * * > X P 3.o f.J = > * * * * * * * * * * * * * * * * x.r , * J f.J P P k.5.5 * * * * * * * * * 7 8 7 7 7 7 7 8 7 f $X7 f *X1.1.$X1.5.$X$X7 7 7 7 7 7 7 7 7 7 7 7 7 7 7 7 7 7 7 7 8 7 8 %Xt K $X5 8 7 7 7 7 7 7 7 7 7 8 > = 5 8 7 7 7 7 8 8 5 7 H +.X.H r 7 7 8 8 7 7 7 7 7 7 7 7 7 7 7 7 8 8 5 7 H o.X.o.d 5 5 8 7 7 7 7 7 7 7 7 7 7 7 7 r > _ zXvXdX( .   . . .     * _ kXvXiXe 7 8 7 7 7 7 7 7 7 7 7 7 7 8 7 , t k ^ ^ ~ t , 7 8 ",
"v.K B.* r 7 7 7 7 8 7 * * * * * * * , . 4.n.s k.7 P k.f.n.t P P . > * * * * * * * * * * * * * * > X 3.J O P P . > * * * * * * * * * * * * * * * e f.X j.P t j.f.O.4.u 1.s = * * * * * * * * 7 8 7 7 7 7 7 8 7 u &Xb.4.$X* &XB.&X$X8 %Xr 7 7 7 7 7 7 7 7 7 7 7 7 7 7 7 7 7 7 7 8 7 f $X* 8 %X7 7 7 7 7 7 7 7 7 7 7 8 > = 5 8 7 7 7 8 7 5 +.}.MXZXNX*.@.o.F 7 7 8 7 7 7 7 7 7 7 7 7 7 8 7 7 +.}.MXZXZXZXmX}.+.7 7 8 7 7 7 7 7 7 7 7 7 r , ( zXxX).X . * * * * * * * * O i iXiX{ i 7 8 7 7 7 7 7 7 7 7 7 8 , 8 ) W.W.jXjXjXW.Y.a , ",
"x.K Z.* r 7 7 7 7 8 7 * * * * * * * , . 5.u   k.> K x.u 3.P 3.I X > * * * * * * * * * * * * * * > = J f., f.u * > * * * * * * * * * * * * * * * * k.s K k.f.f.j.1.3.r 3.s = > * * * * * * * 7 8 7 7 7 7 7 8 7 f $X  P V.X %Xc.P $XP %X8 7 7 7 7 7 7 7 7 7 7 7 7 7 7 7 7 7 7 7 7 8 7 $X .1.B.> 8 7 7 7 7 7 7 7 7 7 8 > = 5 8 7 7 8 7 7 &.NXZXBX}.@.+.@.@.@.o.e 7 8 7 7 7 7 7 7 7 7 8 7 r *.NXZXAX}.&.*.AXZX}.+.8 7 8 7 7 7 7 7 7 7 8 7 u gXvX).  * * * * * * * * *   f. .  { iX_ 7 8 7 7 7 7 7 7 7 7 8 , a W.jXjXW.Y.Y.T.W.jXW.^ ",
" .s 6.5 8 7 7 7 7 8 7 * * * * * * * > * J r * I 5 * P  .e  .x.K X > * * * * * * * * * * * * * * * * * K n.j.= > * * * * * * * * * * * * * * * * * r 4.4.s P  .J J J 7 J r * * * * * * * * * 7 8 7 7 7 7 7 8 7 u 5.5 f 6.* K B. . .B.*X8 7 7 7 7 7 7 7 7 7 7 7 7 7 7 7 7 7 7 7 7 8 7 f B.PXK 5 8 7 7 7 7 7 7 7 7 7 8 > = 5 8 7 8 7 7 }.ZXBXX., X X * * 4 @.@.o.7 7 8 7 7 7 7 7 7 8 7 8 }.ZXBXX., X o X . +.@.@.o.7 7 7 7 7 7 7 7 7 r > ).vXdX. * * * * * * * * * o P IX&X  i ).).D 7 8 7 7 7 7 7 7 8 7 a W.jXT.k * . . X 9 ) W.jX",
"5 7 5 8 7 7 7 7 7 8 7 * * * * * * * * * * * > * * * = * * o I I X > * * * * * * * * * * * * * * * * * X , P , * * * * * * * * * * * * * * * * * * * X X * = = * * * * * * * * * * * * * * * 7 8 7 7 7 7 7 7 8 7 5 8 7 5 r 7 > 7 5 * Z.t 7 7 7 7 7 7 7 7 7 7 7 7 7 7 7 7 7 7 7 7 7 8 7 * 1. .5 8 7 7 7 7 7 7 7 7 7 8 > = 5 8 7 r - X.ZXAXF o X 5 PXn.o * , o.@.+.7 8 7 7 7 7 7 7 r - &.ZXAX4 o * * * * j.i , @.@.H 7 8 7 7 7 7 7 8 7 p kXzXD . * * * * * * * *   J IXPX* * . } iX_ 7 8 7 7 7 7 7 8 7 7 W.jXY.-   * * * * =   ^ W.",
"8 8 8 7 7 7 7 7 7 8 7 * * * * * * * * * > * * , > > , , > > 5 , * * * * * * * * * * * * * * * * * * > , > * * * * * * * * * * * * * * * * * * * * * > , > , , , , > * > * * * * * * * * * * 7 8 7 7 7 7 7 7 7 8 r 7 8 r r r r r r r t 8 7 7 7 7 7 7 7 7 7 7 7 7 7 7 7 7 7 7 7 7 8 e r t 7 7 e 7 7 7 7 7 7 7 7 7 7 8 > = 5 8 8 7 y AXNX+.o > = 7 IXV.O > X < @.@.y 7 8 7 7 7 7 8 7 d BXMXF o * * * o 1.IXx.o 1 @.@.r 7 8 7 7 7 7 r > _ vXdX. * * * * * * * *   r IXIX7 . * = ; ).).i 7 8 7 7 7 7 8 , ^ jXW.* = * * * * * * *   ) ",
"8 7 7 7 7 7 7 7 7 8 7 * * * * * * * * * * > * * * = = * * > * * * * * * * * * * * * * * * * * * > * * = = * * * > * * * * * * * * * * * * * * * * * > * * * = = * * > * * * * * * * * * * * 7 8 7 7 7 7 7 7 7 7 8 r 7 5 5 @ 5 9 7 r 7 7 7 7 7 7 7 7 7 7 7 7 7 7 7 7 7 7 7 7 7 r 7 9 5 @ 9 9 7 r 8 7 7 7 7 7 7 7 7 8 > = 5 8 8 5 X.ZX}.X * * . t IXn.o * * X +.@.+.7 8 7 7 7 7 r 5 X.ZX*.o * * * = 7 IXPXX * X +.@.H 7 8 7 7 7 7 e , iXvX_   * * * * * * * X e IXIXt   * * * . _ iXD 7 8 7 7 7 7 8 , T.jX^   * * * * * * * * X ; ",
", 7 8 7 7 7 7 7 7 8 7 * * * * * * * * * > * * t J K K s 7 * * > * * * * * * * * * * * * * * > * * 7 s K K J r * * > * * * * * * * * * * * * * * * * * > u J K K u , * * * * * * * * * * * * 7 8 7 7 7 7 7 7 7 e 7 5 y #.'.'.'.Z 8 5 8 8 7 7 7 7 7 7 7 7 7 7 7 7 7 7 7 7 7 8 8 5 8 R #.'.'.#.y 5 7 e 7 7 7 7 7 7 7 8 > = 5 8 8 5 &.ZXX.o * * X t &X .  * * X 4 @.o.7 8 7 7 7 7 8 5 *.ZXo.  * * * o 1.IXP o * X 4 @.+.7 8 7 7 7 7 8 7 sXxXD . * * * * * * * * 5 $XP o * * * * . } iX} , 8 7 7 7 8 7 t W.W.9 = * * * * * * * * 5 . ",
"n 8 7 8 7 7 7 7 7 8 7 * * * * * * * * * * t 1.x.v.b.b.v.l.P 7 * > * * * * * * * * * * * * > * 7 P l.c.b.b.v.x.6.s * * * * * * * * * * * * * * * * * s 5.c.v.b.b.c.f.L 5 * * * * * * * * * * 7 8 7 7 7 7 7 7 e 9 r '.JXFXFXFXFXFX2X#.7 7 8 7 7 7 7 7 7 7 7 7 7 7 7 7 7 7 8 7 9 #.2XFXFXFXFXFXJX`.y 9 r 7 7 7 7 7 7 8 > = 5 8 8 5 }.ZXH   * * * * X = * * * * < @.o.7 7 7 7 7 7 8 5 }.NXd X * * * * * t * * * X 1 @.o.7 8 7 7 7 8 7 7 gXxXi . * * * * * * * * X   X * * * * * . D iX} , e 7 7 7 8 7 a W.W.* * * * * *   V.IXIXIX1 ",
"^.n 7 8 7 7 7 7 7 8 7 * * * * * * * * * L x.v.5.P f J P j.b.j.u * > * * * * * * * * * * > * t f.v.l.1.J f K 4.v.c.P * * * * * * * * * * * * * * , 1.c.c.4.L f J 1.x.b.P > * * * * * * * * * 7 8 7 7 7 7 7 e 9 F 2XFXGXOX'.#.'.OXFXFXOXr 7 8 7 7 7 7 7 7 7 7 7 7 7 7 7 8 7 8 OXFXFX2X`.#.'.OXGXFX2XZ 9 r 7 7 7 7 7 8 > = 5 8 8 5 }.ZXH   * * * * * * * * * * < @.X.7 7 7 7 7 7 8 5 }.NXd X * * * * * X * * * X 1 @.o.7 8 7 7 7 8 7 7 gXzXi . * * * * * * * * * * * * * * * * . } iX} , e 7 7 7 8 7 a W.W.* * * * * * . f.&X$X$X, ",
"b n n 8 7 7 7 7 7 8 7 * * * * * * > * P c.l.f =   o o   * P c.l.t * > * * * * * * * * > * t l.c. .,   o o o   u j.v.P * * * * * * * * * * * * * 1.v.5.t   o o   o * P J s , * * * * * * * * 7 8 7 7 7 7 8 7 F 2XFXOXZ X o o o X R 2XFXOX7 7 8 7 7 7 7 7 7 7 7 7 7 7 7 8 7 OXFXJX#.* o o o o 2 OXFXJXG 9 e 7 7 7 7 8 > = 5 8 8 5 &.ZX@.o * * * * * * * * * X 2 @.o.7 8 7 7 7 7 8 5 }.ZXX.o * * * * * * * * * X 4 @.+.7 8 7 7 7 7 8 7 dXxX( . * * * * * * * * * * * * * * * * . } iX} , 8 7 7 7 8 7 t W.W.0 . * * * * *   o o o X ",
". n n & e 7 7 7 7 8 7 * * * * * > * t c.j.r o   . . . .   o J c.5.5 * * * * * * * * * * * 4.c.L     . . . .   o 7 j.c.s * > * * * * * * * > * J v.4., o   . X   7 u o t J u * * * * * * * * 7 8 7 7 7 7 e 5 OXFXOX, o * * * * * o 1 2XFX'.9 e 7 7 7 7 7 7 7 7 7 7 7 r 5 #.FX2XC o * * * * * X X `.FX2X8 7 8 7 7 7 8 > = 5 8 8 5 o.ZX}.X * * * * * * * * * X +.@.H 7 8 7 7 7 7 r 5 X.ZX}.o * * * * * * * * * * | @.F 7 8 7 7 7 7 e , ).vX_   * * * * * * * * * * * * * * * * X _ iXD 7 8 7 7 7 7 8 , T.jX^   * * * * * * * * * - ",
"= % n n 6 e 7 7 7 8 7 * * * * * * * 6.v.f o X .         .     1.v.K * > * * * * * * > * f c.6.    .       . X = o u c.4.* * * * * * * * * * 7 f.x.e o X   .     1X*X= . s J 7 * * * * * * * 7 8 7 7 7 e 9 Z GXJX3 X * * * * * *   O C GX2Xy 7 8 7 7 7 7 7 7 7 7 7 8 7 r 2XFX#.o * * * * * * * X * 2XFX#.5 r 7 7 7 8 > = 5 8 8 7 r AXNXo.o * * * * * * * X 1 @.@.t 7 8 7 7 7 7 8 7 y BXMX+.o * * * * * * * X 4 @.@.r 7 8 7 7 7 7 r > ' vXdXX * * * * * * * * * * * * * * * X ; ).).i 7 8 7 7 7 7 8 , ^ jXW.; . * * * * * * * . k ",
". = & n & e 7 7 7 8 7 * * * * * * 7 l.f.=   .         . . . o r c.4.* * * * * * * * * * 1.v.t o X       . o O O O   5.c.u * > * * * * * > * u v.1.  .     . o g.SXI o   7 J t * * * * * * * 7 8 7 7 7 r 5 '.FX'.o * * * * *   * f.$XX #.`.Z 9 8 7 7 7 7 7 7 7 7 7 e 9 Z FX2XX * * * * * * * * * o #.FXOX9 8 8 7 7 8 > = 5 8 7 r 5 X.NXmXH X * * * * * * 1 @.@.H 7 8 7 7 7 7 7 7 r 5 X.ZXBXF X * * * * * * 1 @.@.H 7 8 7 7 7 7 7 8 7 t gXxX(   * * * * * * * * * * * * * * . } iX_ 5 8 7 7 7 7 7 7 8 7 T.jXT.; = * * * * * * k ) ",
"* = % n & e 7 7 7 8 7 * * * * > * s c.P   .           o o .   * f.j.7 * * * * * * * * , 5.l.*   .     .   7 I g.n.* f 4.u * > * * * * * > * L v.f o .   .   = *Xk.O .   * J u * * * * * * * 7 8 7 7 7 8 9 OXFXZ o * * * *   f.IXIXPX5 C `.#.9 8 7 7 7 7 7 7 7 7 7 r 5 #.FX'.o * * * * * * * * * X C GX2Xr 7 8 7 7 8 > = 5 8 7 7 8 5 &.NXNXH X * * * * , @.@.o.7 7 7 7 7 7 7 7 7 7 8 5 &.ZXMXd * * * * * 1 @.@.+.7 7 7 7 7 7 7 7 7 r > { vXsX* * * * * * * * * * * * * * . i ).).p 7 8 7 7 7 7 7 7 8 7 t W.jXT.> * * * * * k Y.) ",
"* = % n n e 7 7 7 8 7 * * * * > = J b.J o .     .   = I r o o   6.x.7 * * * * * * * * 7 l.5.X   .     X o k.SX*X$X7 * J r * * * * * * * > *  .b.t o .     .   * X   .   = f s * * * * * * * 7 8 7 7 7 7 7 2XGX2 X * * * * o j.PX1.* X 2 `.#.9 8 7 7 7 7 7 7 7 7 7 r @ '.FX#.o * * * * * X X   * * , JXJXy 7 8 7 7 8 > = 5 8 7 7 8 8 5 &.}.r 7 7 7 7 7 7 o.o.7 7 8 7 7 7 7 7 7 7 7 8 7 5 &.}.8 7 7 7 7 7 8 o.+.7 7 8 7 7 7 7 7 7 7 8 7 r sXvXiX  X * * * * * * * * * * . ; { iX_ 7 8 7 7 7 7 7 7 7 7 8 7 t W.) , 7 7 7 7 7 i ) k ",
"* = % n n e 7 7 7 8 7 * * * * > = J b.K o .     .   , &XSX$XI o 5.x.7 * * * * * * * * 5 l.f.=   .     .   5 t * o   7 K r * * * * * * * > * P v.t o .       .     .     = f s * * * * * * * 7 8 7 7 7 8 7 2XGXC X * * * * * X   o * X 4 `.#.9 8 7 7 7 7 7 7 7 7 7 r 5 '.FX#.o * * * *   f.PXf o X , JXJXy 7 8 7 7 8 > = 5 8 7 7 7 8 7 7 r 7 8 8 8 8 8 7 8 7 7 8 7 7 7 7 7 7 7 7 7 7 8 7 7 8 7 8 8 8 8 8 7 8 7 7 8 7 7 7 7 7 7 7 7 7 e , D kXvXiX; X * * * * * * * * = i { iX_ 8 7 8 7 7 7 7 7 7 7 7 7 8 7 7 7 7 8 8 8 8 7 7 8 7 ",
"* = % n & e 7 7 7 8 7 * * * * > * u c.6.  .         X e O.*XU   f.f., * * * * * * * * , 5.x.7   .       .   o   .   r J 7 * * * * * * * > * K v.L o .         . .   .   * J u * * * * * * * 7 8 7 7 7 8 9 OXFX#.o * * * * * * * * * X Z `.R 9 8 7 7 7 7 7 7 7 7 7 r 5 #.FXOXX * * * * . 1.IXIXn.o C GXOX7 7 8 7 7 8 > = 5 8 7 7 7 7 8 8 7 8 7 7 7 7 7 7 7 8 8 7 7 7 7 7 7 7 7 7 7 7 7 8 8 7 8 7 7 7 7 7 7 7 8 7 7 7 7 7 7 7 7 7 7 7 7 r , ( kXvXdX* * * * * * * * * i ).iX_ i 7 8 7 7 7 7 7 7 7 7 7 7 7 8 7 7 7 7 7 7 7 7 7 7 8 ",
"* * & n w e 7 7 7 8 7 * * * * * * 5 f.x.,   .         o O     5 L f * * * * * * * * > * P b.J o X         . . .   = f f , * * * * * * * > * r x.5.X   .             .   r J e * * * * * * * 7 8 7 7 7 r 5 #.FXOXo * * * * * * * * * * #.`.C 9 8 7 7 7 7 7 7 7 7 7 8 9 F GXJX3 X * * * * o 5 &XPXX '.FX'.5 r 7 7 7 8 > = 5 8 7 7 7 7 7 7 8 7 7 7 7 7 7 7 7 7 7 7 7 7 7 7 7 7 7 7 7 7 7 7 7 8 7 7 7 7 7 7 7 7 7 7 7 7 7 7 7 7 7 7 7 7 7 7 r , D sX{ , 7 5 > * > > 5 7 7 _ _ 7 7 8 7 7 7 7 7 7 7 7 7 7 7 7 7 8 8 7 7 7 7 7 7 7 7 7 ",
"= & n n 8 7 7 7 7 8 7 * * * * * > * P v.1.    .       . X   = f f 7 * * * * * * * * > * r x.l.7 o .         .     r J t * * * * * * * * * * * 6.v.K o   .         .   * J f 5 * * * * * * * 7 8 7 7 7 8 7 y JXFX#.o * * * * * * * o Z `.#.e 7 7 7 7 7 7 7 7 7 7 7 7 e 9 OXFX`.o * * * * * . = - 3 JXGXZ 9 e 7 7 7 8 > = 5 8 7 7 7 7 7 7 7 7 7 7 7 7 7 7 7 7 7 7 7 7 7 7 7 7 7 7 7 7 7 7 7 7 7 7 7 7 7 7 7 7 7 7 7 7 7 7 7 7 7 7 7 7 7 7 7 r , 7 8 7 8 8 8 8 8 8 8 8 7 e 7 7 8 7 7 7 7 7 7 7 7 7 7 7 7 7 7 7 7 7 7 7 7 7 7 7 7 7 ",
"& n n w e 7 7 7 7 8 7 * * * * * * * 5 5.v.P =             * u J t * * * * * * * * * * > * L v.5.7             . e J f , * * * * * * * * * > * r l.x.f               * f J e * * * * * * * * 7 8 7 7 7 7 r 5 #.FXGXR X * * * * * * Z `.`.C 9 8 7 7 7 7 7 7 7 7 7 7 7 e 9 F JXFX'.* * * * * * * 3 #.`.#.9 8 7 7 7 7 8 > = 5 8 7 7 7 7 7 7 7 7 7 7 7 7 7 7 7 7 7 7 7 7 7 7 7 7 7 7 7 7 7 7 7 7 7 8 7 7 7 8 7 7 7 7 7 7 7 7 7 7 7 7 7 7 7 7 7 7 e 7 7 8 7 7 7 7 7 7 7 7 8 7 8 8 7 7 7 7 7 7 7 7 7 7 7 7 7 7 7 7 7 7 7 8 7 7 7 7 8 7 ",
"n n & e 7 7 7 7 7 8 7 * * * * * * > * r f.b.K   X . . X = u J u > * * * * * * * * * * * * *  .b.5.* . . . . X 7 J f 7 * * * * * * * * * * * > * s x.v.t   . . . X * f J t * * * * * * * * * 7 8 7 7 7 7 7 e 9 '.FXGXA * * * * * 2 `.`.Z 7 8 7 7 7 7 7 7 7 7 7 7 7 7 7 r 5 | GXFX#.+ * * * * 5 '.`.#.7 8 7 7 7 7 7 8 > = 5 8 7 7 7 7 7 7 7 7 7 7 7 7 7 7 7 7 7 7 7 7 7 7 7 7 7 7 7 7 7 7 7 8 7 7 8 7 7 7 7 8 8 7 7 7 7 7 7 7 7 7 7 7 7 7 7 7 7 8 8 7 7 8 8 7 7 7 7 7 7 8 7 8 7 7 7 7 7 7 7 7 7 7 7 7 7 7 7 8 8 7 8 7 7 8 8 7 7 8 ",
"& & e 7 7 7 7 7 7 8 7 * * * * * * * > * r 1.7 * * * * * * 7 t > * * * * * * * * * * * * * * * P f * * * * * * , t 7 * * * * * * * * * * * * * > * s  .> * * * * * * r t * * * * * * * * * * 7 8 7 7 7 7 7 8 8 5 '.'.9 8 7 7 7 8 8 #.Z 9 8 7 7 7 7 7 7 7 7 7 7 7 7 7 7 7 r 5 | OXy 7 7 7 7 8 9 Z #.8 7 8 7 7 7 7 7 8 > = 5 8 7 7 7 7 7 7 7 7 7 7 7 7 7 7 7 7 7 7 7 7 7 7 7 7 7 7 7 7 7 7 8 7 8 t 7 8 7 f t 7 7 7 7 7 7 7 7 7 7 7 7 7 7 7 7 7 7 8 7 t r 5 5 8 7 7 r f r 7 t 7 8 7 7 7 7 7 7 7 7 7 7 7 7 7 8 7 5 8 7 t 8 7 7 7 t 7 ",
"7 e 7 7 7 7 7 7 7 8 7 * * * * * * * * > * * * * * * * * * * * * * * * * * * * * * * * * * * * * * * * * * * * * * * * * * * * * * * * * * * * * * * * * * * * * * * * * * * * * * * * * * * 7 8 7 7 7 7 7 7 8 8 9 7 7 7 8 8 8 7 7 7 7 8 7 7 7 7 7 7 7 7 7 7 7 7 7 7 7 7 7 e 9 9 7 7 8 8 8 7 7 7 7 7 8 7 7 7 7 7 7 8 > = 5 8 7 7 7 7 7 7 7 7 7 7 7 7 7 7 7 7 7 7 7 7 7 7 7 7 7 7 7 7 7 8 8 t B.$XK * c.A.1.X B.c.* r 7 7 7 7 7 7 7 7 7 7 7 7 8 7 s Z.A.s $Xl.* 7 Z.B.K c.%XP 5 8 7 7 7 7 7 7 7 7 7 7 7 8 7 8 %X1.f %Xb.7 7 B.%XK ",
"7 7 7 7 7 7 7 7 7 8 7 * * * * * * * * * * * * * * * * * * * * * * * * * * * * * * * * * * * * * * * * * * * * * * * * * * * * * * * * * * * * * * * * * * * * * * * * * * * * * * * * * * * 7 8 7 7 7 7 7 7 7 8 e 8 7 7 7 7 7 7 7 8 8 7 7 7 7 7 7 7 7 7 7 7 7 7 7 7 7 7 7 7 e 8 8 7 7 7 7 7 7 8 8 8 7 7 7 7 7 7 7 8 > = 5 8 7 7 7 7 7 7 7 8 7 8 8 7 7 7 8 8 7 7 7 7 7 7 7 7 7 7 7 7 8 7 . 1.l.L B.  A.Z.u u &Xx.* r 7 7 7 7 7 7 7 7 7 7 7 8 7 * t * v.6.l.v.* 7 %Xj. .b.f A.> r 7 7 7 7 7 7 7 7 7 7 7 8 7 8 B.4.x. .c.L K b.L B.",
"7 8 8 8 8 8 7 7 7 8 7 * * * * * * * * * * * * * * * * * * * * * * * * * * * * * * * * * * * * * * * * * * * * * * * * * * * * * * * * * * * * * * * * * * * * * * * * > * * * * * * * * * * 7 8 7 7 7 7 7 8 8 7 8 8 8 8 8 7 8 8 7 8 8 7 8 7 7 7 7 7 7 7 7 7 7 7 7 7 7 7 7 7 7 8 8 7 7 7 8 8 8 8 8 7 7 7 7 7 7 7 7 8 > = 5 8 7 7 7 7 7 7 8 7 8 7 7 8 7 7 7 7 7 7 7 7 7 7 7 7 7 7 7 8 7 f c.P B.$Xb.. u 1.$XZ.c.v.> r 7 7 7 7 7 7 7 7 7 7 8 7 J v.7 s Z.* P c.X 7 u 5.A.v.Z.A.> r 7 7 7 7 7 7 7 7 7 7 7 7 r * 6.5.x.s x.L K l.u Z.",
"8 7 5 7 5 7 8 7 7 8 7 * * * * * * * * * * * > * * > * * * * * * * * * * * * * * * * * * * * * * * * * * * * * > * * * * * * * * * * * * * * * * * * * * > * * * * * > * * * * * * * * * * * 7 8 7 7 7 7 8 5 7 7 5 7 7 5 7 8 7 7 8 7 7 8 7 7 8 8 7 7 7 7 7 7 7 7 7 7 7 7 7 7 8 7 5 8 7 8 5 7 7 5 7 7 7 7 7 7 7 7 7 8 > = 5 8 7 7 7 7 7 7 7 t 7 t s 7 8 7 7 r 7 7 7 7 7 7 7 7 7 7 7 8 7 t L r K $X5. .f L $XB.&X&X> r 7 7 7 7 7 7 7 7 7 7 8 7 u K f *X1.> 6.v.u 1.u 6.B.u A.5.> 8 7 7 7 7 7 7 7 7 7 7 7 7 r * j.5.6.c.B.5. .B.x.x.",
"> f  .8 L t 7 8 7 8 7 * * * * * * * u > 7 e = 7 7 = 7 7 * * 5 * , , * * * * * * * * * * * * * * * * , * * e 5 * r , * * * * * * * * * * * * 5 t > * , r * , r * * > X J 7 7 t * * * * * * * 7 8 7 7 7 8 7 J t 8 K 8 r L f 7 7 t 7 r t 7 t 7 5 7 8 7 7 7 7 7 7 7 7 7 7 7 7 8 7 u J 7 7 7 f t u L f 8 7 7 7 7 7 7 7 8 > = 5 8 7 7 7 7 8 5 x.%X5 Z.$XL 7 * v.Z.* r 7 7 7 7 7 7 7 7 7 7 8 7 5 7 x.6.s 6.1.Z.K . s P 5 8 7 7 7 7 7 7 7 7 7 7 7 8 7 * L Z.b.K f P J 1.5.B.t 5.l.8 7 8 7 7 7 7 7 7 7 7 7 7 7 7 8 5 L L 7 b.1. .K 1.b.t ",
"r l.x.b.Z.A.s 7 8 8 7 * * * * * * O. .t f.f.s f.f.s j.f.7 * f.X J  .e r > * * * * * * * * * * > . k. .  s x.3.J k.3.* * * * * * * * * * * 7 4.P , * 3.k.J 3.k.s * > 7 f.J k.4.1.* > * * * * 7 8 7 7 r > 5.Z.b.6.$Xl.v.Z. .* Z.B.  1.x.  B.L J u 7 8 7 7 7 7 7 7 7 7 7 7 7 8 7 j.A.l.* 1.$Xb.6.b.&XJ 5 8 7 7 7 7 7 8 > = 5 8 7 7 7 7 7 7  .Z.P c.K B.* s $Xv.* r 7 7 7 7 7 7 7 7 7 7 7 7 8 8 > > 7 5 5 * 7 r 7 5 8 7 7 7 7 7 7 7 7 7 7 7 7 7 7 8 7 * * 7 7 7 7 5 5 * 7 5 > 7 8 7 7 7 7 7 7 7 7 7 7 7 7 7 7 8 7 7 7 * 5 5 7 5 * 7 ",
"A.%Xl.B.1.A.f 7 8 8 7 * * * * * t n.I P I u V.s s V.u I I . x.u 1.1.P V.7 * * * * * * * * * > = t x.I   4.u P n.7 3.u * > * * * * * * > = K c.I * t 4.5 n.O.r 5.  P f.n.J 4.J 5.* > * * * * 7 8 7 7 r > j.Z.B.r r Z.Z.A.f s %Xx.  1.A.f $X1.%XZ.* r 7 7 7 7 7 7 7 7 7 7 7 7 8 r l.v.X Z.J b.L 7 Z.7 8 7 7 7 7 7 7 8 > = 5 8 7 7 7 7 7 7 t B. .j.f B.  A.v.Z.5 r 7 7 7 7 7 7 7 7 7 7 7 7 7 7 r r 7 5 7 5 7 8 8 8 7 7 7 7 7 7 7 7 7 7 7 7 7 7 7 7 8 r r 8 r 5 7 5 5 r 8 r r 8 7 7 7 7 7 7 7 7 7 7 7 7 7 7 7 7 8 r 8 r r 8 8 r r 8 ",
"4.K x.B.Z.A.f 7 8 8 7 * * * > = J 4.s V.s t V.t u V.e K P   x.1.x.K t P X > * * * * * * * * * 7 f.3.3.o 3.e P b.* 1.s = > * * * * * * > X 1.P O.J 7 3.* n.P 7 f.. j.* 1.J x.3.3.* * * * * * 7 8 7 7 8 5 6.$XB.> x.1.> K %X$Xv.Z.* 1.&Xl.&X8 x.f 7 8 7 7 7 7 7 7 7 7 7 7 7 8 7 u A.l..  .B.&XJ j.j.* r 7 7 7 7 7 7 8 > = 5 8 7 7 7 7 7 7 u $Xu Z.v.v.1.l.$XSX5 8 8 7 7 7 7 7 7 7 7 7 7 7 7 7 8 5 u 6.r  .s 7 8 7 7 7 7 7 7 7 7 7 7 7 7 7 7 7 7 7 7 7 8 7 > 5.t L L 7 7 7 7 7 7 7 7 7 7 7 7 7 7 7 7 7 7 7 7 7 7 7 5 7 5 7 7 > 7 8 ",
"Z.B.c.Z.1.$X1.> 8 8 7 * * * * * t 5.P f.3.3.3.3.3.3.3.5.u * k.  J 4.x.J > * * * * * * * * * * 7  .c.c.J P 3.3.4.1.f.7 * * * * * * * * > = J 3. .1.s 4.1.4.3.3. .  4.P x.K f.u x.* * * * * * 7 8 7 7 8 5 V.5.B.Z.%XJ P 1.$Xx.%X&X* 6.v.o B.Z.$Xs 7 8 7 7 7 7 7 7 7 7 7 7 8 7 t L 6.$X4.t 5.A.u $Xu 7 8 7 7 7 7 7 7 8 > = 5 8 7 7 7 7 7 7 r  .5 1.l.s 1.= r L 5 8 7 7 7 7 7 7 7 7 7 7 7 7 7 8 7 t j.b.c.Z.A.K 5 8 7 7 7 7 7 7 7 7 7 7 7 7 7 7 7 7 7 8 7 r L $X6.%Xb.l.> 8 7 7 7 7 7 7 7 7 7 7 7 7 7 7 7 7 7 7 7 s L u L 8 8 P s 7 ",
"6.l.f  .B.6.7 8 7 8 7 * * * * > * J  .* J P * I I * P K * * s > r f P P 5 * * * * * * * * * * *   7 r s , P s *  .s * > * * * * * * * * * * I J t t t O.* u  ., * 7 P K 7 P 1.t * * * * * * 7 8 7 7 8 7 s v.P 6.c.5.1.v.f X t J > f P 7 P 6.c.1.7 8 7 7 7 7 7 7 7 7 7 7 8 7 8 5.c.s  .f x.f t  .5 8 7 7 7 7 7 7 7 8 > = 5 8 7 7 7 7 7 8 7 5 8 5 * 7 > r 7 5 8 7 7 7 7 7 7 7 7 7 7 7 7 7 8 7 u A.$Xv.c.5.Z.L 5 8 7 7 7 7 7 7 7 7 7 7 7 7 7 7 7 7 7 8 5 b.Z.%X6.B.j.x.> r 7 7 7 7 7 7 7 7 7 7 7 7 7 7 7 7 7 8 7 %XA.%XA.5.x.$XJ 7 ",
"> * 7 5 * > 8 7 7 8 7 * * * * * > * . * = X > X X > X = * * * * * * . X * * * * * * * * * * * * , * * * * X * * . * > * * * * * * * * * * * X = * * * . * * . * * * X = * X . * * * * * * * 7 8 7 7 7 8 7 * 5 > * > 5 * 7 r 7 7 r 7 5 8 5 > * 5 8 7 7 7 7 7 7 7 7 7 7 7 7 7 7 > * 7 5 7 * 7 7 5 8 7 7 7 7 7 7 7 7 8 > = 5 8 7 7 7 7 7 7 7 8 7 8 r 8 8 7 8 8 7 7 7 7 7 7 7 7 7 7 7 7 7 7 8 > 6.l.t b.c.V.Z.L 5 8 7 7 7 7 7 7 7 7 7 7 7 7 7 7 7 7 8 7 t $X* B.6.$Xb.l.5 8 7 7 7 7 7 7 7 7 7 7 7 7 7 7 7 7 7 7 r A.u Z.f b.L B.K 7 ",
"r r 8 8 r r 7 7 7 8 7 * * * * * * > , * > > * > > * > > * * > * * > , , * * * * * * * * * * * * * * > > * , > * , > * * * * * * * * * * * * > > * * > , * > , * * * , > * , , > * * * * * * 7 8 7 7 7 7 8 r 8 r r r 8 r 8 7 8 8 7 8 8 7 8 r r 8 7 7 7 7 7 7 7 7 7 7 7 7 7 7 7 r r 8 8 8 r 8 8 8 7 7 7 7 7 7 7 7 7 8 > = 5 8 7 7 7 7 7 7 7 7 7 7 7 7 7 7 7 7 7 7 7 7 7 7 7 7 7 7 7 7 7 7 8 7 J A.B.B.b.5.Z.4.> r 7 7 7 7 7 7 7 7 7 7 7 7 7 7 7 7 7 8 7 Z.x.%X4.Z.5.A.5 8 7 7 7 7 7 7 7 7 7 7 7 7 7 7 7 7 7 7 r $Xf Z.L B.u Z.V.* ",
"7 7 7 7 7 7 7 7 7 8 7 * * * * * * * * * * * * * * * * * * * * * * * * * * * * * * * * * * * * * * * * * * * * * * * * * * * * * * * * * * * * * * * * * * * * * * * * * * * * * * * * * * * 7 8 7 7 7 7 7 7 7 7 7 7 7 7 7 7 7 7 7 7 7 7 7 7 7 7 7 7 7 7 7 7 7 7 7 7 7 7 7 7 7 7 7 7 7 7 7 7 7 7 7 7 7 7 7 7 7 7 7 8 > = 5 8 7 7 7 7 7 7 7 7 7 7 7 7 7 7 7 7 7 7 7 7 7 7 7 7 7 7 7 7 7 7 7 8 5  .5.f K c.1.7 8 7 7 7 7 7 7 7 7 7 7 7 7 7 7 7 7 7 7 8 7 f j.P u l.j.t 7 8 7 7 7 7 7 7 7 7 7 7 7 7 7 7 7 7 7 7 8 L t K t J L j.u 7 ",
"8 8 8 8 8 8 8 8 8 r 7 * * * * * * * * * * * * * * * * * * * * * * * * * * * * * * * * * * * * * * * * * * * * * * * * * * * * * * * * * * * * * * * * * * * * * * * * * * * * * * * * * * * 7 8 8 8 8 8 8 8 8 8 8 8 8 8 8 8 8 8 8 8 8 8 8 8 8 8 8 8 8 8 8 8 8 8 8 8 8 8 8 8 8 8 8 8 8 8 8 8 8 8 8 8 8 8 8 8 8 8 8 r > = 7 r 8 8 8 8 8 8 8 8 8 8 8 8 8 8 8 8 8 8 8 8 8 8 8 8 8 8 8 8 8 8 8 8 r 5 * 7 7 * > 8 8 8 8 8 8 8 8 8 8 8 8 8 8 8 8 8 8 8 8 8 8 7 * 5 7 * * 7 8 8 8 8 8 8 8 8 8 8 8 8 8 8 8 8 8 8 8 8 8 5 7 7 7 7 5 * 7 8 ",
"* * * * * * * * * * * * * * * * * * * * * * * * * * * * * * * * * * * * * * * * * * * * * * * * * * * * * * * * * * * * * * * * * * * * * * * * * * * * * * * * * * * * * * * * * * * * * * * * * * * * * * * * * * * * * * * * * * * * * * * * * * * * * * * * * * * * * * * * * * * * * * * * * * * * * * * * * * * * * * * * * * * * * * * * * * * * * * * * * * * * * * * * * * * * * * * > > > > 5 > * * * * * * * * * * * * * * * * * * * * * * > > > * 5 > * * * * * * * * * * * * * * * * * * * * * * > * > * > > 5 > * ",
"* * * * * * * * * * * * * * * * * * * * * * * * * * * * * * * * * * * * * * * * * * * * * * * * * * * * * * * * * * * * * * * * * * * * * * * * * * * * * * * * * * * * * * * * * * * * * * * * * * * * * * * * * * * * * * * * * * * * * * * * * * * * * * * * * * * * * * * * * * * * * * * * * * * * * * * * * * * * * * * * * * * * * * * * * * * * * * * * * * * * * * * * * * * * * * * * * * * * * * * * * * * * * * * * * * * * * * * * * * * * * * * * * * * * * * * * * * * * * * * * * * * * * * * * * * * * * * * * ",
"7 7 7 7 7 7 7 7 7 7 7 7 7 7 7 7 7 7 7 7 7 7 7 7 7 7 7 7 7 7 7 7 7 7 7 7 7 7 7 7 7 7 7 7 7 7 7 7 7 7 7 7 7 7 7 7 7 7 7 7 7 7 7 7 7 7 7 7 7 7 7 7 7 7 7 7 7 7 7 7 7 7 7 7 7 7 7 7 7 7 7 7 7 7 7 7 7 7 7 7 7 7 7 7 7 7 7 7 7 7 7 7 7 7 7 7 7 7 7 7 7 7 7 7 7 7 7 7 7 7 7 7 7 7 7 7 7 7 7 7 7 7 7 7 7 7 7 7 7 7 7 7 7 7 7 7 7 7 7 7 7 7 7 7 7 7 7 7 7 7 7 7 7 7 7 7 7 7 7 7 7 7 7 7 7 7 7 7 7 7 7 7 7 7 7 7 7 7 7 7 7 7 7 7 7 7 7 7 7 7 7 7 7 7 7 7 7 7 7 7 7 7 7 7 7 7 7 7 7 7 7 7 7 7 7 7 7 7 7 7 7 7 7 7 7 7 7 7 7 7 7 7 7 7 7 7 ",
"8 8 8 8 8 8 8 8 8 8 8 8 8 8 8 8 8 8 8 8 8 8 8 8 8 8 8 8 8 8 8 8 8 8 8 8 8 8 8 8 8 8 8 8 8 8 8 8 8 8 8 8 8 8 8 8 8 8 8 8 8 8 8 8 8 8 8 8 8 8 8 8 8 8 8 8 8 8 8 8 8 8 8 8 8 8 8 8 8 8 8 8 8 8 8 8 8 8 8 8 8 8 8 8 8 8 8 8 8 8 8 8 8 8 8 8 8 8 8 8 8 8 8 8 8 8 8 8 8 8 8 8 8 8 8 8 8 8 8 8 8 8 8 8 8 8 8 8 8 8 8 8 8 8 8 8 8 8 8 8 8 8 8 8 8 8 8 8 8 8 8 8 8 8 8 8 8 8 8 8 8 8 8 8 8 8 8 8 8 8 8 8 8 8 8 8 8 8 8 8 8 8 8 8 8 8 8 8 8 8 8 8 8 8 8 8 8 8 8 8 8 8 8 8 8 8 8 8 8 8 8 8 8 8 8 8 8 8 8 8 8 8 8 8 8 8 8 8 8 8 8 8 8 8 8 8 ",
"7 7 7 7 7 7 7 7 7 7 7 7 7 7 7 7 7 7 7 7 7 7 7 7 7 7 7 7 7 7 7 7 7 7 7 7 7 7 7 7 7 7 7 7 7 7 7 7 7 7 7 7 7 7 7 7 7 7 7 7 7 7 7 7 7 7 7 7 7 7 7 7 7 7 7 7 7 7 7 7 7 7 7 7 7 7 7 7 7 7 7 7 7 7 7 7 7 7 7 7 7 7 7 7 7 7 7 7 7 7 7 7 7 7 7 7 7 7 7 7 7 7 7 7 7 7 7 7 7 7 7 7 7 7 7 7 7 7 7 7 7 7 7 7 7 7 7 7 7 7 7 7 7 7 7 7 7 7 7 7 7 7 7 7 7 7 7 7 7 7 7 7 7 7 7 7 7 7 7 7 7 7 7 7 7 7 7 7 7 7 7 7 7 7 7 7 7 7 7 7 7 7 7 7 7 7 7 7 7 7 7 7 7 7 7 7 7 7 7 7 7 7 7 7 7 7 7 7 7 7 7 7 7 7 7 7 7 7 7 7 7 7 7 7 7 7 7 7 7 7 7 7 7 7 7 7 ",
"7 7 7 7 7 7 7 7 7 7 7 7 7 7 7 7 7 7 7 7 7 7 7 7 7 7 7 7 7 7 7 7 7 7 7 7 7 7 7 7 7 7 7 7 7 7 7 7 7 7 7 7 7 7 7 7 7 7 7 7 7 7 7 7 7 7 7 7 7 7 7 7 7 7 7 7 7 7 7 7 7 7 7 7 7 7 7 7 7 7 7 7 7 7 7 7 7 7 7 7 7 7 7 7 7 7 7 7 7 7 7 7 7 7 7 7 7 7 7 7 7 7 7 7 7 7 7 7 7 7 7 7 7 7 7 7 7 7 7 7 7 7 7 7 7 7 7 7 7 7 7 7 7 7 7 7 7 7 7 7 7 7 7 7 7 7 7 7 7 7 7 7 7 7 7 7 7 7 7 7 7 7 7 7 7 7 7 7 7 7 7 7 7 7 7 7 7 7 7 7 7 7 7 7 7 7 7 7 7 7 7 7 7 7 7 7 7 7 7 7 7 7 7 7 7 7 7 7 7 7 7 7 7 7 7 7 7 7 7 7 7 7 7 7 7 7 7 7 7 7 7 7 7 7 7 7 ",
"7 7 7 7 7 7 7 7 7 7 7 7 7 7 7 7 7 7 7 7 7 7 7 7 7 7 7 7 7 7 7 7 7 7 7 7 7 7 7 7 7 7 7 7 7 7 7 7 7 7 7 7 7 7 7 7 7 7 7 7 7 7 7 7 7 7 7 7 7 7 7 7 7 7 7 7 7 7 7 7 7 7 7 7 7 7 7 7 7 7 7 7 7 7 7 7 7 7 7 7 7 7 7 7 7 7 7 7 7 7 7 7 7 7 7 7 7 7 7 7 7 7 7 7 7 7 7 7 7 7 7 7 7 7 7 7 7 7 7 7 7 7 7 7 7 7 7 7 7 7 7 7 7 7 7 7 7 7 7 7 7 7 7 7 7 7 7 7 7 7 7 7 7 7 7 7 7 7 7 7 7 7 7 7 7 7 7 7 7 7 7 7 7 7 7 7 7 7 7 7 7 7 7 7 7 7 7 7 7 7 7 7 7 7 7 7 7 7 7 7 7 7 7 7 7 7 7 7 7 7 7 7 7 7 7 7 7 7 7 7 7 7 7 7 7 7 7 7 7 7 7 7 7 7 7 7 ",
"7 7 7 7 7 7 7 7 7 7 7 7 7 7 7 7 7 7 7 7 7 7 7 7 7 7 7 7 7 7 7 7 7 7 7 7 7 7 7 7 7 7 7 7 7 7 7 7 7 7 7 7 7 7 7 7 7 7 7 7 7 7 7 7 7 7 7 7 7 7 7 7 7 7 7 7 7 7 7 7 7 7 7 7 7 7 7 7 7 7 7 7 7 7 7 7 7 7 7 7 7 7 7 7 7 7 7 7 7 7 7 7 7 7 7 7 7 7 7 7 7 7 7 7 7 7 7 7 7 7 7 7 7 7 7 7 7 7 7 7 7 7 7 7 7 7 7 7 7 7 7 7 7 7 7 7 7 7 7 7 7 7 7 7 7 7 7 7 7 7 7 7 7 7 7 7 7 7 7 7 7 7 7 7 7 7 7 7 7 7 7 7 7 7 7 7 7 7 7 7 7 7 7 7 7 7 7 7 7 7 7 7 7 7 7 7 7 7 7 7 7 7 7 7 7 7 7 7 7 7 7 7 7 7 7 7 7 7 7 7 7 7 7 7 7 7 7 7 7 7 7 7 7 7 7 7 ",
"7 7 7 7 7 7 7 7 7 7 7 7 7 7 7 7 7 7 7 7 7 7 7 7 7 7 7 7 7 7 7 7 7 7 7 7 7 7 7 7 7 7 7 7 7 7 7 7 7 7 7 7 7 7 7 7 7 7 7 7 7 7 7 7 7 7 7 7 7 7 7 7 7 7 7 7 7 7 7 7 7 7 7 7 7 7 7 7 7 7 7 7 7 7 7 7 7 7 7 7 7 7 7 7 7 7 7 7 7 7 7 7 7 7 7 7 7 7 7 7 7 7 7 7 7 7 7 7 7 7 7 7 7 7 7 7 7 7 7 7 7 7 7 7 7 7 7 7 7 7 7 7 7 7 7 7 7 7 7 7 7 7 7 7 7 7 7 7 7 7 7 7 7 7 7 7 7 7 7 7 7 7 7 7 7 7 7 7 7 7 7 7 7 7 7 7 7 7 7 7 7 7 7 7 7 7 7 7 7 7 7 7 7 7 7 7 7 7 7 7 7 7 7 7 7 7 7 7 7 7 7 7 7 7 7 7 7 7 7 7 7 7 7 7 7 7 7 7 7 7 7 7 7 7 7 7 ",
"7 7 7 7 7 7 7 7 7 7 7 7 7 7 7 7 7 7 7 7 7 7 7 7 7 7 7 7 7 7 7 7 7 7 7 7 7 7 7 7 7 7 7 7 7 7 7 7 7 7 7 7 7 7 7 7 7 7 7 7 7 7 7 7 7 7 7 7 7 7 7 7 7 7 7 7 7 7 7 7 7 7 7 7 7 7 7 7 7 7 7 7 7 7 7 7 7 7 7 7 7 7 7 7 7 7 7 7 7 7 7 7 7 7 7 7 7 7 7 7 7 7 7 7 7 7 7 7 7 7 7 7 7 7 7 7 7 7 7 7 7 7 7 7 7 7 7 7 7 7 7 7 7 7 7 7 7 7 7 7 7 7 7 7 7 7 7 7 7 7 7 7 7 7 7 7 7 7 7 7 7 7 7 7 7 7 7 7 7 7 7 7 7 7 7 7 7 7 7 7 7 7 7 7 7 7 7 7 7 7 7 7 7 7 7 7 7 7 7 7 7 7 7 7 7 7 7 7 7 7 7 7 7 7 7 7 7 7 7 7 7 7 7 7 7 7 7 7 7 7 7 7 7 7 7 7 ",
"7 7 7 7 7 7 7 7 7 7 7 7 7 7 7 7 7 7 7 7 7 7 7 7 7 7 7 7 7 7 7 7 7 7 7 7 7 7 7 7 7 7 7 7 7 7 7 7 7 7 7 7 7 7 7 7 7 7 7 7 7 7 7 7 7 7 7 7 7 7 7 7 7 7 7 7 7 7 7 7 7 7 7 7 7 7 7 7 7 7 7 7 7 7 7 7 7 7 7 7 7 7 7 7 7 7 7 7 7 7 7 7 7 7 7 7 7 7 7 7 7 7 7 7 7 7 7 7 7 7 7 7 7 7 7 7 7 7 7 7 7 7 7 7 7 7 7 7 7 7 7 7 7 7 7 7 7 7 7 7 7 7 7 7 7 7 7 7 7 7 7 7 7 7 7 7 7 7 7 7 7 7 7 7 7 7 7 7 7 7 7 7 7 7 7 7 7 7 7 7 7 7 7 7 7 7 7 7 7 7 7 7 7 7 7 7 7 7 7 7 7 7 7 7 7 7 7 7 7 7 7 7 7 7 7 7 7 7 7 7 7 7 7 7 7 7 7 7 7 7 7 7 7 7 7 7 ",
"7 7 7 7 7 7 7 7 7 7 7 7 7 7 7 7 7 7 7 7 7 7 7 7 7 7 7 7 7 7 7 7 7 7 7 7 7 7 7 7 7 7 7 7 7 7 7 7 7 7 7 7 7 7 7 7 7 7 7 7 7 7 7 7 7 7 7 7 7 7 7 7 7 7 7 7 7 7 7 7 7 7 7 7 7 7 7 7 7 7 7 7 7 7 7 7 7 7 7 7 7 7 7 7 7 7 7 7 7 7 7 7 7 7 7 7 7 7 7 7 7 7 7 7 7 7 7 7 7 7 7 7 7 7 7 7 7 7 7 7 7 7 7 7 7 7 7 7 7 7 7 7 7 7 7 7 7 7 7 7 7 7 7 7 7 7 7 7 7 7 7 7 7 7 7 7 7 7 7 7 7 7 7 7 7 7 7 7 7 7 7 7 7 7 7 7 7 7 7 7 7 7 7 7 7 7 7 7 7 7 7 7 7 7 7 7 7 7 7 7 7 7 7 7 7 7 7 7 7 7 7 7 7 7 7 7 7 7 7 7 7 7 7 7 7 7 7 7 7 7 7 7 7 7 7 7 "
};
