/* XPM */
static char *deesser_mono[] = {
/* columns rows colors chars-per-pixel */
"256 256 256 2 ",
"   c #0F1C14",
".  c #0A171E",
"X  c #111C16",
"o  c #15161B",
"O  c #1D151B",
"+  c #151B1B",
"@  c #191A1F",
"#  c #141316",
"$  c #0C0B0E",
"%  c #21191D",
"&  c #22171B",
"*  c #381C19",
"=  c #16221C",
"-  c #0E251E",
";  c #32241C",
":  c #151B22",
">  c #1C1D23",
",  c #161C26",
"<  c #0B1C2B",
"1  c #211E23",
"2  c #271F29",
"3  c #281D28",
"4  c #321E34",
"5  c #1F2025",
"6  c #1D242A",
"7  c #1C2A2D",
"8  c #162829",
"9  c #1C2C33",
"0  c #1D2C39",
"q  c #162937",
"w  c #193434",
"e  c #1A313A",
"r  c #1A3C3A",
"t  c #163836",
"y  c #0D2F32",
"u  c #202126",
"i  c #2A2326",
"p  c #25262D",
"a  c #2A262C",
"s  c #26282F",
"d  c #2A292D",
"f  c #3B2426",
"g  c #30272B",
"h  c #33292D",
"j  c #392928",
"k  c #252730",
"l  c #262931",
"z  c #2A2B33",
"x  c #262D3D",
"c  c #2D2F38",
"v  c #2C2333",
"b  c #322D34",
"n  c #352938",
"m  c #24343B",
"M  c #2E313A",
"N  c #253638",
"B  c #31333C",
"V  c #393439",
"C  c #34342A",
"Z  c #442B26",
"A  c #483536",
"S  c #583A39",
"D  c #4E322D",
"F  c #653D38",
"G  c #45241A",
"H  c #16453D",
"J  c #084C3B",
"K  c #374A39",
"L  c #504833",
"P  c #69423D",
"I  c #754B33",
"U  c #5E592E",
"Y  c #1A3544",
"T  c #193A44",
"R  c #1C3B4A",
"E  c #163847",
"W  c #173B56",
"Q  c #0D354C",
"!  c #262F42",
"~  c #282D44",
"^  c #3B2745",
"/  c #263145",
"(  c #233842",
")  c #273248",
"_  c #263A48",
"`  c #343641",
"'  c #373944",
"]  c #393B46",
"[  c #3B3D4A",
"{  c #373A47",
"}  c #2D3954",
"|  c #263A60",
" . c #4B2954",
".. c #532B5C",
"X. c #483349",
"o. c #5C2D66",
"O. c #52366D",
"+. c #632E6D",
"@. c #663071",
"#. c #6B3377",
"$. c #6A3073",
"%. c #6A2962",
"&. c #174549",
"*. c #065944",
"=. c #194854",
"-. c #13554F",
";. c #22444E",
":. c #2D444C",
">. c #254648",
",. c #3E414D",
"<. c #344449",
"1. c #284956",
"2. c #3A4654",
"3. c #26535B",
"4. c #00644B",
"5. c #006A4F",
"6. c #0B644D",
"7. c #066B53",
"8. c #166556",
"9. c #017D5D",
"0. c #047457",
"q. c #11614E",
"w. c #1F5561",
"e. c #1F5865",
"r. c #1F5E6B",
"t. c #115963",
"y. c #0E4B70",
"u. c #29506C",
"i. c #0A6C7B",
"p. c #096874",
"a. c #0B717E",
"s. c #15696E",
"d. c #2C6776",
"f. c #2A7478",
"g. c #296E4C",
"h. c #41424F",
"j. c #464446",
"k. c #424553",
"l. c #464A5B",
"z. c #4A4D5C",
"x. c #454857",
"c. c #554E4C",
"v. c #774944",
"b. c #6C4D4D",
"n. c #4A4E62",
"m. c #4E5162",
"M. c #495668",
"N. c #515466",
"B. c #53566A",
"V. c #56596C",
"C. c #585C6F",
"Z. c #5B5E71",
"A. c #555A74",
"S. c #5E6175",
"D. c #5E6279",
"F. c #54686D",
"G. c #61657B",
"H. c #65687E",
"J. c #707773",
"K. c #686757",
"L. c #967900",
"P. c #8D552C",
"I. c #B16B2E",
"U. c #9D692F",
"Y. c #D1752C",
"T. c #E57C2A",
"R. c #DC771D",
"E. c #844D45",
"W. c #97554C",
"Q. c #8F554F",
"!. c #A85D52",
"~. c #A95A4E",
"^. c #936A58",
"/. c #B86458",
"(. c #AD6B52",
"). c #946E6A",
"_. c #AF6E6B",
"`. c #A35271",
"'. c #C4695C",
"]. c #CC6D5E",
"[. c #C66556",
"{. c #D37156",
"}. c #D87363",
"|. c #CC7062",
" X c #E47766",
".X c #D05A69",
"XX c #8C3C61",
"oX c #098F6F",
"OX c #028763",
"+X c #00996D",
"@X c #019B72",
"#X c #02A179",
"$X c #00A273",
"%X c #04815F",
"&X c #568E79",
"*X c #E7812C",
"=X c #DB8031",
"-X c #9F8657",
";X c #753587",
":X c #5F3F83",
">X c #04548A",
",X c #015997",
"<X c #105686",
"1X c #0A7683",
"2X c #126B8E",
"3X c #307689",
"4X c #0A6CAF",
"5X c #2E579B",
"6X c #666A82",
"7X c #696D84",
"8X c #676C87",
"9X c #6D728A",
"0X c #6C7087",
"qX c #71758E",
"wX c #757A96",
"eX c #6D7391",
"rX c #636890",
"tX c #3375F6",
"yX c #067ACC",
"uX c #853792",
"iX c #883A97",
"pX c #91399E",
"aX c #923B92",
"sX c #85258F",
"dX c #963CA5",
"fX c #A23EB2",
"gX c #A93FB6",
"hX c #B03FBF",
"jX c #A745B4",
"kX c #964D99",
"lX c #CB5893",
"zX c #B742C7",
"xX c #9451C1",
"cX c #C745D7",
"vX c #D548E6",
"bX c #078A96",
"nX c #338495",
"mX c #029AA8",
"MX c #009BB9",
"NX c #3493A8",
"BX c #359EB4",
"VX c #3090A2",
"CX c #02A8B6",
"ZX c #08A7B2",
"AX c #36A4B9",
"SX c #10A988",
"DX c #78839A",
"FX c #578994",
"GX c #00B2C1",
"HX c #00A7C1",
"JX c #0096FD",
"KX c #018BEC",
"LX c #0F91D3",
"PX c #01C0CF",
"IX c #858AAB",
"UX c #A1AAD6",
/* pixels */
"p p p p p p p p p p p p p p p p p p p p p p p p p p p p p p p p p p p p p p p p p p p p p p p p p p p p p p p p p p p p p p p p p p p p p p p p p p p p p p p p p p p p p p p p p p p p p p p p p p p p p p p p p p p p p p p p p p p p p p p p p p p p p p p p p p p p p p p p p p p p p p p p p p p p p p p p p p p p p p p p p p p p p p p p p p p p p p p p p p p p p p p p p p p p p p p p p p p p p p p p p p p p p p p p p p p p p p p p p p p p p p p p p p p p p p p p p p p p p p p p p p p p p p p p p p p p p p p p ",
"p p p p p p p p p p p p p p p p p p p p p p p p p p p p p p p p p p p p p p p p p p p p p p p p p p p p p p p p p p p p p p p p p p p p p p p p p p p p p p p p p p p p p p p p p p p p p p p p p p p p p p p p p p p p p p p p p p p p p p p p p p p p p p p p p p p p p p p p p p p p p p p p p p p p p p p p p p p p p p p p p p p p p p p p p p p p p p p p p p p p p p p p p p p p p p p p p p p p p p p p p p p p p p p p p p p p p p p p p p p p p p p p p p p p p p p p p p p p p p p p p p p p p p p p p p p p p p p p ",
"p p p p p p p p p p p p p p p p p p p p p p p p p p p p p p p p p p p p p p p p p p p p p p p p p p p p p p p p p p p p p p p p p p p p p p p p p p p p p p p p p p p p p p p p p p p p p p p p p p p p p p p p p p p p p p p p p p p p p p p p p p p p p p p p p p p p p p p p p p p p p p p p p p p p p p p p p p p p p p p p p p p p p p p p p p p p p p p p p p p p p p p p p p p p p p p p p p p p p p p p p p p p p p p p p p p p p p p p p p p p p p p p p p p p p p p p p p p p p p p p p p p p p p p p p p p p p p p p ",
"p p p p p p p p p p p p p p p p p p p p p p p p p p p p p p p p p p p p p p p p p p p p p p p p p p p p p p p p p p p p p p p p p p p p p p p p p p p p p p p p p p p p p p p p p p p p p p p p p p p p p p p p p p p p p p p p p p p p p p p p p p p p p p p p p p p p p p p p p p p p p p p p p p p p p p p p p p p p p p p p p p p p p p p p p p p p p p p p p p p p p p p p p p p p p p p p p p p p p p p p p p p p p p p p p p p p p p p p p p p p p p p p p p p p p p p p p p p p p p p p p p p p p p p p p p p p p p p p ",
"p p p p p p p p p p p p p p p p p p p p p p p p p p p p p p p p p p p p p p p p p p p p p p p p p p p p p p p p p p p p p p p p p p p p p p p p p p p p p p p p p p p p p p p p p p p p p p p p p p p p p p p p p p p p p p p p p p p p p p p p p p p p p p p p p p p p p p p p p p p p p p p p p p p p p p p p p p p p p p p p p p p p p p p p p p p p p p p p p p p p p p p p p p p p p p p p p p p p p p p p p p p p p p p p p p p p p p p p p p p p p p p p p p p p p p p p p p p p p p p p p p p p p p p p p p p p p p p p ",
"p p p p p p p p p p p p p p p p p p p p p p p p p p p p p p p p p p p p p p p p p p p p p p p p p p p p p p p p p p p p p p p p p p p p p p p p p p p p p p p p p p p p p p p p p p p p p p p p p p p p p p p p p p p p p p p p p p p p p p p p p p p p p p p p p p p p p p p p p p p p p p p p p p p p p p p p p p p p p p p p p p p p p p p p p p p p p p p p p p p p p p p p p p p p p p p p p p p p p p p p p p p p p p p p p p p p p p p p p p p p p p p p p p p p p p p p p p p p p p p p p p p p p p p p p p p p p p p p ",
"p p p p p p p p p p p p p p p p p p p p p p p p p p p p p p p p p p p p p p p p p p p p p p p p p p p p p p p p p p p p p p p p p p p p p p p p p p p p p p p p p p p p p p p p p p p p p p p p p p p p p p p p p p p p p p p p p p p p p p p p p p p p p p p p p p p p p p p p p p p p p p p p p p p p p p p p p p p p p p p p p p p p p p p p p p p p p p p p p p p p p p p p p p p p p p p p p p p p p p p p p p p p p p p p p p p p p p p p p p p p p p p p p p p p p p p p p p p p p p p p p p p p p p p p p p p p p p p p ",
"p p p p p p p p p p p p p p p p p p p p p p p p p p p p p p p p p p p p p p p p p p p p p p p p p p p p p p p p p p p p p p p p p p p p p p p p p p p p p p p p p p p p p p p p p p p p p p p p p p p p p p p p p p p p p p p p p p p p p p p p p p p p p p p p p p p p p p p p p p p p p p p p p p p p p p p p p p p p p p p p p p p p p p p p p p p p p p p p p p p p p p p p p p p p p p p p p p p p p p p p p p p p p p p p p p p p p p p p p p p p p p p p p p p p p p p p p p p p p p p p p p p p p p p p p p p p p p p p ",
"p p p p p p p p p p p p p p p p p p p p p p p p p p p p p p p p p p p p p p p p p p p p p p p p p p p p p p p p p p p p p p p p p p p p p p p p p p p p p p p p p p p p p p p p p p p p p p p p p p p p p p p p p p p p p p p p p p p p p p p p p p p p p p p p p p p p p p p p p p p p p p p p p s s s s s s s s s s s s s s s s s s s s s s s s s s s s s s s s s s s s s s s s s s s s s s s s s s s s s s s s s s s s s s s s s s s s s s s s s s s s s s s s s s s s s s s s s s s s s s s s s s s s s s s s s s s s s s s ",
"p p p p p p p p p p p p p p p p p p p p p p p p p p p p p p p p p p p p p p p p p p p p p p p p p p p p p p p p p p p p p p p p p p p p p p p p p p p p p p p p p p p p p p p p p p p p p p p p p p p p p p p p p p p p p p p p p p p p p p p p p p p p p p p p p p p p p p p p p p p p p p p s p p p p p p p p p p p p p p p p p p p p p p p p p p p p p p p p p p p p p p p p p p p p p p p p p p p p p p p p p p p p p p p p p p p p p p p p p p p p p p p p p p p p p p p p p p p p p p p p p p p p p p p p p p p p p p p p ",
"p p p p p p p p p p p p p p p p p p p p p p p p p p p p p p p p p p p p p p p p p p p p p p p p p p p p p p p p p p p p p p p p p p p p p p p p p p p p p p p p p p p p p p p p p p p p p p p p p p p p p p p p p p p p p p p p p p p p p p p p p p p p p p p p p p p p p p p p p p p p p p p s 5 > > > > > > > > > > > > > > > > > > > > > > > > > > > > > > > > > > > > > > > > > > > > > > > > > > > > > > > > > > > > > > > > > > > > > > > > > > > > > > > > > > > > > > > > > > > > > > > > > > > > > > > > > > > > > > > ",
"p p p p p p p p p p p p p p p p p p p p p p p p p p p p p p p p p p p p p p p p p p p p p p p p p p p p p p p p p p p p p p p p p p p p p p p p p p p p p p p p p p p p p p p p p p p p p p p p p p p p p p p p p p p p p p p p p p p p p p p p p p p p p p p p p p p p p p p p p p p p p p s 5 > > > > > > > > > > > > > > > > > > > > > > > > > > > > > > > > > > > > > > > > > > > > > > > > > > > > > > > > > > > > > > > > > > > > > > > > > > > > > > > > > > > > > > > > > > > > > > > > > > > > > > > > > > > > > > > > ",
"p p p p p p p p p p p p p p p p p p p p p p p p p p p p p p p p p p p p p p p p p p p p p p p p p p p p p p p p p p p p p p p p p p p p p p p p p p p p p p p p p p p p p p p p p p p p p p p p p p p p p p p p p p p p p p p p p p p p p p p p p p p p p p p p p p p p p p p p p p p p p s 5 > > > > > > > > > > > > > > > > > > > > > > > > > > > > > > > > > > > > > > > > > > > > > > @ # o > > > > @ > > > > > > > : > > > > > > > > > > > > > > > > > > > : > > > > > > > > > > > > > > > > > > > > > > > > > > > > > > > ",
"p p p p p p p p p p p p p p p p p p p p p p p p p p p p p p p p p p p p p p p p p p p p p p p p p p p p p p p p p p p p p p p p p p p p p p p p p p p p p p p p p p p p p p p p p p p p p p p p p p p p p p p p p p p p p p p p p p p p p p p p p p p p p p p p p p p p p p p p p p p p s 5 > > > > > > > > @ > > > > > > > > > > > > > > > > > > > > > > > > > > > > > > > > > > > > > @ M N.` : o # c V.o # o > o # > p o > @ o # > @ o o @ # > @ # o > # o > p o > > > > > > > > > > > > > > > > > > > > > > > > > > > > > > ",
"p p p p p p p p p p p p p p p p p p p p p p p p p p p p p p p p p p p p p p p p p p p p p p p p p p p p p p p p p p p p p p p p p p p p p p p p p p p p p p p p p p p p p p p p p p p p p p p p p p p p p p p p p p p p p p p p p p p p p p p p p p p p p p p p p p p p p p p p p p p s 5 > > > > > > > @ 6 r.7 @ > > > > > > > > > > > > > > > > > > > > > > > > > > > > > > > > > > @ s qXk.,.@ x.' c 6Xo z.' # ] x.N.wXM o z [ z.5 l [ ' z m.u p m.` > z.c k.DXB @ > > > > > > > > > > > > > > > > > > > > > > > > > > > > > ",
"p p p p p p p p p p p p p p p p p p p p p p p p p p p p p p p p p p p p p p p p p p p p p p p p p p p p p p p p p p p p p p p p p p p p p p p p p p p p p p p p p p p p p p p p p p p p p p p p p p p p p p p p p p p p p p p p p p p p p p p p p p p p p p p p p p p p p p p p p p s 5 > > > > > > > > 6 r.e @ > > > > > > > > > > > > > > > > > > > > > > > > > > > > > > > > > > > > u qX,.$ m.G.7XV.V.B.S.0Xz.7X[ B.qXz # m.qXB.C.N.wX` 7XZ.6X7XC.z C.S.7XZ.qXz > > > > > > > > > > > > > > > > > > > > > > > > > > > > > > ",
"p p p p p p p p p p p p p p p p p p p p p p p p p p p p p p p p p p p p p p p p p p p p p p p p p p p p p p p p p p p p p p p p p p p p p p p p p p p p p p p p p p p p p p p p p p p p p p p p p p p p p p p p p p p p p p p p p p p p p p p p p p p p p p p p p p p p p p p p p s 5 > > > > > > > > @ 9 d.5 @ > > > > > > > > > > > > > > > > > > > > > > > > > > > > > > > > > > > > o u G.C.7XG.Z.N.Z.qXS.C.7Xx.$ ] N.$ o z.z.$ 6XV.,.z IXN.Z.[ D.B wXZ.S.m.N.$ > > > > > > > > > > > > > > > > > > > > > > > > > > > > > > ",
"p p p p p p p p p p p p p p p p p p p p p p p p p p p p p p p p p p p p p p p p p p p p p p p p p p p p p p p p p p p p p p p p p p p p p p p p p p p p p p p p p p p p p p p p p p p p p p p p p p p p p p p p p p p p p p p p p p p p p p p p p p p p p p p p p p p p p p p p s 5 > > > > > > > > > > O e r.6 > > > > > > > > > > > > > > > > > > > > > > > > > > > > > > > > > > > > p M B 7XS.B.p { G.D.m.u k.7Xs k.7Xu # z.7X,.G.N.l.u qXB z k l.7XH.z.p ] 9Xu > > > > > > > > > > > > > > > > > > > > > > > > > > > > > > ",
"p p p p p p p p p p p p p p p p p p p p p p p p p p p p p p p p p p p p p p p p p p p p p p p p p p p p p p p p p p p p p p p p p p p p p p p p p p p p p p p p p p p p p p p p p p p p p p p p p p p p p p p p p p p p p p p p p p p p p p p p p p p p p p p p p p p p p p p s 5 > > > > > > > > > > > > @ 6 6 > > > > > > > > > > > > > > > > > > > > > > > > > > > > > > > > > > > > u V.G.M > Z.Z.` ,.p S.C.u z.S.l V.,.$ x.0XZ.z ' ' # [ H.k.k.G.B p D.V.u B.,.o > > > > > > > > > > > > > > > > > > > > > > > > > > > > > ",
"p p p p p p p p p p p p p p p p p p p p p p p p p p p p p p p p p p p p p p p p p p p p p p p p p p p p p p p p p p p p p p p p p p p p p p p p p p p p p p p p p p p p p p p p p p p p p p p p p p p p p p p p p p p p p p p p p p p p p p p p p p p p p p p p p p p p p p s 5 > > > > > > > > > > > > > > @ > > > > > > > > > > > > > > > > > > > > > > > > > > > > > > > > > > > > > > # # @ > # o @ o : # o > o # @ # @ # m.m.$ > @ @ > o # o o # @ : # o > # o > > > > > > > > > > > > > > > > > > > > > > > > > > > > > > ",
"s s s s s s s s s s s s s s s s s s s s s s s s s s s s s s s s s s s s s s s s s s s s s s s s s s s s s s s s s s s s s s s s s s s s s s s s s s s s s s s s s s s s s s s s s s s s s s s s s s s s s s s s s s s s s s s s s s s s s s s s s s s s s s s s s s s s s s 5 > > > > > > > > > > > > > > > > > > > > > > > > > > > > > > > > > > > > > > > > > > > > > > > > > > > > > > > > > > > > > > > > > > > > > > > o ` ' @ > > > > > > > > > > > > > > > > > > > > > > > > > > > > > > > > > > > > > > > > > > > > > > ",
"u u u u u u u u u u u u u u u u u u u u u u u u u u u u u u u u u u u u u u u u u u u u u u u u u u u u u u u u u u u u u u u u u u u u u u u u u u u u u u u u u u u u u u u u u u u u u u u u u u u u u u u u u u u u u u u u u u u u u u u u u u u u u u u u u u u u u > > > > > > > > > > > > > > > > > > > > > > > > > > > > > > > > > > > > > > > > > > > > > > > > > > > > > > > > > > > > > > > > > > > > > > > > > > @ @ > > > > > > > > > > > > > > > > > > > > > > > > > > > > > > > > > > > > > > > > > > > > > > > ",
"@ @ @ @ @ @ @ @ @ @ @ @ @ @ @ @ @ @ @ @ @ @ @ @ @ @ @ @ @ @ @ @ @ @ @ @ @ @ @ @ @ @ @ @ @ @ @ @ @ @ @ @ @ @ @ @ @ @ @ @ @ @ @ @ @ @ @ @ @ @ @ @ @ @ @ @ @ @ @ @ @ @ @ @ @ @ @ @ @ @ @ @ @ @ @ @ @ @ @ @ @ @ @ @ @ @ @ @ @ @ @ @ @ @ @ @ @ @ @ @ @ @ @ @ @ @ @ @ @ @ @ @ @ > > > > > > > > > > > > > > > > > > > > > > > > > > > > > > > > > > > > > > > > > @ @ @ @ @ @ @ @ @ @ @ @ @ @ @ @ @ @ @ @ @ @ @ @ @ @ @ @ @ @ @ @ @ > > @ @ @ @ @ @ @ @ @ @ @ @ @ @ @ @ @ @ @ @ @ @ @ @ @ @ @ @ @ @ @ @ @ @ @ @ @ @ @ @ @ @ @ @ @ @ @ ",
"z z z z z z z z z z z z z z z z z z z z z z z z z z z z z z z z z z z z z z z z z z z z z z z z z z z z z z z z z z z z z z z z z z z z z z z z z z z z z z z z z z z z z z z z z z z z z z z z z z z z z z z z z z z z z z z z z z z z z z z z z z z z z z z z z z z z z > > u u u u u u u u u u u u u u u u u u u > > 5 u u u u u u u u u u u u u u u > > z z z z z z z z z z z z z z z z z z z z z z z z z z z z z z z z z z z z z z z z z z z z z z z z z z z z z z z z z z z z z z z z z z z z z z z z z z z z z z z z z z ",
"] ] ] ] ] ] ] ] ] ] ] ] ] ] ] ] ] ] ] ] ] ] ] ] ] ] ] ] ] ] ] ] ] ] ] ] ] ] ] ] ] ] ] ] ] ] ] ] ] ] ] ] ] ] ] ] ] ] ] ] ] ] ] ] ] ] ] ] ] ] ] ] ] ] ] ] ] ] ] ] ] ] ] ] ] ] ] ] ] ] ] ] ] ] ] ] ] ] ] ] ] ] ] ] ] ] ] ] ] ] ] ] ] ] ] ] ] ] ] ] ] ] ] ] ] ] ] ] ] ] ] [ ` > > s s s s s s p p p p p p p s s s s s l 5 : p l s s l l s s s s s s s s s s > > ] ] ] [ [ ] [ [ ] [ [ [ ] [ ] ] ] ] [ ] [ [ [ [ ] ] [ [ ] ] [ ] ] ] ] ] ] ] ] ] ] ] ] ] ] ] ] ] ] ] ] ] ] ] ] ] ] ] ] ] ] ] ] ] ] ] ] ] ] ] ] ] ] ] ] ] ] ] ] ] ] ] ",
"' ' ' ' ' ' ' ' ' ' ' ' ' ' ' ' ' ' ' ' ' ' ' ' ' ' ' ' ' ' ' ' ' ' ' ' ' ' ' ' ' ' ' ' ' ' ' ' ' ' ' ' ' ' ' ' ' ' ' ' ' ' ' ' ' ' ' ' ' ' ' ' ' ' ' ' ' ' ' ' ' ' ' ' ' ' ' ' ' ' ' ' ' ' ' ' ' ' ' ' ' ' ' ' ' ' ' ' ' ' ' ' ' ' ' ' ' ' ' ' ' ' ' ' ' ' ' ' ' ' ' ' B > > s p p p s p M ,.' [ ] ,.` p s p p p s 5 > u s s p 5 u s s s p p s s s p p > > ' ' ` B B ` B B ` B B B ' B ' B ` ` B B B B B B ` ` B B ` ` B ' B ` ' ' ' ' ' ' ' ' ' ' ' ' ' ' ' ' ' ' ' ' ' ' ' ' ' ' ' ' ' ' ' ' ' ' ' ' ' ' ' ' ' ' ' ' ' ' ' ' ",
"' ' ' ' ' ' ' ' ' ' ' ' ' ' ' ' ' ' ' ' ' ' ' ' ' ' ' ' ' ' ' ' ' ' ' ' ' ' ' ' ' ' ' ' ' ' ' ' ' ' ' ' ' ' ' ' ' ' ' ' ' ' ' ' ' ' ' ' ' ' ' ' ' ' ' ' ' ' ' ' ' ' ' ' ' ' ' ' ' ' ' ' ' ' ' ' ' ' ' ' ' ' ' ' ' ' ' ' ' ' ' ' ' ' ' ' ' ' ' ' ' ' ' ' ' ' ' ' ' ' ' ] ` > > s p p p s u ] [ m.D.m.M k.u s p p p s 5 > u l p z k.] p 5 5 ' M u 5 p s p > > ' ` k.9X6X,.S.9Xm.D.9XC.] Z.B m.x.l.0XZ.G.eXD.6XB.[ 6X6X,.l.G.B B.,.` ' ' ' ' ' ' ' ' ' ' ' ' ' ' ' ' ' ' ' ' ' ' ' ' ' ' ' ' ' ' ' ' ' ' ' ' ' ' ' ' ' ' ' ' ' ' ' ",
"' ' ' ' ' ' ' ' ' ' ' ' ' ' ' ' ' ' ' ' ' ' ' ' ' ' ' ' ' ' ' ' ' ' ' ' ' ' ' ' ' ' ' ' ' ' ' ' ' ' ' ' ' ' ' ' ' ' ' ' ' ' ' ' ' ' ' ' ' ' ' ' ' ' ' ' ' ' ' ' ' ' ' ' ' ' ' ' ' ' ' ' ' ' ' ' ' ' ' ' ' ' ' ' ' ' ' ' ' ' ' ' ' ' ' ' ' ' ' ' ' ' ' ' ' ' ' ' ' ' ' ] ` > > s p p p s p ` V.l.s m.z.] p s p p p s 5 > p p c 6XB.k.l k.M c c B ,.z p p > > ' B m.G.B.H.8Xk.' eX,.6XZ.9XM D.Z.9Xk.,.,.eX[ 6Xm.6Xm.z.8Xm.IXk.G.x.` ' ' ' ' ' ' ' ' ' ' ' ' ' ' ' ' ' ' ' ' ' ' ' ' ' ' ' ' ' ' ' ' ' ' ' ' ' ' ' ' ' ' ' ' ' ' ' ",
"' ' ' ' ' ' ' ' ' ' ' ' ' ' ' ' ' ' ' ' ' ' ' ' ' ' ' ' ' ' ' ' ' ' ' ' ' ' ' ' ' ' ' ' ' ' ' ' ' ' ' ' ' ' ' ' ' ' ' ' ' ' ' ' ' ' ' ' ' ' ' ' ' ' ' ' ' ' ' ' ' ' ' ' ' ' ' ' ' ' ' ' ' ' ' ' ' ' ' ' ' ' ' ' ' ' ' ' ' ' ' ' ' ' ' ' ' ' ' ' ' ' ' ' ' ' ' ' ' ' ' ] ` > > s p p p s u ` G.z + B B.] p s p p p s 5 > p > N.N.s ] c B.S.Z.z.9XD.Z.5 s > > ' B l.wXwXk.9X9Xz.8XB z.8X6XM V.0XD.c ' ] 8X` Z.N.8X` B 8XB.G.8XD.x.` ' ' ' ' ' ' ' ' ' ' ' ' ' ' ' ' ' ' ' ' ' ' ' ' ' ' ' ' ' ' ' ' ' ' ' ' ' ' ' ' ' ' ' ' ' ' ' ",
"' ' ' ' ' ' ' ' ' ' ' ' ' ' ' ' ' ' ' ' ' ' ' ' ' ' ' ' ' ' ' ' ' ' ' ' ' ' ' ' ' ' ' ' ' ' ' ' ' ' ' ' ' ' ' ' ' ' ' ' ' ' ' ' ' ' ' ' ' ' ' ' ' ' ' ' ' ' ' ' ' ' ' ' ' ' ' ' ' ' ' ' ' ' ' ' ' ' ' ' ' ' ' ' ' ' ' ' ' ' ' ' ' ' ' ' ' ' ' ' ' ' ' ' ' ' ' ' ' ' ' ] ` > > s p p p s p ` n.B.' S.S.[ p s p p p s 5 > p > V.l.z qXx.V.7XS.z.Z.s 6Xu s > > ' B m.G.G.m.8Xk.' 9X` H.Z.8X` G.Z.9X] ' [ 9X' D.n.0Xx.k.8XV.B.Z.IX,.` ' ' ' ' ' ' ' ' ' ' ' ' ' ' ' ' ' ' ' ' ' ' ' ' ' ' ' ' ' ' ' ' ' ' ' ' ' ' ' ' ' ' ' ' ' ' ' ",
"' ' ' ' ' ' ' ' ' ' ' ' ' ' ' ' ' ' ' ' ' ' ' ' ' ' ' ' ' ' ' ' ' ' ' ' ' ' ' ' ' ' ' ' ' ' ' ' ' ' ' ' ' ' ' ' ' ' ' ' ' ' ' ' ' ' ' ' ' ' ' ' ' ' ' ' ' ' ' ' ' ' ' ' ' ' ' ' ' ' ' ' ' ' ' ' ' ' ' ' ' ' ' ' ' ' ' ' ' ' ' ' ' ' ' ' ' ' ' ' ' ' ' ' ' ' ' ' ' ' ' ] ` > > s p p p s u ] ' k.B.V.IXB.5 l p p p s 5 > p p ` 0Xx.H.7XH.H.H.m.S.c 7Xu s > > ' B l.V.k.D.H.9Xm.6X9XG.` N.9XG.` V.eXV.] D.] 0XV.k.9X9Xk.z.N.` wX,.` ' ' ' ' ' ' ' ' ' ' ' ' ' ' ' ' ' ' ' ' ' ' ' ' ' ' ' ' ' ' ' ' ' ' ' ' ' ' ' ' ' ' ' ' ' ' ' ",
"' ' ' ' ' ' ' ' ' ' ' ' ' ' ' ' ' ' ' ' ' ' ' ' ' ' ' ' ' ' ' ' ' ' ' ' ' ' ' ' ' ' ' ' ' ' ' ' ' ' ' ' ' ' ' ' ' ' ' ' ' ' ' ' ' ' ' ' ' ' ' ' ' ' ' ' ' ' ' ' ' ' ' ' ' ' ' ' ' ' ' ' ' ' ' ' ' ' ' ' ' ' ' ' ' ' ' ' ' ' ' ' ' ' ' ' ' ' ' ' ' ' ' ' ' ' ' ' ' ' ' ] ` > > s p p p s p M k.' ' ' z.[ u s p p p s 5 > u l u ` N.,.c l.' ` M ` l ' p p > > ' ' ' ` ' ` ` ] ' ` ] B ' ` ' ` ' B ' ' ' ` ' ` ' ` ' ' ` ' ` ' B ' ' ' ' ' ' ' ' ' ' ' ' ' ' ' ' ' ' ' ' ' ' ' ' ' ' ' ' ' ' ' ' ' ' ' ' ' ' ' ' ' ' ' ' ' ' ] ' ' ",
"' ] ] ] ] ] ' ] ] ] ] ' ] ] ] ] ' ] ] ] ' ] ] ' ] ] ] ] ] ] ] ] ] ] ] ] ] ] ] ] ] ] ] ] ] ] ' ' ] ' ' ' ' ` ' ' ' ] ] ] ] ' ] ] ] ] ] ] ] ] ] ' ] ] ] ] ] ] ' ] ] ] ] ] ' ] ] ] ] ' ' ] ] ] ' ] ] ] ' ] ] ' ' ] ] ] ] ] ] ] ] ] ] ] ] ] ] ] ] ] ] ] ] ] ] ' ] ] ' ' ' ' B > > s p p p p s p p p p p u p s p p p p s 5 > u s s u > u p > u u p p p u s p > > ' ] ] ] ] ] ] ] ] ] ] ] ] ] ] ] ' ] ] ] ] ] ] ] ] ] ] ] ] ] ] ' ] ] ] ] ] ] ] ] ] ] ] ] ] ] ] ' ] ] ] ] ] ] ] ] ] ] ] ] ] ] ] ' ] ] ] ] ] ] ] ] ] ] ] ] ] ] ` B ] ] ",
"s p p p p p l p p p p s s p p p l p p p s p p l p p p p p p p p p p p p p p p p p p p p p p s l a d d a c T l l l s s p p l p p p p p p p p s s p p p p p p l p p p p p s p p p p s l p p p l p p p l p p l l p p p p p p p p p p p p p p p p p p p p p p l p s l l l T _ > > s p p p p p s p p p p s s p p p p p s 5 > u s p s l s s l s s s s s s s p > 5 c p p p p p p p p p p p p p p p l p p p p p p p p p p p p p p s s p p p p p p p p p p p p p p l p p p p p p p p p p p p p p p l p p p p p p p p p p p p p u ^  .u p ",
"l > > > > > z > > > > s p > > u z > > u l > > c u > > > > > > > > > > > > > > > > > > > > > a z i a h f :.a.9 e 9 9 7 6 u l > > > > > > > > p p > > > > > 5 z > > > > > l u > > > l r 5 > > z > > 5 z > O R 0 @ > > > > > > > > > > > > > > > > > > > > 5 z 6 7 9 e 9 p.w.O > s p p p p s p m w.3.w._ p s p p p p s 5 > u s p s s s s s s s s s s s s p > 5 l > > > > > > > > > > > > > > u z > > > > > > > > > > > > > > l s > > > > > > > > > > > > > > z 5 > > > > > > > > > > > > > u z > > > > > > > > > > > > 1   $.dX  1 ",
"l > u 5 5 5 z u 5 u > s p > 5 u z > 5 u z > > c u 5 5 5 5 5 5 5 5 5 5 5 5 5 5 5 5 5 5 5 5 > a z i g h f :.i.9 e 9 9 7 6 p z > u 5 5 5 5 5 > p s > u 5 5 5 u z > 5 5 u > z u 5 u 5 z r 5 u 5 z 5 5 u z 5 @ R 0 > 5 5 5 5 5 5 5 5 5 5 5 5 5 5 5 5 5 5 5 5 u z 6 9 9 e 9 p.w.O > s p p p p s p ( r.e.r.;.p s p p p p s 5 > u s p k k k k k k k k k k p s p > 5 z > u 5 5 5 5 5 5 5 5 5 5 5 5 u z > u 5 5 5 5 5 5 5 5 5 5 u > z s > u 5 5 5 5 5 5 5 5 5 5 5 > z u 5 5 5 5 5 5 u u u 5 5 u > p c > u 5 5 5 5 u 5 5 u 5 5 u X @.pXX u ",
"l > 5 5 5 5 z 5 5 5 > s p > 5 u z > > u z > > c u > 5 5 5 5 5 5 5 5 5 5 5 5 5 5 5 5 5 5 5 > a z i g h f :.i.9 e 9 9 7 6 p z > 5 5 5 5 5 5 > p s > 5 5 5 5 u z > 5 5 5 > z u > 5 > z r 5 > 5 z 5 5 u z 5 @ R 0 > 5 5 5 5 5 5 5 5 5 5 5 5 5 5 5 5 5 5 5 > u z 6 9 9 e 9 p.w.O > s p p p p s p ( r.e.r.;.p s p p p p s 5 > u s d C C C C C C C C C C h p p > 5 z > 5 5 5 5 5 5 5 5 5 5 5 5 > u z > 5 5 5 5 5 5 5 5 5 5 5 5 > z s > 5 5 5 5 5 5 5 5 5 5 5 5 > z u 5 5 5 5 u > v ;X$...n > > p z > @ u p ..p > u u p ..+ ..v +.pX  u ",
"l > 5 5 5 5 z 5 5 5 > s p > 5 u z > > u z > > c u > 5 5 5 5 5 5 5 5 5 5 5 5 5 5 5 5 5 5 5 > a z i g h f :.i.9 e 9 9 7 6 p z > 5 5 5 5 5 5 > p s > 5 5 5 5 u z > 5 5 5 > z u > 5 > z r 5 > 5 z 5 5 u z 5 @ R 0 > 5 5 5 5 5 5 5 5 5 5 5 5 5 5 5 5 5 5 5 > u z 6 9 9 e 9 p.w.O > s p p p p s p ( r.e.r.;.p s p p p p s 5 > p k g L.L.L.L.L.L.L.L.L.L.D 6 p > 5 z > 5 5 5 5 5 5 5 5 5 5 5 5 > u z > 5 5 5 5 5 5 5 5 5 5 5 5 > z s > 5 5 5 5 5 5 5 5 5 5 5 5 > z u 5 5 5 5 5 u X ..^ o.;X .o.o.o.#.o.#.v #.#.^ ..#.^ o.o.uXn o.pX  u ",
"l > 5 5 5 5 z 5 5 5 > s p > 5 u z > > u z > > c u > 5 5 5 5 5 5 5 5 5 5 5 5 5 5 5 5 5 5 5 > a z i g h f :.i.9 e 9 9 7 6 p z > 5 5 5 5 5 5 > p s > 5 5 5 5 u z > 5 5 5 > z u > 5 > z r 5 > 5 z 5 5 u z 5 @ R 0 > 5 5 5 5 5 5 5 5 5 5 5 5 5 5 5 5 5 5 5 > u z 6 9 9 e 9 p.w.O > s p p p p s p ( r.e.r.;.p s p p p p s 5 > p p c c.c.c.c.c.c.c.c.c.c.V p s > 5 z > 5 5 5 5 5 5 5 5 5 5 5 5 > u z > 5 5 5 5 5 5 5 5 5 5 5 5 > z s > 5 5 5 5 5 5 5 5 5 5 5 5 > z u 5 5 5 5 5 u + ..^ ..X.o.o.n ;Xo...o.^ o.^ $. .^ o.#. . .^ o.pX  u ",
"l > 5 5 5 5 z 5 5 5 > s p > 5 u z > > u z > > c u > 5 5 5 5 5 5 5 5 5 5 5 5 5 5 5 5 5 5 5 > a z i g h f :.i.9 e 9 9 7 6 p z > 5 5 5 5 5 5 > p s > 5 5 5 5 u z > 5 5 5 > z u > 5 > z r 5 > 5 z 5 5 u z 5 @ R 0 > 5 5 5 5 5 5 5 5 5 5 5 5 5 5 5 5 5 5 5 > u z 6 9 9 e 9 p.w.O > s p p p p s p ( r.e.r.;.p s p p p p s 5 > p p ! tXtXtXtXtXtXtXtXtXtXu.u k > 5 z > 5 5 5 5 5 5 5 5 5 5 5 5 > u z > 5 5 5 5 5 5 5 5 5 5 5 5 > z s > 5 5 5 5 5 5 5 5 5 5 5 5 > z u 5 5 5 5 5 u + ..^  .^ o...v @...n $... . ...o.$. .o.o.;Xv o.pX  u ",
"l > 5 5 5 5 z 5 5 5 > s p > 5 u z > > u z > > c u > 5 5 5 5 5 5 5 5 5 5 5 5 5 5 5 5 5 5 5 > a z i g h f :.i.9 e 9 9 7 6 p z > 5 5 5 5 5 5 > p s > 5 5 5 5 u z > 5 5 5 > z u > 5 > z r 5 > 5 z 5 5 u z 5 @ R 0 > 5 5 5 5 5 5 5 5 5 5 5 5 5 5 5 5 5 5 5 > u z 6 9 9 e 9 p.w.O > s p p p p s p ( r.e.r.;.p s p p p p s 5 > p p ! 5X5X5X5X5X5X5X5X5X5X| u s > 5 z > 5 5 5 5 5 5 5 5 5 5 5 5 > u z > 5 5 5 5 5 5 5 5 5 5 5 5 > z s > 5 5 5 5 5 5 5 5 5 5 5 5 > z u 5 5 5 5 5 5 5 u u u u p u p c n v n u p u u p n 5 u v n X @.pX  u ",
"l > 5 5 5 5 z 5 5 5 > s p > 5 u z > > u z > > c u > 5 5 5 5 5 5 5 5 5 5 5 5 5 5 5 5 5 5 5 > a z i g h f :.i.9 e 9 9 7 6 p z > 5 5 5 5 5 5 > p s > 5 5 5 5 u z > 5 5 5 > z u > 5 > z r 5 > 5 z 5 5 u z 5 @ R 0 > 5 5 5 5 5 5 5 5 5 5 5 5 5 5 5 5 5 5 5 > u z 6 9 9 e 9 p.w.O > s p p p p s p ( r.e.r.;.p s p p p p s 5 > p p ! tXtXtXtXtXtXtXtXtXtXu.u k > 5 z > 5 5 5 5 5 5 5 5 5 5 5 5 > u z > 5 5 5 5 5 5 5 5 5 5 5 5 > z s > 5 5 5 5 5 5 5 5 5 5 5 5 > z u 5 5 5 5 5 5 5 5 5 5 5 5 > p z + 5 > 5 5 5 5 5 > 5 5 > 5 X @.pX  u ",
"l > 5 5 5 5 z 5 5 5 > s p > 5 u z > > u z > > c u > 5 5 5 5 5 5 5 5 5 5 5 5 5 5 5 5 5 5 5 > a z i g h f :.i.9 e 9 9 7 6 p z > 5 5 5 5 5 5 > p s > 5 5 5 5 u z > 5 5 5 > z u > 5 5 z r 5 5 5 z 5 5 u z 5 @ R 0 > 5 5 5 5 5 5 5 5 5 5 5 5 5 5 5 5 5 5 5 > u z 6 9 9 e 9 p.w.O > s p p p p s p ( r.e.r.;.p s p p p p s 5 > p p x u.u.u.u.u.u.u.u.u.u.) p s > 5 z > 5 5 5 5 5 5 5 5 5 5 5 5 > u z > 5 5 5 5 5 5 5 5 5 5 5 5 > z s > 5 5 5 5 5 5 5 5 5 5 5 5 > z u 5 5 5 5 5 5 5 5 5 5 5 5 > p c > u u 5 5 5 5 5 u 5 5 5 u X @.pX  u ",
"l > 5 5 5 5 z 5 5 5 > s p > 5 u z > > u z > > c u > 5 5 5 5 5 5 5 5 5 5 5 5 5 5 5 5 5 5 5 > a z i g h f :.i.9 e 9 9 7 6 p z > 5 5 5 5 5 5 > p s > 5 5 5 5 u z > 5 5 5 > z u > 5 > z &.6 > 5 z 5 5 u z 5 @ R 0 > 5 5 5 5 5 5 5 5 5 5 5 5 5 5 5 5 5 5 5 > u z 6 9 9 e 9 p.w.O > s p p p p s p ( r.e.r.;.p s p p p p s 5 > u s p x ! x x x x x x x x l p p > 5 z > 5 5 5 5 5 5 5 5 5 5 5 5 > u z > 5 5 5 5 5 5 5 5 5 5 5 5 > z s > 5 5 5 5 5 5 5 5 5 5 5 5 > z u 5 5 5 5 5 5 5 5 5 5 5 5 > p c > 5 5 5 5 5 5 5 5 5 5 5 u X @.pX  u ",
"l > 5 5 5 5 z 5 5 5 > s p > 5 u z > 5 u z > > c u 5 5 5 5 5 5 5 5 5 5 5 5 5 5 5 5 5 5 5 5 > a z i a h f :.i.9 e 9 9 7 6 p z > 5 5 5 5 5 5 > p s > 5 5 5 5 u z > 5 5 5 > z u 5 5 7 >.H r 6 > z 5 5 u z 5 @ R 0 > 5 5 5 5 5 5 5 5 5 5 5 5 5 5 5 5 5 5 5 5 u z 6 9 9 e 9 p.w.O > s p p p p s p ( r.e.r.;.p s p p p p s 5 > u s k x x x x x x x x x x l p p > 5 z > 5 5 5 5 5 5 5 5 5 5 5 5 > u z > 5 5 5 5 5 5 5 5 5 5 5 5 > z s > 5 5 5 5 5 5 5 5 5 5 5 5 > z u 5 5 5 5 5 5 5 5 5 5 5 5 > p c > 5 5 5 5 5 5 5 5 5 5 5 u X @.pX  u ",
"d > 1 1 1 > z 1 1 1 > a p > > u z > > u d > > c u > 1 1 1 1 1 1 1 1 1 1 1 1 1 1 1 1 1 1 1 > a z i g h f :.i.9 9 9 7 6 5 u z > 1 1 1 1 1 1 > p a > 1 1 1 > 1 z > 1 1 1 > l u > 6 t y *.y r 5 z 1 1 1 z > % _ l % 1 1 1 1 1 1 1 1 1 1 1 1 1 1 1 1 1 1 1 > u z 6 7 9 0 9 p.w.O > s p p p p s p ( r.e.r.;.p s p p p p s 5 > u s s / ) ) ) ) ) ) ) ) ) l p p > 5 z > 5 5 5 5 5 5 5 5 5 5 5 5 > u z > 5 5 5 5 5 5 5 5 5 5 5 5 > z s > 5 5 5 5 5 5 5 5 5 5 5 5 > z u 5 5 5 5 5 5 5 5 5 5 5 5 > p c > 5 5 5 5 5 5 5 5 5 5 5 u X @.pX  u ",
"N 7 7 7 7 7 N 7 7 7 7 N N 7 7 9 N 7 7 9 N 7 7 m 9 7 7 7 7 7 7 7 7 7 7 7 7 7 7 7 7 7 7 7 7 7 N M s c b h 1.a.r r r e w 9 9 N 7 7 7 7 7 7 7 7 N N 7 7 7 7 7 7 N 7 7 7 7 7 N 9 7 r y 9.SX*.t r N 7 7 7 N 7 6 =.Y 7 7 7 7 7 7 7 7 7 7 7 7 7 7 7 7 7 7 7 7 7 9 m w e r T e p.w.O > s p p p p s p ( r.e.r.;.p s p p p p s 5 > u s k x x x x x x x x x x l p p > 5 z > 5 5 5 5 5 5 5 5 5 5 5 5 > u z > 5 5 5 5 5 5 5 5 5 5 5 5 > z s > 5 5 5 5 5 5 5 5 5 5 5 5 > z u 5 5 5 5 5 5 5 5 5 5 5 5 > p c > 5 5 5 5 5 5 5 5 5 5 5 u X @.pX  u ",
"m w w w w w m w w w w r r w w w m w w w m w w >.w w w w w w w w w w w w w w w w w w w w w w N N N N B V 3.a.&.&.&.r r t r m w w w w w w w w r r w w w w w w m w w w w w m w w &.y 5.@X*.H r m w w w m w w =.&.w w w w w w w w w w w w w w w w w w w w w t >.t r T &.T i.w.O > s p p p p s p ( r.e.r.;.p s p p p p s 5 > u s s / ) ) ) ) ) ) ) ) ) l p p > 5 z > u 5 5 5 5 5 5 5 5 5 5 5 5 u z > 5 5 5 5 5 5 5 5 5 5 5 u > z s > u 5 5 5 5 5 5 5 5 5 5 5 > z u 5 5 5 5 5 5 5 5 5 5 5 5 > p c > u 5 5 5 5 5 5 5 5 5 5 u X @.pXX u ",
"b a z d z d b z d z a c z d d z b d d z b d d B z d d d d d d d d d d d d d d d d d d d z d b n b n V Z 2.a.m ( m m c z z b d z d d d d z d z c a z d d d z b d z d z d b z a z &.J r -.7.a b z d z b z i } ! a z d d d d d d d d d d d d d d d d d z d z M z m m ( m p.w.O > s p p p p s p ( r.e.r.;.p s p p p p s 5 > u s k x x x x x x x x x x l p p > 5 z > > > > > > > > > > > > > > u z > > > > > > > > > > > > > > l s > > > > > > > > > > > > > > z 5 > > > > > > > > > > > > > u z > > > > > > > > > > > > 1   @.pX  1 ",
"z 5 u u u u z u u u 5 l p 5 u u z 5 5 p z 5 5 M p 5 u u u u u u u u u u u u u u u u u u u 5 d z a g h f :.i.9 e 9 9 9 6 p z 5 u u u u u u 5 s l 5 u u u u u z 5 u u u 5 z p u > g.-XI.I.g.t z u u u z 6 1 R x 1 u u u u u u u u u u u u u u u u u u u u p c 7 9 9 e 9 p.w.O > s p p p p s p ( r.e.r.;.p s p p p p s 5 > u s s / ) ) ) ) ) ) ) ) ) l p p > 5 z p p p p p p p p p p p p p p s c p p p p p p p p p p p p p p c z p p p p p p p p p p p p p p c p p p p p p p p p p p p p p l M p p p p p p p p p p p p s = #.pX= s ",
"l > 5 5 5 > z 5 5 5 > s p > > u z > > u l > > c u > 5 5 5 5 5 5 5 5 5 5 5 5 5 5 5 5 5 5 5 > a z i a h f :.i.9 e 9 9 7 6 u z > 5 5 5 5 5 5 > p s > 5 5 5 > u z > 5 5 5 > z u 1 y U.R.L Y.U.*.v 5 > 5 z 5 @ R 0 > 5 5 5 5 5 5 5 5 5 5 5 5 5 5 5 5 5 5 5 > u z 6 9 9 e 9 p.w.O > s p p p p s p ( r.e.r.;.p s p p p p s 5 > u s k x x x x x x x x x x l p p > 5 z p s s s s s s s s s s s s s l c s s s s s s s s s s s s s p M c p s s s s s s s s s s s s s M l s s s s s s s s s s s s s z B p s s s s s s s s s s s z 5 #.pX= z ",
"l > 5 5 5 5 z 5 5 5 > s p > 5 u z > > u z > > c u > 5 5 5 5 5 5 5 5 5 5 5 5 5 5 5 5 5 5 5 > a z i g h f :.i.9 e 9 9 7 6 p z > 5 5 5 5 5 5 > p s > 5 5 5 5 u z > 5 5 5 > z p : K *XP.y I T.g.r 1 5 u z 5 @ R 0 > 5 5 5 5 5 5 5 5 5 5 5 5 5 5 5 5 5 5 5 > u z 6 9 9 e 9 p.w.O > s p p p p s p ( r.e.r.;.p s p p p p s 5 > u s s / ) ) ) ) ) ) ) ) ) l p p > 5 z > > > > > > > > > > > > > > u l > > > > > > > > > > > > > > l s > > > > > > > > > > > > > > z > > > > > > > > > > > > > > u z > > > > > > > > > > > > 1   @.pX  1 ",
"l > 5 5 5 5 z 5 5 5 > s p > 5 u z > > u z > > c u > 5 5 5 5 5 5 5 5 5 5 5 5 5 5 5 5 5 5 5 > a z i g h f :.i.9 e 9 9 7 6 p z > 5 5 5 5 5 5 > p s > 5 5 5 5 u z > 5 5 5 > z u y U.Y.V H z R.U.-.1 5 u z 5 @ R 0 > 5 5 5 5 5 5 5 5 5 5 5 5 5 5 5 5 5 5 5 > u z 6 9 9 e 9 p.w.O > s p p p p s p ( r.e.r.;.p s p p p p s 5 > u s k x x x x x x x x x x l p p > 5 z > u 5 5 5 5 5 5 5 5 5 5 5 5 u z > u 5 5 5 5 5 5 5 5 5 5 u > z l > u 5 5 5 5 5 5 5 5 5 5 5 5 z u 5 5 5 5 5 5 5 5 5 5 5 5 > p c > u 5 5 5 5 5 5 5 5 5 5 u X @.pXX u ",
"l > 5 5 5 5 z 5 5 5 > s p > 5 u z > > u z > > c u > 5 5 5 5 5 5 5 5 5 5 5 5 5 5 5 5 5 5 5 > a z i g h f :.i.9 e 9 9 7 6 p z > 5 5 5 5 5 5 > p s > 5 5 5 5 u z > 5 5 5 > z > K *XI e H 8 P.Y.8.6 1 u z 5 @ R 0 > 5 5 5 5 5 5 5 5 5 5 5 5 5 5 5 5 5 5 5 > u z 6 9 9 e 9 p.w.O > s p p p p s p ( r.e.r.;.p s p p p p s 5 > u s s ! ) / / / / / / / ) l p p > 5 z > 5 5 5 5 5 5 5 5 5 5 5 5 > u z > 5 5 5 5 5 5 5 5 5 5 5 5 > z s > 5 5 5 5 5 5 5 5 5 5 5 5 > z u 5 5 5 5 5 5 5 5 5 5 5 5 > p c > 5 5 5 5 5 5 5 5 5 5 5 u X @.pX  u ",
"l > 5 5 5 5 z 5 5 5 > s p > 5 u z > > u z > > c u > 5 5 5 5 5 5 5 5 5 5 5 5 5 5 5 5 5 5 5 > a z i g h f :.i.9 e 9 9 7 6 p z > 5 5 5 5 5 5 > p s > 5 5 5 5 u z > 5 5 5 > d y U.Y.d N H 8 A T.K.J 1 5 z 5 @ R 0 > 5 5 5 5 5 5 5 5 5 5 5 5 5 5 5 5 5 5 5 > u z 6 9 9 e 9 p.w.O > s p p p p s p ( r.e.r.;.p s p p p p s 5 > u s k x x x x x x x x x x l p p > 5 z > 5 5 5 5 5 5 5 5 5 5 5 5 > u z > 5 5 5 5 5 5 5 5 5 5 5 5 > z s > 5 5 5 5 5 5 5 5 5 5 5 5 > z u 5 5 5 5 5 5 5 5 5 5 5 5 > p c > 5 5 5 5 5 5 5 5 5 5 5 u X @.pX  u ",
"l > 5 5 5 5 z 5 5 5 > s p > 5 u z > > u z > > c u > 5 5 5 5 5 5 5 5 5 5 5 5 5 5 5 5 5 5 5 > a z i g h f :.i.9 e 9 9 7 6 p z > 5 5 5 5 5 5 > p s > 5 5 5 5 u z > 5 5 5 u k L *XI 8 N H 7 7 Y.U.4.u u z 5 @ R 0 > 5 5 5 5 5 5 5 5 5 5 5 5 5 5 5 5 5 5 5 > u z 6 9 9 e 9 p.w.O > s p p p p s p ( r.e.r.;.p s p p p p s 5 > u s s ! / / / / / / / / / l p p > 5 z > 5 5 5 5 5 5 5 5 5 5 5 5 > u z > 5 5 5 5 5 5 5 5 5 5 5 5 > z s > 5 5 5 5 5 5 5 5 5 5 5 5 > z u 5 5 5 5 5 5 5 5 5 5 5 5 > p c > 5 5 5 5 5 5 5 5 5 5 5 u X @.pX  u ",
"l > 5 5 5 5 z 5 5 5 > s p > 5 u z > > u z > > c u > 5 5 5 5 5 5 5 5 5 5 5 5 5 5 5 5 5 5 5 > a z i g h f :.i.9 e 9 9 7 6 p z > 5 5 5 5 5 5 > p s > 5 5 5 5 u z > 5 5 u > r I.Y.7 7 N H 7 8 I T.g.J 1 z 5 @ R 0 > 5 5 5 5 5 5 5 5 5 5 5 5 5 5 5 5 5 5 5 > u z 6 9 9 e 9 p.w.O > s p p p p s p ( r.e.r.;.p s p p p p s 5 > u s k x ! x x x x x x x ! l p p > 5 z > 5 5 5 5 5 5 5 5 5 5 5 5 > u z > 5 5 5 5 5 5 5 5 5 5 5 5 > z s > 5 5 5 5 5 5 5 5 5 5 5 5 > z u 5 5 5 5 5 5 5 5 5 5 5 5 > p c > 5 5 5 5 5 5 5 5 5 5 5 u X @.pX  u ",
"l > 5 5 5 5 z 5 5 5 > s p > 5 u z > > u z > > c u > 5 5 5 5 5 5 5 5 5 5 5 5 5 5 5 5 5 5 5 > a z i g h f :.i.9 e 9 9 7 6 p z > 5 5 5 5 5 5 > p s > 5 5 5 5 u z > 5 5 1 8 U T.L 8 7 N H 7 8 C T.U 5.7 z 5 @ R 0 > 5 5 5 5 5 5 5 5 5 5 5 5 5 5 5 5 5 5 5 > u z 6 9 9 e 9 p.w.O > s p p p p s p ( r.e.r.;.p s p p p p s 5 > u s s ! / / / / / / / / / l p p > 5 z > 5 5 5 5 5 5 5 5 5 > 5 5 > u z > 5 5 5 5 5 5 5 5 5 5 5 5 > z s > 5 5 5 5 5 5 5 5 > 5 5 > > z u 5 5 5 5 5 5 5 5 5 > 5 5 > p c > 5 5 5 5 5 5 5 5 5 5 5 u X @.pX  u ",
"l > 5 5 5 5 z 5 5 5 > s p > 5 u z > > u z > > c u > 5 5 5 5 5 5 5 5 5 5 5 5 5 5 5 5 5 5 5 > a z i g h f :.i.9 e 9 9 7 6 p z > 5 5 5 5 5 5 > p s > 5 5 5 5 u z > 5 1 , L *XP.8 7 7 N H 7 7 8 I.Y.J 6.z 5 @ R 0 > 5 5 5 5 5 5 5 5 5 5 5 5 5 5 5 5 5 5 5 > u z 6 9 9 e 9 p.w.O > s p p p p s p ( r.e.r.;.p s p p p p s 5 > u s k x ! ! ! ! ! ! ! ! ! l p p > 5 z > u > 5 5 5 5 5 5 > u u u 5 u z > 5 5 5 5 5 5 5 5 > > > u > z s > 5 5 5 5 5 5 5 5 p 5 > p 5 z u 5 5 5 5 5 5 5 5 u u > > > p c > 5 5 5 5 5 5 5 5 > 5 u p   @.pX  u ",
"l > 5 5 5 5 z 5 5 5 > s p > 5 u z > > u z > > c u > 5 5 5 5 5 5 5 5 5 5 5 5 5 5 5 5 5 5 5 > a z i g h f :.i.9 e 9 9 7 6 p z > 5 5 5 5 5 5 > p s > 5 5 5 5 u z u 1 , K =XI.7 7 7 7 N H 7 p 8 P *XD *.q.1 @ R 0 > 5 5 5 5 5 5 5 5 5 5 5 5 5 5 5 5 5 5 5 > u z 6 9 9 e 9 p.w.O > s p p p p s p ( r.e.r.;.p s p p p p s 5 > u s s ! / / / / / / / / / l p p > u l u p u u > 5 5 u > l [ l [ ] u z > 5 5 5 5 5 5 u 5 u h.B ,.B s l > 5 5 5 5 5 5 5 p ] ` M ] u z u 5 5 5 5 5 5 u > c h.z z ,.u c > 5 5 5 5 5 5 u > ] ` s k.7 +.pX  u ",
"l > 5 5 5 5 z 5 5 5 > s p > 5 u z > > u z > > c u > 5 5 5 5 5 5 5 5 5 5 5 5 5 5 5 5 5 5 5 > a z i g h f :.i.9 e 9 9 7 6 p z > 5 u u 5 5 5 > p s > 5 5 u u u z : 8 U *XI.N 7 7 7 7 N H l C 8 N Y.U.8 8.*.% _ 0 > 5 5 5 5 5 5 5 5 5 5 5 5 5 5 5 5 5 5 5 > u z 6 9 9 e 9 p.w.O > s p p p p s p ( r.e.r.;.p s p p p p s 5 > u s k x ! ! ! ! ! ! ! ! ! l p p > u s l [ ,.[ 5 5 5 5 @ ' [ B B B c s > 5 5 5 5 5 5 > @ B [ B k.B s l > 5 5 5 5 5 5 > > ` [ ,.` 5 z u 5 5 5 5 5 5 > > > c ` ` ] u c > 5 5 5 5 5 5 > @ B ' @ c N +.pX  u ",
"l > 5 5 5 5 z 5 5 5 > s p > 5 u z > > u z > > c u > 5 5 5 5 5 5 5 5 5 5 5 5 5 5 5 5 5 5 5 > a z i g h f :.i.9 e 9 9 7 6 p z > 5 u f u u u > p d u u 5 > , , N L I.T.U.s N 7 7 d 7 N H d C s e I T.C N -.*.=.k & 5 5 5 5 5 5 5 5 5 5 5 5 5 5 5 5 5 5 5 > u z 6 9 9 e 9 p.w.O > s p p p p s p ( r.e.r.;.p s p p p p s 5 > u s s ! / ! ! ! ! ! ! ! / l p p > u s z x.z ] p > > p B ,.M z.z B c s > 5 5 5 5 5 > z ` k.x.[ [ ` s l > 5 5 5 5 5 5 B s u k.,.B B p u 5 5 5 5 5 > p B u ` B x.k.p z > 5 5 5 5 5 > c z s ` > [ = @.pX  u ",
"z 5 5 5 5 5 z 5 5 5 5 l p 5 5 u z 5 5 p z 5 5 M u 5 5 5 5 5 5 5 5 5 5 5 u u u u u u u u u u d b i h h f :.i.9 e 9 9 7 6 p z > > g F > > > : 6 6 : , 5 i L P.Y.*XY.L 8 8 N 7 7 C C N H l C C N C Y.P.e 6 &.a.8.r 6 1 1 1 1 > 5 5 5 5 5 5 5 5 5 5 5 5 5 5 u z 6 9 9 e 9 p.w.O > s p p p p s p ( r.e.r.;.p s p p p p s 5 > u s k ! ! ! ! ! ! ! ! ! ! l p p > u s z k.z ' p 5 5 u p M [ ` [ [ p z > u 5 5 5 5 5 p s p [ ] ] ` l l > u 5 5 5 5 u p z ' ] ` [ z l u 5 5 5 5 5 5 u p [ k.z z [ p c > u 5 5 5 5 5 p p z B ' l.8 @.pXX u ",
"a O @ @ @ O a @ @ @ O i u O O 1 a O O 1 a O O z 1 O @ @ @ @ @ @ @ @ @ @ @ > > > > : : : : : 6 9 , u p 3 ;.i.y y q q 8 8 6 l > , A /.i i j Z S I P.P.I.Y.T.Y.I.L s 8 7 7 N 9 7 C C V H C C C N 8 P.T.L y R Q -.p.7.*.H t 7 6 5 1 1 1 1 1 1 1 1 1 1 1 1 > u z 6 9 9 e 9 p.w.O > s p p p p s p ( r.e.r.;.p s p p p p s 5 > u s k ! ! ! ! ! ! ! ! ! ! l p p > 5 l > u > 5 > > > > > > p > u u > l > > > > > > > > > > > > s > s p > > > > > > > > 5 s > > p > z > > > > > > > > > u p u > > u z > > > > > > > > > > 5 u s = +.pX  1 ",
":.>.>.>.>.>.1.>.>.>.>.>.>.>.>.>.1.>.>.>.1.>.>.1.>.>.>.>.>.>.:.:.:.:.:.:.<.K K K L L L L I I I P.P.P.P.P.K.f.I I I P.P.P.U.I.I.I.Y.T.R.R.R.R.T.T.Y.Y.U.I D j d + = 5 5 5 N 7 8 C C A K C C C N 8 d Y.U.Q Q >X,XQ =.H *.*.6.6.*.*.J H H H t t t w 7 7 7 7 7 N 7 w w e w p.w.O > s p p p p s p ( r.e.r.;.p s p p p p s 5 > u s k ! ! ! ! ! ! ! ! ! ! l p p > 5 z p p p p p p p p p p p p p p l M p p p p p p p p p p p p p p M c p p p p p p p p p p p p p p M s p p p p p p p p p p p p p z B p p p p p p p p p p p p p = #.pX= s ",
"CXCXCXCXCXCXCXCXCXCXCXCXCXCXCXCXCXCXCXCXCXCXCXCXCXCXCXCXCXCXCXCXCXCXCXCXCXZXZXZXZXZXZXZXBXNXFX&X-X-X-XY.^.&XI.(.(.(.(.(.(.(.(.^.).).J.J.6XrX3X3X2X2X,X>X>X<X2Xy.y.y.w.1.1.:.' A A j.2.,.j.<.:._ R v.=Xz.Q LXLXy.=._ ( _ >.;.3.3.8.8.8.8.8.8.8.8.8.8.8.8.0.s.0.s.s.s.s.bXw.O > s p p p p s p ( r.e.r.;.p s p p p p s 5 > u s k ! ! ! ! ! ! ! ! ! ! l p p > > M C.Z.Z.Z.Z.Z.Z.Z.Z.Z.Z.Z.Z.Z.Z.Z.Z.Z.Z.Z.Z.Z.Z.Z.Z.Z.Z.Z.Z.Z.Z.Z.Z.Z.Z.Z.Z.Z.Z.Z.Z.Z.Z.Z.Z.Z.Z.Z.Z.Z.Z.Z.Z.Z.Z.Z.Z.Z.Z.Z.Z.Z.Z.Z.Z.Z.Z.Z.Z.Z.Z.Z.Z.Z.Z.Z.V.kXjXV.Z.",
"=.&.&.&.&.&.=.&.&.&.&.=.=.&.&.=.=.&.&.=.=.&.&.3.=.&.&.&.&.&.&.&.&.&.&.&.=.=.=.=.t.t.t.p.i.1XbXmXmXmXZXVXVXbXp.t.&.E e q 0 Y Y Q k.).R Q Q Q W =.W =.=.w.y.u.r.y.<X<X<X2X4X4X2X2Xr.u.3.<.] { ;.R R E U.^.Q p.,XQ w.R R R R R Y Y Y Y Y Y Y Y Y T T T T T R ;.R &.=.=.=.1Xw.O > s p p p p s p ( r.e.r.;.p s p p p p s 5 > u s s ! / ! ! ! ! ! ! ! / l p p > 5 z u u u u u u u u u u u u u u p z u u u u u u u u u u u u u u z z u u u u u u u u u u u u u u c p u u u u u u u u u u u u u p M u u u u u u u u u u u u p = $.pX= p ",
"a O o % % % a % % % O i 3 % % 1 a % % 1 a % % b 1 % % % % % % % % % % % % & & & & & & & % % i b z <.3.d.3XmXmXCXCXmXbXi.s.e.=.&.c._.L N w z N m 9 7 7 7 7 v.A 8 C l 9 9 ( :.1.r.<X4X4X2Xu.:.;.E R Q c.=XF.=.W y.=.E E E E E E E E E E E E E E E E E E E R ;.E &.=.=.&.1Xw.O > s p p p p s p ( r.e.r.;.p s p p p p s 5 > u s k x ! ! ! ! ! ! ! ! ! l p p > 5 z > 5 > > > > > > > > > > > > u z > > > > > > > > > > > > 5 > l s > > > > > > > > > > > > > > z 5 > > > > > > > > > > > > > u z > 5 > > > > > > > > > > u X @.pX  u ",
"k A P 5 5 5 z 5 5 5 > b p 5 5 u z 5 5 p z 5 5 M u 5 5 5 5 5 5 5 5 5 5 5 5 5 5 5 5 5 5 5 5 > d s D ~.f * <.i.T w.s.1XbXmXmXCXCXCXCXCXCXCXCXmXmXCXmXmXmXmXmXZXmXmXmXmXmXmXmXmXmXbXmXmXCXHXCXMXmXmXmXmXmXZXZXMXCXmXmXmXmXmXmXmXmXmXmXmXmXmXmXmXmXmXmXmXmXmXmXmXmXmXmXmXmXmXe.O > s p p p p s p ( r.e.r.;.p s p p p p s 5 > u s s ! / / / / / / / / / l p p > 5 z > u 5 5 5 5 5 5 5 5 5 5 5 5 u z > 5 5 5 5 5 5 5 5 5 5 5 u > z s > 5 5 5 5 5 5 5 5 5 5 5 5 > z u 5 5 5 5 5 5 5 5 5 5 5 5 > p c > u 5 5 5 5 5 5 5 5 5 5 u X @.pXX u ",
"6 Q./.> u 5 z 5 5 5 > !.P : u u z > > u z > > c u > 5 5 5 5 u u 5 5 5 > 5 > 5 > u 5 5 5 5 > d s S }.A F K.p.l C p D p 6 e >.T =.).-XDXF.r.6Xf.s.s.s.i.p.i.FX3Xs.f.f.i.s.f.f.f.FXf.i.a.f.FX3Xs.bXMX1Xa.i.&X&Xa.a.a.a.a.a.a.a.a.a.a.a.a.a.a.a.a.a.a.a.a.a.1X1X1X1X1X1X1XbXe.O > s p p p p s p ( r.e.r.;.p s p p p p s 5 > u s k x ! ! ! ! ! ! ! ! ! l p p > 5 z > 5 5 5 5 5 5 5 5 5 5 5 5 > u z > 5 5 5 5 5 5 5 5 5 5 5 5 > z s > 5 5 5 5 5 5 5 5 5 5 5 5 > z u 5 5 5 5 5 5 5 5 5 5 5 5 > p c > 5 5 5 5 5 5 5 5 5 5 5 u X @.pX  u ",
"l !.'.> 5 5 z 5 5 5 > '.W.: u u z > > u z > > c u > 5 5 5 5 : > u 5 5 u u i 5 u > > u u u 1 d s F }.S ~._.p.A ^.V (.V 6 i Z * Z {.{.{.{.F {.P.1 D Z O % & [.I * [.D & * Z * G [.F 2 y F  XE.f i 1.,X5XV D T.I < k 7 7 7 7 7 7 7 7 7 7 7 7 7 7 7 7 7 7 6 0 / 0 0 e Y 0 p.w.O > s p p p p s p ( r.e.r.;.p s p p p p s 5 > u s s ! / / / / / / / / / l p p > 5 z > 5 5 5 5 5 5 5 5 5 5 5 5 > u z > 5 5 5 5 5 5 5 5 5 5 5 5 > z s > 5 5 5 5 5 5 5 5 5 5 5 5 > z u 5 5 5 5 5 5 5 5 5 5 5 5 > p c > 5 5 5 5 5 5 5 5 5 5 5 u X @.pX  u ",
"z !.].F > 5 z u u > u '.W.: u u z > 5 p z > > c u > 5 5 u > E.j > > h ~.P W.u Q.v.5 > > > : p s v.}.E.~.).nX^._.j._.S 6 j P F D ].|.].|.E.].Q.6 /.E.i u Z '.E.S }.F u j p I E./.'.A t P }.Q.h g G d 5X3XQ P.*XA q 0 0 0 0 0 0 0 0 0 0 0 0 0 0 0 0 0 0 0 e _ e Y T R Y i.w.O > s p p p p s p ( r.e.r.;.p s p p p p s 5 > u s k x ! x x x x x x x ! l p p > 5 z > 5 5 5 5 5 5 5 5 5 5 5 5 > u z > 5 5 5 5 5 5 5 5 5 5 5 5 > z s > 5 5 5 5 5 5 5 5 5 5 5 5 > z u 5 5 5 5 5 5 5 5 5 5 5 5 > p c > 5 5 5 5 5 5 5 5 5 5 5 u X @.pX  u ",
"V !./.].g > z > > > i '.!.5 : 5 z > > , l > > c u > 5 5 > 5 '.S : : S |.v.'.a /.}.j j j A D b p v.'.].{.).nX_._.b.|.v.u D !.].~.].|.].|.W.}.W.h '.~.; i D '.'.E.}.F i f p W./.'.]./.j.v. X!.h j Z ; P kX,Xy.Y.Y.0 0 0 0 0 0 0 0 0 0 0 0 0 0 0 0 0 0 0 0 0 _ e Y Y E Y i.w.O > s p p p p s p ( r.e.r.;.p s p p p p s 5 > u s s ! / / / / / / / / / l p p > 5 z > 5 5 5 5 5 5 5 5 5 5 5 5 > u z > 5 5 5 5 5 5 5 5 5 5 5 5 > z s > 5 5 5 5 5 5 5 5 5 5 5 5 > z u 5 5 5 5 5 5 5 5 5 5 5 5 > p c > 5 5 5 5 5 5 5 5 5 5 5 u X @.pX  u ",
"A ~.Q.}.A : c j i > a './.i j g z > a W.b > > c u > 5 u a a /.F : : S |.E.].A /.}.A ~.W.W.].v.p ~./.'.{.).nX_._.Q._.!.D /.}.].|.].].].|.!./.!.D ].!.f i D '.].W.}.!.Z f Q.].]././.}.^.'.|.].P i Z Z b./.R 4X2.R.P.q 0 0 0 0 0 0 0 0 0 0 0 0 0 0 0 0 0 0 0 _ e Y Y E Y i.w.O > s p p p p s p ( r.e.r.;.p s p p p p s 5 > u s k x x x x x x x x x x l p p > 5 z > 5 5 5 5 5 5 5 5 5 5 5 5 > u z > 5 5 5 5 5 5 5 5 5 5 5 5 > z s > 5 5 5 5 5 5 5 5 5 5 5 5 > z u 5 5 5 5 5 5 5 5 5 5 5 5 > p c > 5 5 5 5 5 5 5 5 5 5 5 u X @.pX  u ",
"S !.u !.P . A /.j : h './.S |.'.E.: Z |.A : > c u u > i !.A '.v.: : P }.'.].P /.}.F /.W./.].v.A '.v.].{.).nX_.).(.b.!./.|.].].].|./.}.].'.!.!.S ].'.W.Z I ].].~./.].D W.}.].}.!.!.}.].].].}.W.f W.W.v./.& =.4XK.T.A q 0 0 0 0 0 0 0 0 0 0 0 0 0 0 0 0 0 0 _ e Y Y E Y i.w.O > s p p p p s p ( r.e.r.;.p s p p p p s 5 > u s s ! ) / / / / / / / ) l p p > 5 z > 5 5 5 5 5 5 5 5 5 5 5 5 > u z > 5 5 5 5 5 5 5 5 5 5 5 5 > z s > 5 5 5 5 5 5 5 5 5 5 5 5 > z u 5 5 5 5 5 5 5 5 5 5 5 5 > p c > 5 5 5 5 5 5 5 5 5 5 5 u X @.pX  u ",
"b.W.. E.v.. S ].j : j /./.v.].'.W.. S |.A j u z u > u v.].S '.E.: : P }.].].E.'.}.W.'./.'.}.v.S ~.A |.{.).nX^.b._.b.b./.|.].].].].v.S E.}.Q.!.W.'.'.].P ].}.].].S !.S /.b.].}.W.W.|.].].].Q.W.F  X~.E.'.i Y =.4X{.I.0 0 0 0 0 0 0 0 0 0 0 0 0 0 0 0 0 0 0 _ e Y Y E Y i.w.O > s p p p p s p ( r.e.r.;.p s p p p p s 5 > u s k x x x x x x x x x x l p p > 5 z > 5 5 5 5 5 5 5 5 5 5 5 5 > u z > 5 5 5 5 5 5 5 5 5 5 5 5 > z s > 5 5 5 5 5 5 5 5 5 5 5 5 > z u 5 5 5 5 5 5 5 5 5 5 5 5 > p c > 5 5 5 5 5 5 5 5 5 5 5 u X @.pX  u ",
"v.E.. v.Q.. c.}.j : A !.!.W.E.A /.a F }.S /.v.V u : h }.]./.}.E.u h v.}.].].!./.!.].].'.].}.E.S ~.j ].{.).FXc.j.|.c.< d A '.].}.!.> . S }.P /.}.!./.|.'./.!.}.!.u W.v.W.b ].}.v.W./.'.].].F ~.I }.'.!.'.i R b C.FXT.I q 0 0 0 0 0 0 0 0 0 0 0 0 0 0 0 0 0 _ e Y Y E Y i.w.O > s p p p p s p ( r.e.r.;.p s p p p p s 5 > u s s / ) ) ) ) ) ) ) ) ) l p p > 5 z > 5 5 5 5 5 5 5 5 5 5 5 5 > u z > 5 5 5 5 5 5 5 5 5 5 5 5 > z s > 5 5 5 5 5 5 5 5 5 5 5 5 > z u 5 5 5 5 5 5 5 5 5 5 5 5 > p c > 5 5 5 5 5 5 5 5 5 5 5 u X @.pX  u ",
"Q.E.. S |.Z c.}.A . D !.W./.v.i  Xv.P  XP /. Xb.. > v.!.W.}.}.W.Q.~.v.|.]./.}.v.> ]./.'.].}.W.v.W.i Q.[.N.FXj.B _.j.8 6 5 /./.}.W.> > A }.S /.}.W./.}. XQ.P  XW.: W.}.W.z S '.v.D b.'.|.|.S W.W.'./.}.].f E j.{.eX).R.V q 0 0 0 0 0 0 0 0 0 0 0 0 0 0 0 0 _ e Y Y E Y i.w.O > s p p p p s p ( r.e.r.;.p s p p p p s 5 > u s k x x x x x x x x x x l p p > 5 z > 5 5 5 5 5 5 5 5 5 5 5 5 > u z > 5 5 5 5 5 5 5 5 5 5 5 5 > z s > 5 5 5 5 5 5 5 5 5 5 5 5 > z u 5 5 5 5 5 5 5 5 5 5 5 5 > p c > 5 5 5 5 5 5 5 5 5 5 5 u X @.pX  1 ",
"/.P : > v.!.v. XA . D !.Q.].P a }.E.v. Xv.!.'.b.A W.}.E.v.}.'.].}./.W./.|.!.}.P > '.!./.'.].].'.E.> S /.>.nXj.y Q.V 8 6 p A j !.W., 5 u A a /.}.E.!.'.'.E.F  XW.: a !.!.p : E.S . V !.v.'.j Q./.v.S }.|.Z Q j.{./.rX=XP.q 0 0 0 0 0 0 0 0 0 0 0 0 0 0 0 0 _ e Y Y E Y i.w.O > s p p p p s p ( r.e.r.;.p s p p p p s 5 > u s s / ) ) ) ) ) ) ) ) ) l p p > 5 z > 5 5 5 5 5 5 5 5 5 5 5 5 > u z > 5 5 5 5 5 5 5 5 5 5 5 5 > z s > 5 5 5 5 5 5 5 5 5 5 5 5 > z u 5 5 5 5 5 5 5 5 5 5 5 5 > p c > 5 5 5 5 5 5 5 5 5 5 5 u X @.pXy { ",
"].S : > a !.Q.}.S . v.Q.v.}.S u |.W.E./.!.W.E.Q./.}.}.E.v.|.v.].].]./.Q.!.E.}.F : /.W./.!.|.]. XE.> F [.:.i.9 e 9 9 7 6 p l . E.!.: u 5 : u !.].P /.W.a j F  XQ.: : S P p p > u 5 z N p /.j v.}.F A }.].I b.j.].{._.).R.(.[ q 0 0 0 0 0 0 0 0 0 0 0 0 0 0 _ e Y Y E Y i.w.O > s p p p p s p ( r.e.r.;.p s p p p p s 5 > u s k x x x x x x x x x x l p p > 5 z > u 5 5 5 5 5 5 5 5 5 5 5 5 u z > u 5 5 5 5 5 5 5 5 5 5 u > z l > u 5 5 5 5 5 5 5 5 5 5 u 5 z u 5 5 5 5 5 5 5 5 5 5 5 5 > p c > u 5 5 5 5 5 5 5 5 5 5 u + O.rXy =.",
"].A > 5 a W.!.}.S > /.V v. XS > '.!.W.v.'.!.v././.!.}.v.P ].S ].|.}./.h > D }.S : !.E.!.W.}./.E.D u A P.:.i.9 e 9 9 7 6 p z : S F > u u u 5 /.F . !.W.: : F  Xv.: u > : z u 5 5 5 z t a /.h c. XA A }.]./.].E.].].{.).(.T.c.q 0 0 0 0 0 0 0 0 0 0 0 0 0 0 _ e Y Y R Y i.w.O > s p p p p s p ( r.e.r.;.p s p p p p s 5 > u s s / ) ) ) ) ) ) ) ) ) l p p > 5 z > > > > > > > > > > > > > > u l > > > > > > > > > > > > > > l s > > > > > > > > > > > > > > z > > > > > > > > > > > > > > u z > > > > > > > > > > > > > 8 u.=.1X-.",
"].g > > u W./.].S A ~.6 v.}.A : ]./.W.S /.!.P }.W.i W.S S ].D '.'.].!.> : A }.D . !.E.v.v./.h p 1 a g f :.i.9 e 9 7 6 6 u l > > : > > > > : P A . W.Q.: : F  Xv.+ u > > l u > > > l r 5 g > A /.i j ].Q.'.|.|.].].].|.).T.I q 0 0 0 0 0 0 0 0 0 0 0 0 q 0 _ 0 Y Y E Y i.w.O > s p p p p s p ( r.e.r.;.p s p p p p s 5 > u s k x x x x x x x x x x l p p > 5 z s l l l l l l l l l l l l l z M s l l l l l l l l l l l l s M c s l l l l l l l l l l l l l M l l l l l l l l l l l l l s z B s l l l l l l l l l l l s ( R 1XPXbX",
"/.l l z p W.|./.v.W.v.8 v.}.A p Q.].'.A /.!.b. XQ.6 b s S /.A ].S W.!.6 s A ].A 6 v.S 8 v.!.l V b b V A 2.a.m ( m m m z z M s z z l l l l l l c 6 v.v.p 6 b.|.X.p z l s M z l l l c >.l p l B b k V |.c.S /.|.].}.].}.^.(.I.Y / / / / / / / / / / / / / _ _ _ _ _ =._ i.w.O > s p p p p s p ( r.e.r.;.p s p p p p s 5 > u s s / ) ) ) ) ) ) ) ) ) l p p > 5 z u p p p p p p p p p p p p p p z u p p p p p p p p p p p p u z z u p p p p p p p p p p p p u c p p p p p p p p p p p p p u s M u p p p p p p p p p p p 1 _ 1Xt.mXt.",
"S 5 p p , W.}.W.!.!.a 6 b.}.h p l P Q.6 !.W.S '.h u p 5 A '.V E.a P P 6 6 A ].A 6 5 6 u h j d b a h b j :.i.e e e 9 l p s z u p p p p p p u z z u u u p 6 A S , p p p u z p u p u z r p p p z u p 6 W.S + I }.|.W.E.]./._.T.I Y x 0 x 0 0 0 0 0 0 0 0 0 ( _ Y T R R R i.w.O > s p p p p s p ( r.e.r.;.p s p p p p s 5 > u s k x x x x x x x x x x l p p > 5 z > > > > > > > > > > > > > > u z > > > > > > > > > > > > > > l s > > > > > > > > > > > > > > z 5 > > > > > > > > > > > > > u z > > > > > > > > > 5 5 & >.bXGX2Xy E ",
"p > > u : E.|.E.].W.@ 6 P }.a > z > > : Q.W.S !.: > u > g v.u > > > > 5 : j '.j : u 5 > > > a z i a h f :.i.9 e 9 9 7 6 u z > > > > > > > > p s > 5 > > > > l 1 > > > > l u > > > z r 5 > > z 5 > 5 z u @ ` /.}.D I /.W.|.I.Y.q ` b.q 0 0 0 0 0 0 0 0 0 0 _ 0 Y Y E Y i.w.O > s p p p p s p ( r.e.r.;.p s p p p p s 5 > u s s / ) ) ) ) ) ) ) ) ) l p p > 5 z > 5 5 5 5 5 5 5 5 5 5 5 5 5 u z > 5 5 5 5 5 5 5 5 5 5 5 u > z s > 5 5 5 5 5 5 5 5 5 5 5 5 > z u 5 5 5 5 5 5 5 5 5 5 5 5 > p c > u 5 5 5 5 5 5 5 > % r.CXbX:XiXy e ",
"z > 5 u : v.].v.}.E.: 6 S ].a 5 z > u , v.W.u A u 5 5 u > : 5 u 5 5 5 u > h '.h > u 5 5 u > a z i g h f :.i.9 e 9 9 7 6 p z > 5 5 5 5 5 5 > p s > u 5 5 5 u z > 5 5 5 > z u > 5 5 z r 5 > 5 z 5 5 u z 5 % E ^.~.i I !.E./.L T.P b._.q 0 0 0 0 0 0 0 0 0 0 _ e Y Y E Y i.w.O > s p p p p s p ( r.e.r.;.p s p p p p s 5 > u s k x x x x x x x x x x l p p > 5 z > 5 5 5 5 5 5 5 5 5 5 5 5 > u z > 5 5 5 5 5 5 5 5 5 5 5 5 > z s > 5 5 5 5 5 5 5 5 5 5 5 5 > z u 5 5 5 5 5 5 5 5 5 5 5 5 > p c > 5 5 5 5 5 5 5 1 5 a.CX1X- +.pX  1 ",
"l > 5 u : v.'.S }.v.: 6 S /.i 5 z > 5 6 V h > z u > 5 5 5 u 5 5 5 5 5 u > a !.a > u 5 5 5 > a z i g h f :.i.9 e 9 9 7 6 p z > 5 5 5 5 5 5 > p s > 5 5 5 5 u z > 5 5 5 > z u > 5 > z r 5 > 5 z 5 5 u z 5 % E b.I + P W.I /.h I.Y._.).x 0 0 0 0 0 0 0 0 0 0 _ e Y Y E Y i.w.O > s p p p p s p ( r.e.r.;.p s p p p p s 5 > u s s / ) ) ) ) ) ) ) ) ) l p p > 5 z > 5 5 5 5 5 5 5 5 5 5 5 5 > u z > 5 5 5 5 5 5 5 5 5 5 5 5 > z s > 5 5 5 5 5 5 5 5 5 5 5 5 > z u 5 5 5 5 5 5 5 5 5 5 5 5 > p c > 5 5 5 5 5 5 1 6 bXGXt.% X @.pX  u ",
"l > 5 u : P /.A }.v.: 6 S /.u 5 z > > u l > > c u > 5 5 5 5 5 5 5 5 5 5 5 u u 5 5 5 5 5 5 > a z i g h f :.i.9 e 9 9 7 6 p z > 5 5 5 5 5 5 > p s > 5 5 5 5 u z > 5 5 5 > z u > 5 > z r 5 > 5 z 5 5 u z 5 @ R V ; > j Z I /.j (.T.|._.x q 0 0 0 0 0 0 0 0 0 _ e Y Y E Y i.w.O > s p p p p s p ( r.e.r.;.p s p p p p s 5 > u s k x x x x x x x x x x l p p > 5 z > 5 5 5 5 5 5 5 5 5 5 5 5 > u z > 5 5 5 5 5 5 5 5 5 5 5 5 > z s > 5 5 5 5 5 5 5 5 5 5 5 5 > z u 5 5 5 5 5 5 5 5 5 5 5 5 > p c > 5 5 5 5 5 1 9 bXCX&.& u X @.pX  u ",
"l > 5 u : F /.j ].F : p A E.u u z > > u z > > c u > 5 5 5 5 5 5 5 5 5 5 5 5 > 5 5 5 5 5 5 > a z i g h f :.i.9 e 9 9 7 6 p z > 5 5 5 5 5 5 > p s > 5 5 5 5 u z > 5 5 5 > z u > 5 > z r 5 > 5 z 5 5 u z 5 @ R V ; > i f D I j !.T.{._.b.0 0 0 0 0 0 0 0 0 0 _ e Y Y E Y i.w.O > s p p p p s p ( r.e.r.;.p s p p p p s 5 > u s s / ) ) ) ) ) ) ) ) ) l p p > 5 z > 5 5 5 5 5 5 5 5 5 5 5 5 > u z > 5 5 5 5 5 5 5 5 5 5 5 5 > z s > 5 5 5 5 5 5 5 5 5 5 5 5 > z u 5 5 5 5 5 5 5 5 5 5 5 5 > p c > 5 5 5 5 1 9 bXCXT & 5 u X @.pX  u ",
"l > 5 u : S /.u ].P + l p 1 > u z > > u z > > c u > 5 5 5 5 5 5 5 5 5 5 5 5 5 5 5 5 5 5 5 > a z i g h f :.i.9 e 9 9 7 6 p z > 5 5 5 5 5 5 > p s > 5 5 5 5 u z > 5 5 5 > z u > 5 > z r 5 > 5 z 5 5 u z 5 @ R x 1 5 i j g f f !.{.Y.|._.` q 0 0 0 0 0 0 0 0 _ e Y Y E Y i.w.O > s p p p p s p ( r.e.r.;.p s p p p p s 5 > u s k x x x x x x x x x x l p p > 5 z > 5 5 5 5 5 5 5 5 5 5 5 5 > u z > 5 5 5 5 5 5 5 5 5 5 5 5 > z s > 5 5 5 5 5 5 5 5 5 5 5 5 > z u 5 5 5 5 5 5 5 5 5 5 5 5 > p c > 5 5 5 1 9 mXmXT % 5 5 u X @.pX  u ",
"l > 5 u > h b.: S h > s p > 5 u z > > u z > > c u > 5 5 5 5 5 5 5 5 5 5 5 5 5 5 5 5 5 5 5 > a z i g h f :.i.9 e 9 9 7 6 p z > 5 5 5 5 5 5 > p s > 5 5 5 5 u z > 5 5 5 > z u > 5 > z r 5 > 5 z 5 5 u z 5 @ R 0 > 5 u u g Z f E./.R.{._.` q 0 0 0 0 0 0 0 0 _ e Y Y R Y i.w.O > s p p p p s p ( r.e.r.;.p s p p p p s 5 > u s s / ) ) ) ) ) ) ) ) ) l p p > 5 z > 5 5 5 5 5 5 5 5 5 5 5 5 > u z > 5 5 5 5 5 5 5 5 5 5 5 5 > z s > 5 5 5 5 5 5 5 5 5 5 5 5 > z u 5 5 5 5 5 5 5 5 5 5 5 5 > p c > 5 5 1 9 bXCXT % 5 5 5 u X @.pX  u ",
"l > 5 5 u > k u : > > s p > 5 u z > > u z > > c u > 5 5 5 5 5 5 5 5 5 5 5 5 5 5 5 5 5 5 5 > a z i g h f :.i.9 e 9 9 7 6 p z > 5 5 5 5 5 5 > p s > 5 5 5 5 u z > 5 5 5 > z u > 5 > z r 5 > 5 z 5 5 u z 5 @ R 0 > 5 5 > i f 1 ; : U.Y._.b.x 0 0 0 0 q 0 0 0 _ e e Y E Y i.w.O > s p p p p s p ( r.e.r.;.p s p p p p s 5 > u s k x x x x x x x x x x l p p > 5 z > 5 5 5 5 5 5 5 5 5 5 5 5 > u z > 5 5 5 5 5 5 5 5 5 5 5 5 > z s > 5 5 5 5 5 5 5 5 5 5 5 5 > z u 5 5 5 5 5 5 5 5 5 5 5 5 > p c > 5 1 9 bXCXT % 5 5 5 5 u X @.pX  u ",
"l > 5 5 5 5 z 5 u u > s p > 5 u z > > u z > > c u > 5 5 5 5 5 5 5 5 5 5 5 5 5 5 5 5 5 5 5 > a z i g h f :.i.9 e 9 9 7 6 p z > 5 5 5 5 5 5 > p s > 5 5 5 5 u z > 5 5 5 > z u > 5 > z r 5 > 5 z 5 5 u z 5 @ R 0 > 5 5 5 i X.;X%.^ D R.(.|.^.m q q ~  .q q 0 Y ) 2.y O._ i.w.O > s p p p p s p ( r.e.r.;.p s p p p p s 5 > u s s / ) ) ) ) ) ) ) ) ) l p p > 5 z > 5 5 5 5 5 5 5 5 5 5 5 5 > u z > 5 5 5 5 5 5 5 5 5 5 5 5 > z s > 5 5 5 5 5 5 5 5 5 5 5 5 > z u 5 5 5 5 5 5 5 5 5 5 5 5 > p c > 1 7 bXCXT % 5 5 5 5 5 u X @.pX  u ",
"l > 5 5 5 5 z 5 5 5 > s p > 5 u z > > u z > > c u > 5 5 5 5 5 5 5 5 5 5 5 5 5 5 5 5 5 5 5 > a z i g h f :.i.9 e 9 9 7 6 p z > 5 5 5 5 5 5 > p s > 5 5 5 5 u z > 5 5 5 > z u > 5 > z r 5 > 5 z 5 5 u z 5 @ R 0 > 5 5 5 i i $.A #.#.Y..XkXlX@...@.) ;X@.~ O.O.} #.O.iX_ p.w.O > s p p p p s p ( r.e.r.;.p s p p p p s 5 > u s k x x x x x x x x x x l p p > 5 z > 5 5 5 5 5 5 5 5 5 5 5 5 > u z > 5 5 5 5 5 5 5 5 5 5 5 5 > z s > 5 5 5 5 5 5 5 5 5 5 5 5 > z u 5 5 5 5 5 5 5 5 5 5 5 5 > p c > 7 bXCXT % 5 5 5 5 5 5 u X @.pX  u ",
"l > 5 5 5 5 z 5 5 5 > s p > 5 u z > > u z > > c u > 5 5 5 5 5 5 5 5 5 5 5 5 5 5 5 5 5 5 5 > a z i g h f :.i.9 e 9 9 7 6 p z > 5 5 5 5 5 5 > p s > 5 5 5 5 u z > 5 5 5 > z u > 5 > z r 5 > 5 z 5 5 u z 5 @ R 0 > 5 5 5 u + o.D %.^ `..X`.lXkX#.O.{ O.O.#. .O.O.;X2.O.} p.w.O > s p p p p s p ( r.e.r.;.p s p p p p s 5 > u s s / ) ) ) ) ) ) ) ) ) l p p > 5 z > 5 5 5 5 5 5 5 5 5 5 5 5 > u z > 5 5 5 5 5 5 5 5 5 5 5 5 > z s > 5 5 5 5 5 5 5 5 5 5 5 5 > z u 5 5 5 5 5 5 5 5 5 5 5 5 > p z 6 bXCXT % 5 5 5 5 5 5 5 u X @.pX  u ",
"l > 5 5 5 5 z 5 5 5 > s p > 5 u z > > u z > > c u > 5 5 5 5 5 5 5 5 5 5 5 5 5 5 5 5 5 5 5 > a z i g h f :.i.9 e 9 9 7 6 p z > 5 5 5 5 5 5 > p s > 5 5 5 5 u z > 5 5 5 > z u > 5 > z r 5 > 5 z 5 5 u z 5 @ R 0 > 5 5 5 u + +.A %.X.XX].'.jXlXX.;XO.O...O.O.:XO.;XO.;X} p.w.O > s p p p p s p ( r.e.r.;.p s p p p p s 5 > u s k x x x x x x x x x x l p p > 5 z > 5 5 5 5 5 5 5 5 5 5 5 5 > u z > 5 5 5 5 5 5 5 5 5 5 5 5 > z s > 5 5 5 5 5 5 5 5 5 5 5 5 > z u 5 5 5 5 5 5 5 5 5 5 5 5 5 u M bXCXT & 5 5 5 5 5 5 5 5 u X @.pX  u ",
"l > 5 5 5 5 z 5 5 5 > s p > 5 u z > > u z > > c u > 5 5 5 5 5 5 5 5 5 5 5 5 5 5 5 5 5 5 5 > a z i g h f :.i.9 e 9 9 7 6 p z > 5 5 5 5 5 5 > p s > 5 5 5 5 u z > 5 5 5 > z u > 5 > z r 5 > 5 z 5 5 u z 5 @ R 0 > 5 5 5 u 5 v j D Z A I.T._.lX`.} x ~ ~ x } } Y ) } 2.Y i.w.O > s p p p p s p ( r.e.r.;.p s p p p p s 5 > u s s ! ) / / / / / / / ) l p p > 5 z > u 5 5 5 5 5 5 5 5 5 5 5 5 u z > u 5 5 5 5 5 5 5 5 5 5 u > z l > u 5 5 5 5 5 5 5 5 5 5 u 5 z u 5 5 5 5 5 5 5 5 5 5 5 5 1 u bXCXT % 6 5 5 5 5 5 5 5 5 u X @.pXX u ",
"z > u u u u z u u u > l p > u u z > 5 p z > > c u 5 u u u u u u u u u u u u u u u u u u u > a z i g h f :.i.9 e 9 9 7 6 p z > u u u u u u > p s > u u u u u z > u u u > z u > u 5 z r 6 u u z u u u z 5 % _ x 1 u u u u u > j Z Z i I T.|.^._.V q 0 0 0 0 T e Y E E Y i.w.O > s p p p p s p ( r.e.r.;.p s p p p p s 5 > u s k x x x x x x x x x x l p p > 5 z z M c c c c c c c c c c c c M B c c c c c c c c c c c c c c B B c c c c c c c c c c c c c c B M c c c c c c c c c c M c M bXCX1.h M c c c c c c c c c M p #.dX7 B ",
"p + @ + @ + p @ + @ + u 5 + + 5 p + + 5 p + + l 5 + + + + + + + + + + + + + + + + + + + @ + u d u i i ; >.i.8 y 8 8 8 8 5 p + @ + + + + @ + 5 u + @ + + + = p + @ + @ + p 5 + @ + p t = + + p @ + @ p + + T 9 + @ + + + + @ @ ; ; ; ; R.{.b.^.j.y 9 q q q T y e t E t p.w.O > s p p p p s p ( r.e.r.;.p s p p p p s 5 > u s s ! / / / / / / / / / l p p > 5 z > 5 5 5 5 5 5 5 5 5 5 5 5 > u z > 5 5 5 5 5 5 5 5 5 5 5 5 > l s > 5 5 5 5 5 5 5 5 5 5 5 5 > z u > 5 5 5 5 5 5 5 > 5 > 5 bXCX=.& 5 5 5 5 5 5 5 5 5 5 5 u X @.pX  u ",
"fXfXfXfXfXfXjXfXfXfXfXfXfXfXfXfXfXfXfXfXfXfXfXjXfXfXfXfXfXfXfXfXfXfXfXfXfXfXfXfXfXfXfXfXfXfXfXjXfXfXfXgXjXxXjXjXjXfXfXfXfXfXfXfXfXfXfXfXfXfXfXfXfXfXfXfXfXfXjXfXfXfXfXfXfXfXfXfXfXfXjXfXfXfXjXfXfXfXjXfXfXjXjXfXfXfXfXfXfXfXfXfXfXgXfXhXzXjXjXjXfXfXjXfXjXjXjXjXjXjXgXxXw.O > s p p p p s p ( r.e.r.;.p s p p p p s 5 > u s k x ! x x x x x x x ! l p p > 5 z > 5 5 5 5 5 5 5 5 5 5 5 5 5 u z > 5 5 5 5 5 5 5 5 5 5 5 5 > z s > 5 5 5 5 5 5 5 5 5 5 5 5 > z u 5 5 5 5 5 5 5 5 5 1 5 bXCX=.a 5 u 5 5 5 5 5 5 5 5 5 5 u X @.pX  u ",
"iXuXuXuXuXuXiXuXuXuXuXiXiXuXuXuXiXuXuXuXiXuXuXiXuXuXuXuXuXuXuXuXuXuXuXuXuXuXuXuXuXuXuXuXuXuXiXiXuXiXiXaXpXrXiXiXiXiXiXuXuXiXuXuXuXuXuXuXuXuXiXiXuXuXuXuXuXuXiXuXuXuXuXuXiXuXuXuXuXiXiXuXuXuXiXuXuXuXiXuXuXiXiXuXuXuXuXuXuXuXuXuXuXaXaXaXlXkXjXkXjXdXiXiXiXiXiXiXiXiXiXrXw.O > s p p p p s p ( r.e.r.;.p s p p p p s 5 > u s s ! / / / / / / / / / l p p > 5 z > 5 5 5 5 5 5 5 5 5 5 5 5 > u z > 5 5 5 5 5 5 5 5 5 5 5 5 > z s > 5 5 5 5 5 5 5 5 5 5 5 5 > z u 5 5 5 5 5 5 5 5 1 5 bXCX&.1 M > 5 5 5 5 5 5 5 5 5 5 5 u X @.pX  u ",
"6 X X X X X 6 X X X X 5 = X X + 6 X X = 6 X X s = X X X X X X X X X X X X X X X X X X X X X = p = 1 i ; >.p.8 y 8 - 8 - = 6 X X X X X X X X = 5 X X X X X + 6 X X X X X 6 = X X X 6 t = X X 6 X X X 6 X X E 8 X X X X X X X X X X ; ; ; R.U b.c.^.b.< 8 y r y y y t y p.w.O > s p p p p s p ( r.e.r.;.p s p p p p s 5 > u s k x ! ! ! ! ! ! ! ! ! l p p > 5 z > 5 5 5 5 5 5 5 5 5 5 5 5 > u z > 5 5 5 5 5 5 5 5 5 5 5 5 > z s > 5 5 5 5 5 5 5 5 5 5 5 5 > z u 5 5 5 5 5 5 5 1 5 bXCX&.& p c > 5 5 5 5 5 5 5 5 5 5 5 u X @.pX  u ",
"z 1 u u u u z u u u 1 z s 1 u p z 1 u p z 1 1 c p u u u u u u u u u u u u u u u u u u u u 1 d b a h b f :.i.0 e 0 9 k p p z 1 u u u u u u 1 s l 1 u u u u u z u u u u 1 z p u u u z r u u u z u u u z u 1 _ x 1 u u u u u u u u > g Z p I.I.b._._.Q.0 0 ! _ e Y _ R Y i.w.O > s p p p p s p ( r.e.r.;.p s p p p p s 5 > u s s ! / / / / / / / / / l p p > 5 z > 5 5 5 5 5 5 5 5 5 5 5 5 > u z > 5 5 5 5 5 5 5 5 5 5 5 5 > z s > 5 5 5 5 5 5 5 5 5 5 5 5 > z u 5 5 5 5 5 5 1 5 bXGX=.& 5 p c > 5 5 5 5 5 5 5 5 5 5 5 u X @.pX  u ",
"l > 5 5 5 5 z 5 5 5 > s p > 5 u z > > u z > > c u > 5 5 5 5 5 5 5 5 5 5 5 5 5 5 5 5 5 5 5 > a z i g h f :.i.9 e 9 9 7 6 p z > 5 5 5 5 5 5 > p s > 5 5 5 5 u z > 5 5 5 > z u > 5 > z r 5 > 5 z 5 5 u z 5 @ R 0 > 5 5 5 5 5 5 u 5 a ;XA ..`.Y.A kXlX`.;X[ q _ O.O.:X:X} p.w.O > s p p p p s p ( r.e.r.;.p s p p p p s 5 > u s k x ! ! ! ! ! ! ! ! ! l p p > 5 z > 5 5 5 5 5 5 5 5 5 5 5 5 > u z > 5 5 5 5 5 5 5 5 5 5 5 5 > z s > 5 5 5 5 5 5 5 5 5 5 5 5 > z u 5 5 5 5 5 > 5 bXGX=.& 6 > p c > 5 5 5 5 5 5 5 5 5 5 5 u X @.pX  u ",
"l > 5 5 5 5 z 5 5 5 > s p > 5 u z > > u z > > c u > 5 5 5 5 5 5 5 5 5 5 5 5 5 5 5 5 5 5 5 > a z i g h f :.i.9 e 9 9 7 6 p z > 5 5 5 5 5 5 > p s > 5 5 5 5 u z > 5 5 5 > z u > 5 > z r 5 > 5 z 5 5 u z 5 @ R 0 > 5 5 5 5 5 5 5 + 5 o.S + +.T.v.`.lXkX~ O.! :X;XO.;X:X} p.w.O > s p p p p s p ( r.e.r.;.p s p p p p s 5 > u s s ! / ! ! ! ! ! ! ! / l p p > 5 z > 5 5 5 5 5 5 5 5 5 5 5 5 > u z > 5 5 5 5 5 5 5 5 5 5 5 5 > z s > 5 5 5 5 5 5 5 5 5 5 5 5 > z u 5 5 5 5 > > 1XGX=.& 6 5 > p c > 5 5 5 5 5 5 5 5 5 5 5 u X @.pX  u ",
"l > 5 5 5 5 z 5 5 5 > s p > 5 u z > > u z > > c u > 5 5 5 5 5 5 5 5 5 5 5 5 5 5 5 5 5 5 5 > a z i g h f :.i.9 e 9 9 7 6 p z > 5 5 5 5 5 5 > p s > 5 5 5 5 u z > 5 5 5 > z u > 5 > z r 5 > 5 z 5 5 u z 5 @ R 0 > 5 5 5 5 5 5 u ..p ..A A ..I.~.`.lXjXb.O. .O.O.O.O.O.O.p.w.O > s p p p p s p ( r.e.r.;.p s p p p p s 5 > u s k ! ! ! ! ! ! ! ! ! ! l p p > 5 z > 5 5 5 5 5 5 5 5 5 5 5 5 > u z > 5 5 5 5 5 5 5 5 5 5 5 5 > z s > 5 5 5 5 5 5 5 5 5 5 5 5 > z u 5 5 5 > > 1XGX-.& 6 5 5 > p c > 5 5 5 5 5 5 5 5 5 5 5 u X @.pX  u ",
"l > 5 5 5 5 z 5 5 5 > s p > 5 u z > > u z > > c u > 5 5 5 5 5 5 5 5 5 5 5 5 5 5 5 5 5 5 5 > a z i g h f :.i.9 e 9 9 7 6 p z > 5 5 5 5 5 5 > p s > 5 5 5 5 u z > 5 5 5 > z u > 5 > z r 5 > 5 z 5 5 u z 5 @ R 0 > 5 5 5 5 5 5 u v 5 ..^ aXo.W.Y.aXlXlXlX .! :X;XO.;X:X} p.w.O > s p p p p s p ( r.e.r.;.p s p p p p s 5 > u s k ! ! ! ! ! ! ! ! ! ! l p p > 5 z > 5 5 5 5 5 5 5 5 5 5 5 5 > u z > 5 5 5 5 5 5 5 5 5 5 5 5 > z s > 5 5 5 5 5 5 5 5 5 5 5 5 > z u 5 5 > > 1XGXt.& 5 5 5 5 > p c > 5 5 5 5 5 5 5 5 5 5 5 u X @.pX  u ",
"l > 5 5 5 5 z 5 5 5 > s p > 5 u z > > u z > > c u > 5 5 5 5 5 5 5 5 5 5 5 5 5 5 5 5 5 5 5 > a z i g h f :.i.9 e 9 9 7 6 p z > 5 5 5 5 5 5 > p s > 5 5 5 5 u z > 5 5 5 > z u > 5 > z r 5 > 5 z 5 5 u z 5 @ R 0 > 5 5 5 5 5 5 5 > 5 u 5 Z n S T.b.c._._.x 0 } / Y } } Y i.w.O > s p p p p s p ( r.e.r.;.p s p p p p s 5 > u s k ! ! ! ! ! ! ! ! ! ! l p p > 5 z > 5 5 5 5 5 5 5 5 5 5 5 5 > u z > 5 5 5 5 5 5 5 5 5 5 5 5 > z s > 5 5 5 5 5 5 5 5 5 5 5 5 > z u 5 5 > 1XGXt.& 5 5 5 5 5 > p c > 5 5 5 5 5 5 5 5 5 5 5 u X @.pX  u ",
"l > 5 5 5 5 z 5 5 5 > s p > 5 u z > > u z > > c u > 5 5 5 5 5 5 5 5 5 5 5 5 5 5 5 5 5 5 5 > a z i g h f :.i.9 e 9 9 7 6 p z > 5 5 5 5 5 5 > p s > 5 5 5 5 u z > 5 5 5 > z u > 5 > z r 5 > 5 z 5 5 u z 5 @ R 0 > 5 5 5 5 5 5 5 5 5 5 > j f g Y.I < b._.x 0 ( e Y Y E Y i.w.O > s p p p p s p ( r.e.r.;.p s p p p p s 5 > u s k ! ! ! ! ! ! ! ! ! ! l p p > 5 z > 5 5 5 5 5 5 5 5 5 5 5 5 > u z > 5 5 5 5 5 5 5 5 5 5 5 5 > z s > 5 5 5 5 5 5 5 5 5 5 5 5 > z u 5 % a.GXt.& 5 5 5 5 5 5 > p c > 5 5 5 5 5 5 5 5 5 5 5 u X @.pX  u ",
"l > 5 5 5 5 z 5 5 5 > s p > 5 u z > > u z > > c u > 5 5 5 5 5 5 5 5 5 5 5 5 5 5 5 5 5 5 5 > a z i g h f :.i.9 e 9 9 7 6 p z > 5 5 5 5 5 5 > p s > 5 5 5 5 u z > 5 5 5 > z u > 5 > z r 5 > 5 z 5 5 u z 5 @ R 0 > 5 5 5 5 5 5 5 5 5 u > j Z , I.I.q x ).M 0 _ e Y Y R Y i.w.O > s p p p p s p ( r.e.r.;.p s p p p p s 5 > u s s ! / ! / / / / / / / l p p > 5 z > 5 5 5 5 5 5 5 5 5 5 5 5 > u z > 5 5 5 5 5 5 5 5 5 5 5 5 > z s > 5 5 5 5 5 5 5 5 5 5 5 5 > z u % i.GXt.& 5 5 5 5 5 5 5 > p c > 5 5 5 5 5 5 5 5 5 5 5 u X @.pX  u ",
"l > 5 5 5 5 z 5 5 5 > s p > 5 u z > > u z > > c u > 5 5 5 5 5 5 5 5 5 5 5 5 5 5 5 5 5 5 5 > a z i g h f :.i.9 e 9 9 7 6 p z > 5 5 5 5 5 5 > p s > 5 5 5 5 u z > 5 5 5 > z u > 5 > z r 5 > 5 z 5 5 u z 5 @ R 0 > 5 5 5 5 5 5 5 5 5 5 > g Z i I T.V 0 _.` 0 _ e Y Y E Y i.w.O > s p p p p s p ( r.e.r.;.p s p p p p s 5 > u s k x ! ! ! ! ! ! ! ! ! l p p > 5 z > 5 5 5 5 5 5 5 5 5 5 5 5 > u z > 5 5 5 5 5 5 5 5 5 5 5 5 > z s > 5 5 5 5 5 5 5 5 5 5 5 5 5 z % i.GXt.& 5 5 5 5 5 5 5 5 > p c > 5 5 5 5 5 5 5 5 5 5 5 u X @.pX  u ",
"l > 5 5 5 5 z 5 5 5 > s p > 5 u z > > u z > > c u > 5 5 5 5 5 5 5 5 5 5 5 5 5 5 5 5 5 5 5 > a z i g h f :.i.9 e 9 9 7 6 p z > 5 5 5 5 5 5 > p s > 5 5 5 5 u z > 5 5 5 > z u > 5 > z r 5 > 5 z 5 5 u z 5 @ R 0 > 5 5 5 5 5 5 5 5 5 5 > i Z f D T.L q _.` q _ e Y Y E Y i.w.O > s p p p p s p ( r.e.r.;.p s p p p p s 5 > u s s ! / / / / / / / / / l p p > 5 z > u 5 5 5 5 5 5 5 5 5 5 5 5 u z > 5 5 5 5 5 5 5 5 5 5 5 u > z s > 5 5 5 5 5 5 5 5 5 5 5 5 5 a i.GXt.& 5 5 5 5 5 5 5 5 5 > p c > u 5 5 5 5 5 5 5 5 5 5 u X @.pX  u ",
"l > 5 5 5 5 z 5 5 5 > s p > 5 u z > > u z > > c u > 5 5 5 5 5 5 5 5 5 5 5 5 5 5 5 5 5 5 5 > a z i g h f :.i.9 e 9 9 7 6 p z > 5 5 5 5 5 5 > p s > 5 5 5 5 u z > 5 5 5 > z u > 5 > z r 5 > 5 z 5 5 u z 5 @ R 0 > 5 5 5 5 5 5 5 5 5 5 > i Z f i Y.U.q ).] q _ e Y Y E Y i.w.O > s p p p p s p ( r.e.r.;.p s p p p p s 5 > u s k x ! ! ! ! ! ! ! ! ! l p p > 5 z > 5 > > > > > > > > > > > > u z > 5 > > > > > > > > > > 5 > l s > 5 > > > > > > > > > 5 5 & i.GXt.& 5 5 > > > > > > > > > u z > 5 > > > > > > > > > > u X @.pX  u ",
"l > 5 5 5 5 z 5 5 5 > s p > 5 u z > > u z > > c u > 5 5 5 5 5 5 5 5 5 5 5 5 5 5 5 5 5 5 5 > a z i g h f :.i.9 e 9 9 7 6 p z > 5 5 5 5 5 5 > p s > 5 5 5 5 u z > 5 5 5 > z u > 5 > z r 5 > 5 z 5 5 u z 5 @ R 0 > 5 5 5 5 5 5 5 5 5 5 5 i Z Z 1 U.I.q ).X.q _ e Y Y E Y i.w.O > s p p p p s p ( r.e.r.;.p s p p p p s 5 > u s s ! / / / / / / / / / l p p > 5 z l z z z z z z z z z z z z z z M z z z z z z z z z z z z z l B M z z z z z z z z z z z z a s.CXr.i z z z z z z z z z z z z c B z z z z z z z z z z z z z 8 #.dX8 z ",
"l > u 5 5 5 z u 5 u > s p > 5 u z > 5 u z > > c u 5 5 5 5 5 5 5 5 5 5 5 5 5 5 5 5 5 5 5 5 > a z i g h f :.i.9 e 9 9 7 6 p z > u 5 5 5 5 5 > p s > u 5 5 5 u z > 5 5 u > z u 5 u 5 z r 5 u 5 z 5 5 u z 5 @ R 0 > 5 5 5 5 5 5 5 5 5 5 u 5 j Z i I T.c ^.c.q _ e Y Y R Y i.w.O > s p p p p s p ( r.e.r.;.p s p p p p s 5 > u s k x x x x x x x x x ! l p p > 5 z > u u u u u u u u u u u u 5 u z 5 u u u u u u u u u u u u > z l > u u u u u u u u u u % s.GXs.% u u u u u u u u u u u u 5 p c > u u u u u u u u u u u u X @.pXX u ",
"s > > > > > z > > > > s p > > u z > > u l > > c u > > > > > > > > > > > > > > > > > > > > > p z i a g f :.i.9 e 9 7 6 6 u l > > > > > > > > p p > > > > > 5 z > > > > > l u > > > l r 5 > > z > > > z > O R 0 @ > > > > > > > > > > > > f f i D T.L b.b.y _ 0 Y Y E Y i.w.O > s p p p p s p ( r.e.r.;.p s p p p p s 5 > u s s ! / / / / / / / / / l p p > 5 z > 5 5 5 5 5 5 5 5 5 5 5 5 > u z > 5 5 5 5 5 5 5 5 5 5 5 5 > z s > 5 5 5 5 5 5 5 5 5 % s.GXt.a u 5 5 5 5 5 5 5 5 5 5 5 5 > p z > 5 5 5 5 5 5 5 5 5 5 5 u X @.pX  u ",
"c p s p p p c s p s p z z p p s c p p l c p p B s p p p p p p p p p p p p p p p p p p p p p z b h b b Z :.a.m m m m l l l c p s p p p p p p z z p s p p p s c p p p s p c l p s p c &.s p p c p p s c s i _ m p s p p p p p p p p p p p j h j h Y.P.b.b./ _ Y R R &.R i.w.O > s p p p p s p ( r.e.r.;.p s p p p p s 5 > u s k x x x x x x x x x x l p p > 5 z > 5 5 5 5 5 5 5 5 5 5 5 5 > u z > 5 5 5 5 5 5 5 5 5 5 5 5 > z s > 5 5 5 5 5 5 5 5 % s.CXt.% z u 5 5 5 5 5 5 5 5 5 5 5 5 > p c > 5 5 5 5 5 5 5 5 5 5 5 u X @.pX  u ",
"c p s s s p c s p s p z z p p s c p p l c p p B l p s s s s s s s s s s s s s s s s s s s p z b b b V Z :.a.m m m m l l l c p s s s s s s p z z p s s s p s c p s s s p c l p s p c &.s p p c s p s c s i _ m p s s s s s s s s s s s p d s Z p I.I.c._.^.:.Y _ R =.R i.w.O > s p p p p s p ( r.e.r.;.p s p p p p s 5 > u s s ! ) / / / / / / / ) l p p > 5 z > 5 5 5 5 5 5 5 5 5 5 5 5 > u z > 5 5 5 5 5 5 5 5 5 5 5 5 > z s > 5 5 5 5 5 5 5 % s.GXs.% 5 z u 5 5 5 5 5 5 5 5 5 5 5 5 > p c > 5 5 5 5 5 5 5 5 5 5 5 u X @.pX  u ",
"s > > > > > z > > > > s p > > u l > > u l > > c u > > > > > > > > > > > > > > > > > > > > > p z i a g f :.i.9 e 9 7 6 6 u l > > > > > > > > p p > > > > > 5 z > > > > > l u > > > l r 5 > > z > > > z > O R 0 @ > > > > > > > > > > > > > > f > I Y.c._.)._ q Y Y E Y i.w.O > s p p p p s p ( r.e.r.;.p s p p p p s 5 > u s k x x x x x x x x x x l p p > 5 z > 5 5 5 5 5 5 5 5 5 5 5 5 > u z > 5 5 5 5 5 5 5 5 5 5 5 5 > z s > 5 5 5 5 5 5 % s.GXi.> 5 5 z u 5 5 5 5 5 5 5 5 5 5 5 5 > p c > 5 5 5 5 5 5 5 5 5 5 5 u X @.pX  u ",
"l > u 5 5 5 z u 5 u > s p > 5 u z > 5 u z > > c u 5 5 5 5 5 5 5 5 5 5 5 5 5 5 5 5 5 5 5 5 > a z i g h f :.i.9 e 9 9 7 6 p z > u 5 5 5 5 5 > p s > u 5 5 5 u z > 5 5 u > z u 5 u 5 z r 5 u 5 z 5 5 u z 5 @ R 0 > 5 5 5 5 5 5 5 5 5 5 5 5 u 5 j u D T.v._._._ e Y Y R Y i.w.O > s p p p p s p ( r.e.r.;.p s p p p p s 5 > u s s / ) ) ) ) ) ) ) ) ) l p p > 5 z > 5 5 5 5 5 5 5 5 5 5 5 5 > u z > 5 5 5 5 5 5 5 5 5 5 5 5 > z s > 5 5 5 5 5 % s.GXi.1 > 5 > z u 5 5 5 5 5 5 5 5 5 5 5 5 > p c > 5 5 5 5 5 5 5 5 5 5 5 u X @.pX  u ",
"l > 5 5 5 5 z 5 5 5 > s p > 5 u z > > u z > > c u > 5 5 5 5 5 5 5 5 5 5 5 5 5 5 5 5 5 5 5 > a z i g h f :.i.9 e 9 9 7 6 p z > 5 5 5 5 5 5 > p s > 5 5 5 5 u z > 5 5 5 > z u > 5 > z r 5 > 5 z 5 5 u z 5 @ R 0 > 5 5 5 5 5 5 5 5 5 5 5 5 5 > j i j Y.U._._._ e Y Y E Y i.w.O > s p p p p s p ( r.e.r.;.p s p p p p s 5 > u s k x x x x x x x x x x l p p > 5 z > 5 5 5 5 5 5 5 5 5 5 5 5 > u z > 5 5 5 5 5 5 5 5 5 5 5 5 > z s > 5 5 5 5 % s.GXi.1 > 5 5 > z u 5 5 5 5 5 5 5 5 5 5 5 5 > p c > 5 5 5 5 5 5 5 5 5 5 5 u X @.pX  u ",
"l > 5 5 5 5 z 5 5 5 > s p > 5 u z > > u z > > c u > 5 5 5 5 5 5 5 5 5 5 5 5 5 5 5 5 5 5 5 > a z i g h f :.i.9 e 9 9 7 6 p z > 5 5 5 5 5 5 > p s > 5 5 5 5 u z > 5 5 5 > z u > 5 > z r 5 > 5 z 5 5 u z 5 @ R 0 > 5 5 5 5 5 5 5 5 5 5 5 5 5 > j j u Y.I._._.{ e Y Y E Y i.w.O > s p p p p s p ( r.e.r.;.p s p p p p s 5 > u s s / ) ) ) ) ) ) ) ) ) l p p > 5 z > 5 5 5 5 5 5 5 5 5 5 5 5 > u z > 5 5 5 5 5 5 5 5 5 5 5 5 > z s > 5 5 5 % t.GXi.1 > 5 5 5 > z u 5 5 5 5 5 5 5 5 5 5 5 5 > p c > 5 5 5 5 5 5 5 5 5 5 5 u X @.pX  u ",
"l > 5 5 5 5 z 5 5 5 > s p > 5 u z > > u z > > c u > 5 5 5 5 5 5 5 5 5 5 5 5 5 5 5 5 5 5 5 > a z i g h f :.i.9 e 9 9 7 6 p z > 5 5 5 5 5 5 > p s > 5 5 5 5 u z > 5 5 5 > z u > 5 > z r 5 > 5 z 5 5 u z 5 @ R 0 > 5 5 5 5 5 5 5 5 5 5 5 5 5 5 i f f U.Y._._.<.e Y Y E Y i.w.O > s p p p p p s p 6 6 6 p s p p p p p s 5 > u s k x x x x x x x x x x l p p > 5 z > 5 5 5 5 5 5 5 5 5 5 5 5 > u z > 5 5 5 5 5 5 5 5 5 5 5 5 > z s > 5 5 % t.GXa.1 > 5 5 5 5 > z u 5 5 5 5 5 5 5 5 5 5 5 5 > p c > 5 5 5 5 5 5 5 5 5 5 5 u X @.pX  u ",
"l > 5 5 5 5 z 5 5 5 > s p > 5 u z > > u z > > c u > 5 5 5 5 5 5 5 5 5 5 5 5 5 5 5 5 5 5 5 > a z i g h f :.i.9 e 9 9 7 6 p z > 5 5 5 5 5 5 > p s > 5 5 5 5 u z > 5 5 5 > z u > 5 > z r 5 > 5 z 5 5 u z 5 @ R 0 > 5 5 5 5 5 5 5 5 5 5 5 5 5 5 > j f P.T.|._.<.e Y Y E Y i.w.O > s p p p p p s u @ > @ > s p p p p p s 5 > u s s / ) ) ) ) ) ) ) ) ) l p p > 5 z > 5 5 5 5 5 5 5 5 5 5 5 5 > u z > 5 5 5 5 5 5 5 5 5 5 5 5 > z s > 5 % t.GXa.1 > 5 5 5 5 5 > z u 5 5 5 5 5 5 5 5 5 5 5 5 > p c > 5 5 5 5 5 5 5 5 5 5 5 u X @.pX  u ",
"l > 5 5 5 5 z 5 5 5 > s p > 5 u z > > u z > > c u > 5 5 5 5 5 5 5 5 5 5 5 5 5 5 5 5 5 5 5 > a z i g h f :.i.9 e 9 9 7 6 p z > 5 5 5 5 5 5 > p s > 5 5 5 5 u z > 5 5 5 > z u > 5 > z r 5 > 5 z 5 5 u z 5 @ R 0 > 5 5 5 5 5 5 5 5 5 5 5 5 5 5 5 j f F T.v._.,.q Y Y E Y i.w.O > s p p p p p s u > > > 5 s p p p p p s 5 > u s k x x x x x x x x x x l p p > 5 z > 5 5 5 5 5 5 5 5 5 5 5 5 > u z > 5 5 5 5 5 5 5 5 5 5 5 5 > z l > % t.GXa.1 > 5 5 5 5 5 5 > z u 5 5 5 5 5 5 5 5 5 5 5 5 > p c > 5 5 5 5 5 5 5 5 5 5 5 u X @.pX  u ",
"l > 5 5 5 5 z 5 5 5 > s p > 5 u z > > u z > > c u > 5 5 5 5 5 5 5 5 5 5 5 5 5 5 5 5 5 5 5 > a z i g h f :.i.9 e 9 9 7 6 p z > 5 5 5 5 5 5 > p s > 5 5 5 5 u z > 5 5 5 > z u > 5 > z r 5 > 5 z 5 5 u z 5 @ R 0 > 5 5 5 5 5 5 5 5 5 5 5 5 5 5 > i Z Z Y.I ).k.q Y Y E Y i.w.O > s p p p p p s p > > > u s p p p p p s 5 > u s s / ) ) ) ) ) ) ) ) ) l p p > 5 z > 5 5 5 5 5 5 5 5 5 5 5 5 > u z > 5 5 5 5 5 5 5 5 5 5 5 5 > z l O =.CXa.1 > 5 5 5 5 5 5 5 > z u 5 5 5 5 5 5 5 5 5 5 5 5 > p c > 5 5 5 5 5 5 5 5 5 5 5 u X @.pX  u ",
"l > 5 5 5 5 z 5 5 5 > s p > 5 u z > > u z > > c u > 5 5 5 5 5 5 5 5 5 5 5 5 5 5 5 5 5 5 5 > a z i g h f :.i.9 e 9 9 7 6 p z > 5 5 5 5 5 5 > p s > 5 5 5 5 u z > 5 5 5 > z u > 5 > z r 5 > 5 z 5 5 u z 5 @ R 0 > 5 5 5 5 5 5 5 5 5 5 5 5 5 5 > i Z g Y.U.).x.q Y Y E Y i.w.O > s p p p p p k u # # # > l p p p p p s 5 > u s k x x x x x x x x x x l p p > 5 z > 5 5 5 5 5 5 5 5 5 5 5 5 5 u z > 5 5 5 5 5 5 5 5 5 5 5 u > z i =.CX1X1 > 5 5 5 5 5 5 5 5 > z u 5 5 5 5 5 5 5 5 5 5 5 5 > p c > u 5 5 5 5 5 5 5 5 5 5 u X @.pX  u ",
"l > 5 5 5 5 z 5 5 5 > s p > 5 u z > > u z > > c u > 5 5 5 5 5 5 5 5 5 5 5 5 5 5 5 5 5 5 5 > a z i g h f :.i.9 e 9 9 7 6 p z > 5 5 5 5 5 5 > p s > 5 5 5 5 u z > 5 5 5 > z u > 5 > z r 5 > 5 z 5 5 u z 5 @ R 0 > 5 5 5 5 5 5 5 5 5 5 5 5 5 5 5 u f i U.I.^.x.q Y Y E Y i.w.O > s p p p p s p ( r.e.r.;.p s p p p p s 5 > u s s / ) ) ) ) ) ) ) ) ) l p p > 5 z > > > > > > > > > > > > > > u z > > > > > > > > > > > > > > a e.CXa.@ > 5 > > > > > > > > > z 5 > > > > > > > > > > > > > u z > > > > > > > > > > > > 1   @.pX  u ",
"l > 5 5 5 5 z 5 5 5 > s p > 5 u z > > u z > > c u > 5 5 5 5 5 5 5 5 5 5 5 5 5 5 5 5 5 5 5 > a z i g h f :.i.9 e 9 9 7 6 p z > 5 5 5 5 5 5 > p s > 5 5 5 5 u z > 5 5 5 > z u > 5 > z r 5 > 5 z 5 5 u z 5 @ R 0 > 5 5 5 5 5 5 5 5 5 5 5 5 5 5 5 5 i i I Y.^.x.q Y Y E Y i.w.O > s p p p p l 1 3.AXBXAXd.1 l p p p p s 5 > u s k x x x x x x x x x x l p p > 5 z u p p p p p p p p p p p p p p c u p p p p p p p p p p p p 1 =.CX1Xu p p p p p p p p p p p p c p p p p p p p p p p p p p p s M u p p p p p p p p p p p p = $.pX= p ",
"l > 5 5 5 5 z 5 5 5 > s p > 5 u z > > u z > > c u > 5 5 5 5 5 5 5 5 5 5 5 5 5 5 5 5 5 5 5 > a z i g h f :.i.9 e 9 9 7 6 p z > 5 5 5 5 5 5 > p s > 5 5 5 5 u z > 5 5 5 > z u > 5 > z r 5 > 5 z 5 5 u z 5 @ R 0 > 5 5 5 5 5 5 5 5 5 5 5 5 5 5 5 5 i i F T./.x.q Y Y E Y i.w.O > s p p p p l u 1.BXVXBXd.1 l p p p p s 5 > u s s / ) ) ) ) ) ) ) ) ) l p p > 5 z z c z z z z z z z z z z z z c B z c z z z z z z z z z c a w.CX1Xd z c z z z z z z z z z z z B c z z z z z z z z z z z z z M B z c z z z z z z z z z z c 7 #.dX7 c ",
"l > u 5 5 5 z 5 5 5 > s p > 5 u z > > u z > > c u > 5 5 5 5 5 5 5 5 5 5 5 5 5 5 5 5 5 5 5 > a z i g h f :.i.9 e 9 9 7 6 p z > 5 5 5 5 5 5 > p s > u 5 5 5 u z > 5 5 5 > z u > 5 > z r 5 > 5 z 5 5 u z 5 @ R 0 > 5 5 5 5 5 5 5 5 5 5 5 5 5 5 5 5 i g Z Y.].z.q Y Y E Y i.w.O > s p p p p l 1 1.BXNXBXd.1 l p p p p s 5 > u s k x x x x x x x x x x l p p > 5 z > > > > > > > > > > > > > > 5 l > > > > > > > > > > 5 O =.CXbXp > > > > > > > > > > > > > > l > > > > > > > > > > > > > > u z > > > > > > > > > > > > 1   @.pX  1 ",
"s > > > 5 5 z u 5 u > s p > 5 u z > 5 u z > > c > 5 > > 5 5 5 5 5 5 5 5 5 5 5 5 5 5 5 5 5 > a d i i g f :.i.9 e 9 9 7 6 p z > u 5 5 5 5 5 > p p > > 5 5 5 u z > 5 5 u > z u > u 5 z r 5 u 5 l > > > z 5 @ R 0 > 5 5 5 5 5 5 5 5 5 5 5 5 5 5 5 5 u f j Y.{.z.q Y Y R Y i.w.O > s p p p p l 1 1.BXNXBXd.1 l p p p p s 5 > u s s / ) ) ) ) ) ) ) ) ) l p p > 5 z > u 5 5 5 5 5 5 5 5 5 5 5 5 u z > u 5 5 5 5 5 5 5 6 & =.CX1Xd s 5 u 5 5 5 5 5 5 5 5 5 5 u 5 z u 5 5 5 5 5 5 5 5 5 5 5 u > p c > u 5 5 5 5 5 5 5 5 5 5 u X @.pXX u ",
"B p p z 5 > z > > > > p p > > 5 l > > u l > > B z > p p > > > > > > > > > > > > > > > > > > p V h b V f :.i.9 e 9 7 6 6 6 l > > > > > > > > z M > z u > > 5 z > > > > > l u > > > d r 5 > > B u p s l > O R 0 @ > > > > > > > > > > > > > > > > > f f I.{.x.q Y Y E Y i.w.O > s p p p p l 1 1.BXNXBXd.1 l p p p p s 5 > u s k x x x x x x x x x x l p p > 5 z > 5 5 5 5 5 5 5 5 5 5 5 5 > u z > 5 5 5 5 5 5 5 5 & =.CX1X> d l > 5 5 5 5 5 5 5 5 5 5 5 5 > z u 5 5 5 5 5 5 5 5 5 5 5 5 > p c > 5 5 5 5 5 5 5 5 5 5 5 u X @.pX  u ",
"x.B k.] s p M s p s p c z p p l M p p l c p z l.] B k.c p s s s s s s s s s s s s s s s s p [ x.] X.m.A :.a.m m m m l l l c p s s s s s p z x.[ ' k.] p s s M p s s s p c l p s p c &.l p [ x.` ,.h.B p i _ m p s s s s s s s s s s s s s s s s p h j P.T.c.Y _ R =.R i.w.O > s p p p p l 1 1.BXNXBXd.1 l p p p p s 5 > u s s / ) ) ) ) ) ) ) ) ) l p p > 5 z > 5 5 5 5 5 5 5 5 5 5 5 5 > u z > 5 5 5 5 5 5 5 & =.CXbX1 > z s > 5 5 5 5 5 5 5 5 5 5 5 5 > z u 5 5 5 5 5 5 5 5 5 5 5 5 > p c > 5 5 5 5 5 5 5 5 5 5 5 u X @.pX  u ",
"M p k.k.c z B z z z z M c z z z B z z c B s [ k.u [ z.' z z z z z z z z z z z z z z z z z c x.B b b c.A 2.a.( ( ( m m c c B z z z z z z s [ ] s B m.] l z z B z z z z z B z z z z B >.z B k.z M h.k.,.l d ;.( d z z z z z z z z z z z z z z z z z b b I *Xc.R _ R ;._ 1Xw.O > s p p p p l 1 1.BXNXBXd.1 l p p p p s 5 > u s k x x x x x x x x x x l p p > 5 z > 5 5 5 5 5 5 5 5 5 5 5 5 > u z > 5 5 5 5 5 5 & =.CXbX5 1 > z s > 5 5 5 5 5 5 5 5 5 5 5 5 > z u 5 5 5 5 5 5 5 5 5 5 5 5 > p c > 5 5 5 5 5 5 5 5 5 5 5 u X @.pX  u ",
"z @ > B B @ z > > > > p p > > 5 l > > u l @ M k.@ ` B ] > > > > > > > > > > > > > > > > > > k.b 1 V X.; :.i.9 9 9 7 6 6 6 l > > > > > > @ B ] 5 B ' ] > > > l > > > > > s u > > > d r > u ,.z > l k.B > O R 9 @ > > > > > > > > > > > > > > > > > u i D *Xc.q Y Y E Y i.w.O > s p p p p l 1 1.BXNXBXd.1 l p p p p s 5 > u s s / ) ) ) ) ) ) ) ) ) l p p > 5 z > 5 5 5 5 5 5 5 5 5 5 5 5 > u z > 5 5 5 5 5 % =.CXbX5 1 5 > z s > 5 5 5 5 5 5 5 5 5 5 5 5 > z u 5 5 5 5 5 5 5 5 5 5 5 5 > p c > 5 5 5 5 5 5 5 5 5 5 5 u X @.pX  u ",
"x.c B [ p > z u 5 u > s p > 5 u z > 5 p z > u k.] l [ B > u 5 5 5 5 5 5 5 5 5 5 5 5 5 5 u > B x.b V V f :.i.9 e 9 9 7 6 p z > u 5 5 5 u 5 u k.[ M [ B > u u z 5 u 5 u > z u 5 u 5 z r 6 > B x.z B ' z 5 % R 0 > 5 5 5 5 5 5 5 5 5 5 5 5 5 5 5 u 5 u f Z Y.P Y Y Y R Y i.w.O > s p p p p l 1 1.BXNXBXd.1 l p p p p s 5 > u s k x x x x x x x x x x l p p > 5 z > 5 5 5 5 5 5 5 5 5 5 5 5 > u z > 5 5 5 5 & &.CXbX5 1 5 5 > z s > 5 5 5 5 5 5 5 5 5 5 5 5 > z u 5 5 5 5 5 5 5 5 5 5 5 5 > p c > 5 5 5 5 5 5 5 5 5 5 5 u X @.pX  u ",
"l > u 5 > 5 z 5 5 u > s p > 5 u z > 5 u z > > z p > 5 > 5 5 5 5 5 5 5 5 5 5 5 5 5 5 5 5 5 > p z i a h f :.i.9 e 9 9 7 6 p z > 5 5 5 5 5 5 > p l > u > 5 5 u z > 5 5 u > z u 5 5 > z r 5 5 > z u u 5 z 5 @ R 0 > 5 5 5 5 5 5 5 5 5 5 5 5 5 5 5 5 5 5 f i Y.I Q Y Y E Y i.w.O > s p p p p l 1 1.BXNXBXd.1 l p p p p s 5 > u s s ! ) ) ) ) ) ) ) ) ) l p p > 5 z > 5 5 5 5 5 5 5 5 5 5 5 5 > u z > 5 5 5 % &.CXbX5 1 5 5 5 > z s > 5 5 5 5 5 5 5 5 5 5 5 5 > z u 5 5 5 5 5 5 5 5 5 5 5 5 > p c > 5 5 5 5 5 5 5 5 5 5 5 u X @.pX  u ",
"l > > 5 5 > z u 5 > > p p > > 5 z > > u l > > c u > 5 u > > 5 5 > > > > 5 5 > > 5 5 > > 5 > a z i a h f :.i.9 e 9 9 6 6 p z > 5 5 > > 5 u > p s > 5 u > > u z > > > > > z u > u > d r 5 > > z > > u z > @ _ 0 @ 5 > > 5 > > > 5 5 5 5 5 > > > > > > f > Y.U.q Y Y E Y i.w.O > s p p p p l 1 1.BXNXBXd.1 l p p p p s 5 > u s k x x x x x x x x x x l p p > 5 z > 5 5 5 5 5 5 5 5 5 5 5 5 > u z > 5 5 % &.CXbX7 1 5 5 5 5 > z s > 5 5 5 5 5 5 5 5 5 5 5 5 > z u 5 5 5 5 5 5 5 5 5 5 5 5 > p c > 5 5 5 5 5 5 5 5 5 5 5 u X @.pX  u ",
"u ` B > u ' B : p B z ] c @ p ] c @ l ] z @ c z z ] p @ c ' u > B z B ` 5 > B ` > > ` B > u B a X.V i j 2.i.q ( _ ( { M : z ] l @ z ] s @ M p c ' p > M ' u > B z B ` > 5 ` B > 5 ' >.> u M p ' c @ s ] z e ( c c ' l @ z ' c u 5 5 > p B B B B B B A B I.I.;._ Y R Y i.w.O > s p p p p l 1 1.BXNXBXd.1 l p p p p s 5 > u s s ! ) / / / / / / / ) l p p > 5 z > 5 5 5 5 5 5 5 5 5 5 5 5 > u z > 6 % &.CXbX7 1 5 5 5 5 5 > z s > 5 5 5 5 5 5 5 5 5 5 5 5 > z u 5 5 5 5 5 5 5 5 5 5 5 5 > p c > 5 5 5 5 5 5 5 5 5 5 5 u X @.pX  u ",
"5 [ ] : u ,.` @ p ] M h.B o l k.c o z k.z o B l c k.s o B k.p @ ' M ] ,.5 > ] [ > > [ ] > u ' a h.X.i j M.i.8 ( :._ 2.M o z k.z o c k.l o ` s M k.p @ ` ,.u @ ] M [ [ > > [ [ > 5 [ 1.: p ` u k.` o p k.b q _ ` B k.c o c h.` p > 5 > p ' z z z z z A z P.Y.2.R Y R Y i.w.O > s p p p p l 1 1.BXNXBXd.1 l p p p p s 5 > u s k x x x x x x x x x ! l p p > 5 z > 5 5 5 5 5 5 5 5 5 5 5 5 > u z 5 % r CXbX6 1 5 5 5 5 5 5 > z s > 5 5 5 5 5 5 5 5 5 5 5 5 > z u 5 5 5 5 5 5 5 5 5 5 5 5 > p c > 5 5 5 5 5 5 5 5 5 5 5 u X @.pX  u ",
"5 [ ' : u [ ` @ p ' c ,.B o l h.c o z h.z o B l z h.s o B ,.p @ ` M ' [ 5 > ] [ > > [ ] > u ' a h.X.i j M.i.8 ( :._ 2.M @ z h.z o c h.l o B s M ,.p @ ` [ u > ' c ] [ > > [ ] > 5 [ 1.: p ` u ,.B @ s ,.b q _ B M ,.z o c ,.B u > 5 > p B p p p 5 p j u I *XK.R Y R Y i.w.O > s p p p p l 1 1.BXNXBXd.1 l p p p p s 5 > u s s ! / / / / / / / / / l p p > 5 z > 5 5 5 5 5 5 5 5 5 5 5 5 > u z & e CXbX6 1 5 5 5 5 5 5 5 > z s > 5 5 5 5 5 5 5 5 5 5 5 5 > z u 5 5 5 5 5 5 5 5 5 5 5 5 > p c > 5 5 5 5 5 5 5 5 5 5 5 u X @.pX  u ",
"5 [ ' : u ,.` @ p ' c ,.B o l h.c o z h.z o B l c h.s o B ,.p @ ` M ' [ 5 > ] [ > > [ ] > u ' a h.X.i j M.i.8 ( :._ 2.M + z h.z o c h.l o ` s M ,.p @ ` ,.u : ' c ] [ > > [ ] > 5 [ 1.: p ` u ,.B o s ,.b q _ B M ,.z o c ,.B p > 5 > p ` p p z A.6XG.` I *X^.W Y R Y i.w.O > s p p p p l 1 1.BXNXBXd.1 l p p p p s 5 > u s k x ! x ! ! ! ! ! x ! l p p > 5 z > 5 5 5 5 5 5 5 5 5 5 5 5 > u a e CXbX6 1 5 5 5 5 5 5 5 5 > z s > 5 5 5 5 5 5 5 5 5 5 5 5 > z u 5 5 5 5 5 5 5 5 5 5 5 5 > p c > 5 5 5 5 5 5 5 5 5 5 5 u X @.pX  u ",
"5 [ ' : u ,.` @ p ' c ,.B o l h.c o z h.z o B l c h.s o B ,.p @ ` M ' [ 5 > ] [ > > [ ] > u ' a h.X.i j M.i.8 ( :._ 2.M + z h.z o c h.l o ` s M ,.p @ ` ,.u : ' c ] [ > > [ ] > 5 [ 1.: p ` u ,.B o s ,.b q _ B M ,.z o c ,.B p > 5 > p ` p p m.l.z X.B.E.T.^.W Y R Y i.w.O > s p p p p l 1 1.BXNXBXd.1 l p p p p s 5 > u s s ! / / / / / / / / / l p p > 5 z > 5 5 5 5 5 5 5 5 5 5 5 > 5 1 >.CXbX6 1 5 > 5 5 5 5 5 5 5 > l s > 5 5 5 5 5 5 5 5 5 5 5 5 > z u > 5 5 5 5 5 5 5 5 5 5 5 > p z > 5 5 5 5 5 5 5 5 5 5 5 u X @.pX  u ",
"5 [ ' : u ,.` @ p ' c ,.B o l h.c o z h.z o B l c h.s o B ,.p @ ` M ' [ 5 > ] [ > > [ ] > u ' a h.X.i j M.i.8 ( :._ 2.M @ z h.z o c h.l o ` s M ,.p @ ` ,.u > ' c ] [ > > [ ] > 5 [ 1.: p ` u ,.B @ s ,.b q _ B M ,.z o c ,.B p > 5 > p ` p c l.s u j h.^.T.Q.W Y R Y i.w.O > s p p p p l 1 1.BXNXBXd.1 l p p p p s 5 > u s k x ! ! ! ! ! ! ! ! ! l p p > 5 z 5 u u u u u u u u u u u u 1 e ZXbX7 1 u u u u u u u u u u 5 z l 5 u u u u u u u u u u u u u z u u u u u u u u u u u u u u p c 5 u u u u u u u u u u u u X @.pXX p ",
"5 [ ' @ u ,.` @ p ' c ,.B o l h.c o z h.z o B l c h.s o B ,.p @ ` M ' [ 5 > ] [ > > [ ] > u ' a h.X.i j M.i.8 ( :._ 2.M o z h.z o c h.l o B s M ,.p @ ` ,.u @ ' c ] [ > > [ ] > > [ 1.: p ` u ,.B o p ,.b q ( B M ,.z o c ,.B p > 5 > p ` p p 8X8X: z.qXQ.T.W.W Y R Y i.w.O > s p p p p l 1 1.BXNXBXd.1 l p p p p s 5 > u s s ! / / / / / / / / / l p p > 5 z l z z z z z z z z z z z a _ ZXmXm d z z z z z z z z z z z l B M l z z z z z z z z z z z z z M z z z z z z z z z z z z z z c B l z z z z z z z z z z z z 8 #.dX8 z ",
"5 [ ' > p ,.` : k ' c ,.B @ z h.c @ c h.z @ B l c h.k : B ,.p > ' M ' [ u > ] [ > 5 [ ] > p ' a h.X.i Z M.i.q ( :._ 2.M : c h.z @ M h.l @ ` p M ,.p > ` [ u > ' c ] [ > > [ ] > u [ 1.> p ` u ,.B @ l ,.b q _ B M ,.c @ M ,.B p > 5 > p ` p u m.wXl G.S.b.T.U.R Y R Y i.w.O > s p p p p l 1 1.BXNXBXd.1 l p p p p s 5 > u s k x ! ! ! ! ! ! ! ! ! l p p > 5 z > > > > > > > > > > 5 % e mXmXm @ 5 > > > > > > > > > > > > l s > > > > > > > > > > > > > > z 5 > > > > > > > > > > > > > u z > > > > > > > > > > > > 1   @.pX  1 ",
"5 [ ] c ] [ ' c [ ` M ,.` c [ [ B M [ [ B B ,.s c ,.c ` [ [ c ` [ c ' [ c ' [ ] c ' [ ] c [ ' a h.X.V X.M.1X_ 2.:._ 2.` M [ [ B B [ [ M B ,.p M ,.c ` [ [ c ' [ c ] [ c ' [ ] c ] [ 1.c [ B u ,.` c [ [ B R 2.B B ,.B B [ [ ` p > 5 > p ` p s p [ l X.h b.T.I._ Y R Y i.w.O > s p p p p l 1 1.BXNXBXd.1 l p p p p s 5 > u s k ! / ! ! ! ! ! ! ! / l p p > 5 z > u 5 5 5 5 5 5 5 6 % e mXmX9 a 5 u 5 5 5 5 5 5 5 5 5 5 u > z l > u 5 5 5 5 5 5 5 5 5 5 5 > z u 5 5 5 5 5 5 5 5 5 5 5 5 > p c > u 5 5 5 5 5 5 5 5 5 5 u X @.pXX u ",
"5 [ ] c [ [ ' c ,.` M ,.` M [ [ ` B [ [ B B h.p c ,.M ` [ [ M ' [ c ' [ c ] [ ] c [ [ ] c [ ' a h.X.X.X.M.1X_ 2.:._ 2.` ` [ [ B ` [ [ M ` ,.p M ,.c ' [ [ c ] [ c ] [ c [ [ ] c [ [ 1.M [ B u ,.` M [ [ B ;.2.B B ,.B ` [ [ ` p 5 u > p ` p p p u p a j v.{.I.:.Y R Y i.w.O > s p p p p l 1 1.BXNXBXd.1 l p p p p s 5 > u s k ! ! ! ! ! ! ! ! ! ! l p p > 5 z > 5 5 5 5 5 5 5 5 % e mXmX9 1 z > 5 5 5 5 5 5 5 5 5 5 5 5 > z s > 5 5 5 5 5 5 5 5 5 5 5 5 > z u 5 5 5 5 5 5 5 5 5 5 5 5 > p c > 5 5 5 5 5 5 5 5 5 5 5 u X @.pX  u ",
"> [ ] c [ [ ' c [ ` c ,.` M [ [ B B [ [ B B h.p c ,.c ` [ [ c ' [ c ' [ c ] [ ] c ] [ ] c [ ' a h.X.V X.M.1X_ 2.:._ 2.` M [ [ B B [ [ M ` ,.p M ,.c ' [ [ c ' [ c ] [ c ] [ ] c [ [ 1.M [ B u ,.` c [ [ B ;.2.B M ,.B B [ [ B u > 5 > p ` p s s l s z j E.{.Y.<.Y E Y i.w.O > s p p p p l 1 1.BXNXBXd.1 l p p p p s 5 > u s k ! ! ! ! ! ! ! ! ! ! l p p > 5 z > 5 5 5 5 5 5 5 % e mXmX9 % u z > 5 5 5 5 5 5 5 5 5 5 5 5 > z s > 5 5 5 5 5 5 5 5 5 5 5 5 > z u 5 5 5 5 5 5 5 5 5 5 5 5 > p c > 5 5 5 5 5 5 5 5 5 5 5 u X @.pX  u ",
"u [ ] M [ ,.' M ,.' B ,.' B ,.,.` ` ,.,.` ` k.l M h.B ' ,.[ B ] ,.M ] [ M [ [ [ M [ [ [ M ,.] d h.X.X.c.M.1X_ 2.:._ 2.{ ` [ ,.` ` ,.,.B ` h.s B h.M ] ,.[ M ] [ M [ [ M [ [ [ M [ [ 1.M ,.` p ,.' B [ ,.V 1.2.B ` ,.` ` ,.[ ` s u p u l ] ' ] ] ] ' ] A Q.{.Y.j.E R R i.w.O > s p p p p l 1 1.BXNXBXd.1 l p p p p s 5 > u s k ! ! ! ! ! ! ! ! ! ! l p p > 5 z > 5 5 5 5 5 5 % e mXmXr % 5 u z > 5 5 5 5 5 5 5 5 5 5 5 5 > z s > 5 5 5 5 5 5 5 5 5 5 5 5 > z u 5 5 5 5 5 5 5 5 5 5 5 5 > p c > 5 5 5 5 5 5 5 5 5 5 5 u X @.pX  u ",
"c l z z z z M z z z l c c l z z M l z z M l z B z z z z z z z z z z z z z z z z z z z z z z c B b V V A 2.a.m ( m m m z z M l z z z z z z z z c l z z z z z M z z z z l M z z z z c >.z z z M z z z M z a ;.( d z z z z z z z l l l l l z z z z z z z j E.{.Y.c.W ;._ i.w.O > s p p p p l 1 1.BXNXBXd.1 l p p p p s 5 > u s k ! ! ! ! ! ! ! ! ! ! l p p > 5 z > 5 5 5 5 5 % e mXmXr % 5 > u z > 5 5 5 5 5 5 5 5 5 5 5 5 > z s > 5 5 5 5 5 5 5 5 5 5 5 5 > z u 5 5 5 5 5 5 5 5 5 5 5 5 > p c > 5 5 5 5 5 5 5 5 5 5 5 u X @.pX  u ",
"s > > > > > z > > > > p p > > 5 l > > u l > > c u > > > > > > > > > > > > > > > > > > > > > p z i a h f :.i.9 9 9 7 6 6 6 l > > > > > > > > p p > > > > > 5 z > > > > > l u > > > d r 5 > > z > > > z > O R 0 @ > > > > > > > > > > > > > > > > > > u ; I |.Y.U Q R Y i.w.O > s p p p p l 1 1.BXNXBXd.1 l p p p p s 5 > u s s ! / / / / / / / / / l p p > 5 z > 5 5 5 5 % e mXmXr % 5 5 > u z > 5 5 5 5 5 5 5 5 5 5 5 5 > z s > 5 5 5 5 5 5 5 5 5 5 5 5 > z u 5 5 5 5 5 5 5 5 5 5 5 u > p c > 5 u u u u u 5 5 u u u u X @.pX  u ",
"l > > 5 > > z > > u > s p > 5 u z > 5 p z > > c u > > > 5 u 5 5 5 5 5 5 5 5 5 5 5 5 5 5 5 > a z i i g f :.i.9 e 9 9 7 6 p z > > > > u 5 u > p s > u 5 5 5 u z > > > > > z u 5 u 5 z r 6 u 5 z u 5 u z 5 % R x @ > 5 > > > u u 5 5 5 5 5 5 5 5 5 5 5 u ; I |.Y.I Q R Y i.w.O > s p p p p l 1 1.BXNXBXd.1 l p p p p s 5 > u s k x ! ! ! ! ! ! ! ! ! l p p > 5 z > 5 5 5 % e mXmXr % 5 5 5 > u z > 5 5 5 5 5 5 5 5 5 5 5 5 > z s > 5 5 5 5 5 5 5 5 5 5 5 5 > z u 5 5 5 5 5 5 5 5 5 5 5 + > u s > u > @ > + > 5 u > > @ >   @.pX  u ",
"s p [ z B ] B ,.z > > s p > 5 u z > > u z > > c 5 c B z l > u 5 5 5 5 5 5 5 5 5 5 5 5 5 5 > a z z h.V A :.i.9 e 9 9 7 6 p l c ' M z > u 5 > p s > 5 5 5 5 u z u [ M M u s u > 5 > z r 5 > 5 z 5 5 u z 5 @ R 0 a ' u [ B c u > 5 5 5 5 5 5 5 5 5 5 5 u : I }.Y.K.} 1.2.s.3.O > s p p p p l 1 1.BXNXBXd.1 l p p p p s 5 > u s s ! / / / / / / / / / l p p > 5 z > 5 5 % e mXCXT % 5 5 5 5 > u z > 5 5 5 5 5 5 5 5 5 5 5 5 > z s > 5 5 5 5 5 5 5 5 5 5 5 5 > z u 5 5 5 5 5 5 5 5 5 u 5 ..n X.#.v +  .+.v @.^ > + n ^ o.+.p +.pX  u ",
"p c h.p ] B z.M ] 5 > s p > 5 u z > > u z > > c > B ] M ' c > 5 5 5 5 5 5 5 5 5 5 5 5 5 5 > a z a V x.X.2.i.9 e 9 9 7 6 p z p [ [ ` M 5 5 > p s > 5 5 5 5 u l p x.p ' B B u 5 5 > z r 5 > 5 z 5 5 u z 5 @ R 9 z ,.B ` ] [ B s > 5 5 5 5 5 5 5 5 5 5 u : I }.Y.U.2.2.:.3X2.O > s p p p p l 1 1.BXNXBXd.1 l p p p p s 5 > u s k x ! ! ! ! ! ! ! ! ! l p p > 5 z > 5 1 e mXCXT % 5 5 5 5 5 > u z > 5 5 5 5 5 5 5 5 5 5 5 5 > z s > 5 5 5 5 5 5 5 5 5 5 5 5 > z u 5 5 5 5 5 5 5 5 5 @ @ #. .u @. .5 o. .;X .o.5  .;X..$.#.^ o.pX  u ",
"l u B k.B l N.> [ u > s p > 5 u z > > u z > > c u p B B m.p > 5 5 5 5 5 5 5 5 5 5 5 5 5 5 > a z 1 V V c.u.p.9 e 9 9 7 6 p l 5 ] ] z.z > u > p s > 5 5 5 5 u z u M ] k.k.s u > 5 > z r 5 > 5 z 5 5 u z 5 @ R 0 1 ` ` s B z.,.> 5 5 5 5 5 5 5 5 5 5 5 u : I |.Y.U.1.1.R 3X2.@ > s p p p p l 1 1.BXNXBXd.1 l p p p p s 5 > u s s ! / / / / / / / / / l p p > 5 z 5 1 7 bXCXT % 5 5 5 5 5 5 > u z > 5 5 5 5 5 5 5 5 5 5 5 5 > z s > 5 5 5 5 5 5 5 5 5 5 5 5 > z u 5 5 5 5 5 5 5 5 5 ^ p ^  .= @.2 v ..v pXu o.^ o. ...+.o.^ +.pX  u ",
"l u c [ ] ] k.[ ' > > s p > 5 u z > > u z > > c 5 s ` B x.B > 5 5 5 5 5 5 5 5 5 5 5 5 5 5 > a d V z.V c.M.i.9 e 9 9 7 6 p z l B h.k.` > u > p s > 5 5 5 5 u z u z ] h.,.B u 5 5 > z r 5 > 5 z 5 5 u z 5 @ R 0 1 ] z [ ] h.,.s > 5 5 5 5 5 5 5 5 5 5 u : P }.(.^.:.2.2.3X2.@ > s p p p p l 1 1.BXNXBXd.1 l p p p p s 5 > u s k x x x x x x x x x ! l p p > 5 z @ 7 bXCXT % 5 5 5 5 5 5 5 > u z > 5 5 5 5 5 5 5 5 5 5 5 5 > z s > 5 5 5 5 5 5 5 5 5 5 5 5 > z u 5 5 5 5 5 5 5 5 5 X.v  . .+.#.v v o.+.+.+.o.a o.@...+.o. .o.pX  u ",
"s p ` u s c z B p > > s p > 5 u z > > u l > > c u u p p p l 5 5 5 5 5 5 5 5 5 5 5 5 5 5 5 > a z b ' V j <.i.9 e 9 9 7 6 p l c B u p l u 5 > p s > 5 5 5 5 u z u B l p p B u > 5 > z r 5 > 5 z 5 5 u z 5 @ R 0 1 s > M l u p p > 5 5 5 5 5 5 5 5 5 5 u : P |./.(.:.R :.p.3.O > s p p p p l 1 1.BXNXBXd.1 l p p p p s 5 > u s s ! ) / / / / / / / / l p p > 6 a 7 bXCXT % 5 5 5 5 5 5 5 5 > u z > 5 5 5 5 5 5 5 5 5 5 5 5 > z s > 5 5 5 5 5 5 5 5 5 5 5 5 > z u 5 5 5 5 5 5 5 5 5 @ @ v v X...^ v v  .5  .v @ n  .p  ...+ +.pXX u ",
"z > > > > > z > > 5 > s p > 5 u z > > u z > > c u > > > > > 5 5 5 5 5 5 5 5 5 5 5 5 5 5 5 > a b i i g f :.1X9 e 9 9 7 6 p z @ > > > > 5 5 > p s > 5 5 5 5 u z > > > > > l u > 5 > z r 5 > 5 z 5 5 u z 5 @ R 0 > > 5 > > > > > 5 5 5 5 5 5 5 5 5 5 5 u : P |.[.Y.<.Q Y i.e.O > s p p p p l u 1.BXNXBXd.1 l p p p p s 5 > u s k x x x x x x x x x x l p p > 1 ( bXCXT % 5 5 5 5 5 5 5 5 5 > u z > 5 5 5 5 5 5 5 5 5 5 5 5 > z l > 5 5 5 5 5 5 5 5 5 5 5 5 > z u 5 5 5 5 5 5 5 5 5 u u > > 5 s + 5 > + 5 + > u @ + 5 + @   #.dX  u ",
"s 5 u u u u l u u u > p p 5 5 u s 5 5 u s 5 5 z u 5 u u u u u u u u u u u u u u u u u u u 5 p d i a g g _ t.9 9 9 7 6 6 u s 5 u u u u u u 5 p p > u u u 5 u s 5 u u u 5 s u 5 u 5 s w 5 u 5 l u 5 u l 5 1 ( l 1 u u u u u u u u u u u u u u u u u u u : P }.{.Y.j.E Y t.1.O > s p p p p l 1 3.AXBXAXd.1 l p p p p s 5 > u s s ! ) / ) ) ) ) ) / ) l p p > 1 w.mXT % 6 u u u u u u u u u 5 u s 5 u u u u u u u u u u u u > s p > u u u u u u u u u u u u 5 l u 5 u u u u u u u u u u u 5 p z > u u u u u u 5 u u u u u + ..#.+ u ",
"z z z z z z z z z z z z z z z z z z z z z z z z z z z z z z z z z z z z z z z z z z z z z z z z z z z z z d z z z z z z z z z z z z z z z z z z z z z z z z z z z z z z z z z z z z z z z z z z z z z z z z z z z z z z z z z z z z z z z z z z z z z l V X.S S V z c z z > > s p p p p s u :.3X3X3X3.u k p p s p s 5 > u s k x x x x x x x x x x l p p > > z m z z z z z z z z z z z z z z z z z z z z z z z z z z z z z z z z z z z z z z z z z z z z z z z z z z z z z z z z z z z z z z z z z z z z z z z z z z z z s p z z ",
"> > > > > > > > > > > > > > > > > > > > > > > > > > > > > > > > > > > > > > > > > > > > > > > > > > > > > > > > > > > > > > > > > > > > > > > > > > > > > > > > > > > > > > > > > > > > > > > > > > > > > > > > > > > > > > > > > > > > > > > > > > > > : o o : : > > > > > > s p p p s s s p 1 u 1 p s p s p p s s 5 > u s s / ) ) ) ) ) ) ) ) ) l p p > > : @ > > > > > > > > > > > > > > > > > > > > > > > > > > > > > > > > > > > > > > > > > > > > > > > > > > > > > > > > > > > > > > > > > > > > > > > > > > > > > > > > ",
"5 5 5 5 5 5 5 5 5 5 5 5 5 5 5 5 5 5 5 5 5 5 5 5 5 5 5 5 5 5 5 5 5 5 5 5 5 5 5 5 5 5 5 5 5 5 5 5 > > > 5 5 5 5 5 5 5 5 5 5 5 5 5 5 5 5 5 5 5 5 5 5 5 5 5 5 5 5 5 5 5 5 5 5 5 5 5 5 5 5 5 5 5 5 5 5 5 5 5 5 5 5 5 5 5 5 5 5 5 5 5 5 5 5 5 5 5 5 5 5 5 5 5 5 u u u 5 5 5 5 5 > > s p p s p u p p z p s p p z u s l u k 5 > u s k x x x x x x x x x x l p p > > 5 5 5 5 5 5 5 5 5 5 5 5 5 5 5 5 5 5 5 5 5 5 5 5 5 5 5 5 5 5 5 5 5 5 5 5 5 5 5 5 5 5 5 5 5 5 5 5 5 5 5 5 5 5 5 5 5 5 5 5 5 5 5 5 5 5 5 5 5 5 5 5 5 5 5 5 5 5 5 5 5 5 ",
"s s s s s s s s s s s s s s s s s s s s s s s s s s s s s s s s s s s s s s s s s s s s s s s l 5 > p l s s s s s s s s s s s s s s s s s s s s s s s s s s s s s s s s s s s s s s s s s s s s s s s s s s s s s s s s s s s s s s s s s s s s s s s s s s s s s s s s p > > s p l s l 9X,.' 7XV.p z S.G.k.Z.G.' p u > u s s / ) ) ) ) ) ) ) ) ) l p p > > s s s p p p p p p p p p p p p p p p p p p p p p p p p s s p p p p p p p p p p p p p p p p p p p p p p p p p p p p p p s s s s s s s s s s s s s s s s s s s s s s s ",
"p p p p p p p p p p p p p p p p p p p p p p p p p p p p p p p p p p p p p p p p p p p p p p p s 5 > p s p B ` ` ` ` ` ` ` ` ` ` ` ` ` ` ` ` ` ` ` ` ` ` ` ` ` ` ` ` ` ` ` ` ` ` ` ` ` ` ` ` ` ` ` ` ` ` ` ` ` ` ` ` ` ` ` ` ` ` ` ` ` ` ` ` ` ` ` ` ` ` ` ` ` ` ` B s p p > > s s u > l H.l.p s 7Xc B H.V.C.S.Z.k.u u > u s k x x x x x x x x x x l p p > > p p s c c c c c c c c c c c c c c c c c c c c c c c c l p z c c c c c c c c c c c c c c c c c c c c c c c c c c c c c s p p p p p p p p p p p p p p p p p p p p p p ",
"p p p p p p p p p p p p p p p p p p p p p p p p p p p p p p p p p p p p p p p p p p p p p p p s 5 > p s p ` c l z l l l l l l l l l l l l l l l l l l l l l l l l l l z z l z z z z l z z z z z l l l l l l l l l l l l l l l l l l l l l l l l l l l l l l l l z ` s s p > > s u ,.N.> z.z.# x.V.> l H.qX[ H.qXB p u > u s s / ) ) ) ) ) ) ) ) ) l p p > > p p l ' B B B B B B B B B B B B B B B B B B B B B B ' c p ` ` B B B B B B B B B B B B B B B B B B B B B B B B B B B ' l p s p p p p p p p p p p p p p p p p p p p p ",
"p p p p p p p p p p p p p p p p p p p p p p p p p p p p p p p p p p p p p p p p p p p p p p p s 5 > p s p ` z p p p p p p p p p p p p p p p p p p p p p p p p p p p p u p p 5 u u p p u p p p u p p p p p p p p p p p p p p p p p p p p p p p p p p p p p p p p s ` s s p > > s p B [ > B.l.' qXM ] m.C.k.DXm.m.V.> u > u s k x x x x x x x x x x l p p > > p p z ` p p p u p u u p u u p p p p p p p p p p p u B c p B z p p u p p p u p p u u p u u p p p p p p p p p p p p p ` l p s p p p p p p p p p p p p p p p p p p p p ",
"p p p p p p p p p p p p p p p p p p p p p p p p p p p p p p p p p p p p p p p p p p p p p p p s 5 > p s p ` z p s s s s s s s s s s s s s s s s s s s s s s s s s s p { M p x.{ [ ` k ' M ` c [ p s s s s s s s s s s s s s s s s s s s s s s s s s s s s s s p l ` s s p > > s s p u u ,.` z.H.B.z.' m.S.B B.Z.z p 5 > u s s / ) ) ) ) ) ) ) ) ) l p p > > p p z ` s p z c p c c p c M s s l p k l z z p l l p B c p ` z p p M z z l M s p c M p c c l l l s s s z z s p l s s ` l p s p p p p p p p p p p p p p p p p p p p p ",
"p p p p p p p p p p p p p p p p p p p p p p p p p p p p p p p p p p p p p p p p p p p p p p p s 5 > p s p ` z p s p p p p p p p p p p p p p p p p p p p p p p p p l 5 M.[ > B.[ A.D.z n.[ n.m.{ p s s s p p p p p p p p p p p p p p p p p p p p p p p p p p s p l ` s s p > > s p s s s u p u > u u p 5 5 p 5 5 p s 5 > u s s l l l l l l l l l z l p p > > p p z ` p p B.B.{ B.N.{ B.,.l c 6Xu m.l.n.N.[ l.c p B c p ` z u ,.n.[ B.n.B.z.` A.' [ B.[ l.u l.p A.' k.n.A.B k.z p ` l p s p p p p p p p p p p p p p p p p p p p p ",
"p p p p p p p p p p p p p p p p p p p p p p p p p p p p p p p p p p p p p p p p p p p p p p p s 5 > p s p ` z p s p p p p p p p p p p p p p p p p p p p p p p p p k 5 n.[ > l.{ x.A.n.k.' wXl.> s p p p p p p p p p p p p p p p p p p p p p p p p p p p p p s p l ` s s p > > s p p p p s s l p p p u s l s l l s s 5 > u s p p p u p p p p p u p p s p > > p p z ` p l n.x.l.l.x.k.A.,.u l 6X` A.,.x.c A.x.u p B c p ` c u l.l.l l.l.c 2.l.A.{ B.z 5 A.n.A.M A.2.{ ,.A.B.x.z p ` l p s p p p p p p p p p p p p p p p p p p p p ",
"p p p p p p p p p p p p p p p p p p p p p p p p p p p p p p p p p p p p p p p p p p p p p p p s 5 > p s p ` z p s p p p p p p p p p p p p p p p p p p p p p p p p l 5 m.` + l.{ n.` 8Xm.{ A.B.c k l l l p p p p p p p p p p p p p p p p p p p p p p p p p p s p l ` s s p > > s p p p p p l > ,.` c ] s p s p p p s 5 > u s p s s / z p x ! l ) x s s p > > p p z ` p p A.l.z A.A.B M.l [ ,.m.B.N.[ l.B A.l.u p B c p ` z p u l.m.x.l.c k.l.n.s B.z 5 B.` n.x.6XA.,.x.,.B.6Xs p ` l p s p p p p p p p p p p p p p p p p p p p p ",
"p p p p p p p p p p p p p p p p p p p p p p p p p p p p p p p p p p p p p p p p p p p p p p p s 5 > p s p ` z p s p p p p p p p p p p p p p p p p p p p p p p p p l 5 n.D.k.A.x.l.z x.A.' 2.{ N.x.k.2.l.s p s p p p p p p p p p p p p p p p p p p p p p p p s p l ` s s p > > s p p p p s p z G.l.7XZ.S.p s s p p s 5 > u s s p s u.5Xp ) 5X| u.5Xp s p > > p p z ` p l l.u z x.{ x.B.k.c ` x.m.2.[ n.B.` l.M u B c p ` z p { n.l.B.n.A.l.B A.{ ,.B.{ l.p x.m.` ,.A.n.,.M 6Xk p ` l p s p p p p p p p p p p p p p p p p p p p p ",
"p p p p p p p p p p p p p p p p p p p p p p p p p p p p p p p p p p p p p p p p p p p p p p p s 5 > p s p ` z p s s s s s s s s s s s s s s s s s s s s s s s s s s p k M c z z s s p s s l p l l l l l s s s s s s s s s s s s s s s s s s s s s s s s s s s p l ` s s p > > s p p p s 5 x.H.wXx.G.k.H.p s s p p s 5 > u s p ! x p u.u k 5X! ! | u k p > > p p z ` p s l l s l s l z c p p k p s k z z p s l p B c p ` z p z c s z l M s p c c p c z s s l l p p z z l p s s s ` l p s p p p p p p p p p p p p p p p p p p p p ",
"p p p p p p p p p p p p p p p p p p p p p p p p p p p p p p p p p p p p p p p p p p p p p p p s 5 > p s p ` z p p p p p p p p p p p p p p p p p p p p p p p p p p p p p u p p p p p p p p p p p p p p p p p p p p p p p p p p p p p p p p p p p p p p p p p p p s ` s s p > > s p p p k 5 G.c m.l.7XZ.S.s p s p p s 5 > u k p } ) 5X| l / 5X} u./ p s p > > p p z ` p p p p p p p p p u p p p p p p p p p p p u B c p B z p p u p p p u p p u u p u p p p p p p p p p p p p p p ` l p s p p p p p p p p p p p p p p p p p p p p ",
"p p p p p p p p p p p p p p p p p p p p p p p p p p p p p p p p p p p p p p p p p p p p p p p s 5 > p s p ` c l z z z z z z z z z z z z z z z z z z z z z z z z z z z z z z z z z z z z z z z z z z z z z z z z z z z z z z z z z z z z z z z z z z z z z z z l z ` s s p > > s p p p k 5 B.V.0Xz.7X[ 9Xc p s p p s 5 > u s s u l u.| ! | | x ) p p s p > > p p l ' B B B B B B B B B B B B B B B B B B B B B B ' c p ` ` B B B B B B B B B B B B B B B B B B B B B B B B B B B ' l p s p p p p p p p p p p p p p p p p p p p p ",
"p p p p p p p p p p p p p p p p p p p p p p p p p p p p p p p p p p p p p p p p p p p p p p p s 5 > p s p B ` ` ` ` ` ` ` ` ` ` ` ` ` ` ` ` ` ` ` ` ` ` ` ` ` ` ` ` ` ` ` ` ` ` ` ` ` ` ` ` ` ` ` ` ` ` ` ` ` ` ` ` ` ` ` ` ` ` ` ` ` ` ` ` ` ` ` ` ` ` ` ` ` ` ` B s p p > > s p p p s p l m.z.c z.C.' u s p p p s 5 > u s p k p u u p u u p u p p p p > > p p s c c c c c c c c c c c c c c c c c c c c c c c c l p z c c c c c c c c c c c c c c c c c c c c c c c c c c c c c s p p p p p p p p p p p p p p p p p p p p p p ",
"s s s s s s s s s s s s s s s s s s s s s s s s s s s s s s s s s s s s s s s s s s s s s s s l 5 > p l s s s s s s s s s s s s s s s s s s s s s s s s s s s s s s s s s s s s s s s s s s s s s s s s s s s s s s s s s s s s s s s s s s s s s s s s s s s s s s s s p > > s s s s s s s 5 5 p 5 > p k s s s s l 5 : p l s s s l l k l l s k s s s s > > s s s p p p p p p p p p p p p p p p p p p p p p p p p s s p p p p p p p p p p p p p p p p p p p p p p p p p p p p p p s s s s s s s s s s s s s s s s s s s s s s s ",
"5 5 5 5 5 5 5 5 5 5 5 5 5 5 5 5 5 5 5 5 5 5 5 5 5 5 5 5 5 5 5 5 5 5 5 5 5 5 5 5 5 5 5 5 5 5 5 5 > > > 5 5 5 5 5 5 5 5 5 5 5 5 5 5 5 5 5 5 5 5 5 5 5 5 5 5 5 5 5 5 5 5 5 5 5 5 5 5 5 5 5 5 5 5 5 5 5 5 5 5 5 5 5 5 5 5 5 5 5 5 5 5 5 5 5 5 5 5 5 5 5 5 5 5 5 5 5 5 5 5 5 > > > 5 5 5 5 5 5 5 u u 5 u u 5 5 5 5 5 5 5 > > > 5 5 5 5 5 5 5 5 5 5 5 5 5 5 5 > > 5 5 5 5 5 5 5 5 5 5 5 5 5 5 5 5 5 5 5 5 5 5 5 5 5 5 5 5 5 5 5 5 5 5 5 5 5 5 5 5 5 5 5 5 5 5 5 5 5 5 5 5 5 5 5 5 5 5 5 5 5 5 5 5 5 5 5 5 5 5 5 5 5 5 5 5 5 5 5 5 5 5 ",
"@ @ @ @ @ @ @ @ @ @ @ @ @ @ @ @ @ @ @ @ @ @ @ @ @ @ @ @ @ @ @ @ @ @ @ @ @ @ @ @ @ @ @ @ @ @ @ @ : : @ @ @ @ @ @ @ @ @ @ @ @ @ @ @ @ @ @ @ @ @ @ @ @ @ @ @ @ @ @ @ @ @ @ @ @ @ @ @ @ @ @ @ @ @ @ @ @ @ @ @ @ @ @ @ @ @ @ @ @ @ @ @ @ @ @ @ @ @ @ @ @ @ @ @ @ @ @ @ @ @ @ @ : : @ @ @ @ @ @ @ @ @ @ @ @ @ @ @ @ @ @ @ > > > @ @ @ @ @ @ @ @ @ @ @ @ @ @ @ : : @ @ @ @ @ @ @ @ @ @ @ @ @ @ @ @ @ @ @ @ @ @ @ @ @ @ @ @ @ @ @ @ @ @ @ @ @ @ @ @ @ @ @ @ @ @ @ @ @ @ @ @ @ @ @ @ @ @ @ @ @ @ @ @ @ @ @ @ @ @ @ @ @ @ @ @ @ @ @ @ @ @ ",
"B B B B B B B B B B B B B B B B B B B B B B B B B B B B B B B B B B B B B B B B B B B B B B B B M M M B B B B B B B B B B B B B B B B B B B B B B B B B B B B B B B B B B B B B B B B B B B B B B B B B B B B B B B B B B B B B B B B B B B B B B B B B B B B B B B B B M M M B B B B B B B B B B B B B B B B B M B p @ z B M B B B B B B B B B B B B M M M B B B B B B B B B B B B B B B B B B B B B B B B B B B B B B B B B B B B B B B B B B B B B B B B B B B B B B B B B B B B B B B B B B B B B B B B B B B B B B B B B B ",
"] ] ] ] ] ] ] ] ] ] ] ] ] ] ] ] ] ] ] ] ] ] ] ] ] ] ] ] ] ] ] ] ] ] ] ] ] ] ] ] ] ] ] ] ] ] ] ] ] ] ] ] ] ] ] ] ] ] ] ] ] ] ] ] ] ] ] ] ] ] ] ] ] ] ] ] ] ] ] ] ] ] ] ] ] ] ] ] ] ] ] ] ] ] ] ] ] ] ] ] ] ] ] ] ] ] ] ] ] ] ] ] ] ] ] ] ] ] ] ] ] ] ] ] ] ] ] ] ] ] ] ] ] ] ] ] ] ] ] ] ] ] ] ] ] ] ] ] ] ] ] ] ] [ l o M [ ] ] ] ] ] ] ] ] ] ] ] ] ] ] ] ] ] ] ] ] ] ] ] ] ] ] ] ] ] ] ] ] ] ] ] ] ] ] ] ] ] ] ] ] ] ] ] ] ] ] ] ] ] ] ] ] ] ] ] ] ] ] ] ] ] ] ] ] ] ] ] ] ] ] ] ] ] ] ] ] ] ] ] ] ] ] ] ] ] ] ] ] ] ] ] ] ] ] ",
"' ' ' ' ' ' ' ' ' ' ' ' ' ' ' ' ' ' ' ' ' ' ' ' ' ' ' ' ' ' ' ' ' ' ' ' ' ' ' ' ' ' ' ' ' ' ' ' ' ' ' ' ' ' ' ' ' ' ' ' ' ' ' ' ' ' ' ' ' ' ' ' ' ' ' ' ' ' ' ' ' ' ' ' ' ' ' ' ' ' ' ' ' ' ' ' ' ' ' ' ' ' ' ' ' ' ' ' ' ' ' ' ' ' ' ' ' ' ' ' ' ' ' ' ' ' ' ' ' ' ' ' ' ' ' ' ' ' ' ' ' ' ' ' ' ' ' ' ' ' ' ' ' ] k o c ] ' ` ] B ` ' ' ' ' ' ' ' ' ' ' ' ' ' ' ' ' ' ' ' ' ' ' ' ' ' ' ' ' ' ' ' ' ' ' ' ' ' ' ' ' ' ' ' ' ' ' ' ' ' ' ' ' ' ' ' ' ' ' ' ' ' ' ' ' ' ' ' ' ' ' ' ' ' ' ' ' ' ' ' ' ' ' ' ' ' ' ' ' ' ' ' ' ' ",
"' ' ' ' ' ' ' ' ' ' ' ' ' ' ' ' ' ' ' ' ' ' ' ' ' ' ' ' ' ' ' ' ' ' ' ' ' ' ' ' ' ' ' ' ' ' ' ' ' ' ' ' ' ' ' ' ' ' ' ' ' ' ' ' ' ' ' ' ' ' ' ' ' ' ' ' ' ' ' ' ' ' ' ' ' ' ' ' ' ' ' ' ' ' ' ' ' ' ' ' ' ' ' ' ' ' ' ' ' ' ' ' ' ' ' ' ' ' ' ' ' ' ' ' ' ' ' ' ' ' ' ' ' ' ' ' ' ' ' ' ' ' ' ' ' ' ' ' ' ' ' ' ' ] k o M ] B 8X9X6X] ` ] ` ' ] B ' ] ` [ ' ' ] ` ` ] ' ' ' ' ' ' ' ' ' ' ' ' ' ' ' ' ' ' ' ' ' ' ' ' ' ' ' ' ' ' ' ' ' ' ' ' ' ' ' ' ' ' ' ' ' ' ' ' ' ' ' ' ' ' ' ' ' ' ' ' ' ' ' ' ' ' ' ' ' ' ' ' ' ' ' ' ' ",
"' ' ' ' ' ' ' ' ' ' ' ' ' ' ' ' ' ' ' ' ' ' ' ' ' ' ' ' ' ' ' ' ' ' ' ' ' ' ' ' ' ' ' ' ' ' ' ' ' ' ' ' ' ' ' ' ' ' ' ' ' ' ' ' ' ' ' ' ' ' ' ' ' ' ' ' ' ' ' ' ' ' ' ' ' ' ' ' ' ' ' ' ' ' ' ' ' ' ' ' ' ' ' ' ' ' ' ' ' ' ' ' ' ' ' ' ' ' ' ' ' ' ' ' ' ' ' ' ' ' ' ' ' ' ' ' ' ' ' ' ' ' ' ' ' ' ' ' ' ' ' ' ' ] k o M ] ` 9X' D.Z.B.0Xx.Z.6Xm.8XC.S.6Xl.D.G.n.eXm.` ' ' ' ' ' ' ' ' ' ' ' ' ' ' ' ' ' ' ' ' ' ' ' ' ' ' ' ' ' ' ' ' ' ' ' ' ' ' ' ' ' ' ' ' ' ' ' ' ' ' ' ' ' ' ' ' ' ' ' ' ' ' ' ' ' ' ' ' ' ' ' ' ' ' ' ' ",
"' ' ' ' ' ' ' ' ' ' ' ' ' ' ' ' ' ' ' ' ' ' ' ' ' ' ' ' ' ' ' ' ' ' ' ' ' ' ' ' ' ' ' ' ' ' ' ' ' ' ' ' ' ' ' ' ' ' ' ' ' ' ' ' ' ' ' ' ' ' ' ' ' ' ' ' ' ' ' ' ' ' ' ' ' ' ' ' ' ' ' ' ' ' ' ' ' ' ' ' ' ' ' ' ' ' ' ' ' ' ' ' ' ' ' ' ' ' ' ' ' ' ' ' ' ' ' ' ' ' ' ' ' ' ' ' ' ' ' ' ' ' ' ' ' ' ' ' ' ' ' ' ' ] k o M ] ` 0X' x.eXeX6XwXeX8XeX8Xx.G.Z.V.wX8XeX6XB ] ' ' ' ' ' ' ' ' ' ' ' ' ' ' ' ' ' ' ' ' ' ' ' ' ' ' ' ' ' ' ' ' ' ' ' ' ' ' ' ' ' ' ' ' ' ' ' ' ' ' ' ' ' ' ' ' ' ' ' ' ' ' ' ' ' ' ' ' ' ' ' ' ' ' ' ' ",
"' ' ' ' ' ' ' ' ' ' ' ' ' ' ' ' ' ' ' ' ' ' ' ' ' ' ' ' ' ' ' ' ' ' ' ' ' ' ' ' ' ' ' ' ' ' ' ' ' ' ' ' ' ' ' ' ' ' ' ' ' ' ' ' ' ' ' ' ' ' ' ' ' ' ' ' ' ' ' ' ' ' ' ' ' ' ' ' ' ' ' ' ' ' ' ' ' ' ' ' ' ' ' ' ' ' ' ' ' ' ' ' ' ' ' ' ' ' ' ' ' ' ' ' ' ' ' ' ' ' ' ' ' ' ' ' ' ' ' ' ' ' ' ' ' ' ' ' ' ' ' ' ' ] k o M ] ` eXk.6XD.eXB.N.wXB.x.l.wXk.G.wX9Xz.Z.S.B ] ' ' ' ' ' ' ' ' ' ' ' ' ' ' ' ' ' ' ' ' ' ' ' ' ' ' ' ' ' ' ' ' ' ' ' ' ' ' ' ' ' ' ' ' ' ' ' ' ' ' ' ' ' ' ' ' ' ' ' ' ' ' ' ' ' ' ' ' ' ' ' ' ' ' ' ' ",
"' ' ' ' ' ' ' ' ' ' ' ' ' ' ' ' ' ' ' ' ' ' ' ' ' ' ' ' ' ' ' ' ' ' ' ' ' ' ' ' ' ' ' ' ' ' ' ' ' ' ' ' ' ' ' ' ' ' ' ' ' ' ' ' ' ' ' ' ' ' ' ' ' ' ' ' ' ' ' ' ' ' ' ' ' ' ' ' ' ' ' ' ' ' ' ' ' ' ' ' ' ' ' ' ' ' ' ' ' ' ' ' ' ' ' ' ' ' ' ' ' ' ' ' ' ' ' ' ' ' ' ' ' ' ' ' ' ' ' ' ' ' ' ' ' ' ' ' ' ' ' ' ' ] k o c ] B D.9XZ.B m.6Xk.m.G.z.G.C.V.6Xk.V.S.n.m.B ] ' ' ' ' ' ' ' ' ' ' ' ' ' ' ' ' ' ' ' ' ' ' ' ' ' ' ' ' ' ' ' ' ' ' ' ' ' ' ' ' ' ' ' ' ' ' ' ' ' ' ' ' ' ' ' ' ' ' ' ' ' ' ' ' ' ' ' ' ' ' ' ' ' ' ' ' ",
"' ' ' ' ' ' ' ' ' ' ' ' ' ' ' ' ' ' ' ' ' ' ' ' ' ' ' ' ' ' ' ' ' ' ' ' ' ' ' ' ' ' ' ' ' ' ' ' ' ' ' ' ' ' ' ' ' ' ' ' ' ' ' ' ' ' ' ' ' ' ' ' ' ' ' ' ' ' ' ' ' ' ' ' ' ' ' ' ' ' ' ' ' ' ' ' ' ' ' ' ' ' ' ' ' ' ' ' ' ' ' ' ' ' ' ' ' ' ' ' ' ' ' ' ' ' ' ' ' ' ' ' ' ' ' ' ' ' ' ' ' ' ' ' ' ' ' ' ' ' ' ' ' ] k o M ] ' B B B ' ` B ' ` B ` B B ` B ` B ` ` ` ' ' ' ' ' ' ' ' ' ' ' ' ' ' ' ' ' ' ' ' ' ' ' ' ' ' ' ' ' ' ' ' ' ' ' ' ' ' ' ' ' ' ' ' ' ' ' ' ' ' ' ' ' ' ' ' ' ' ' ' ' ' ' ' ' ' ' ' ' ' ' ' ' ' ' ' ' ' ",
"' ' ' ' ' ' ' ' ' ' ' ' ' ' ' ' ' ' ' ' ' ' ' ' ' ' ' ' ' ' ' ' ' ' ' ' ' ' ' ' ' ' ' ' ' ' ' ' ' ' ' ' ' ' ' ' ' ' ' ' ' ' ' ' ' ' ' ' ' ' ' ' ' ' ' ' ' ' ' ' ' ' ' ' ' ' ' ' ' ' ' ' ' ' ' ' ' ' ' ' ' ' ' ' ' ' ' ' ' ' ' ' ' ' ' ' ' ' ' ' ' ' ' ' ' ' ' ' ' ' ' ' ' ' ' ' ' ' ' ' ' ' ' ' ' ' ' ' ' ' ' ' ' ] k @ c ] ' ' ] ' ' ' ' ' ' ' ' ' ' ' ] ' ' ' ' ' ' ' ' ' ' ' ' ' ' ' ' ' ' ' ' ' ' ' ' ' ' ' ' ' ' ' ' ' ' ' ' ' ' ' ' ' ' ' ' ' ' ' ' ' ' ' ' ' ' ' ' ' ' ' ' ' ' ' ' ' ' ' ' ' ' ' ' ' ' ' ' ' ' ' ' ' ' ' ",
"5 5 5 5 5 5 5 5 5 6 5 > u l l s s s s s s s s s s s s s s s s s s s s s s s s s s s s s s s s s s s s s s s s s s s s s s s s s s s s s s s s s s s s s s s s s s s s s s s s s s s l l u > p l k l l l l l l l l l l l l l l l l l l l l l l l l l l l l l l l l l l l l l l l l l l l l l l l l l l l l l l l k l u : p l k l l l l l l l l l l l l l l l l l l l l l l l l l l l l l l l l l l l l l l l l l l l l l l l l l l l l l l l l l l l l l l l l l l l l l l l l l l l l l l l l l l l l l l l l l l l l l l l l l ",
"> > > > > > > > > > > > > s p s l l l l l l l l l l l l l l l l l l l l l l l l l l l l l l l l l l l l l l l l l l l l l l l l l l l l l l l l l l l l l l l l l l l l l l l l l s p s > : p s p p p p p p p p p p p p p p p p p p p p p p p p p p p p p p p p p p p p p p p p p p p p p p p p p p p p p p p p p s 5 > u s p p p p p p p p p p p p p p p p p p p p p p p p p p p p p p p p p p p p p p p p p p p p p p p p p p p p p p p p p p p p p p p p p p p p p p p p p p p p p p p p p p p p p p p p p p p p p p p p p p ",
"z z z z z z z l > > > > 5 l 3 -.SX@X#X#X#X#X#X#X#X#X#X#X#X#X#X#X#X#X#X#X#X#X#X#X#X#X#X#X#X#X#X#X#X#X#X#X#X#X#X#X#X#X#X#X#X#X#X#X#X#X#X#X#X#X#X#X#X#X#X#X#X#X#X#X#X#X#X#X#X#X#X@XSX-.3 l 5 > p s p s s s s s s s s s p s p > > > > > > > > > > > > > > > > > > > > > > > > > > > > > > > > > > u > > > > > > > u s s 5 > u s p s s s p s l l s p s s s p p s p s s s s s s s s s s s s s s s p s s s k p s s s s s s s s s s s s s s s s s s s s s s s s p s l l p p s p s s s s s s s p p s p s s s s s s s s s s s s s s s p k ",
"5 5 5 5 5 > p l > > > > 5 l 3 8.@X4.5.5.5.5.5.5.5.5.5.5.5.5.5.5.5.5.5.5.5.5.5.5.5.5.5.5.5.5.5.5.5.5.5.5.5.5.5.5.5.5.5.5.5.5.5.5.5.5.5.5.5.5.5.5.5.5.5.5.5.5.5.5.5.5.5.5.5.5.5.4.@X8.3 l 5 > p s p p p s u u s p 5 u p s p > > > > > > > > > > > @ > > > > > > > > > > > > > > > > > > > > > > u > > > @ > > > u s s 5 > u s p p p p s p > 5 p k l s p z M p l s p p p p p p p p p p p p p p s p u p 5 l l k s l k s l k p p p p p p p p p p p p p p p p s u > > k z s s l s s l s s k l z s s p p p p p p p p p p p p p p p s u ",
"> > > > > > u l > > > > 5 l 3 8.+X*.4.4.4.4.4.4.4.4.4.4.4.4.4.4.4.4.4.4.4.4.4.4.4.4.4.4.4.4.4.5.4.5.5.4.4.4.4.4.4.5.4.4.4.4.4.4.4.4.4.4.4.4.4.4.4.4.4.4.4.4.4.4.4.4.4.4.4.4.4.*.@X8.3 l 5 > p s p c s p B [ p z [ ' p s p > > o o > # o > > > > p o # o > > o > > > > > > > > > > > > > > > > u > > @ l > > > u s s 5 > u s p p p s u [ 6XB.z u 5 s M s ` u 5 u s p p p p p p p p p p p p s p c x.z m.5 > u p 5 u p 5 u p p p p p p p p p p p p p p p s u x.6XZ.S.x.o s 5 u p 5 u p > ' Z.o p s p p p p p p p p p p p p p s u z.",
"> > > > > > u l > > > > 5 l 3 8.@X*.4.4.4.4.4.4.4.4.4.4.4.4.4.4.4.4.4.4.4.4.4.4.4.4.4.4.4.4.0.OX0.OX0.9.0.0.OX5.4.9.9.4.4.4.4.4.4.4.4.4.4.4.4.4.4.4.4.4.4.4.4.4.4.4.4.4.4.4.4.*.@X8.3 l 5 > p s s H.l l 9XS.B.B.7Xk.s s p > @ z.[ 5 Z.z.: > o > Z.B H.N.u p ,.# o > @ # > s o > > > > > > > > u > @ ` DX[ o > u s s 5 > u s p p p l > B.z.Z.z.k.V.x.DXx.[ B H.x.u s p p p p p p p p p p p s u ` H.Z.k.k.G.m.p B.m.l V.m.p s p p p p p p p p p p p p p s s p G.z.x.qXV.c N.m.M Z.k.[ Z.l.qXZ.] u s p p p p p p p p p p p s p p 9X",
"> > > > > > u l > > > > 5 l 3 8.@X*.4.4.4.4.4.4.4.4.4.4.4.4.4.4.4.4.4.4.4.4.4.4.4.4.4.4.4.4.0.OX9.OX5.OXOX9.OX4.4.5.0.4.4.4.4.4.4.4.4.4.4.4.4.4.4.4.4.4.4.4.4.4.4.4.4.4.4.4.4.*.@X8.3 l 5 > p s s 6Xz z 7Xz.S.B.B.z p s p > > H.N.> c D.B # k.G.S.z.k.m.k.,.x.k.S.u M Z.Z.wXz @ > > > > > > > u > @ A.wXD.> > u s s 5 > u s p p p l > z.wX6Xz ' 7XZ.S.[ G.Z.,.6XB p s p p p p p p p p p p s p z IX9X# 9Xx.D.B.6X6XqXG.qX,.5 s p p p p p p p p p p p p p l > B.[ x.Z.N.m.qXM Z.H.0X9XB.] 7Xk.G.> l p p p p p p p p p p p s u ,.7X",
"> > > > > > u l > > > > 5 l 3 8.@X*.4.4.4.4.4.4.4.4.4.4.4.4.4.4.4.4.4.4.4.4.4.4.4.4.4.4.4.4.9.OX5.OX9.OXOX9.OX5.5.OX5.4.4.4.4.4.4.4.4.4.4.4.4.4.4.4.4.4.4.4.4.4.4.4.4.4.4.4.4.*.@X8.3 l 5 > p s k H.5 p wXV.p V.9Xk.p s p > o ` N.$ u G.> p G.' S.k.qX6Xc m.k.B.] C.Z.M [ Z.o > > > > > > > > u > > z p z 5 : u s s 5 > u s p p p l > N.V.D.k.G.7XD.V.` G.G.l G.` u s p p p p p p p p p p s p B 6XG.k.D.z C.S.9Xk.H.7Xz.B p s p p p p p p p p p p p p p k 5 C.,.z.x.k.C.S.@ H.G.l.M V.H.B.c H.> l p p p p p p p p p p p l 5 S.G.",
"> > > > > > u l > > > > 5 l 3 8.@X*.4.4.4.4.4.4.4.4.4.4.4.4.4.4.4.4.4.4.4.4.4.4.4.4.4.4.4.4.5.4.4.0.9.4.5.0.5.5.5.9.5.4.4.4.4.4.4.4.4.4.4.4.4.4.4.4.4.4.4.4.4.4.4.4.4.4.4.4.4.*.@X8.3 l 5 > p s p qXz.[ H.5 > S.[ @ k s p > o [ B.# S.B # c S.p S.z.k.[ 6Xz.{ N.k D.S.> ` V.# > > > > > > > > u > o A.IX6X> > u s s 5 > u s p p p l 5 z.,.,.S.S.D.x.S.V.z.,.9XB.p s p p p p p p p p p p p s p B B.c Z.Z.z B.] Z.N.` S.N.z p s p p p p p p p p p p p p p s 5 m.] k.k.,.m.V.u ] G.l.l.G.V.m.M V.5 k p p p p p p p p p p s p l Z.5 ",
"> > > > > > u l > > > > 5 l 3 8.@X*.5.4.4.4.4.4.4.4.4.4.4.4.4.4.4.4.4.4.4.4.4.4.4.4.4.4.4.4.4.4.4.4.4.4.4.4.4.4.4.4.4.4.4.4.4.4.4.4.4.4.4.4.4.4.4.4.4.4.4.4.4.4.4.4.4.4.4.4.5.*.@X8.3 l 5 > p s p x.C.[ ] l p ' B p s s p > o ` k.[ wXV.c o N.H.N.[ 0XC.B.] @ V.H.z [ 6X[ G.M @ > > > > > > > u > @ p eXc o > u s s 5 > u s p p p p s p p p p l l u p l p p l p p s p p p p p p p p p p p p s p p p p p p p p s c p k c s p p p p p p p p p p p p p p p p s p p p p p p p s p z z l z u p p p s p p p p p p p p p p p p p s p s ",
"> > > > > > u l > > > > 5 l 3 8.+X*.4.4.4.4.4.4.4.4.4.4.4.4.4.4.4.4.4.4.4.4.4.4.4.4.4.4.4.4.4.4.4.4.4.4.4.4.4.4.4.4.4.4.4.4.4.4.4.4.4.4.4.4.4.4.4.4.4.4.4.4.4.4.4.4.4.4.4.4.4.*.+X8.3 l 5 > p s s 5 > u u p s u p s p s p > > > > > > u > > @ > @ > > > o > > @ > @ @ > > > > > > > > > > > > u > > > > > > > u s s 5 > u s p p p p p s s s s p p s p p s s p s s p p p p p p p p p p p p p p s s s s s s s s p p s p p p p p p p p p p p p p p p p p p p p s s s s s s s p s p p p p s s s s p p p p p p p p p p p p p p p s s ",
"u u u u u u p z > > > > 5 l 3 8.#X0.9.9.9.9.9.9.9.9.9.9.9.9.9.9.9.9.9.9.9.9.9.9.9.9.9.9.9.9.9.9.9.9.9.9.9.9.9.9.9.9.9.9.9.9.9.9.9.9.9.9.9.9.9.9.9.9.9.9.9.9.9.9.9.9.9.9.9.9.9.0.#X8.3 l 5 > p s p l l s s p p s s p p s p > > > > > > : > > > > > > > > > > > > > > > > > > > > > > > > > > > u > > > > > > > u s s 5 > u s p p p p p p p p p p p p p p p p s p p p p p p p p p p p p p p p p p p p p p p p p p s p p s p p p p p p p p p p p p p p p p p p p p p p p p p p p s p p s p p p p p p p p p p p p p p p p p p p p p ",
"l l l l l l z p > > > > 5 l 2 -.oXoXoXoXoXoXoXoXoXoXoXoXoXoXoXoXoXoXoXoXoXoXoXoXoXoXoXoXoXoXoXoXoXoXoXoXoXoXoXoXoXoXoXoXoXoXoXoXoXoXoXoXoXoXoXoXoXoXoXoXoXoXoXoXoXoXoXoXoXoXoXoXoX&.2 l 5 > p s p p p p p p p p p p p s p > > > > > > > > > > > > > > > > > > > > > > > > > > > > > > > > > > u > > > > > > > u s s 5 > u s p p p p p p p p p p p p p p p p p p p p p p p p p p p p p p p p p p p p p p p p p p p p p p p p p p p p p p p p p p p p p p p p p p p s k k k k k k k k p p p p p p p p p p p p p p p p p p p p p p ",
"> > > > > > > > > > > > 5 s s p 2 2 2 2 2 2 2 2 2 2 2 2 2 2 2 2 2 2 2 2 2 2 2 2 2 2 2 2 2 2 2 2 2 2 2 2 2 2 2 2 2 2 2 2 2 2 2 2 2 2 2 2 2 2 2 2 2 2 2 2 2 2 2 2 i 2 2 2 2 2 2 2 2 p s s 5 > p s p p p p p p p p p p p p p s s s s s s s s s s s s s s s s s s s s s s s s s s s s s s s s s s s s s s s s s s s p s 5 > u s p p p p p p p p p p p p p p p p p p p p p p p p p p p p p p p p p p p p p p p p p p p p p p p p p p p p p p p p p p p p p p p p p s k p 6 6 6 6 6 6 5 6 k k p p p p p p p p p p p p p p p p p p p p ",
"> > > > > > > > > > > > 5 s p s s s s s s p p s s s s s s s s s s s s s s s s s s s s s s s s s s s s l p l s s s s s s s s s s s s s s s s s s s l s p s s s s p s s s s s s s s s p s 5 > p s p p p p p p p s p p p s p p p p p p p p p p p p p p p p p p p p p p p p p p p p p p s p p s p p p p p p p p p p p s 5 > u s p p p p p p p p p p p p p p p p p p p p p p p p p p p p p p p p p p p p p p p p p p p p p p p p p p p p p p p p p p p p p p p p k p 6 n o.;XdXfXdXiX+.X.6 6 k s p p p p p p p p p p p p p p p p p p ",
"> > > > > > > > > > > > 5 s p p p p p s p z z s p s p p s p p s p p p p p p p p p p p p p p p p p s p p z u p s p p p p p p p p p p p p p p p p s u s z s p p z ' p p p s p p p p p p s 5 > p s p p p p p p s p s z l s p s p s s p s p p p p p p p p p p p p p p p p p p p p p p s u l s u s p p p p p p p p p p s 5 > u s p p p p p p p p p s s s s s s p p p p p p p p p p p p p p p p p p p p p p s s l l s s p p p p p p p p p p p p p p p p p p p s k 6 ^ ;XzXvXvXvXvXvXvXvXcXpX .6 p s p p p p p p p p p p p p p p p p p ",
"> 6 > > > > > > > > > > 5 s p p p p l > V.0Xz.u l p l l u l p p s p p p p p p p p p p p p p p p s p l S.6XV.p s s p p p p p p p p p p p p p p s u [ H.G.B l z p B u l p p s p p p p p s 5 > p s p p p p p s p z 9XD.' 5 z p z p p z p s p p p p p p p p p p p p p p p p p p p p s u k.6XH.] u s p p p p p p p p p s 5 > u s p p p p p p p s s p p p p p p s s p p p p p p p p p p p p p p p p p p s s p u u u u p k s p p p p p p p p p p p p p p p p s k 5 o.zXvXcXpX@. .^ ^ ..;XzXvXcX;Xp p s p p p p p p p p p p p p p p p p ",
"m.n.B > 5 > > > > > > > 5 s p p p p l > G.k.> S.D.' S.C.[ G.9X,.5 s p p p p p p p p p p p p p p l > m.S.o H.k.5 s p p p p p p p p p p p p p s p s 9X` l p k.H.x.z.m.0XG.z p s p p p p s 5 > p s p p p p p s p B 7Xp B qXx.k.6Xk.z.7X6Xp s p p p p p p p p p p p p p p p p p p s p s 9Xz ' 7Xu s p p p p p p p p p s 5 > u s p p p p p p s p p l m ( ( m s p p s p p p p p p p p p p p p p p p p k p u m :.1.1._ s u p s p p p p p p p p p p p p p p s k 6 #.cXcXuXn + X + + + X X 2 #.cXvXpXp p s p p p p p p p p p p p p p p p ",
"x.z l.@ 5 > > > > > > > 5 s p p p p l > S.wX,.7XM m.9XH.wX` N.m.> l p p p p p p p p p p p p p p l > Z.x.# N.N.> l p p p p p p p p p p p p p s p B 6X> 7Xm.' 7XG.V.S.[ C.[ u s p p p p s 5 > p s p p p p p s p c wXZ.l.6X> qXS.wX6Xs 9Xl p p p p p p p p p p p p p p p p p p p s p B 6X> s 7Xp s s p p p p p p p p s 5 > u s p p p p p s u s ;.w.r.r.r.r.w.;.l p s p p p p p p p p p p p p p s s u m d.VXBXAXAXBXnXu.l u k p p p p p p p p p p p p p k 6 +.cXcX+.X + > > > > > > > @   ^ gXvXpXp p s p p p p p p p p p p p p p s ",
",.z l.@ 5 > > > > > > > 5 s p p p p l > G.] @ 7Xl l.9X] Z.m.Z.z.> l p p p p p p p p p p p p p p s 5 k.6Xz H.] u s p p p p p p p p p p p p p p s p 7X[ l.0X6XH.6XC.S.` Z.,.5 s p p p p s 5 > p s p p p p p s p B 6Xo [ D.@ 9XV.[ 6X[ 9Xs p p p p p p p p p p p p p p p p p p p p s p 7X,.k.D.5 s p p p p p p p p p s 5 > u s p p p p s u :.3Xd.r.=.&.&.=.e.r.w.m p s p p p p p p p p p p p p s u 1.NXAXNX3Xd.d.3XBXAXnX_ u k p p p p p p p p p p p k u X.zXcXo.X > > > > > > > > > > > X v zXvX#.5 k p p p p p p p p p p p p s 6 ",
"M p ` > 5 > > > > > > > 5 s p p p p s u x.` u z.z p N.B.B B.qXl.> l p p p p p p p p p p p p p p p s p l.wX6X5 k p p p p p p p p p p p p p p p s p B S.G.[ N.B.k.k.k.M k.B p s p p p p s 5 > p s p p p p p s p c z.u B x.> ' S.,.,.S.qXs p p p p p p p p p p p p p p p p p p p p s p B S.IX' u s p p p p p p p p p s 5 > u s p p p s u :.NXBXr.: : > @ > 6 =.r.e.m p s p p p p p p p p p p k u 3.BXBXd.0 > O O > m 3XAXVX( u s p p p p p p p p p s s 6 pXvX;XX > > > > > > > > > > > > > X  .cXzXn p s p p p p p p p p p p s 6 X.",
"> > > > > > > > > > > > 5 s p p p p p s u p s u p p 5 u p o z.z.> l p p p p p p p p p p p p p p p p s > l m.l p s p p p p p p p p p p p p p p p s p > 5 u 5 5 u u u p u p s p p p p p s 5 > p s p p p p p p s p u s p u k p 5 p u > G.z p p p p p p p p p p p p p p p p p p p p p s p > k.,.u s p p p p p p p p p s 5 > u s p p s p l VXBXr.> [ z @ > > > @ T r.w.l p s p p p p p p p p s p m NXNX3.O @ > > > > O @ d.AXnXl p s p p p p p p p p k 6  .cXzX2 @ > > > > > > > > > > > > > > X uXvX#.5 k p p p p p p p p p s p n `.",
"5 > 5 > > > > > > > > > 5 s p p p p p p s s p l s s l l s s z l p s p p p p p p p p p p p p p p p s s l s 5 s s p p p p p p p p p p p p p p p p p s l l l l l l l s s s s p p p p p p s 5 > p s p p p p p p p s k p s l l l l l k l z s p p p p p p p p p p p p p p p p p p p p s s k l u p s p p p p p p p p p p s 5 > u s p p k u d.AX3Xo p UXwX# > > > > @ &.r.;.p s p p p p p p p s s u d.AXd.# > > > > > > 5 > > 3XAXu.u k p p p p p p p p k 5 ;XvX;XX > > > > > > > > > > > > > > > + ^ cXfXk p s p p p p p p p p s 6 XXlX",
"5 > > > > > > > > > > > 5 s p p p p p p p s s p i 2 2 a p s p p s p p p p p p p p p p p p p p s s p a 2 2 a p s s p p p p p p p p p p p p p p p p s s p a i 2 2 a p s s p p p p p p p s 5 > p s p p p p p p p p s l p i i % i i p l p p p p p p p p p p p p p p p p p p p p p s p a i i i a p s s p p p p p p p p s 5 > u s p s p s nXBXm @ o V.UXl.o > > > @ 7 e.w.l p s p p p p p p s p m NXNX9 @ > > > > > o # > o _ BX3Xp s s p p p p p p s s p dXcX .+ > > > > > > > > > > > > > > > > > hXcX^ u s p p p p p p p s p z `..X",
"> > > > > > > > > > > > 5 s p p p p p s s a p r -.-.-.&.l i p s p p p p p p p p p p p p p p s p i N &.-.-.-.r p a s s p p p p p p p p p p p p p s s i s H -.-.-.H l i p s p p p p p p s 5 > p s p p p p p p p k p i x y.<X<X<XW s i s s p p p p p p p p p p p p p p p p p s s i s Y W W W Y l i p s p p p p p p p s 5 > u s p s p ( NXnX> > > @ IXDX@ > > > > > =.r.m p s p p p p p p s u :.BX3X@ > > > > > > [ 6XIX6X: d.e.l p s p p p p p p s p c zXzXv @ > > > > > > > > > > @ : : : : > + pXvX..6 k p p p p p p p s 6 X..XXX",
"' 5 > > > > > > > > > > 5 s p p p p s p p H 0.+X@X$X$X+XOX6.N a s p p p p p p p p p p p p s a l q.OX+X$X$X@X+X0.&.a p s p p p p p p p p p p p s p p &.9.+X@X$X$X+XOXq.l p s p p p p p s 5 > p s p p p p p p k i l <XLXJXJXJXJXJXyXy.p p s p p p p p p p p p p p p p p p s p p R y.,X,X,X,X,X>Xy.l a s p p p p p p s 5 > u s p k u :.AX3XO > > @ k k > > > > > @ =.r.m p s p p p p p p l 1 3.AXd.O > > > > @ k UXUXIXn.o =.r.x p s p p p p p p s p n cXhX> > > > > > > > > > o [ IXIXIXIXIXIX+ ;XvXo.5 k p p p p p p p s 6 X.lX%.",
"C.' > > > > > > > > > > 5 s p p p s p p q.+X@XOX6.*.*.6.OX$XOXH a s p p p p p p p p p p s a H OX@XOX7.*.*.*.9.+X+Xq.p p s p p p p p p p p p s p l 7.+X+X9.*.*.*.7.+X$X0.s p s p p p p s 5 > p s p p p p p k i ( yXJXKX4X<Xy.<X4XJXJX4Xl p s p p p p p p p p p p p p p s p s y.,X,Xy.W Q W y.>X,X>XY a s p p p p p s 5 > u s p s u :.AX3X@ > > > @ @ > > > > > @ &.r.m p s p p p p p p l 1 3.AXd.O > > > > > > ' p o o > =.r.m p s p p p p p p s p n cXhX> > > > > > > > > > o ' wXwXwXwXwXwX> ..sX .6 s p p p p p p p s 6 X.lXXX",
"[ ` c 5 > > > > > > > > 5 s p p p s p q.+XOX*.5 O O O O 8 6.+X+Xr a s p p p p p p p p s p r OX+X7.8 @ O O O > H OX@Xq.a s p p p p p p p p s p s 0.@XOXH > O O O @ 8 0.4.J l p s p p p s 5 > p s p p p p s p / yXJX4XW @ O O O @ W yXJX4Xp p s p p p p p p p p p p p p s p y.,X>XQ > @ O O @ q y.,X>Xx p s p p p p s 5 > u s p s u _ NXnX6 > > > > > > > > > > > =.r.m p s p p p p p p k u 1.BX3X> > > > > > > o @ > > 5 w.e.l p s p p p p p p s p z zXzXv @ > > > > > > > > > : o o o o o o @ o.sX^ p s p p p p p p p s 6 X.lX`.",
"o c ` z > > > > > > > > 5 s p p s a H +XOXt O > > > > > > O *.+XOXl p s p p p p p p s p p 9.+X*.> @ > > > > > O w OX+X&.a s p p p p p p p s i -.@X9.8 O > > > : 5 ` @ J *.J p s p p p s 5 > p s p p p p k i 4XJX4X6 O > > > > > O q yXJX<Xi k p p p p p p p p p p p s i R ,X>Xq O > > > > > @ @ W ,Xy.s p s p p p s 5 > u s p s s p nXBX( O > > > > > > > > > 9 r.w.p p s p p p p p p s p z VXNX9 @ > > > > > > > > @ e r.1.p s p p p p p p p s s p dXvX .+ > > > > > > > > > > > > > > > > > $.;Xn p s p p p p p p p s p z `..X",
"o > B B u > > > > > > > 5 s p s s p 0.+X*.O > > > > > > > > > 7.@X-.i s p p p p p p s i &.+X9.> > > > > > > > 5 O H +X9.s p s p p p p p s p l OX+Xt O > > > > # 6XUXc + J *.w p s p p s 5 > p s p p p k i W KXKXq O > > > > > > 6 O E KXKX/ p s p p p p p p p p p s p l y.,XQ O > > > > > > > > > y.,XR i s p p p s 5 > u s p p k u u.AX3X> @ > > > > > > > > =.r.;.p s p p p p p p p p s u d.AXd.O > > > > > > > @ > w.r.( p s p p p p p p p p k 5 #.vX;XX > > > > > > > > > > > > > > > + 4 sX$.s p s p p p p p p p p s 6 v.lX",
"o o k ` l > > > > > > > 5 s p s p N +XOX5 > > > > > > > > > O t +X9.s p s p p p p s s p 7.@XH O > > > > > o # # # > %X+XH a s p p p p p s a &.@X7.O > > > > o V.UX6X@ > t *.H p s p p s 5 > p s p p p l i <XJX<XO > > > > > @ o # # # 4XJXy.i k p p p p p p p p p s a Y ,Xy.> > > > > > > > > > O Q ,Xy.p s s p p s 5 > u s p p s p l nXAXd.> > > > > > > > &.r.w.l p s p p p p p p p p s p m VXBXr.> > > > > > > 5 =.r.3.p p s p p p p p p p p s u ^ cXzXv + > > > > > > > > > > > > > > @ o.sX .6 s p p p p p p p p p s p b `.",
"@ o 5 ` z > > > > > > > 5 s p s i &.+X6.@ > > > > > > > > > > 8 OXOXN p s p p p p s p l OXOX8 > > > > > : c n.6XwXp J 9.H a s p p p p p s i q.@X*.O > > > > > IXwX# > > 8 *.J p p p p s 5 > p s p p s s i 4XJXW O > > > > > p [ m.8Xb y.KX<Xi k p p p p p p p p p s i W ,XW @ > > > > > > > > > @ q >Xy.k p s p p s 5 > u s p p p s u ( VXAXd.> > > > > > &.r.e.m p s p p p p p p p p p p k u :.NXAXr.@ > > > > > =.r.w.l p s p p p p p p p p p s k 5 iXvXiX+ > > > > > > > > > > > > > + ^ sX$.v p s p p p p p p p p p p s 6 A ",
"o o > ` c > > > > > > > 5 s p s 2 -.$X*.O > > > > > o o > > > > 9.+XN p s p p p p s p l +XOX> > > > > > # 9XUXUXIXc y *.t a s p p p p p s i 7.@Xr O > > > > @ p 5 : > > 5 J J s p p p s 5 > p s p p s s p yXKXq @ > > > > # B.UXUXUXh.< ,Xy.i s p p p p p p p p p k i W ,XQ O > > > o @ > > > > > > >X>Xl p s p p s 5 > u s p p p p k u ( nX1.u p p p p p m w.m p s p p p p p p p p p p p p k u :.nX:.p p p p p p ( 3.z p s p p p p p p p p p p p s p ^ zXvX@.  > > > > > > > > > > > + 4 ;XsX .6 s p p p p p p p p p p p p s 6 ",
"o o > ` c > > > > > > > 5 s p s 2 -.$X*.O > > > > o l.9X@ @ > > 9.+XN p s p p p p s p l OXOX5 > > > > > : z ` p o @ t *.t a s p p p p p s i 6.@XH O > > > > > @ > > > > 6 J J s p p p s 5 > p s p p s s p yXKXY O > > > > @ z [ c p @ q ,Xy.i s p p p p p p p p p k i W ,XQ O > > @ ,.c @ > > > > , >X>Xl p s p p s 5 > u s p p p p p s p s p p s s s s p p s p s p p p p p p p p p p p p p p s p k p p s s s s p p s p s p p p p p p p p p p p p p k 6 ..cXcX#.> > > > > > > > > > @ 4 ;XsX..p s s p p p p p p p p p p p p p s ",
"o o u ` z > > > > > > > 5 s p s a H +X0.> > > > > o N.UXeX: > 8 OXOXl p s p p p p s p l %X+Xt O > > > > > @ o @ > > J *.w p s p p p p p s i q.@X6.O > > > > > > > > > > 8 *.J p s p p s 5 > p s p p s s i 4XJXy.O > > > > > @ o o : O Q ,XW i s p p p p p p p p p s i W ,Xy.@ > o M UX6X# > > > @ q >Xy.p p s p p s 5 > u s p p p p p p s p s p p p p p p p p s p p p p p p p p p p p p p p p p s p s p p p p p p p p s p p p p p p p p p p p p p p p k 5 o.cXvX#.+ > > > > > > > : ^ ;XsXo.s p s p p p p p p p p p p p p p p p ",
"o o z ` p > > > > > > > 5 s p s p l OX+X8 @ > > > > # z.UX9X# -.@X7.i s p p p p p p s i q.$X*.O > > > > > > > > > 8 J J s p s p p p p p s p r +X%X> > > > > > > > > > > J *.t a s p p s 5 > p s p p p l i y.JX4XO > > > > > > > > > > y.,XY a s p p p p p p p p p s p x >X>X6 > : wXUXl @ > > > @ W ,XW i k p p p s 5 > u s p p p p p p p s s p p p p p p p s p p p p p p p p p p p p p p p p p p s p p p p p p p p s p p p p p p p p p p p p p p p p p k 6  .fX .6 p u 5 > 5 u p p z +. .p p s p p p p p p p p p p p p p p p p ",
"o u ` M 5 > > > > > > > 5 s p p s i q.@X7.> > > > > > # x.] 8 OX+XH a s p p p p p p s p r +XOXw O > > > > > > > > J *.J p s p p p p p p s s p 0.+X*.O > > > > > > > O 8 *.J l p s p p s 5 > p s p p p s p x KXKXy.# > > > > > > > O Q ,Xy.k p s p p p p p p p p p p s p y.,Xy.# B UXB.# > > > O q >X>XY p s p p p s 5 > u s p p p p p p p p p p p p p p p p p p p p p p p p p p p p p p p p p p p p p p p p p p p p p p p p p p p p p p p p p p p p p p p k 6 k p p s s s s s s s s p k p p s p p p p p p p p p p p p p p p p p ",
"u B ` p > > > > > > > > 5 s p p s p l OX@X6.5 > > > > > o + *.+X7.p s p p p p p p p p s a q.@X%Xw > > > > > > > t *.J l p s p p p p p p p s p r +X+X*.> > > > > > > 8 J *.t a s p p p s 5 > p s p p p p l i y.JXKXW @ > > > > > > Q >X>XY a s p p p p p p p p p p p s p x >X,XW 6 B u > > > > q >X,XW i s p p p p s 5 > u s p p p p p p p p p p p p p p p p p p p p p p p p p p p p p p p p p p p p p s s p p s s p s s p p p p p p p p p p p p p p p p p p k p p s p p p p p p p s s p s s p p p p p p p p p p p p p p p p p p ",
"` ` l > > > > > > > > > 5 s p p p s p r OX$X-.1 > > > > u J *.*.l p s p p p p p p p p s p p 7.$XOXu > > > > 1 t *.J w p s p p p p p p p p p s a &.+X@XH 1 > > > > 6 J *.H p p p p p p s 5 > p s p p p p p k i <XJXKXY > > > > > 0 ,X,XW a s p p p p p p p p p p p p p s a Y >XKXy.# > > > > u y.,Xy.s p s p p p p s 5 > u s p p p p p p p p p p p p p p p p p p p p p p p p p p p p p p p p p p p p s p p p s p p s p p s p p p p p p p p p p p p p p p p p p s s s p s p p s s p p s p p s p p p p p p p p p p p p p p p p p p ",
"z l > > > > > > > > > > 5 s p p p p s a r 7.N p p p p p p w J p p s p p p p p p p p p p s p p q.-.a s p p p s s J w p s p p p p p p p p p p p s i &.7.s p p p p s p t H p p s p p p p s 5 > p s p p p p p s s i <X<Xi s p p p s s y.W a s p p p p p p p p p p p p p p p k i W 4Xx s p p p s a W y.s p s p p p p p s 5 > u s p p p p p p p p p p p p p p p p p p p p p p p p p p p p p p p p p p p s u z c p p l l u z k p s p p p p p p p p p p p p p p p p p s p u s p c p p p p z u k z p s p p p p p p p p p p p p p p p p p ",
"> > > > > > > > > > > > 5 s p p p p p s p p p p s s s s p p p s s p p p p p p p p p p p p s p p p p s s s s p p p p s p p p p p p p p p p p p p s p p p p s s s p p p p p s p p p p p s 5 > p s p p p p p p s s i p p s s s s p p p p s s p p p p p p p p p p p p p p p p s p i p s s s s p p p p p s p p p p p p s 5 > u s p p p p p p p p p p p p p p p p p p p p p p p p p p p p p p p p p p l p ] G.k.u B 7XS.' 7XD.l p s p p p p p p p p p p p p p p p k s l qXk.B 7XZ.s s S.7X] S.7XB p s p p p p p p p p p p p p p p p s ",
"> > > > > > > > > > > > 5 s p p p p p p s s s p p p p p p p s s p p p p p p p p p p p p p p s s s p p p p p p p s s p p p p p p p p p p p p p p p s s s p p p p p p p s p p p p p p p s 5 > p s p p p p p p p s k s s p p p p p s s s p p p p p p p p p p p p p p p p p p p s s s p p p p p p s s s p p p p p p p s 5 > u s p p p p p p p p s s p p s s p s s p p p p p p p p p p p p p p p p s u > G.G.' > N.l.x.wX] N.k.5 s p p p p p p p p p p p p p p s u > s D.z.p p 7Xc [ Z.` wXz.k.V.> l p p p p p p p p p p p p p p p s ",
"> > 5 > > > > > > > > > 5 s p p s s s s s s p p s s s s s p s p s s p p p p p p p p p p p p p p p s s p p s s p s s p p p p p p p p p p p p s s p p p s s s s p p p p s s s s s p p p s 5 > p s p p p s s p s s p s s p s s p s s p p s p s s p p p p p p p p p p p p p p p s s p p s s p s s p s s p p p p p p p s 5 > u s p p p p p p p s p p p s p p k p p s p p p p p p p p p p p p p s s p m.x.7Xx.6X> N.[ ,.IXc z.z.> l p p p p p p p p p p p p p s u ,.B.> x.m.# x.V.o k.N.z IXk.' S.> l p p p p p p p p p p p p p p p p ",
"5 > > > > > > > > > > > 5 s p s p u u p s p s s p p u u p s p p p p s s s p p p p p p p p p p p s p p s s p p s u p s p p p p p p p p p p s p u p p s p p p u s p p s u p p u s s p p s 5 > p s p p s s p s p p k p p k p p l p p s p p p p p s s s p p p p p p p p p p p s p p s s p u s p u s p p s p p p p p p s 5 > u s p p p p p p s u c B p p z M u c c p s p p p p p p p p p p p p p p p ' c D.k.G.k.z.C.V.H.N.G.[ u s p p p p p p p p p p p p p s p M ] > N.m.' wXB [ k.S.N.H.C.V.m.5 k p p p p p p p p p p p p p p p p ",
": l M 5 c u > > > > > > 5 s p p z ' ` z p z p p l c ' B l p z s l l u u p s p p p p p p p p p s p s l p p B z u B z p s p p p p p p p p s p z ' s p p s l B B p s k > k.M M ' p p s p s 5 > p s p s p p z p z B u c B 5 c M 5 M c p s z s l l u u p s p p p p p p p p p s p M c p p l B u l B u z B p s p p p p p s 5 > u s p p p p p s u ` G.x.p z H.6X,.H.6XB p s p p p p p p p p p p p p p s u 5 B G.[ x.M N.m.p V.z.u s p p p p p p p p p p p p p p p s p u u ] ' k.G.N.z.B k.Z.p z.C.s p s p p p p p p p p p p p p p p p p ",
"5 [ ,.x.z.n.p > > > > > 5 s s p B B.qXB.S.G.@ B wXk.V.wXk.5 H.> k.N.B ` l p s p p p p p p p p l > 7XN.@ ,.9XC.k.9XZ.p p s p p p p p p s p z S.m.l s 5 qXz.z.6Xx.u s c H.x.0XS.V.u s p s 5 > p s p s u V.9Xu H.7Xh.G.6X,.H.H.,.6XH.M u G.u ,.B.M ` l p s p p p p p p p s u ` 7XH.M u Z.9Xk.C.0Xk.S.0X[ u s p p p p s 5 > u s p p p p p l 5 C.7Xk.5 x.N.` DXk.k.B.> l p p p p p p p p p p p p p p s s p > u u p 5 5 s > 5 s p p p p p p p p p p p p p p p p p s s s u p u > u 5 p u > p 5 > p s p p p p p p p p p p p p p p p p p ",
"n.B.[ x.` n.l > > > > > 5 s p s p + C.] x.S.@ N.qXl > G.c u 0X] V.V.m.DXM p s p p p p p p p k u ' 9Xz.@ S.] m.wXc Z.] u s p p p p p p k 5 l.qXl.z u [ qXk.u Z.m.@ m.H.wXk.G.k.G.u s p s 5 > p s p p p [ G.[ V.B DXz.' DXk.[ DX[ l.m.@ 0X[ B.Z.z.IXB p s p p p p p p p k 5 N.k.z.z.c G.z wXC.c wXN.` S.> l p p p p s 5 > u s p p p p p s u 6Xk.H.c k.z.M IX[ [ C.> l p p p p p p p p p p p p p p p p s l l u p p u s l k p p p p p p p p p p p p p p p p p p p p p s s l l u s u p l s k l s p p p p p p p p p p p p p p p p p p ",
"{ z ,.l.z.n.k > > > > > 5 s p s p ` 6X> ] V.k.G.6XB k.Z.> p qXC.9Xl.' m.5 l p p p p p p p s p c 6XZ.Z.o Z.B m.DXp C.,.5 s p p p p p p l > C.m.V.k.s 7XS.m.M 7Xl.> 7Xp C.x.9XS.C.p s p s 5 > p s p s p z S.,.N.z IXk.B IX[ ' IX` k.B.@ 9XZ.0Xz.` N.5 l p p p p p p p p k 5 B.[ x.z.z S.u wXB.p DXz.M G.5 l p p p p s 5 > u s p p p p p k 5 B.N.Z.m.k.S.C.S.Z.S.x.5 s p p p p p p p p p p p p p p p p s s > z.c ] ] p p s p p p p p p p p p p p p p p p p p p p p p p s p p z.l ,.` p s p p p p p p p p p p p p p p p p p p p p p ",
"l.l.k.l.B n.B : 5 > > > 5 s p l > Z.z.@ ,.S.] Z.IXk.G.] u s 7X> k.S.qXk.k p s p p p p p p s p M B.qXqXk.m.S.Z.S.V.H.M p s p p p p p p s 5 x.Z.V.V.l.N.wX9XB N.S.@ S.m.9Xx.6X[ 9Xs p p s 5 > p s p s p c 6Xc H.C.S.Z.Z.S.Z.Z.S.Z.G.,.> 7X5 ,.S.qXx.l p s p p p p p p p s u k.D.Z.N.,.S.C.S.S.C.S.S.Z.m.5 k p p p p s 5 > u s p p p p p s p l V.[ [ B k.N.u l.m.p s p p p p p p p p p p p p p p p p s p l ' 6Xx.0XZ.B.u s p p p p p p p p p p p p p p p p p p p p p s p z k.G.m.6XG.k.u s p p p p p p p p p p p p p p p p p p p p ",
"' [ l M l.` > > > > > > 5 s p s p ,.z p c [ 5 > ] z ,.p s p ,.l B k.N.N.z p s p p p p p p p s p > c ` ,.z N.,.p B.[ u s p p p p p p p s s p z.x.` ] o M ` m.N.z p c N.l.c N.C.` p s p s 5 > p s p p p l ,.u k.N.u k.m.u l.z.u z.l.p p ,.l B h.N.B.c p s p p p p p p p s s p z.k.` ] ` V.l ] V.p ,.N.s p s p p p p s 5 > u s p p p p p p s p > u u p u > s 5 > s p p p p p p p p p p p p p p p p p k u V.G.qXk.D.m.C.5 k p p p p p p p p p p p p p p p p p p p p s p p G.H.H.m.B.Z.x.5 s p p p p p p p p p p p p p p p p p p p p ",
": @ > > o : > > > > > > 5 s p p s u p s p u l l u p u s p s u s p u > > p s p p p p p p p p p s l p p u p > u s > u s p p p p p p p p p p s 5 5 u u z p p > > p s p > 5 p > > p s p p s 5 > p s p p s p u s u > s 5 > s 5 > s 5 5 s s u p p u > > p s p p p p p p p p p p s > 5 p u p > p u > s u > p s p p p p p s 5 > u s p p p p p p p s l s s s s l p k l p p p p p p p p p p p p p p p p p s p l 7X> S.x.0XC.B.u s p p p p p p p p p p p p p p p p p p p p s u ' G.5 D.m.6XS.x.u s p p p p p p p p p p p p p p p p p p p p ",
"5 5 > 5 5 5 > > > > > > 5 s p p p s s p s s p p s s s p p p s p s s l l s p p p p p p p p p p p p s s s s l s s l s p p p p p p p p p p p p l k s s p s s l l s p s l l s l l s p p p s 5 > p s p p p s s p s l p k l p k l p l l p p s p s s l l s p p p p p p p p p p p p l k s s s l s s l s s l s p p p p p p s 5 > u s p p p p p p p p p p p p p p p p p p p p p p p p p p p p p p p p p p s s u G.B.qXx.H.x.6Xu s p p p p p p p p p p p p p p p p p p p p s p z 6XV.6XN.C.V.V.> l p p p p p p p p p p p p p p p p p p p p ",
"> > > > > > > > > > > > 5 s p p p p p p p p p p p p p p p p p p p p p p p p p p p p p p p p p p p p p p p p p p p p p p p p p p p p p p p p p p p p p p p p p p p p p p p p p p p p p s 5 > p s p p p p p p p p p p p p p p p p p p p p p p p p p p p p p p p p p p p p p p p p p p p p p p p p p p p p p p p p p s 5 > u s p p p p p p p p p p p p p p p p p p p p p p p p p p p p p p p p p p p s p M m.,.z m.N.c p s p p p p p p p p p p p p p p p p p p p p p s u ' m.' B B.z.s p p p p p p p p p p p p p p p p p p p p p p ",
"> > > > > > > > > > > > 5 l s s s s s s s s s s s s s s s s s s s s s s s s s s s s s s s s s s s s s s s s s s s s s s s s s s s s s s s s s s s s s s s s s s s s s s s s s s s s s l 5 > p s s s s s s s s s s s s s s s s s s s s s s s s s s s s s s s s s s s s s s s s s s s s s s s s s s s s s s s s s s l 5 > p l s s s s s s s s s s s s s s s s s s s s s s s s s s s s s s s s s s s s s p > u p > > p s s s s s s s s s s s s s s s s s s s s s s s s k p > p p > 5 s s s s s s s s s s s s s s s s s s s s s s s ",
"> > > > > > > > > > > > > > > > > > > > > > > > > > > > > > > > > > > > > > > > > > > > > > > > > > > > > > > > > > > > > > > > > > > > > > > > > > > > > > > > > > > > > > > > > > > > > > > > > > > > > > > > > > > > > > > > > > > > > > > > > > > > > > > > > > > > > > > > > > > > > > > > > > > > > > > > > > > > > > > > > > > > > > > > > > > > > > > > > > > > > > > > > > > > > > > > > > > 5 5 5 > u u 5 > > > > > > > > > > > > > > > > > > > > > > > > > 5 5 5 5 u 5 > > > > > > > > > > > > > > > > > > > > > > > ",
"> > > > > > > > > > > > > > > > > > > > > > > > > > > > > > > > > > > > > > > > > > > > > > > > > > > > > > > > > > > > > > > > > > > > > > > > > > > > > > > > > > > > > > > > > > > > > > > > > > > > > > > > > > > > > > > > > > > > > > > > > > > > > > > > > > > > > > > > > > > > > > > > > > > > > > > > > > > > > > > > > > > > > > > > > > > > > > > > > > > > > > > > > > > > > > > > > > > > > > > > > > > > > > > > > > > > > > > > > > > > > > > > > > > > > > > > > > > > > > > > > > > > > > > > > > > > > > > > ",
"p p p p p p p p p p p p p p p p p p p p p p p p p p p p p p p p p p p p p p p p p p p p p p p p p p p p p p p p p p p p p p p p p p p p p p p p p p p p p p p p p p p p p p p p p p p p p p p p p p p p p p p p p p p p p p p p p p p p p p p p p p p p p p p p p p p p p p p p p p p p p p p p p p p p p p p p p p p p p p p p p p p p p p p p p p p p p p p p p p p p p p p p p p p p p p p p p p p p p p p p p p p p p p p p p p p p p p p p p p p p p p p p p p p p p p p p p p p p p p p p p p p p p p p p p p p p p p p p ",
"s s s s s s s s s s s s s s s s s s s s s s s s s s s s s s s s s s s s s s s s s s s s s s s s s s s s s s s s s s s s s s s s s s s s s s s s s s s s s s s s s s s s s s s s s s s s s s s s s s s s s s s s s s s s s s s s s s s s s s s s s s s s s s s s s s s s s s s s s s s s s s s s s s s s s s s s s s s s s s s s s s s s s s s s s s s s s s s s s s s s s s s s s s s s s s s s s s s s s s s s s s s s s s s s s s s s s s s s s s s s s s s s s s s s s s s s s s s s s s s s s s s s s s s s s s s s s s s s ",
"p p p p p p p p p p p p p p p p p p p p p p p p p p p p p p p p p p p p p p p p p p p p p p p p p p p p p p p p p p p p p p p p p p p p p p p p p p p p p p p p p p p p p p p p p p p p p p p p p p p p p p p p p p p p p p p p p p p p p p p p p p p p p p p p p p p p p p p p p p p p p p p p p p p p p p p p p p p p p p p p p p p p p p p p p p p p p p p p p p p p p p p p p p p p p p p p p p p p p p p p p p p p p p p p p p p p p p p p p p p p p p p p p p p p p p p p p p p p p p p p p p p p p p p p p p p p p p p p ",
"p p p p p p p p p p p p p p p p p p p p p p p p p p p p p p p p p p p p p p p p p p p p p p p p p p p p p p p p p p p p p p p p p p p p p p p p p p p p p p p p p p p p p p p p p p p p p p p p p p p p p p p p p p p p p p p p p p p p p p p p p p p p p p p p p p p p p p p p p p p p p p p p p p p p p p p p p p p p p p p p p p p p p p p p p p p p p p p p p p p p p p p p p p p p p p p p p p p p p p p p p p p p p p p p p p p p p p p p p p p p p p p p p p p p p p p p p p p p p p p p p p p p p p p p p p p p p p p p ",
"p p p p p p p p p p p p p p p p p p p p p p p p p p p p p p p p p p p p p p p p p p p p p p p p p p p p p p p p p p p p p p p p p p p p p p p p p p p p p p p p p p p p p p p p p p p p p p p p p p p p p p p p p p p p p p p p p p p p p p p p p p p p p p p p p p p p p p p p p p p p p p p p p p p p p p p p p p p p p p p p p p p p p p p p p p p p p p p p p p p p p p p p p p p p p p p p p p p p p p p p p p p p p p p p p p p p p p p p p p p p p p p p p p p p p p p p p p p p p p p p p p p p p p p p p p p p p p p p ",
"p p p p p p p p p p p p p p p p p p p p p p p p p p p p p p p p p p p p p p p p p p p p p p p p p p p p p p p p p p p p p p p p p p p p p p p p p p p p p p p p p p p p p p p p p p p p p p p p p p p p p p p p p p p p p p p p p p p p p p p p p p p p p p p p p p p p p p p p p p p p p p p p p p p p p p p p p p p p p p p p p p p p p p p p p p p p p p p p p p p p p p p p p p p p p p p p p p p p p p p p p p p p p p p p p p p p p p p p p p p p p p p p p p p p p p p p p p p p p p p p p p p p p p p p p p p p p p p p ",
"p p p p p p p p p p p p p p p p p p p p p p p p p p p p p p p p p p p p p p p p p p p p p p p p p p p p p p p p p p p p p p p p p p p p p p p p p p p p p p p p p p p p p p p p p p p p p p p p p p p p p p p p p p p p p p p p p p p p p p p p p p p p p p p p p p p p p p p p p p p p p p p p p p p p p p p p p p p p p p p p p p p p p p p p p p p p p p p p p p p p p p p p p p p p p p p p p p p p p p p p p p p p p p p p p p p p p p p p p p p p p p p p p p p p p p p p p p p p p p p p p p p p p p p p p p p p p p p p ",
"p p p p p p p p p p p p p p p p p p p p p p p p p p p p p p p p p p p p p p p p p p p p p p p p p p p p p p p p p p p p p p p p p p p p p p p p p p p p p p p p p p p p p p p p p p p p p p p p p p p p p p p p p p p p p p p p p p p p p p p p p p p p p p p p p p p p p p p p p p p p p p p p p p p p p p p p p p p p p p p p p p p p p p p p p p p p p p p p p p p p p p p p p p p p p p p p p p p p p p p p p p p p p p p p p p p p p p p p p p p p p p p p p p p p p p p p p p p p p p p p p p p p p p p p p p p p p p p p ",
"p p p p p p p p p p p p p p p p p p p p p p p p p p p p p p p p p p p p p p p p p p p p p p p p p p p p p p p p p p p p p p p p p p p p p p p p p p p p p p p p p p p p p p p p p p p p p p p p p p p p p p p p p p p p p p p p p p p p p p p p p p p p p p p p p p p p p p p p p p p p p p p p p p p p p p p p p p p p p p p p p p p p p p p p p p p p p p p p p p p p p p p p p p p p p p p p p p p p p p p p p p p p p p p p p p p p p p p p p p p p p p p p p p p p p p p p p p p p p p p p p p p p p p p p p p p p p p p p ",
"p p p p p p p p p p p p p p p p p p p p p p p p p p p p p p p p p p p p p p p p p p p p p p p p p p p p p p p p p p p p p p p p p p p p p p p p p p p p p p p p p p p p p p p p p p p p p p p p p p p p p p p p p p p p p p p p p p p p p p p p p p p p p p p p p p p p p p p p p p p p p p p p p p p p p p p p p p p p p p p p p p p p p p p p p p p p p p p p p p p p p p p p p p p p p p p p p p p p p p p p p p p p p p p p p p p p p p p p p p p p p p p p p p p p p p p p p p p p p p p p p p p p p p p p p p p p p p p p "
};
