/* XPM */
static char *sc_deesser_stereo[] = {
/* columns rows colors chars-per-pixel */
"256 256 256 2 ",
"   c #15161B",
".  c #1E151B",
"X  c #16191D",
"o  c #19191F",
"O  c #141316",
"+  c #0C0E11",
"@  c #211C1E",
"#  c #25191A",
"$  c #311E1B",
"%  c #25241E",
"&  c #373419",
"*  c #1C1E24",
"=  c #151B25",
"-  c #0E1D25",
";  c #231E24",
":  c #271D29",
">  c #2C1D2E",
",  c #1F2025",
"<  c #1E232A",
"1  c #1B272B",
"2  c #1C2C33",
"3  c #1C2C3A",
"4  c #182634",
"5  c #1A313A",
"6  c #16333A",
"7  c #0D2C34",
"8  c #212126",
"9  c #25262D",
"0  c #2B252A",
"q  c #26282F",
"w  c #2A2A2D",
"e  c #292623",
"r  c #352628",
"t  c #363526",
"y  c #39372A",
"u  c #252730",
"i  c #262931",
"p  c #2A2B33",
"a  c #262D3D",
"s  c #2D2F38",
"d  c #2C2535",
"f  c #362A37",
"g  c #2E313A",
"h  c #26333A",
"j  c #31323C",
"k  c #393736",
"l  c #283329",
"z  c #1B251E",
"x  c #49383B",
"c  c #573A3A",
"v  c #4D352A",
"b  c #6B3931",
"n  c #52341C",
"m  c #324130",
"M  c #585700",
"N  c #4F4B0F",
"B  c #737306",
"V  c #564532",
"C  c #705233",
"Z  c #73632E",
"A  c #715616",
"S  c #1A3443",
"D  c #183847",
"F  c #123751",
"G  c #262F42",
"H  c #292C49",
"J  c #263145",
"K  c #273249",
"L  c #293747",
"P  c #343641",
"I  c #3B3145",
"U  c #373944",
"Y  c #393B46",
"T  c #32344B",
"R  c #3B3D4B",
"E  c #37394B",
"W  c #2A3854",
"Q  c #383A55",
"!  c #3A2A47",
"~  c #323D67",
"^  c #113B63",
"/  c #453B44",
"(  c #493C46",
")  c #463D49",
"_  c #493E49",
"`  c #433644",
"'  c #573C47",
"]  c #4B2E55",
"[  c #683B4A",
"{  c #54346A",
"}  c #623E66",
"|  c #683074",
" . c #4E1E57",
".. c #184853",
"X. c #2C4349",
"o. c #3E414D",
"O. c #35474A",
"+. c #2A4C58",
"@. c #264755",
"#. c #3E4252",
"$. c #3D4957",
"%. c #27515A",
"&. c #1F5561",
"*. c #195B67",
"=. c #0C4870",
"-. c #2F4B6F",
";. c #0A6B7B",
":. c #086774",
">. c #156974",
",. c #2E6776",
"<. c #2B6A7A",
"1. c #2C7676",
"2. c #45424E",
"3. c #4C414C",
"4. c #494345",
"5. c #53424C",
"6. c #5B444B",
"7. c #584949",
"8. c #434553",
"9. c #4E4451",
"0. c #424855",
"q. c #46495B",
"w. c #4A4C5D",
"e. c #464659",
"r. c #514652",
"t. c #544856",
"y. c #554B5A",
"u. c #594E5C",
"i. c #5B4854",
"p. c #5B505F",
"a. c #58535A",
"s. c #4D5555",
"d. c #6C4A46",
"f. c #614149",
"g. c #664948",
"h. c #734C47",
"j. c #664957",
"k. c #6E4F56",
"l. c #4A4E62",
"z. c #494667",
"x. c #4C5362",
"c. c #4D5569",
"v. c #525465",
"b. c #5D5261",
"n. c #52566A",
"m. c #56596C",
"M. c #595B6E",
"N. c #5B516A",
"B. c #5A5D71",
"V. c #555975",
"C. c #514B72",
"Z. c #6A486F",
"A. c #674568",
"S. c #645565",
"D. c #6E4C70",
"F. c #5E6176",
"G. c #5D6279",
"H. c #506672",
"J. c #61657B",
"K. c #65687E",
"L. c #746975",
"P. c #6E624F",
"I. c #8E3729",
"U. c #92710B",
"Y. c #8F522E",
"T. c #926536",
"R. c #B16C30",
"E. c #A85823",
"W. c #E87917",
"Q. c #D0762E",
"!. c #E57B28",
"~. c #D16D1D",
"^. c #8E3A5F",
"/. c #894F50",
"(. c #B17252",
"). c #8B4F69",
"_. c #A16168",
"`. c #CF734A",
"'. c #CA5971",
"]. c #51825B",
"[. c #8A8B07",
"{. c #E5812F",
"}. c #D78253",
"|. c #733386",
" X c #095398",
".X c #09538C",
"XX c #2D4883",
"oX c #3C5283",
"OX c #2F5290",
"+X c #147786",
"@X c #2F708F",
"#X c #185AA9",
"$X c #1E5FB1",
"%X c #3059AA",
"&X c #3058AA",
"*X c #2A66B3",
"=X c #0B6BB0",
"-X c #4F548E",
";X c #6C5791",
":X c #676C84",
">X c #6D728B",
",X c #747995",
"<X c #6F7290",
"1X c #4B5AA8",
"2X c #525CB0",
"3X c #5364B6",
"4X c #7067B2",
"5X c #616396",
"6X c #316DCC",
"7X c #3776EA",
"8X c #3675F7",
"9X c #0678C8",
"0X c #5766C8",
"qX c #566BD7",
"wX c #4C68CF",
"eX c #676ACD",
"rX c #556EE5",
"tX c #5571EC",
"yX c #4C75FA",
"uX c #5574F8",
"iX c #4D6FE9",
"pX c #6075F6",
"aX c #696CEB",
"sX c #5B5DC6",
"dX c #872893",
"fX c #AD3EBB",
"gX c #A23DB1",
"hX c #AB3DB7",
"jX c #9639A4",
"kX c #945CA3",
"lX c #D34C84",
"zX c #B346CE",
"xX c #C244D2",
"cX c #CB46DA",
"vX c #C645CD",
"bX c #D448E5",
"nX c #B43FC3",
"mX c #088A97",
"MX c #0696A9",
"NX c #3392A7",
"BX c #3497AC",
"VX c #359EB4",
"CX c #2D8CA9",
"ZX c #00A9B8",
"AX c #01A9B8",
"SX c #36A3B9",
"DX c #31889B",
"FX c #7683A2",
"GX c #00B2C1",
"HX c #0093F8",
"JX c #3F80EB",
"KX c #0B8CD7",
"LX c #4081EC",
"PX c #4C8AF7",
"IX c #878DAF",
"UX c #9CA4CF",
/* pixels */
"9 9 9 9 9 9 9 9 9 9 9 9 9 9 9 9 9 9 9 9 9 9 9 9 9 9 9 9 9 9 9 9 9 9 9 9 9 9 9 9 9 9 9 9 9 9 9 9 9 9 9 9 9 9 9 9 9 9 9 9 9 9 9 9 9 9 9 9 9 9 9 9 9 9 9 9 9 9 9 9 9 9 9 9 9 9 9 9 9 9 9 9 9 9 9 9 9 9 9 9 9 9 9 9 9 9 9 9 9 9 9 9 9 9 9 9 9 9 9 9 9 9 9 9 9 9 9 9 9 9 9 9 9 9 9 9 9 9 9 9 9 9 9 9 9 9 9 9 9 9 9 9 9 9 9 9 9 9 9 9 9 9 9 9 9 9 9 9 9 9 9 9 9 9 9 9 9 9 9 9 9 9 9 9 9 9 9 9 9 9 9 9 9 9 9 9 9 9 9 9 9 9 9 9 9 9 9 9 9 9 9 9 9 9 9 9 9 9 9 9 9 9 9 9 9 9 9 9 9 9 9 9 9 9 9 9 9 9 9 9 9 q q q q q q 9 q i q q 9 q q i ",
"9 9 9 9 9 9 9 9 9 9 9 9 9 9 9 9 9 9 9 9 9 9 9 9 9 9 9 9 9 9 9 9 9 9 9 9 9 9 9 9 9 9 9 9 9 9 9 9 9 9 9 9 9 9 9 9 9 9 9 9 9 9 9 9 9 9 9 9 9 9 9 9 9 9 9 9 9 9 9 9 9 9 9 9 9 9 9 9 9 9 9 9 9 9 9 9 9 9 9 9 9 9 9 9 9 9 9 9 9 9 9 9 9 9 9 9 9 9 9 9 9 9 9 9 9 9 9 9 9 9 9 9 9 9 9 9 9 9 9 9 9 9 9 9 9 9 9 9 9 9 9 9 9 9 9 9 9 9 9 9 9 9 9 9 9 9 9 9 9 9 9 9 9 9 9 9 9 9 9 9 9 9 9 9 9 9 9 9 9 9 9 9 9 9 9 9 9 9 9 9 9 9 9 9 9 9 9 9 9 9 9 9 9 9 9 9 9 9 9 9 9 9 9 9 9 9 9 9 9 9 9 9 9 9 9 9 9 9 9 9 9 9 8 8 9 8 8 9 9 , 8 9 q 9 8 , ",
"9 9 9 9 9 9 9 9 9 9 9 9 9 9 9 9 9 9 9 9 9 9 9 9 9 9 9 9 9 9 9 9 9 9 9 9 9 9 9 9 9 9 9 9 9 9 9 9 9 9 9 9 9 9 9 9 9 9 9 9 9 9 9 9 9 9 9 9 9 9 9 9 9 9 9 9 9 9 9 9 9 9 9 9 9 9 9 9 9 9 9 9 9 9 9 9 9 9 9 9 9 9 9 9 9 9 9 9 9 9 9 9 9 9 9 9 9 9 9 9 9 9 9 9 9 9 9 9 9 9 9 9 9 9 9 9 9 9 9 9 9 9 9 9 9 9 9 9 9 9 9 9 9 9 9 9 9 9 9 9 9 9 9 9 9 9 9 9 9 9 9 9 9 9 9 9 9 9 9 9 9 9 9 9 9 9 9 9 9 9 9 9 9 9 9 9 9 9 9 9 9 9 9 9 9 9 9 9 9 9 9 9 9 9 9 9 9 9 9 9 9 9 9 9 9 9 9 9 9 9 9 9 9 9 9 9 9 9 9 q 9 9 8.8.p #.8.i P q.8.i 9 s 8.l.",
"9 9 9 9 9 9 9 9 9 9 9 9 9 9 9 9 9 9 9 9 9 9 9 9 9 9 9 9 9 9 9 9 9 9 9 9 9 9 9 9 9 9 9 9 9 9 9 9 9 9 9 9 9 9 9 9 9 9 9 9 9 9 9 9 9 9 9 9 9 9 9 9 9 9 9 9 9 9 9 9 9 9 9 9 9 9 9 9 9 9 9 9 9 9 9 9 9 9 9 9 9 9 9 9 9 9 9 9 9 9 9 9 9 9 9 9 9 9 9 9 9 9 9 9 9 9 9 9 9 9 9 9 9 9 9 9 9 9 9 9 9 9 9 9 9 9 9 9 9 9 9 9 9 9 9 9 9 9 9 9 9 9 9 9 9 9 9 9 9 9 9 9 9 9 9 9 9 9 9 9 9 9 9 9 9 9 9 9 9 9 9 9 9 9 9 9 9 9 9 9 9 9 9 9 9 9 9 9 9 9 9 9 9 9 9 9 9 9 9 9 9 9 9 9 9 9 9 9 9 9 9 9 9 9 9 9 9 9 9 q 8 m.G.m.U B.:X, G.G.B.:X9 #.>Xw.",
"9 9 9 9 9 9 9 9 9 9 9 9 9 9 9 9 9 9 9 9 9 9 9 9 9 9 9 9 9 9 9 9 9 9 9 9 9 9 9 9 9 9 9 9 9 9 9 9 9 9 9 9 9 9 9 9 9 9 9 9 9 9 9 9 9 9 9 9 9 9 9 9 9 9 9 9 9 9 9 9 9 9 9 9 9 9 9 9 9 9 9 9 9 9 9 9 9 9 9 9 9 9 9 9 9 9 9 9 9 9 9 9 9 9 9 9 9 9 9 9 9 9 9 9 9 9 9 9 9 9 9 9 9 9 9 9 9 9 9 9 9 9 9 9 9 9 9 9 9 9 9 9 9 9 9 9 9 9 9 9 9 9 9 9 9 9 9 9 9 9 9 9 9 9 9 9 9 9 9 9 9 9 9 9 9 9 9 9 9 9 9 9 9 9 9 9 9 9 9 9 9 9 9 9 9 9 9 9 9 9 9 9 9 9 9 9 9 9 9 9 9 9 9 9 9 9 9 9 9 9 9 9 9 9 9 9 9 9 9 i , G.B.9 * w.n.o G.R X J.8.R :X#.",
"9 9 9 9 9 9 9 9 9 9 9 9 9 9 9 9 9 9 9 9 9 9 9 9 9 9 9 9 9 9 9 9 9 9 9 9 9 9 9 9 9 9 9 9 9 9 9 9 9 9 9 9 9 9 9 9 9 9 9 9 9 9 9 9 9 9 9 9 9 9 9 9 9 9 9 9 9 9 9 9 9 9 9 9 9 9 9 9 9 9 9 9 9 9 9 9 9 9 9 9 9 9 9 9 9 9 9 9 9 9 9 9 9 9 9 9 9 9 9 9 9 9 9 9 9 9 9 9 9 9 9 9 9 9 9 9 9 9 9 9 9 9 9 9 9 9 9 9 9 9 9 9 9 9 9 9 9 9 9 9 9 9 9 9 9 9 9 9 9 9 9 9 9 9 9 9 9 9 9 9 9 9 9 9 9 9 9 9 9 9 9 9 9 9 9 9 9 9 9 9 9 9 9 9 9 9 9 9 9 9 9 9 9 9 9 9 9 9 9 9 9 9 9 9 9 9 9 9 9 9 9 9 9 9 9 9 9 9 9 q 9 q n.>Xg w.m.o G.#.  m.w.Y >Xx.",
"9 9 9 9 9 9 9 9 9 9 9 9 9 9 9 9 9 9 9 9 9 9 9 9 9 9 9 9 9 9 9 9 9 9 9 9 9 9 9 9 9 9 9 9 9 9 9 9 9 9 9 9 9 9 9 9 9 9 9 9 9 9 9 9 9 9 9 9 9 9 9 9 9 9 9 9 9 9 9 9 9 9 9 9 9 9 9 9 9 9 9 9 9 9 9 9 9 9 9 9 9 9 9 9 9 9 9 9 9 9 9 9 9 9 9 9 9 9 9 9 9 9 9 9 9 9 9 9 9 9 9 9 9 9 9 9 9 9 9 9 9 9 9 9 9 9 9 9 9 9 9 9 9 9 9 9 9 9 9 9 9 9 9 9 9 9 9 9 9 9 9 9 9 9 9 9 9 9 9 9 9 9 9 9 9 9 9 9 9 9 9 9 9 9 9 9 9 9 9 9 9 9 9 9 9 9 9 9 9 9 9 9 9 9 9 9 9 9 9 9 9 9 9 9 9 9 9 9 9 9 9 9 9 9 9 9 9 9 9 9 q j 9 J.l.q.B.o :Xq.j ,Xj 8.G.8 ",
"9 9 9 9 9 9 9 9 9 9 9 9 9 9 9 9 9 9 9 9 9 9 9 9 9 9 9 9 9 9 9 9 9 9 9 9 9 9 9 9 9 9 9 9 9 9 9 9 9 9 9 9 9 9 9 9 9 9 9 9 9 9 9 9 9 9 9 9 9 9 9 9 9 9 9 9 9 9 9 9 9 9 9 9 9 9 9 9 9 9 9 9 9 9 9 9 9 9 9 9 9 9 9 9 9 9 9 9 9 9 9 9 9 9 9 9 9 9 9 9 9 9 9 9 9 9 9 9 9 9 9 9 9 9 9 9 9 9 9 9 9 9 9 9 9 9 9 9 9 9 9 9 9 9 9 9 9 9 9 9 9 9 9 9 9 9 9 9 9 9 9 9 9 9 9 9 9 9 9 9 9 9 9 9 9 9 9 9 9 9 9 9 9 9 9 9 9 9 9 9 9 9 9 9 9 9 9 9 9 9 9 9 9 9 9 9 9 9 9 9 9 9 9 9 9 9 9 9 9 9 9 9 9 9 9 9 9 9 9 q 9 c.:XB.g B.:X9 c.:X:X0., Y :X:X",
"9 9 9 9 9 9 9 9 9 9 9 9 9 9 9 9 9 9 9 9 9 9 9 9 9 9 9 9 9 9 9 9 9 9 9 9 9 9 9 9 9 9 9 9 9 9 9 9 9 9 9 9 9 9 9 9 9 9 9 9 9 9 9 9 9 9 9 9 9 9 9 9 9 9 9 9 9 9 9 9 9 9 9 9 9 9 9 9 9 9 9 9 9 9 9 9 9 9 9 9 9 9 9 9 9 9 9 9 9 9 9 9 9 9 9 9 9 9 9 9 9 9 9 9 9 9 9 9 9 9 9 9 9 9 9 9 9 9 9 9 9 9 9 9 9 q q q q q q q q q q q q q q q q q q q q q q q q q q q q q q q q q q q q q q q q q q q q q q q q q q q q q q q q q q q q q q q q q q q q q q q q q q q q q q q q q q q q q q q q q q q q q q q q 9 9 8 9 9 9 i 9 9 9 8 q 9 9 q ",
"9 9 9 9 9 9 9 9 9 9 9 9 9 9 9 9 9 9 9 9 9 9 9 9 9 9 9 9 9 9 9 9 9 9 9 9 9 9 9 9 9 9 9 9 9 9 9 9 9 9 9 9 9 9 9 9 9 9 9 9 9 9 9 9 9 9 9 9 9 9 9 9 9 9 9 9 9 9 9 9 9 9 9 9 9 9 9 9 9 9 9 9 9 9 9 9 9 9 9 9 9 9 9 9 9 9 9 9 9 9 9 9 9 9 9 9 9 9 9 9 9 9 9 9 9 9 9 9 9 9 9 9 9 9 9 9 9 9 9 9 9 9 9 q 9 9 9 9 9 9 9 9 9 9 9 9 9 9 9 9 9 9 9 9 9 9 9 9 9 9 9 9 9 9 9 9 9 9 9 9 9 9 9 9 9 9 9 9 9 9 9 9 9 9 9 9 9 9 9 9 9 9 9 9 9 9 9 9 9 9 9 9 9 9 9 9 9 9 9 9 9 9 9 9 9 9 9 9 9 9 9 9 9 9 9 9 9 9 9 9 9 9 9 9 9 9 9 9 9 9 9 9 9 9 9 9 ",
"9 9 9 9 9 9 9 9 9 9 9 9 9 9 9 9 9 9 9 9 9 9 9 9 9 9 9 9 9 9 9 9 9 9 9 9 9 9 9 9 9 9 9 9 9 9 9 9 9 9 9 9 9 9 9 9 9 9 9 9 9 9 9 9 9 9 9 9 9 9 9 9 9 9 9 9 9 9 9 9 9 9 9 9 9 9 9 9 9 9 9 9 9 9 9 9 9 9 9 9 9 9 9 9 9 9 9 9 9 9 9 9 9 9 9 9 9 9 9 9 9 9 9 9 9 9 9 9 9 9 9 9 9 9 9 9 9 9 9 9 9 9 9 q , * * * * * * * * * * * * * * * * * * * * * * * * * * * * * * * * * * * * * * * * * * * * * * * * * * * * * * * * * * * * * * * * * * * * * * * * * * * * * * * * * * * * * * * * * * * * * * * * * * * * * * * * * * * * * * * ",
"9 9 9 9 9 9 9 9 9 9 9 9 9 9 9 9 9 9 9 9 9 9 9 9 9 9 9 9 9 9 9 9 9 9 9 9 9 9 9 9 9 9 9 9 9 9 9 9 9 9 9 9 9 9 9 9 9 9 9 9 9 9 9 9 9 9 9 9 9 9 9 9 9 9 9 9 9 9 9 9 9 9 9 9 9 9 9 9 9 9 9 9 9 9 9 9 9 9 9 9 9 9 9 9 9 9 9 9 9 9 9 9 9 9 9 9 9 9 9 9 9 9 9 9 9 9 9 9 9 9 9 9 9 9 9 9 9 9 9 9 9 9 q , * * * * * * * * * * * * * * * * * * * * * * * * * * * * * * * * * * * * * * * * * * * * * * * * * * * * * * * * * * * * * * * * * * * * * * * * * * * * * * * * * * * * * * * * * * * * * * * * * * * * * * * * * * * * * * * * ",
"9 9 9 9 9 9 9 9 9 9 9 9 9 9 9 9 9 9 9 9 9 9 9 9 9 9 9 9 9 9 9 9 9 9 9 9 9 9 9 9 9 9 9 9 9 9 9 9 9 9 9 9 9 9 9 9 9 9 9 9 9 9 9 9 9 9 9 9 9 9 9 9 9 9 9 9 9 9 9 9 9 9 9 9 9 9 9 9 9 9 9 9 9 9 9 9 9 9 9 9 9 9 9 9 9 9 9 9 9 9 9 9 9 9 9 9 9 9 9 9 9 9 9 9 9 9 9 9 9 9 9 9 9 9 9 9 9 9 9 9 9 q , * * * * * * * * * * * * * * * * * * * * * * * * * * * * * * * * * * * * * * * * * * * * * * X O   * * * * o * * * * * * * * * * * * * * * * * * * * * * * * * * * * * * * * * * * * * * * * * * * * * * * * * * * * * * * * * * * ",
"9 9 9 9 9 9 9 9 9 9 9 9 9 9 9 9 9 9 9 9 9 9 9 9 9 9 9 9 9 9 9 9 9 9 9 9 9 9 9 9 9 9 9 9 9 9 9 9 9 9 9 9 9 9 9 9 9 9 9 9 9 9 9 9 9 9 9 9 9 9 9 9 9 9 9 9 9 9 9 9 9 9 9 9 9 9 9 9 9 9 9 9 9 9 9 9 9 9 9 9 9 9 9 9 9 9 9 9 9 9 9 9 9 9 9 9 9 9 9 9 9 9 9 9 9 9 9 9 9 9 9 9 9 9 9 9 9 9 9 9 q , * * * * * * * * o * * * * * * * * * * * * * * * * * * * * * * * * * * * * * * * * * * * * * X g v.P * O O s m.X O   *   + * 9   * o   O * o     o O * o O   * O   * 9   * * * * * * * * * * * * * * * * * * * * * * * * * * * * * * ",
"9 9 9 9 9 9 9 9 9 9 9 9 9 9 9 9 9 9 9 9 9 9 9 9 9 9 9 9 9 9 9 9 9 9 9 9 9 9 9 9 9 9 9 9 9 9 9 9 9 9 9 9 9 9 9 9 9 9 9 9 9 9 9 9 9 9 9 9 9 9 9 9 9 9 9 9 9 9 9 9 9 9 9 9 9 9 9 9 9 9 9 9 9 9 9 9 9 9 9 9 9 9 9 9 9 9 9 9 9 9 9 9 9 9 9 9 9 9 9 9 9 9 9 9 9 9 9 9 9 9 9 9 9 9 9 9 9 9 9 q , * * * * * * * o < *.1 o * * * * * * * * * * * * * * * * * * * * * * * * * * * * * * * * * * o q <X8.o.X e.U s :XX w.U O Y q.v.,Xg   p R w., i R U p x.8 9 x.P * w.s 8.FXj o * * * * * * * * * * * * * * * * * * * * * * * * * * * * * ",
"9 9 9 9 9 9 9 9 9 9 9 9 9 9 9 9 9 9 9 9 9 9 9 9 9 9 9 9 9 9 9 9 9 9 9 9 9 9 9 9 9 9 9 9 9 9 9 9 9 9 9 9 9 9 9 9 9 9 9 9 9 9 9 9 9 9 9 9 9 9 9 9 9 9 9 9 9 9 9 9 9 9 9 9 9 9 9 9 9 9 9 9 9 9 9 9 9 9 9 9 9 9 9 9 9 9 9 9 9 9 9 9 9 9 9 9 9 9 9 9 9 9 9 9 9 9 9 9 9 9 9 9 9 9 9 9 9 9 q , * * * * * * * * 1 *.5 o * * * * * * * * * * * * * * * * * * * * * * * * * * * * * * * * * * * * 8 <Xo.+ x.J.:Xm.m.n.F.>Xw.:XR n.<Xp + x.,Xn.M.v.,XP :XB.:X:XM.p M.F.:XB.<Xp * * * * * * * * * * * * * * * * * * * * * * * * * * * * * * ",
"9 9 9 9 9 9 9 9 9 9 9 9 9 9 9 9 9 9 9 9 9 9 9 9 9 9 9 9 9 9 9 9 9 9 9 9 9 9 9 9 9 9 9 9 9 9 9 9 9 9 9 9 9 9 9 9 9 9 9 9 9 9 9 9 9 9 9 9 9 9 9 9 9 9 9 9 9 9 9 9 9 9 9 9 9 9 9 9 9 9 9 9 9 9 9 9 9 9 9 9 9 9 9 9 9 9 9 9 9 9 9 9 9 9 9 9 9 9 9 9 9 9 9 9 9 9 9 9 9 9 9 9 9 9 9 9 9 q , * * * * * * * * o 2 <., o * * * * * * * * * * * * * * * * * * * * * * * * * * * * * * * * * * * * X 8 J.M.>XJ.B.v.B.,XF.M.>X0.+ Y v.+ O w.w.+ :Xm.o.p IXv.B.R G.j ,XB.F.x.v.+ * * * * * * * * * * * * * * * * * * * * * * * * * * * * * * ",
"9 9 9 9 9 9 9 9 9 9 9 9 9 9 9 9 9 9 9 9 9 9 9 9 9 9 9 9 9 9 9 9 9 9 9 9 9 9 9 9 9 9 9 9 9 9 9 9 9 9 9 9 9 9 9 9 9 9 9 9 9 9 9 9 9 9 9 9 9 9 9 9 9 9 9 9 9 9 9 9 9 9 9 9 9 9 9 9 9 9 9 9 9 9 9 9 9 9 9 9 9 9 9 9 9 9 9 9 9 9 9 9 9 9 9 9 9 9 9 9 9 9 9 9 9 9 9 9 9 9 9 9 9 9 9 9 q , * * * * * * * * * * . 5 >.< * * * * * * * * * * * * * * * * * * * * * * * * * * * * * * * * * * * * 9 g j :XF.n.9 Y J.F.l.8 8.:Xq 8.:X8 O w.:Xo.J.v.q.8 <Xj p i q.>XK.w.9 Y >X8 * * * * * * * * * * * * * * * * * * * * * * * * * * * * * * ",
"9 9 9 9 9 9 9 9 9 9 9 9 9 9 9 9 9 9 9 9 9 9 9 9 9 9 9 9 9 9 9 9 9 9 9 9 9 9 9 9 9 9 9 9 9 9 9 9 9 9 9 9 9 9 9 9 9 9 9 9 9 9 9 9 9 9 9 9 9 9 9 9 9 9 9 9 9 9 9 9 9 9 9 9 9 9 9 9 9 9 9 9 9 9 9 9 9 9 9 9 9 9 9 9 9 9 9 9 9 9 9 9 9 9 9 9 9 9 9 9 9 9 9 9 9 9 9 9 9 9 9 9 9 9 9 q , * * * * * * * * * * * * o 1 < * * * * * * * * * * * * * * * * * * * * * * * * * * * * * * * * * * * * 8 m.J.g * B.B.P #.9 F.M.8 w.F.i m.o.+ q.>XB.p U U O R K.8.8.J.j 9 G.m.8 n.o.X * * * * * * * * * * * * * * * * * * * * * * * * * * * * * ",
"9 9 9 9 9 9 9 9 9 9 9 9 9 9 9 9 9 9 9 9 9 9 9 9 9 9 9 9 9 9 9 9 9 9 9 9 9 9 9 9 9 9 9 9 9 9 9 9 9 9 9 9 9 9 9 9 9 9 9 9 9 9 9 9 9 9 9 9 9 9 9 9 9 9 9 9 9 9 9 9 9 9 9 9 9 9 9 9 9 9 9 9 9 9 9 9 9 9 9 9 9 9 9 9 9 9 9 9 9 9 9 9 9 9 9 9 9 9 9 9 9 9 9 9 9 9 9 9 9 9 9 9 9 9 q , * * * * * * * * * * * * * * o * * * * * * * * * * * * * * * * * * * * * * * * * * * * * * * * * * * * * * O O X * O O X   * O O *   O o O o O x.x.+ * X X *   O     O X * O   * O X * * * * * * * * * * * * * * * * * * * * * * * * * * * * * * ",
"q q q q q q q q q q q q q q q q q q q q q q q q q q q q q q q q q q q q q q q q q q q q q q q q q q q q q q q q q q q q q q q q q q q q q q q q q q q q q q q q q q q q q q q q q q q q q q q q q q q q q q q q q q q q q q q q q q q q q q q q q q q q q q q q q q q q q q , * * * * * * * * * * * * * * * * * * * * * * * * * * * * * * * * * * * * * * * * * * * * * * * * * * * * * * * * * * * * * * * * * * * * * * *   P U o * * * * * * * * * * * * * * * * * * * * * * * * * * * * * * * * * * * * * * * * * * * * * * ",
"8 8 8 8 8 8 8 8 8 8 8 8 8 8 8 8 8 8 8 8 8 8 8 8 8 8 8 8 8 8 8 8 8 8 8 8 8 8 8 8 8 8 8 8 8 8 8 8 8 8 8 8 8 8 8 8 8 8 8 8 8 8 8 8 8 8 8 8 8 8 8 8 8 8 8 8 8 8 8 8 8 8 8 8 8 8 8 8 8 8 8 8 8 8 8 8 8 8 8 8 8 8 8 8 8 8 8 8 8 8 8 8 8 8 8 8 8 8 8 8 8 8 8 8 8 8 8 8 8 8 8 8 8 * * * * * * * * * * * * * * * * * * * * * * * * * * * * * * * * * * * * * * * * * * * * * * * * * * * * * * * * * * * * * * * * * * * * * * * * * * o X * * * * * * * * * * * * * * * * * * * * * * * * * * * * * * * * * * * * * * * * * * * * * * * ",
"o o o o o o o o o o o o o o o o o o o o o o o o o o o o o o o o o o o o o o o o o o o o o o o o o o o o o o o o o o o o o o o o o o o o o o o o o o o o o o o o o o o o o o o o o o o o o o o o o o o o o o o o o o o o o o o o o o o o o o o o o o o o o o o o o o o o o * * * * * * * * * * * * * * * * * * * * * * * * * * * * * * * * * * * * * * * * * o o o o o o o o o o o o o o o o o o o o o o o o o o o o o o o o o * * o o o o o o o o o o o o o o o o o o o o o o o o o o o o o o o o o o o o o o o o o o o o o o o ",
"p p p p p p p p p p p p p p p p p p p p p p p p p p p p p p p p p p p p p p p p p p p p p p p p p p p p p p p p p p p p p p p p p p p p p p p p p p p p p p p p p p p p p p p p p p p p p p p p p p p p p p p p p p p p p p p p p p p p p p p p p p p p p p p p p p p p p * * 8 8 8 8 8 8 8 8 8 8 8 8 8 8 8 8 8 8 8 * * , 8 8 8 8 8 8 8 8 8 8 8 8 8 8 8 * * p p p p p p p p p p p p p p p p p p p p p p p p p p p p p p p p p p p p p p p p p p p p p p p p p p p p p p p p p p p p p p p p p p p p p p p p p p p p p p p p p p ",
"Y Y Y Y Y Y Y Y Y Y Y Y Y Y Y Y Y Y Y Y Y Y Y Y Y Y Y Y Y Y Y Y Y Y Y Y Y Y Y Y Y Y Y Y Y Y Y Y Y Y Y Y Y Y Y Y Y Y Y Y Y Y Y Y Y Y Y Y Y Y Y Y Y Y Y Y Y Y Y Y Y Y Y Y Y Y Y Y Y Y Y Y Y Y Y Y Y Y Y Y Y Y Y Y Y Y Y Y Y Y Y Y Y Y Y Y Y Y Y Y Y Y Y Y Y Y Y Y Y Y Y R P * * q q q q q q 9 9 9 9 9 9 9 q q q q q i , * 9 i q q i i q q q q q q q q q q * * Y Y Y R R Y R R Y R R R Y R Y Y Y Y R Y R R Y R Y Y R R Y Y R Y Y Y Y Y Y Y Y Y Y Y Y Y Y Y Y Y Y Y Y Y Y Y Y Y Y Y Y Y Y Y Y Y Y Y Y Y Y Y Y Y Y Y Y Y Y Y Y Y Y Y ",
"U U U U U U U U U U U U U U U U U U U U U U U U U U U U U U U U U U U U U U U U U U U U U U U U U U U U U U U U U U U U U U U U U U U U U U U U U U U U U U U U U U U U U U U U U U U U U U U U U U U U U U U U U U U U U U U U U U U U U U U U U U U U U U U U U U U U j * * 9 9 9 9 q 9 g o.U R Y o.P 9 q 9 9 9 q , * 8 q q 9 , 8 q q q 9 9 q q 9 9 9 * * U U P j j P j j P j j j U j U j P P j j j j j j P P j j P P j U j P U U U U U U U U U U U U U U U U U U U U U U U U U U U U U U U U U U U U U U U U U U U U U U U U ",
"U U U U U U U U U U U U U U U U U U U U U U U U U U U U U U U U U U U U U U U U U U U U U U U U U U U U U U U U U U U U U U U U U U U U U U U U U U U U U U U U U U U U U U U U U U U U U U U U U U U U U U U U U U U U U U U U U U U U U U U U U U U U U U U U U U U Y P * * q 9 9 9 q 8 Y R x.G.x.g 8.8 q 9 9 9 q , * 8 i 9 p 8.Y 9 , , U g 8 , 9 q 9 * * U P 8.>X:Xo.F.>Xx.G.>XM.Y B.j x.0.q.>XB.J.<XG.:Xn.R :X:Xo.q.J.j n.o.P U U U U U U U U U U U U U U U U U U U U U U U U U U U U U U U U U U U U U U U U U U U U U U U ",
"U U U U U U U U U U U U U U U U U U U U U U U U U U U U U U U U U U U U U U U U U U U U U U U U U U U U U U U U U U U U U U U U U U U U U U U U U U U U U U U U U U U U U U U U U U U U U U U U U U U U U U U U U U U U U U U U U U U U U U U U U U U U U U U U U U U Y P * * q 9 9 9 q 9 P m.q.q x.w.Y 9 q 9 9 9 q , * 9 9 s :Xn.8.i 8.g s s j o.p 9 9 * * U j x.J.n.K.:X8.U <Xo.:XB.>Xg G.B.>X8.o.#.<XR :Xx.:Xx.w.:Xx.IX8.J.q.P U U U U U U U U U U U U U U U U U U U U U U U U U U U U U U U U U U U U U U U U U U U U U U U ",
"U U U U U U U U U U U U U U U U U U U U U U U U U U U U U U U U U U U U U U U U U U U U U U U U U U U U U U U U U U U U U U U U U U U U U U U U U U U U U U U U U U U U U U U U U U U U U U U U U U U U U U U U U U U U U U U U U U U U U U U U U U U U U U U U U U U Y P * * q 9 9 9 q 8 P J.p X j n.Y 9 q 9 9 9 q , * 9 * v.v.q Y s n.F.B.w.>XG.B., q * * U j q.,X,X8.>X<Xw.:Xj w.:X:Xg m.:XG.s U Y :XP B.v.:XP j :Xn.J.:XG.0.P U U U U U U U U U U U U U U U U U U U U U U U U U U U U U U U U U U U U U U U U U U U U U U U ",
"U U U U U U U U U U U U U U U U U U U U U U U U U U U U U U U U U U U U U U U U U U U U U U U U U U U U U U U U U U U U U U U U U U U U U U U U U U U U U U U U U U U U U U U U U U U U U U U U U U U U U U U U U U U U U U U U U U U U U U U U U U U U U U U U U U U Y P * * q 9 9 9 q 9 P l.n.U F.F.R 9 q 9 9 9 q , * 9 * m.w.p <X0.m.:XF.w.B.q :X8 q * * U j l.J.J.l.:X8.U <XP K.B.:XP J.B.>XY U R >XU G.l.>Xe.8.:Xm.n.B.IXo.P U U U U U U U U U U U U U U U U U U U U U U U U U U U U U U U U U U U U U U U U U U U U U U U ",
"U U U U U U U U U U U U U U U U U U U U U U U U U U U U U U U U U U U U U U U U U U U U U U U U U U U U U U U U U U U U U U U U U U U U U U U U U U U U U U U U U U U U U U U U U U U U U U U U U U U U U U U U U U U U U U U U U U U U U U U U U U U U U U U U U U U Y P * * q 9 9 9 q 8 Y U 8.n.m.IXn., i 9 9 9 q , * 9 9 P >X0.K.:XK.K.J.x.F.s :X8 q * * U j q.m.8.G.K.<Xx.:X<XJ.P n.>XJ.P m.<Xm.Y G.Y :Xm.8.>X>X8.w.v.P ,Xo.P U U U U U U U U U U U U U U U U U U U U U U U U U U U U U U U U U U U U U U U U U U U U U U U ",
"U U U U U U U U U U U U U U U U U U U U U U U U U U U U U U U U U U U U U U U U U U U U U U U U U U U U U U U U U U U U U U U U U U U U U U U U U U U U U U U U U U U U U U U U U U U U U U U U U U U U U U U U U U U U U U U U U U U U U U U U U U U U U U U U U U U Y P * * q 9 9 9 q 9 g 8.U U U w.R 8 q 9 9 9 q , * 8 i 8 P v.o.s q.U P g P i U 9 9 * * U U U P U P P Y U P Y j U P U P U j U U U P U P U P U U P U P U j U U U U U U U U U U U U U U U U U U U U U U U U U U U U U U U Y U U U U U U U U U U U U U U U U U ",
"U Y Y Y Y Y U Y Y Y Y U Y Y Y Y U Y Y Y U Y Y U U Y U U U U P U U U Y Y Y Y Y Y Y Y Y Y Y Y Y U Y Y Y Y Y Y Y Y Y Y Y Y U U Y Y Y Y Y Y Y Y Y U Y Y Y Y U U U Y Y Y Y Y U Y Y Y Y U Y Y Y Y U Y Y Y U Y Y U Y Y Y Y Y Y Y Y Y Y Y Y Y Y Y Y Y Y Y Y Y Y Y U Y Y U U U U j * * q 9 9 9 9 q 9 9 q q q 8 9 q 9 9 9 9 q , * 8 q q 8 * 8 9 * 8 8 9 9 9 8 q 9 * * U Y Y Y Y Y Y Y Y Y Y Y Y Y Y Y U Y Y Y Y Y Y Y Y Y Y Y Y Y Y U Y Y Y Y Y Y Y Y Y Y Y Y Y Y Y U Y Y Y Y Y Y Y Y Y Y Y Y Y Y Y U j Y Y Y Y Y Y Y Y Y Y Y Y Y U Y Y Y ",
"q 9 9 9 9 9 i 9 9 9 9 q q 9 9 q p 9 9 9 q 9 9 p q q w w 0 s D i i i q 9 9 9 9 9 9 9 9 9 9 9 q q 9 9 9 9 9 9 9 9 9 9 9 9 w q 9 9 9 9 9 9 9 9 q q 9 9 9 9 i i q 9 9 9 9 9 q 9 9 9 9 i 9 9 9 9 i 9 9 9 i 9 9 i q 9 9 9 9 9 9 9 9 9 9 9 9 9 9 9 9 9 9 9 9 9 9 i 9 q i i u S L * * q 9 9 9 9 9 q 9 9 9 9 9 q 9 9 9 9 9 q , * 8 q 9 q i q q i q q q q 9 q 9 9 * , s 9 9 9 9 9 9 9 9 9 9 9 9 9 9 9 i 9 9 9 9 9 9 9 9 9 9 9 9 9 9 q q 9 9 9 9 9 9 9 9 9 9 9 9 9 9 i 9 9 9 9 9 9 9 9 9 9 9 9 9 9 9 p ] 9 9 9 9 9 9 9 9 9 9 9 9 9 q q 9 9 ",
"i * * * * * p * * * * q 9 * * 0 x * * 8 i * * s 0 0 0 r r X.+X2 5 2 2 1 < , * * * * * * * * 9 q * * * * * * * * * * * 8 y u * * * * * * * * 9 9 * * , . S 3 w * * * * * i 8 * * * p , * * * p * * , p * * p 9 * * * * * * * * * * * * * * * * * * * * * < p 1 2 2 5 2 :.&.. * q 9 9 9 9 9 q 8 * * * , q 9 9 9 9 9 q , * 8 q 9 q q q q q q q q q q q q 9 * , i * * * * * * * * * * * * * * 8 p * * * * * * * * * * * * * * i q * * * * * * * * * * * * * * p , * * * * * * * * * * * * * , I nX8 * * * * * * * * * * * * q 9 * * ",
"i * 8 , , , p 8 , 8 * q 9 * * 0 x * 8 8 p * * j 0 0 0 r r X.;.2 5 2 2 1 < , , , , , , , , * 9 q * 8 , , , , , , , , * 8 y i * 8 , , , , , * 9 q * 8 , ; S 3 w , , , 8 * p 8 , 8 * p 8 , , , p , , 8 p , * p 9 * , , , , , , , , , , , , , , , , , , , , 8 p 1 2 2 5 2 :.&.. * q 9 9 9 9 9 q 8 * * * , q 9 9 9 9 9 q , * 8 q 9 u u u u u u u u u u 9 q 9 * , p * 8 , , , , , , , , , , , , 8 p * 8 , , , , , , , , , , 8 * p q * 8 , , , , , 8 8 8 8 , , , p 8 , 8 , , , , , 8 , 8 , , * , I fX9 , 8 , , , , , , , , 8 * i 9 * , ",
"i * , , , , p , , , * q 9 * * 0 x * , 8 p * * j 0 0 0 r r X.;.2 5 2 2 1 < , , , , , , , , * 9 q * , , , , , , , , , * 8 y i * , , , , , , * 9 q * , , @ S 3 w , , , , * p 8 * , * p 8 , , , p , , 8 p , * p 9 * , , , , , , , , , , , , , , , , , , , * 8 p 1 2 2 5 2 :.&.. * q 9 9 9 9 9 q 8 * * * , q 9 9 9 9 9 q , * 8 q w y y y y y y y y y y w 9 9 * , p * , , , , , , , , , , , , * 8 p * , , , , , , , , , , , , * p q * , , , , , , , | |.] ] * * p 8 8 * 8 8 ] ! o , 9 o ] 9 d ] j fX9 , , , , , , , , , , , * q 9 * , ",
"i * , , , , p , , , * q 9 * * 0 x * , 8 p * * j 0 0 0 r r X.;.2 5 2 2 1 < , , , , , , , , * 9 q * , , , , , , , , , * 8 y i * , , , , , , * 9 q * , , @ S 3 w , , , , * p 8 * , * p 8 , , , p , , 8 p , * p 9 * , , , , , , , , , , , , , , , , , , , * 8 p 1 2 2 5 2 :.&.. * q 9 9 9 9 9 q 8 * * * , q 9 9 9 9 9 q , * 9 u w U.U.U.U.U.A U.U.U.U.N < 9 * , p * , , , , , , , , , , , , * 8 p * , , , , , , , , , , , , * p q * , , , , , 8 o d ] f |.{ ] | ! | { | ! ] |.] ! | ] ] { | | g fX9 , , , , , , , , , , , * q 9 * , ",
"i * , , , , p , , , * q 9 * * 0 x * , 8 p * * j 0 0 0 r r X.;.2 5 2 2 1 < , , , , , , , , * 9 q * , , , , , , , , , * 8 y i * , , , , , , * 9 q * , , @ S 3 w , , , , * p 8 * , * p 8 , , , p , , 8 p , * p 9 * , , , , , , , , , , , , , , , , , , , * 8 p 1 2 2 5 2 :.&.. * q 9 9 9 9 9 q 9 * * * , q 9 9 9 9 9 q , * 9 9 s s.s.s.s.s.s.s.s.s.s.k 9 q * , p * , , , , , , , , , , , , * 8 p * , , , , , , , , , , , , * p q * , , , , , 8 * f { ! ] ] { ] ] | ] { ` ] ` { | d | { | d | j fX9 , , , , , , , , , , , * q 9 * , ",
"i * , , , , p , , , * q 9 * * 0 x * , 8 p * * j 0 0 0 r r X.;.2 5 2 2 1 < , , , , , , , , * 9 q * , , , , , , , , , * 8 y i * , , , , , , * 9 q * , , @ S 3 w , , , , * p 8 * , * p 8 , , , p , , 8 p , * p 9 * , , , , , , , , , , , , , , , , , , , * 8 p 1 2 2 5 2 :.&.. * q 9 9 9 9 i 8 @.NXDXNX,.; i 9 9 9 9 q , * 9 9 G 7X8X8X8X6X*X8X8X8X8X-.e u * , p * , , , , , , , , , , , , * 8 p * , , , , , , , , , , , , * p q * , , , , , 8 * f ] ! ] ] ] ] ! | f ] | ] ` ] ] | ] ] | | | j fX9 , , , , , , , , , , , * q 9 * , ",
"i * , , , , p , , , * q 9 * * 0 x * , 8 p * * j 0 0 0 r r X.;.2 5 2 2 1 < , , , , , , , , * 9 q * , , , , , , , , , * 8 y i * , , , , , , * 9 q * , , @ S 3 w , , , , * p 8 * , * p 8 , , , p , , 8 p , * p 9 * , , , , , , , , , , , , , , , , , , , * 8 p 1 2 2 5 2 :.&.. * q 9 9 9 9 i ; +.SXBXSX,.; i 9 9 9 9 q , * 9 9 G %X%X%X%X%XOX%X%X%X%X~ 8 q * , p * , , , , , , , , , , , , * 8 p * , , , , , , , , , , , , * p q * , , , , , , , 8 8 8 8 8 8 s , f d f 9 8 8 8 , f 8 8 8 f 9 I fX9 , , , , , , , , , , , * q 9 * , ",
"i * , , , , p , , , * q 9 * * 0 x * , 8 p * * j 0 0 0 r r X.;.2 5 2 2 1 < , , , , , , , , * 9 q * , , , , , , , , , * 8 y i * , , , , , , * 9 q * , , @ S 3 w , , , , * p 8 * , * p 8 , , , p , , 8 p , * p 9 * , , , , , , , , , , , , , , , , , , , * 8 p 1 2 2 5 2 :.&.. * q 9 9 9 9 i ; +.VXNXVX,.; i 9 9 9 9 q , * 9 9 a 6X7X7X7X6X&X7X7X7X7X-.8 u * , p * , , , , , , , , , , , , * 8 p * , , , , , , , , , , , , * p q * , , , , , , , , , , , , * p 8 * * * , , , , , o , , , o , I fX9 , , , , , , , , , , , * q 9 * , ",
"i * , , , , p , , , * q 9 * * 0 x * , 8 p * * j 0 0 0 r r X.;.2 5 2 2 1 < , , , , , , , , * 9 q * , , , , , , , , , * 8 y i * , , , , , , * 9 q * , , @ S 3 w , , , , * p 8 * , * p 8 , , , p , , 8 p , * p 9 * , , , , , , , , , , , , , , , , , , , * 8 p 1 2 2 5 2 :.&.. * q 9 9 9 9 i ; +.VXNXVX,.; i 9 9 9 9 q , * 9 9 G %X%X%X%X%XOX%X%X%X&X~ 8 u * , p * , , , , , , , , , , , , * 8 p * , , , , , , , , , , , , * p q * , , , , , , , , , , , , * p 8 , 8 8 , , , , , 8 , , , * , I fX9 , , , , , , , , , , , * q 9 * , ",
"i * , , , , p , , , * q 9 * * 0 x * , 8 p * * j 0 0 0 r r X.;.2 5 2 2 1 < , , , , , , , , * 9 q * , , , , , , , , , * 8 y i * , , , , , , * 9 q * , , @ S 3 w , , , , * p 8 * , * p 8 , , , p , , 8 p , * p 9 * , , , , , , , , , , , , , , , , , , , * 8 p 1 2 2 5 2 :.&.. * q 9 9 9 9 i ; +.VXNXVX,.; i 9 9 9 9 q , * 9 9 a 6X7X7X7X6X&X7X7X7X7X-.8 u * , p * , , , , , , , , , , , , * 8 p * , , , , , , , , , , , , * p q * , , , , , , , , , , , , * p 8 , , , , , , , , , , , , * , I fX9 , , , , , , , , , , , * q 9 * , ",
"i * , , , , p , , , * q 9 * * 0 x * , 8 p * * j 0 0 0 r r X.;.2 5 2 2 1 < , , , , , , , , * 9 q * , , , , , , , , , * 8 y u * , , , , , , * 9 q * , , @ S 3 w , , , , * p 8 * , * p 8 , , , p , , 8 p , * p 9 * , , , , , , , , , , , , , , , , , , , * 8 p 1 2 2 5 2 :.&.. * q 9 9 9 9 i ; +.VXNXVX,.; i 9 9 9 9 q , * 9 9 G %X%X%X%X%XOX%X%X%X&X~ 8 u * , p * , , , , , , , , , , , , * 8 p * , , , , , , , , , , , , * p q * , , , , , , , , , , , , * p 8 , , , , , , , , , , , , * , I fX9 , , , , , , , , , , , * q 9 * , ",
"i * , , , , p , , , * q 9 * * 0 x * , 8 p * * j 0 0 0 r r X.;.2 5 2 2 1 < , , , , , , , , * 9 q * , , , , , , , , , , t V k 8 , , , , , , * 9 q * , , @ S 3 w , , , , * p 8 * , * p 8 , , , p , , 8 p , * p 9 * , , , , , , , , , , , , , , , , , , , * 8 p 1 2 2 5 2 :.&.. * q 9 9 9 9 i ; +.VXNXVX,.; i 9 9 9 9 q , * 9 9 a 6X7X7X7X6X&X7X7X7X7X-.8 u * , p * , , , , , , , , , , , , * 8 p * , , , , , , , , , , , , * p q * , , , , , , , , , , , , * p 8 , , , , , , , , , , , , * , I fX9 , , , , , , , , , , , * q 9 * , ",
"i * 8 , 8 , p 8 , 8 * q 9 * , 0 x * 8 8 p * * j 0 0 0 r r X.;.2 5 2 2 1 < , 8 , , , , , 8 * 9 q * 8 , , , , , 8 , 8 t t & t t 8 , 8 , , 8 * 9 q * 8 , ; S 3 w , 8 , 8 * p 8 , 8 * p 8 , 8 , p 8 , 8 p , * p 9 * 8 , , , , , , , , , , , , , , , , , , , 8 p 1 2 2 5 2 :.&.. * q 9 9 9 9 i ; +.VXNXVX,.; i 9 9 9 9 q , * 9 9 G %X%X%X%X%XOX%X%X%X&X~ 8 u * , p * , , , , , , , , , , , , * 8 p * , , , , , , , , , , , , * p q * , , , , , , , , , , , , * p 8 , , , , , , , , , , , , * , I fX9 , , , , , , , , , , , * q 9 * , ",
"i * * * * * p * * * * q 9 * * 0 x = * 8 i * * s 0 0 0 r r X.;.2 5 2 2 1 < , * * * * * * * * 9 q * * * * * * * * * e t N Z N t w * * * * * * 9 9 * * * o S 3 q * * * * * i 8 * * * p , * * * p * * * p * * p 9 * * * * * * * * * * * * * * * * * * * * * < p 1 2 2 5 2 :.&.. * q 9 9 9 9 i ; +.VXNXVX,.; i 9 9 9 9 q , * 9 9 a 6X7X7X7X6X&X7X7X7X7X-.8 u * , p * 8 , , , , , , , , , , , , 8 p * , , , , , , , , , , , 8 * p q * 8 , , , , , , , , , , , * p 8 , , , , , , , , , , , , * , I fX9 , 8 , , , , , , , , 8 * i 9 * , ",
"k t t t t t k t t t t y y t t y V t t y k t t V y v v v v O.;.m m m k y y t t t t t t t t t y y t t t t t t t t t V & Z [.Z & V t t t t t t y y t t t t X.m v t t t t t k y t t t k y t t t k t t t k t t k y t t t t t t t t t t t t t t t t t t t t t y m y k m m k >.&.. * q 9 9 9 9 i ; +.VXNXVX,.; i 9 9 9 9 q , * 9 9 G %X%X%X%X%XOX%X%X%X&X~ 8 u * , p * * * * * * * * * * * * * * 8 p * * * * * * * * * * * * * * i q * * * * * * * * * * * * * * p , * * * * * * * * * * * * * , I fX8 * * * * * * * * * * * * q 9 * * ",
"s 9 q q q q s q q q 9 p p 9 9 w x 9 q w s 9 9 j p w f k v O.;.h h h h p i q q q q q q q q 9 p s 9 q q q q q q q q w V N Z N V w 9 q q q q 9 p p 9 q q 0 L J p q q q q 9 s w 9 q 9 s w q q q s q q q s q 9 j p 9 q q q q q q q q q q q q q q q q q q q q w g i h h h h :.&.. * q 9 9 9 9 i ; +.VXNXVX,.; i 9 9 9 9 q , * 9 9 a 6X7X7X7X6X&X7X7X7X7X-.8 u * , p 9 9 9 9 9 9 9 9 9 9 9 9 9 9 q s 9 9 9 9 9 9 9 9 9 9 9 9 9 9 s p 9 9 9 9 9 9 9 9 9 9 9 9 9 9 s 9 9 9 9 9 9 9 9 9 9 9 9 9 9 9 I fXd 9 9 9 9 9 9 9 9 9 9 9 9 p i 9 9 ",
"s 9 q q q q s q q q 9 p p 9 9 p x 9 q i s 9 9 j p f f f v O.;.h J h h a i i q q q q q q q 9 p p 9 q q q q q q q q < T.R.& R.T.< q q q q q 9 p p 9 q i 0 D J p q q q q 9 s i q q 9 s i q q q s q q q s q 9 g p 9 q q q q q q q q q q q q q q q q q q q q i g i h h J h :.&.. * q 9 9 9 9 i ; +.VXNXVX,.; i 9 9 9 9 q , * 9 9 G %X%X%X%X%XOX%X%X%X&X~ 8 u * , p 9 q q q q q q q q q q q q q i s q q q q q q q q q q q q q 9 g s 9 q q q q q q q q q q q q q g i q q q q q q q q q q q q q q I fXp 9 q q q q q q q q q q 9 s p q q ",
"q * * * * * p * * * * q 9 * * 8 x * * 8 i * * s 0 0 0 r r X.;.2 5 2 1 1 < , * * * * * * * * 9 q * * * * * * * * * 8 Q.E.m T.Q.e * * * * * * 9 9 * * * . 5 3 w * * * * * i 8 * * * p , * * * p * * * p * * p 9 * * * * * * * * * * * * * * * * * * * * * , p 1 1 2 3 2 :.&.. * q 9 9 9 9 i ; +.VXNXVX,.; i 9 9 9 9 q , * 9 9 G 7X8X7X8X6X&X8X7X7X8X-.8 u * , p * * * * * * * * * * * * * * 8 i * * * * * * * * * * * * * * i q * * * * * * * * * * * * * * p * * * * * * * * * * * * * * , I fX8 * * * * * * * * * * * * q 8 * * ",
"i * 8 , , , p 8 , 8 * q 9 * , 0 x * 8 8 p * * j 0 0 0 r r X.;.2 5 2 2 1 < , , , , , , , , * 9 q * 8 , , , , , 8 = v !.A l V !.n = 8 , , 8 * 9 q * 8 , ; S 3 w , 8 , 8 * p 8 , 8 * p 8 , , , p , , 8 p , * p 9 * 8 , , , , , , , , , , , , , , , , , , , 8 p 1 2 2 5 2 :.&.. * q 9 9 9 9 i ; +.VXNXVX,.; i 9 9 9 9 q , * 9 9 i W W W W W W W W W W G 9 9 * , p * 8 , , , , , , , , , , , , 8 p * 8 , , , , , , , , , , 8 * p i * 8 , , , , , , , , , , , , p 8 , , , , , , , , , , , , * , I fX9 , 8 , , , , , , , , 8 * i 9 * , ",
"i * , , , , p , , , * q 9 * * 0 x * , 8 p * * j 0 0 0 r r X.;.2 5 2 2 1 < , , , , , , , , * 9 q * , , , , , , 8 = E.Q.V V t Q.Y.= 8 , , , * 9 q * , , @ S 3 w , , , , * p 8 * , * p 8 , , , p , , 8 p , * p 9 * , , , , , , , , , , , , , , , , , , , * 8 p 1 2 2 5 2 :.&.. * q 9 9 9 9 i ; +.VXNXVX,.; i 9 9 9 9 q , * 8 q 9 a G G G a p G G G G i 9 9 * , p * , , , , , , , , , , , , * 8 p * , , , , , , , , , , , , * p q * , , , , , , , , , , , , * p 8 , , , , , , , , , , , , * , I fX9 , , , , , , , , , , , * q 9 * , ",
"i * , , , , p , , , * q 9 * * 0 x * , 8 p * * j 0 0 0 r r X.;.2 5 2 2 1 < , , , , , , , , * 9 q * , , , , , 8 = t !.Y.v C t Y.Q.e * 8 , , * 9 q * , , @ S 3 w , , , , * p 8 * , * p 8 , , , p , , 8 p , * p 9 * , , , , , , , , , , , , , , , , , , , * 8 p 1 2 2 5 2 :.&.. * q 9 9 9 9 i ; +.VXNXVX,.; i 9 9 9 9 q , * 8 q u a G G G a a G G G G i 9 9 * , p * , , , , , , , , , , , , * 8 p * , , , , , , , , , , , , * p q * , , , , , , , , , , , , * p 8 , , , , , , , , , , , , * , I fX9 , , , , , , , , , , , * q 9 * , ",
"i * , , , , p , , , * q 9 * * 0 x * , 8 p * * j 0 0 0 r r X.;.2 5 2 2 1 < , , , , , , , , * 9 q * , , , , , 8 = Y.!.& v C v v !.b = 8 , , * 9 q * , , @ S 3 w , , , , * p 8 * , * p 8 , , , p , , 8 p , * p 9 * , , , , , , , , , , , , , , , , , , , * 8 p 1 2 2 5 2 :.&.. * q 9 9 9 9 i ; +.VXNXVX,.; i 9 9 9 9 q , * 8 q q G J J K G a K J J J i 9 9 * , p * , , , , , , , , , , , , * 8 p * , , , , , , , , , , , , * p q * , , , , , , , , , , , , * p 8 , , , , , , , , , , , , * , I fX9 , , , , , , , , , , , * q 9 * , ",
"i * , , , , p , , , * q 9 * * 0 x * , 8 p * * j 0 0 0 r r X.;.2 5 2 2 1 < , , , , , , , , * 9 q * , , , , 8 = y !.Y.t V V v e Q.R.* 8 , , * 9 q * , , @ S 3 w , , , , * p 8 * , * p 8 , , , p , , 8 p , * p 9 * , , , , , , , , , , , , , , , , , , , * 8 p 1 2 2 5 2 :.&.. * q 9 9 9 9 i ; +.VXNXVX,.; i 9 9 9 9 q , * 8 q u a G a G a a G a a G i 9 9 * , p * , , , , , , , , , , , , * 8 p * , , , , , , , , , , , , * p q * , , , , , , , , , , , , * p 8 , , , , , , , , , , , , * , I fX9 , , , , , , , , , , , * q 9 * , ",
"i * , , , , p , , , * q 9 * * 0 x * , 8 p * * j 0 0 0 r r X.;.2 5 2 2 1 < , , , , , , , , * 9 q * , , , 8 * 8 R.Q.& v V V V , C !.v = 8 , * 9 q * , , @ S 3 w , , , , * p 8 * , * p 8 , , , p , , 8 p , * p 9 * , , , , , , , , , , , , , , , , , , , * 8 p 1 2 2 5 2 :.&.. * q 9 9 9 9 i ; +.VXNXVX,.; i 9 9 9 9 q , * 8 q q G J J J G a J J J J i 9 9 * , p * , , , , , , , , , * , , * 8 p * , , , , , , , , , , , , * p q * , , , , , , , , * , , * * p 8 , , , , , , , , , * , , * , I fX9 , , , , , , , , , , , * q 9 * , ",
"i * , , , , p , , , * q 9 * * 0 x * , 8 p * * j 0 0 0 r r X.;.2 5 2 2 1 < , , , , , , , , * 9 q * 8 8 8 = , Y.{.A e v v V V t e Q.R.* , 8 * 9 q * , , @ S 3 w , , , , * p 8 * , * p 8 , , , p , , 8 p , * p 9 * , , , , , , , , , , , , , , , , , , , * 8 p 1 2 2 5 2 :.&.. * q 9 9 9 9 i ; +.VXNXVX,.; i 9 9 9 9 q , * 8 q u a G G G a a G G G G i 9 9 * , p * 8 * , , , , , , * 8 8 8 , 8 p * , , , , , , , , * * * 8 * p q * , , , , , , , , 9 , * 9 , p 8 , , , , , , , , 8 8 * * * , I fX9 , , , , , , , * , 8 8 * q 9 * , ",
"i * , , , * p , , , * q 9 * * 0 x * , 8 p * * j 0 0 0 r r X.;.2 5 2 2 1 < , , , , , , , , * 9 w * , = = t E.!.U.& e v v y V n , V {.C - 8 * 9 q * , , @ S 3 w , , , , * p 8 * , * p 8 , , , p , , 8 p , * p 9 * , , , , , , , , , , , , , , , , , , , * 8 p 1 2 2 5 2 :.&.. * q 9 9 9 9 i ; +.VXNXVX,.; i 9 9 9 9 q , * 8 q q G J J J G a J J J J i 9 9 * 8 i 8 9 8 8 * , , 8 * i R i R Y 8 p * , , , , , , 8 , 8 2.j o.j q i * , , , , , , , 9 Y P g Y 8 p 8 , , , , , , 8 * s 2.i p o., I fX9 , , , , , 8 * Y P q 8.s 9 9 * , ",
"i * , 8 3XW 0 8 , , * q 9 * * 0 x * , 8 p * * j 0 0 0 r r X.;.2 5 2 2 1 < , , , 8 8 8 8 8 * < 1 = * v Y.!.Q.U.& t v v v y v n t t E.!.v = 8 9 q * , , ; S 3 w , , , , * p 8 * , * p 8 , , , p , , 8 p , * p 9 * , , , , , , , , , , , , , , , , , , , * 8 p 1 2 2 5 2 :.&.. * q 9 9 9 9 i ; +.VXNXVX,.; i 9 9 9 9 q , * 8 q u a G G G a a G G G G i 9 9 * 8 q i R o.R , , , , o U Y j j j s q * , , , , , , * o j R j 8.j q i * , , , , , , * * P R o.P , p 8 , , , , , , * * * s P P Y , I fX9 , , , , , * o j U o p U 9 9 * , ",
"i * * u uX~ e 8 , , * q 9 * * 8 x * 8 8 u = * j 0 0 0 r r X.;.2 5 2 2 1 8 8 8 , * = = = * 8 y V Y.R.!.Q.E.A & 8 v V v v v w v v v t Q.Q.v = 9 q * 8 , @ 5 3 w , , , , * p 8 * , * p 8 , , , p , , 8 p , * p 9 * , , , , , , , , , , , , , , , , , , , * 8 p 1 2 2 5 2 :.&.. * q 9 9 9 9 i ; +.VXNXVX,.; i 9 9 9 9 q , * 8 q q G J G J G a J G G J i 9 9 * 8 q p 0.p Y 9 * * 9 j o.g w.p j s q * , , , , , * p P 8.0.R R P q i * , , , , , , j q 8 8.o.j j 9 8 , , , , , * 9 j 8 P j 0.8.8 I fX9 , , , , * s p q P * Y 8 q 9 * , ",
"p , * a uXOX0 8 , 8 * i 9 * 8 f ' 8 = 0 v r 8 a < 0 0 r r X.;.2 5 2 2 1 1 - = , e v C Y.E.Q.Q.!.Q.E.A M N & e t v V t z y q e v v e t Q.!.A l w * * * < ..D p * 8 8 8 , p 8 8 8 8 p 8 8 8 8 p 8 8 8 p 8 * p 9 * 8 8 8 8 8 8 8 , , , , , , , , , , , , , 8 p 1 2 2 5 2 :.&.. * q 9 9 9 9 i ; +.VXNXVX,.; i 9 9 9 9 q , * 8 q u G G G G a a G G G G i 9 9 * 8 q p 8.p U 9 , , 8 9 g R P R R 9 p * 8 , , , , , 9 q 9 R Y Y P i i * 8 , , , , 8 9 p U Y P R p i 8 , , , , , , 8 9 R 8.p p R 8 I fX9 , 8 , , , 9 9 p j U q.i q 9 * , ",
"0 o . a uXOX% o o o o 9 8 e v v v v c Q.!.!.~.Y.v 0 0 9 : L ;.7 6 2 2 y v C Y.R.Q.!.!.!.~.~.E.E.A A A Y.I.I.I.I.I.I.b b b b b b b v r v Q.{.U.N N & m D F F @.* = = = = u * = = = i * = = * i * * * i * = p 9 * * * * * * * * * * * * * * * * * * * * * < a 1 2 2 5 2 :.&.. * q 9 9 9 9 i ; +.VXNXVX,.; i 9 9 9 9 q , * 8 q u G G G G a a G G G G i 9 9 * , i * 8 * , * * * * * * 9 * 8 8 * i * * * * * * * * * * * * q * q 9 * * * * * * * * , q * * 9 * p * * * * * * * * * 8 9 8 * * , I fX8 * * * * * * * * , 8 9 8 9 8 * * ",
"Q W K -.uX3XW W W T H W K ` v Y./.v Q.Q.C C R.Q.!.Q.E.Y.Y.P.1.C T.T.R.Q.Q.{.Q.R.R.U.U.A A A N N N n v v n n b I.I.I.b b I.b I.I.I.I.I.I.I.R.!.~.E.Y.V ..=X=.O.V N N N N V n n n n v & & & & v & & & y r $ v t % % e e e e e e % e e e e e e e e e e e % e l e w l h l >.&.. * q 9 9 9 9 i ; +.VXNXVX,.; i 9 9 9 9 q , * 8 q u G G G G a a G G G G i 9 9 * , p 9 9 9 9 9 9 9 9 9 9 9 9 9 9 i g 9 9 9 9 9 9 9 9 9 9 9 9 9 9 g s 9 9 9 9 9 9 9 9 9 9 9 9 9 9 g q 9 9 9 9 9 9 9 9 9 9 9 9 9 q ` fXd 9 9 9 9 9 9 9 9 9 9 9 8 s p 9 9 ",
"uXuXuXuXuXuXuXuXuXuXuXyXuXeX' `.'.b <X0X6X*X@X@XL.(.(.`.!.(.DX(.(._._.L.:X@X@X@X@X@X@X@X@X@XOXOXOXOXOXOXOXOXoXH.H.H.-.-.-.-.#.7.g.g.x x x c h.R.!.(.2..XKXMXD a.C C C C Z Z Z Z Z Z Z Z Z Z Z Z Z Z Z Z Z Z Z Z Z Z Z Z Z Z Z Z Z Z Z Z Z Z Z Z Z Z Z Z Z Z Z Z Z Z Z 1.&.. * q 9 9 9 9 i ; +.VXNXVX,.; i 9 9 9 9 q , * 8 q u G G G G a a G G G G i 9 9 * * g M.B.B.B.B.B.B.B.B.B.B.B.B.B.B.B.B.B.B.B.B.B.B.B.B.B.B.B.B.B.B.B.B.B.B.B.B.B.B.B.B.B.B.B.B.B.B.B.B.B.B.B.B.B.B.B.B.B.B.B.B.M.J.zXB.M.B.B.B.B.B.B.B.B.B.B.B.B.B.B.B.",
"{ ~ Q -XqX0X{ ~ ~ ~ ~ z.-.-Xz.Y.Y.[ 2XwXtXuXuXtX2XC.` x c 0.+XW W W W W K T T T T T T T T T Q Q Q Q Q ~ $.n.n.-.-.V.XXOX@XOX%X%X%X@XOXOX-.l.e.E C (._...=X=...@.T W W W Q W T T T Q T T T T Q T T T Q T T Q Q T T T T T T T T T T T T T T T T T T T T T E $.W W @.+.@.+X&.. * q 9 9 9 9 i ; +.VXNXVX,.; i 9 9 9 9 q , * 8 q q G J G J G a J G G J i 9 9 * , p 8 8 8 8 8 8 8 8 8 8 8 8 8 8 9 p 8 8 8 8 8 8 8 8 8 8 8 8 8 8 p p 8 8 8 8 8 8 8 8 8 8 8 8 8 8 s 8 8 8 8 8 8 8 8 8 8 8 8 8 8 9 I fXq 8 8 8 8 8 8 8 8 8 8 8 8 p q 8 8 ",
"r $ $ { sX2Xr $ $ $ $ r $ ` eX] Y.R.e 8 p 1XrX1XrXpXeX5X[ 2.+XL L P j j f f f f f f f f f f f f f c v d x c v r r b f f x I f ' r.w.n.-.OX@X@XOX-.$.k.P.V a.c.K T T T T Q T T E T Q T T T T Q T T T Q T T Q E T T T T T T T T T T T T T T T T T T T T T T Q W W W @.W +X&.. * q 9 9 9 9 i ; +.VXNXVX,.; i 9 9 9 9 q , * 8 q u a G G G a a G G G G i 9 9 * , p * , * * * * * * * * * * * * 8 p * * * * * * * * * * * * , * i q * * * * * * * * * * * * * * p , * * * * * * * * * * * * * , I fX9 * * * * * * * * * * , * q 9 * * ",
"f r $ -X4X2XI r r r r f r { uXkX!.v = 9 % 1XrXr i ~ 1XtXaX5X+XP L L T P j f f f f f f f f x ( I f ' [ x k c s f f f f f x I f c c x b x f f.y.-.XX#X#XOXL.(.Q./.R K T T Q T T E T Q T T T T Q T T T Q T T Q E T T T T T T T T T T T T T T T T T T T T T T #.W W W @.W +X&.. * q 9 9 9 9 i ; +.VXNXVX,.; i 9 9 9 9 q , * 8 q q G J J J G a J J J J i 9 9 * , p * 8 , , , , , , , , , , , , 8 p * , , , , , , , , , , , 8 * p q * , , , , , , , , , , , , * p 8 , , , , , , , , , , , , * , I fX9 , 8 , , , , , , , , , * i 9 * , ",
"f r $ -X2X2X` r r r r f r z.aX(.E.* * 9 e 1XiXj 0 % % _ ;X3XCX0XC.Y g s s j f f c f f f s c ' P f c [ c c c f f f f f f x I f x ` x f.x c d.' f f f Q -.#X%XL.`.Q./.E K Q E T Q T Q T T T T Q T T T Q T T Q E T T T T T T T T T T T T T T T T T T T T T T #.W W W @.W +X&.. * q 9 9 9 9 i ; +.VXNXVX,.; i 9 9 9 9 q , * 8 q u a G G G a a G G G G i 9 9 * , p * , , , , , , , , , , , , * 8 p * , , , , , , , , , , , , * p q * , , , , , , , , , , , , * p 8 , , , , , , , , , , , , * , I fX9 , , , , , , , , , , , * q 9 * , ",
"f r $ 1X5X2X] e r r r f r -XkX!.C = 8 9 0 1XiXP 0 0 0 c ;X$.+X6XyXqX;X' x r d f ' f s f k c f.` f [ c f.f.c f I f f f ` 4.I f f I x f.c c ' f.` f f f r Q -.OX@X_.Q.Q.d.Q W T ) E Q T T T T Q T T T Q T T Q Q T T T T T T T T T T T T T T T T T T T T T T #.W W W @.W +X&.. * q 9 9 9 9 i ; +.VXNXVX,.; i 9 9 9 9 q , * 8 q q G J J J G a J J J J i 9 9 * , p * , , , , , , , , , , , , * 8 p * , , , , , , , , , , , , * p q * , , , , , , , , , , , , * p 8 , , , , , , , , , , , , * , I fX9 , , , , , , , , , , , * q 9 * , ",
"f r $ 2X-X2X] $ r r r f r -X(.~.c = 8 9 w 2XtXY e 0 e C.aX-.:.h -XwXyXuXeX;Xj.' b v v v c c C c x c f c c ' f ` f f f ( V j d f f x x c c _ f.C x f f f 8.j f a -.oX_.Q.R.5.J ) Q E T T J L Q L J L E J G Q T G L L L L L L L L L L L L L L L L L L L J T Q L L W @.W +X&.. * q 9 9 9 9 i ; +.VXNXVX,.; i 9 9 9 9 q , * 8 q u a G a G a a G a a G i 9 9 * , p * , , , , , , , , , , , , * 8 p * , , , , , , , , , , , , * p q * , , , , , , , , , , , , * p 8 , , , , , , , , , , , , * , I fX9 , , , , , , , , , , , * q 9 * , ",
"f r r 2XC.2Xz.$ r r r f r -X{.T.k * 8 8 w 3XuXQ e 0 e C.aXc.:.h V V W OX6XuXuXaXeX4X4X;X;X).).)./.k.j.k.k.).k.j.j.j.j.k.k.j.[ [ j.k.[ k./.D.)./.k.k.k.[ ).j.j.[ [ A.-X_.`.(.k.A.A.A.A.j.j.j.A.j.j.j.A.j.j.A.j.j.j.j.j.j.j.j.j.j.j.j.j.j.j.j.j.j.j.j.j.j.j.A.u.p.p.N.u.@X&.. * q 9 9 9 9 i ; +.VXNXVX,.; i 9 9 9 9 q , * 8 q q G J J K G a K J J J i 9 9 * , p * , , , , , , , , , , , , * 8 p * , , , , , , , , , , , , * p q * , , , , , , , , , , , , * p 8 , , , , , , , , , , , , * , I fX9 , , , , , , , , , , , * q 9 * , ",
"f $ f 0X' 3XC.$ r r r f d /.{.5Xx * 8 8 s wXuX) e 0 r ;XaXc.>.k 7.7.w , e i.C.-X0XqXiXiXuXyXyXyXuXuXuXuXuXuXuXuXuXuXuXtXuXuXuXuXtXuXuXuXuXtXtXuXuXuXuXuXuXuXuXuXuXpXpXuXuXuXpXtXuXuXuXpXpXuXuXpXuXuXuXpXpXuXuXpXpXpXpXpXpXpXpXpXpXpXpXpXpXpXpXpXpXpXpXpXuXuXuXtXtXtXtXKX&.. * q 9 9 9 9 i ; +.VXNXVX,.; i 9 9 9 9 q , * 8 q u a a a a a a a a a a i 9 9 * , p * , , , , , , , , , , , , * 8 p * , , , , , , , , , , , , * p q * , , , , , , , , , , , , * p 8 , , , , , , , , , , , , * , I fX9 , , , , , , , , , , , * q 9 * , ",
"f $ I 0Xc 2X-X$ r r r f r ~.(.eXI.* , 8 c wXtXz.e 0 r ;XaXV.>.V 7.7.k 1 r V v n b v V ( 5.i.N.b.z.C.C.-.-.-X-X-X-X-.-XeX5X-X-X-XqX-X-XoXC.rX0XG.-X-X-X-X5X-X-X-.-XoX~ -.-X-.%X,X(._.oXXXXXOXOXXXXXXXOXXXXXOXXXXXXXXXXXXXXXXXXXXXXXXXXXXXXXXXXXXXXXXXXXXXXXOXXXXXXXOXXX+X&.. * q 9 9 9 9 i ; +.VXNXVX,.; i 9 9 9 9 q , * 8 q q G K J K G a K J J K i 9 9 * , p * , , , , , , , , , , , , * 8 p * , , , , , , , , , , , , * p q * , , , , , , , , , , , , * p 8 , , , , , , , , , , , , * , I fX9 , , , , , , , , , , , * q 9 * , ",
"f $ Q 3Xc N.0Xr r r r d C W.).tX;X; * 8 c wXrXz.e 9 n 4XaX-X>.g.D.5.V w t g.c c 6.c V v v v x b n x / k e x 9.-Xz.Q c rXN.x x k rXe.v x x wX3XC b C C C g.V v 0 5.v . r ( y 9 wX_.W.Q.k 7 Y L 1 j a h 2 1 h 2 1 1 1 1 1 1 1 1 1 1 1 1 1 1 1 1 1 1 1 1 1 2 h 2 5 6 S 6 :.&.. * q 9 9 9 9 i ; +.VXNXVX,.; i 9 9 9 9 q , * 8 q u a a a a a a a a a a i 9 9 * , p * , , , , , , , , , , , , * 8 p * , , , , , , , , , , , , * p q * , , , , , , , , , , , , * p 8 , , , , , , , , , , , , * , I fX9 , , , , , , , , , , , * q 9 * , ",
"f # { 3Xc u.0Xf r r r d R.Q.S.yXwX8 * 0 2XiX0XC.e 0 ' eXsX5X>.n.iX-X7.k y 7.c c _ x 6.b 6.V _ V c ( _ 3.f 3X2XqXqX0X5XuX-X3.) Q iXC.-Xz.( qX0XV V C g.d.g.3XS.x k.V 8 Y r.x P yX%Xa.Q.!.C $.#.3 #.L L J 3 L J 3 3 3 a 3 3 3 3 3 3 3 3 3 3 3 3 3 3 3 3 3 3 L S S D D D ;.&.. * q 9 9 9 9 i ; +.VXNXVX,.; i 9 9 9 9 q , * 8 q q J K K K G a K K K K i 9 9 * , p * , , , , , , , , , , , , * 8 p * , , , , , , , , , , , , * p q * , , , , , , , , , , , , * p 8 , , , , , , , , , , , , * , I fX9 , , , , , , , , , , , * q 9 * , ",
"r n 4X2Xc i.3X! e r : v !._.S.0XwX9 * w tXrX0XC.@ v N.3X;X3X1.S.iXyXN.v x g.C c Y.x 5.c 5.x 5.V c ).f.x ) iX0XrXyX3XqXyX1X4.[ /.iXrXuXC.-XyXqXV.-X4XY.k.5XiXJ.c d.V 8 ` C.9.Q yXrXh.1X_.!.R.$.J 0.L L T 3 L J J 3 3 a 3 3 3 3 3 3 3 3 3 3 3 3 3 3 3 3 3 3 L 5 S S D S ;.&.. * q 9 9 9 9 i ; +.VXNXVX,.; i 9 9 9 9 q , * 8 q u a a a a a a a a a a i 9 9 * , p * , , , , , , , , , , , , * 8 p * , , , , , , , , , , , , * p q * , , , , , , , , , , , , * p 8 , , , , , , , , , , , , * , I fX9 , , , , , , , , , , , * q 9 * , ",
"b lX0Xi.' ' 0XI $ r : Y.`.0Xd.d.qXa o P uXwX3X-Xr b ;X5XV.3X@X4XiXiX-Xx x 3X;Xc kXr.V v / C.N.v ) rXeXp.z.uXtXuXyXrXtXyX4Xb N.kXtXyXyX1XwXtXtXrX3XtX4X0XyXtX3Xg.2XS.f r.qX-Xe.yXuX;XwX3XC !.Q.4.e.k L E L $.J T J L J a 3 3 3 3 3 3 3 3 3 3 3 3 3 3 3 3 3 L 5 S S D S ;.&.. * q 9 9 9 9 i ; +.VXNXVX,.; i 9 9 9 9 q , * 8 q q J K K K G a K K K K i 9 9 * , p * , , , , , , , , , , , , * 8 p * , , , , , , , , , , , , * p q * , , , , , , , , , , , , * p 8 , , , , , , , , , , , , * , I fX9 , , , , , , , , , , , * i 9 * j ",
"Z.qXC.c ' ' 0XQ $ : v ~._.wXd.d.qXa . ~ uX3X3X5Xn /.kX-XA.wXCXiXiXyX1Xx 2.iX3Xy.uXC.k.c x 0XwXE Q tXyX1Xz.iXiXtXqXuXqXyXkX).iXyXeX4XyX3X0X).wXyXrXuXyXuXtXuXyXD.tXqXe.qXuX1XC.uXyXiXrX2Xp S.Q.~._.C.J #.R q.a Q L T J J 3 3 3 3 3 3 3 3 3 3 3 3 3 3 3 3 3 L 5 S D D S ;.&.. * q 9 9 9 9 i ; +.VXNXVX,.; i 9 9 9 9 q , * 8 q u a a a a a a a a a a i 9 9 * , p * 8 , , , , , , , , , , , , 8 p * 8 , , , , , , , , , , 8 * p i * 8 , , , , , , , , , , 8 , p 8 , , , , , , , , , , , , * , I fX9 , 8 , , , , , , , , 8 * q 9 g g ",
"2X-Xc ' ' c 0X{ $ Q /.~.z.0XV d.eX2X. -XpX1X1XtX).eXrXi.A.wXCXiXqXiXwXe.e.uXwXV.tX2XrXC.5X4XyX1Xe.uXyXeX;XwX1XC.z.rX4XyXqXqXrXuX2X1XyXqXqXx 3XyXtXtXeXqXqXyXtX-XqXrXC.iXyX2X1X4X_.qXyX2XR yX-XR.{.).W #.#.q.J Q L E ' U 3 3 4 3 3 3 3 3 3 3 3 3 3 3 3 4 3 L 3 S S D S ;.&.. * q 9 9 9 9 i ; +.VXNXVX,.; i 9 9 9 9 q , * 8 q q J K K K G a K K K K i 9 9 * , p * * * * * * * * * * * * * * 8 i * * * * * * * * * * * * * * i q * * * * * * * * * * * * * * p * * * * * * * * * * * * * * , I fX8 * * * * * * * * * * * * 9 j s * ",
"0XV.6.6.6.' 2X3X-X-X}.E.-X0XC h.>XuXc 2X;X4.-XuXtXtXqXi.j.3XCXyX1XV.yX1XV.rXqXwXtXqXiX1XuXrXyXwX1XqXrXrXrX3X( 4.z.rX-X3XyXyX-XtX3X-XyXuX3Xx 2XyXtXyX5XS.wXyXtX3X0XqX-XtXyXeXeX5XY.0XyX3Xz.uX3X( _.W.(.1Xq.l.T 8.#.q.0Xz.L $.J J J J J J J J J J J J J J L W L L L ..L ;.&.. * q 9 9 9 9 i ; +.VXNXVX,.; i 9 9 9 9 q , * 8 q u a a a a a a a a a a i 9 9 * , p q i i i i i i i i i i i i i p g q i i i i i i i i i i i i q g s q i i i i i i i i i i i i i g i i i i i i i i i i i i i i i ` fXs q i i i i i i i i i i q j P i i ",
"qXi.' 6.6.' 5XpXwX).!.S.qX3XV g./.0X0XqXk.x -XuXrXtX0X6.f.V.CXiX%Xo.-XqXqXV.qXiXwXuXiX3XrXyXyXiXyX2X).Z.uX2X( 3.z.iXe.9.0X2Xw.iX2X-XuXuXz.x 1XyXtXyXC.x wXuXiXyX5X0X3XrXqXyXuXS.C 3XyXrXwXeXqX-XiXkXW.`.v.$.-.1X#.q.iX-.L l.Q 3 J 3 a a a a a a a a a 3 J L S D D D D ;.&.. * q 9 9 9 9 i ; +.VXNXVX,.; i 9 9 9 9 q , * 8 q q J K K K G a K K K K i 9 9 * , p 8 9 9 9 9 9 9 9 9 9 9 9 9 9 9 p 8 9 9 9 9 9 9 9 9 9 9 9 9 8 p p 8 9 9 9 9 9 9 9 9 9 9 9 9 8 s 9 9 9 9 9 9 9 9 9 9 9 9 9 9 9 I fXq 8 9 9 9 9 9 9 9 9 9 9 j P 9 8 9 ",
";X' ' ' ' c 5XtXeXQ.(.iXyX5Xc _ k.2XyXeXh.x -XyXtXtX3X5.f.s.@XqX%Xo.3.qXwXx qXwX2XuXqXwX0XtXqXyXrXw.c ( qX2Xx ) r.4Xe.( 7.4._ iX-XC.qX1X9./ C.wXuXuXz.x 0XyXtX;X9.wXyX-Xr.tX0X6.c ;X4XtXyX5XeXyXtXwXL.Q.Q.j.oXiX$.w.iXoXP q.#.a a 4 3 3 3 3 3 3 3 3 3 3 3 L 3 S S D S ;.&.. * q 9 9 9 9 i ; +.VXNXVX,.; i 9 9 9 9 q , * 8 q u a a a a a a a a a a i 9 9 * , p * * * * * * * * * * * * * * 8 p * * * * * * * * * * * * * * i q * * * * * * * * * * * * * * p , * * * * * * * * * * * * * , I fX8 * * * * * * * * * * g s q 9 * * ",
"h.' ' ' ' c ;XuXkXW.4XiXyX5Xc 3.j.5.iX4Xg./ z.;X4X;X).5.f.x.1.wX1X2.8.v.y.x 4X5X1XyX3XuX1X1XC.uX0Xx 2.x 3X1Xx _ _ ' _ 3.7.9._ rX-X_ z.( _ _ ( V.uX-X9.x 3XrXkXY./ 0XyX-X4.V.h.6.) h./.rXyX-X).tX-X3X2XrXQ.W.J.8X-XiXyXC.P q.#.J J 3 3 3 3 3 3 3 3 3 3 3 3 L 5 S S D S ;.&.. * q 9 9 9 9 i ; +.VXNXVX,.; i 9 9 9 9 q , * 8 q q J K K K G a K K K K i 9 9 * , p * , , , , , , , , , , , , , 8 p * , , , , , , , , , , , 8 * p q * , , , , , , , , , , , , * p 8 , , , , , , , , , , , , * , I fX9 , 8 , , , , , , * g j * q 9 * , ",
"f.' ' ' ' c V.tXQ.`.4X3XiXS.( 3.j./ qX5X5._ / /./.( 6.6.f.x.+X-X-X2.8.2.2.) h.C -XqX1XuX-Xx e.uX3X( _ ( e.e.( _ _ ) _ 3.7.9._ -Xz.( ( _ _ _ ( C.iX9.( / 0X2Xc _ ( 0XuXC.3.5.h.5.) g.h.0XyX-X5.C.z.0X3XyXrX`.!.4X8XyXyX-XR q.#.L L 3 3 3 3 3 3 3 3 3 3 3 3 L 5 S S D S ;.&.. * q 9 9 9 9 i ; +.VXNXVX,.; i 9 9 9 9 q , * 8 q u a a a a a a a a a a i 9 9 * , p * , , , , , , , , , , , , * 8 p * , , , , , , , , , , , , * p q * , , , , , , , , , , , , * p 8 , , , , , , , , , , , , * , I fX9 , , , , , , , * g g , * i 9 * , ",
"6.' ' ' ' ' C.kX!.kXh.D.;XV 3.3.j.) z.e.3._ _ t.5.5.5.6.f.x.+X8.$.0.8.8.2.2.) _ 3.( 1XqX' ) 9.tX2X/ _ _ ( ( _ _ _ _ _ 3.7.9._ / ( _ _ _ _ _ ( C.iX9._ / 1X-X3._ ( 2XkXf.9.3.6._ ) g.C F.yXC.3./ e.wX0XuX2X3X(.W.kXyXyXiX$.8.#.E T a 3 3 3 3 3 3 3 3 3 3 3 L 5 S S D S ;.&.. * q 9 9 9 9 i ; +.VXNXVX,.; i 9 9 9 9 q , * 8 q q J K K K G a K K K K i 9 9 * , p * , , , , , , , , , , , , * 8 p * , , , , , , , , , , , , * p q * , , , , , , , , , , , , * p 8 , , , , , , , , , , , , * , I fX9 , , , , , , * g g * , * q 9 * , ",
"6.' ' ' ' ' j.Q.(.wX) 6.d.g._ 3.j.) ( 3.9._ _ t.5.5.5.6.f.x.+X0.$.0.8.2.2.3._ _ _ x C.-X/ ( 9.uX1Xx _ _ _ _ _ _ _ _ _ 3.7.9._ _ _ _ _ _ _ _ ( C.wX_ _ ( q.e.5._ _ 5.6.( 9.3.) _ ) i.g.k.tXD.7.) r.qXtXuXz.1XtX(.W.kX8XiX3X1X$.#.E J 3 3 3 3 3 3 3 3 3 3 3 L 5 S D D S ;.&.. * q 9 9 9 9 i ; +.VXNXVX,.; i 9 9 9 9 q , * 8 q u a a a a a a a a a a i 9 9 * , p * , , , , , , , , , , , , * 8 p * , , , , , , , , , , , , * p q * , , , , , , , , , , , , * p 8 , , , , , , , , , , , , * , I fX9 , , , , , * s g * , 8 * q 9 * , ",
"6.' ' ' g.' /.W.,XwX( 9.5.g._ 3.j.) _ 3.9._ _ t.5.5.5.6.f.x.+X0.$.0.8.2.2.2._ _ _ _ ( ( _ ( 3.1Xz.( _ _ _ _ _ _ _ _ _ 3.7.9._ _ _ _ _ _ _ _ 3.9.e._ _ ( q.e.5._ _ ) ) _ 9.3._ _ _ 9.( j.rXD.g.) c qXqXqXz.1XyX0X(.W.kX8XtXuXrX2XoXU L 2 3 2 3 4 3 a 4 3 3 S S K 6 D S ;.&.. * q 9 9 9 9 i ; +.VXNXVX,.; i 9 9 9 9 q , * 8 q q J K K K G a K K K K i 9 9 * , p * , , , , , , , , , , , , * 8 p * , , , , , , , , , , , , * p q * , , , , , , , , , , , , * p 8 , , , , , , , , , , , , * , I fX9 , , , , * s j * , , , * q 9 * , ",
"6.' ' ' h.f.Q.R.-X0Xx 9.6.g.) 3.j.) _ 3.9._ _ t.5.5.5.6.f.x.+X0.$.0.8.2.2.2._ _ _ _ _ _ _ _ 3.3.( _ _ _ _ _ _ _ _ _ _ 3.7.9._ _ _ _ _ _ _ _ 3.3.( _ _ ( q.e.5._ _ _ _ _ 9.3._ _ _ r._ t.qXN.d._ V 4X5X9.( -XyX3XrX(.W.kXyXjXeXaX3XR ) T G H 3 T T | H 4 T W T { D |.K :.&.. * q 9 9 9 9 i ; +.VXNXVX,.; i 9 9 9 9 q , * 8 q u a a a a a a a a a a i 9 9 * , p * , , , , , , , , , , , , * 8 p * , , , , , , , , , , , , * p q * , , , , , , , , , , , , * p 8 , , , , , , , , , , , , * , I fX9 , 8 , * s j , , 8 , , * q 9 * , ",
"6.' ' ' h.T.!.C ) 9.( 3.6.g.) 3.j.) _ 3.9._ _ t.5.5.5.6.f.x.+X0.$.0.8.2.2.2._ _ _ _ _ _ _ _ 3.9._ _ _ _ _ _ _ _ _ _ _ 3.7.9._ _ _ _ _ _ _ _ 3.3._ _ _ ( q.e.5._ _ _ _ _ 9.3._ _ _ r._ 3.k.6.h.g.g././.R x -XuX5X0X2X_.W.,X;X3XaXkXA.;X{ |.|.|.| H |.| ] | |.] |.| ;XK :.&.. * q 9 9 9 9 i ; +.VXNXVX,.; i 9 9 9 9 q , * 8 q q J K K K G a K K K K i 9 9 * , p * , , , , , , , , , , , , * 8 p * , , , , , , , , , , , , * p q * , , , , , , , , , , , , * p 8 , , , , , , , , , , , , * , I fX9 , 8 * s j , * * * , , * q 9 , , ",
"6.' ' ' h.Q.R.) _ ( _ 3.6.g.) 3.j.) _ 3.9._ _ t.5.5.5.6.f.x.+X0.$.0.8.2.2.2._ _ _ _ _ _ _ _ 3.3._ _ _ _ _ _ _ _ _ _ _ 3.7.9._ _ _ _ _ _ _ _ 3.3._ _ _ ( q.e.5._ _ _ _ _ 9.3._ _ _ r._ 3.h.6.h.h.d.d.i.5.) 6.eX1X_.p.wX_.W.).2XaXeXjX;Xe.|.] Q { ] { ] |.Q { { |.Q { W :.&.. * q 9 9 9 9 i ; +.VXNXVX,.; i 9 9 9 9 q , * 8 q u a a a a a a a a a a i 9 9 * , p * , , , , , , , , , , , , * 8 p * , , , , , , , , , , , , * p q * , , , , , , , , , , , , * p 8 , , , , , , , , , , , , * , I fX9 , * p j , * 0 s u * , , i 9 * @ ",
"6.' ' ' R.!.h.) _ _ _ 3.6.g.) 3.j.) _ 3.9._ _ t.5.5.5.6.f.x.+X0.$.0.8.2.2.2._ _ _ _ _ _ _ _ 3.3._ _ _ _ _ _ _ _ _ _ _ 3.7.9._ _ _ _ _ _ _ _ 3.3._ _ _ ( q.e.5._ _ _ _ _ 9.3._ _ _ r._ 3.h.5.g.h.g.g.i.d.) 3.)./.E.c 1XyX(.`.5XaXpXeXZ.#.| { Q |.] ] ] Q | | Q { | |.K ;.&.. * q 9 9 9 9 i ; +.VXNXVX,.; i 9 9 9 9 q , * 8 q q J K K K G a K K K K i 9 9 * , p * , , , , , , , , , , , , * 8 p * , , , , , , , , , , , , * p q * , , , , , , , , , , , , * p 8 , , , , , , , , , , , , * , I fX9 * s j , , f ] ` ] T @ # 0 9 2 D ",
"6.' ' g.!.R.9._ _ _ _ 9.g.f.) 5.j.) _ 3.r._ _ t.5.5.5.6.f.x.+X0.$.0.8.8.2.3._ _ _ _ _ _ _ _ 3.9._ _ _ _ _ _ _ _ _ _ _ 3.7.9._ _ _ _ _ _ _ _ 3.9._ _ _ ( q.e.r._ _ _ _ _ r.3._ _ _ r._ _ h.5.i.d.6.g.j.d._ 9.h.d.9.x -XiX0XR.!.eX8XqXl.e.Q J a 3 3 3 3 3 3 L 5 S D D S ;.&.. * q 9 9 9 9 i ; +.VXNXVX,.; i 9 9 9 9 q , * 8 q u a a a a a a a a a a i 9 9 * , p * , , , , , , , , , , , , * 8 p * , , , , , , , , , , , , * p q * , , , , , , , , , , , , * p 8 , , , , , , , , , , , , * , I fX8 p j 8 * r ] H OX~ ~ &.:.mXMXMXZX",
"6.' ( E.!.C 2./ / / / 4.d.7.Y 4.g./ / 4.4./ / 9.4.4.4.5.6.s.+XO.O.O.o.o.4./ / / / / / / / / 4.4./ / / / / / / / / / / 4.7.2./ / / / / / / / 4.4./ / / x 0.8.4./ / / / / 3.4./ / / 3./ / g.4.3.4.4.g.7.C V 3.2.Y / x 8.e.) 4.~.Q.qXyXwX$.L L 5 7 4 4 4 4 2 S 7 6 6 D 6 :.&.. * q 9 9 9 9 i ; +.VXNXVX,.; i 9 9 9 9 q , * 8 q q J K J K G a K K K K i 9 9 * , p * , , , , , , , , , , , , * 8 p * , , , , , , , , , , , , * p q * , , , , , , , , , , , , * p 8 , , , , , , , , , , , , * , I fXj j @ @ 2 0.T XXPXiX-.SXMXmX+X*...",
"Z.} k.`.(.A.Z.} } } } A.).A.} A.D.} } A.A.} } Z.A.A.A.A.A.D.@XN.C.N.A.A.A.A.} } } } } } } } A.A.} } } } } } } } } } } A.D.A.} } } } } } } } A.A.} } } } Z.Z.A.} } } } } A.A.} } } A.A.A.A.A.A.} A.D.D.).A.A.A.} } } } } } } A.`._.pXaX;X{ C.{ Q Q Q Q Q ] { Q Q ~ ~ ~ @X&.. * q 9 9 9 9 i ; +.VXNXVX,.; i 9 9 9 9 q , * 8 q u a a a a a a a a a a i 9 9 * , p * , , , , , , , , , , , , * 8 p * , , , , , , , , , , , , * p q * , , , , , , , , , , , , * p 8 , , , , , , , , , , , , * < I fXf < ..mXAXVX-.^ yX&XQ +.1 0 ; # @ ",
"xXxXxXvXxXxXxXxXxXxXxXxXxXxXxXxXxXxXxXxXxXxXxXxXxXxXxXxXxXxXxXxXxXxXxXxXxXxXxXxXxXxXxXxXxXxXxXxXxXxXxXxXxXxXxXxXxXxXxXxXxXxXxXxXxXxXxXxXxXxXxXxXxXxXxXxXxXxXxXxXxXxXxXxXxXxXxXxXxXxXxXxXxXxXxXxXxXxXxXxXxXxXxXxXxXxXxXxXxXxXxXxXvXxXxXxXxXxXxXxXxXxXxXxXxXxXxXxXxXxXxXzX%.. * q 9 9 9 9 i ; +.VXNXVX,.; i 9 9 9 9 q , * 8 q q G K J K G a K J J K i 9 9 * , p * 8 , , , , , , , , , , , , 8 p * 8 , , , , , , , , , , 8 * p i * 8 , , , , , , , , , , 8 , p 8 , , , , , , , , , , , 8 , , ` fX*.MXZXMX:.L ' Q W Q ] 9 o i 9 , < ",
"D.).`._.D.D.D.Z.Z.Z.Z.D.).Z.Z.D.D.Z.Z.Z.D.Z.Z.D.D.D.D.D.D.J.@XZ.V.Z.Z.Z.Z.Z.Z.Z.Z.Z.Z.Z.Z.Z.Z.Z.Z.Z.Z.Z.Z.Z.Z.Z.Z.Z.Z.Z.D.Z.Z.Z.Z.Z.Z.Z.Z.Z.Z.Z.Z.Z.Z.Z.D.D.Z.Z.Z.Z.Z.Z.D.Z.Z.Z.Z.D.Z.Z.Z.Z.D.Z.Z.).).).).).D.D.Z.Z.Z.Z.Z.Z.Z.Z.).`.kXtXaX-Xz.{ { { { { { z.z.z.z.C.z.@X&.. * q 9 9 9 9 i ; +.VXNXVX,.; i 9 9 9 9 q , * 8 q u a a a a a a a a a a i 9 9 * , p s g s s s s s s s s s s s s g j s s s s s s s s s s s s s s j j s s s s s s s s s s s s s s j g s s s s s s s s s s s g s f %.MXZXmX%.s 0 p f _ _ _ P s s j j s s ",
"6.~.Q.g.7.g.7./ / / 7.d.g./ / 4.g./ / 4.3./ / r.4.4.4.5.' s.+XO.O.O.o.o.4./ / / / / / / / / 4.4./ / / / / / / / / / / 4.7.2./ / / / / / / / 4.4./ / / x 0.8.4./ / / / / 3.4./ / / 3./ / / / 3./ / 7.h.7.C d.7.C 4./ / / / / / / Y E.W.3X8XN.h 7 7 4 7 4 2 S 7 6 7 6 6 :.&.. * q 9 9 9 9 i ; +.VXNXVX,.; i 9 9 9 9 q , * 8 q q G J J K G a K J J J i 9 9 * , p * , , , , , , , , , , , , * 8 p * , , , , , , , , , , , , * i q * , , , , , , , , , , , , * p 8 * , , , , , , , , , , @ p mXZXCX..o @ * , , * * , * * , * q 9 * , ",
"/.!.d.6.6.g.i._ _ 5.d.h.g.) _ 5.j.) _ 3.r._ _ t.5.5.5.6.f.x.+X0.$.0.8.8.2.3._ _ _ _ _ _ _ _ 3.9._ _ _ _ _ _ _ _ _ _ _ 3.7.9._ _ _ _ _ _ _ _ 3.9._ _ _ ( q.e.r._ _ _ _ _ r.3._ _ _ r._ _ _ _ r._ _ 5.i._ 6.g.g.h.5.) f.5._ _ _ _ _ D.Q.'.pX4XP 3 Q G Q 3 a S K W { { S ;.&.. * q 9 9 9 9 i ; +.VXNXVX,.; i 9 9 9 9 q , * 8 q u a G a G a a G a a G i 9 9 * , p * , , , , , , , , , , , , , 8 p * , , , , , , , , , , , , * p q * , , , , , , , , , , , , * p 8 , , , , , , , , , , # ..MXAX,.fX: , , , , , 8 , , , , , * i 9 * , ",
"Q.R.R g.6.6.d._ _ 6.d.g.6.) _ 3.j.) _ 3.9._ _ t.5.5.5.6.f.x.+X0.$.0.8.2.2.2._ _ _ _ _ _ _ _ 3.3._ _ _ _ _ _ _ _ _ _ _ 3.7.9._ _ _ _ _ _ _ _ 3.3._ _ _ ( q.e.5._ _ _ _ _ 9.3._ _ _ r._ _ _ _ r._ _ _ 9._ ) g.d.d.g.6.d.5.) _ _ / ' | ).Q.kXtXL Q |.Q |.a 3 { |.{ |.|.Q :.&.. * q 9 9 9 9 i ; +.VXNXVX,.; i 9 9 9 9 q , * 8 q q G J J J G a J J J J i 9 9 * , p * , , , , , , , , , , , , * 8 p * , , , , , , , , , , , , * p q * , , , , , , , , , , , , * p 8 , , , , , , , , , @ *.ZXMXD x fX9 , , , , , , , , , , , * q 9 * , ",
"!.f.) g.6._ h._ ) g.d.5.3._ _ 3.j.) _ 3.9._ _ t.5.5.5.6.f.x.+X0.$.0.8.2.2.2._ _ _ _ _ _ _ _ 3.3._ _ _ _ _ _ _ _ _ _ _ 3.7.9._ _ _ _ _ _ _ _ 3.3._ _ _ ( q.e.5._ _ _ _ _ 9.3._ _ _ r._ _ _ _ r._ _ _ r._ ) g.h.d.h.h.d.5.) _ _ _ / i.} /.'.eX2X| | a { a Q | | { |.|.W :.&.. * q 9 9 9 9 i ; +.VXNXVX,.; i 9 9 9 9 q , * 8 q u a G G G a a G G G G i 9 9 * , p * , , , , , , , , , , , , * 8 p * , , , , , , , , , , , , * p q * , , , , , , , , , , , , * p 8 , , , , , , , * @ :.GX;., ; I fX9 , , , , , , , , , , , * q 9 * , ",
"T.R _ g.5._ d.5.6.d.g.5.3._ _ 3.j.) _ 3.9._ _ t.5.5.5.6.f.x.+X0.$.0.8.2.2.2._ _ _ _ _ _ _ _ 3.3._ _ _ _ _ _ _ _ _ _ _ 3.7.9._ _ _ _ _ _ _ _ 3.3._ _ _ ( q.e.5._ _ _ _ _ 9.3._ _ _ r._ _ _ _ r._ _ _ r._ ) g.h.d.d.h.h.5.) _ _ Z.} dX] 5.'.'.qX|.jXT | a Q { { { { { { :.&.. * q 9 9 9 9 i ; +.VXNXVX,.; i 9 9 9 9 q , * 8 q q G J J J G a J J J J i 9 9 * , p * , , , , , , , , , , , , * 8 p * , , , , , , , , , , , , * p q * , , , , , , , , , , , , * p 8 , , , , , , ; , +XGX*.; * < I fX9 , , , , , , , , , , , * q 9 * , ",
"5.) _ g.5._ d.g.h.d.5.3.3._ _ 3.j.) _ 3.9._ _ t.5.5.5.6.f.x.+X0.$.0.8.2.2.2._ _ _ _ _ _ _ _ 3.3._ _ _ _ _ _ _ _ _ _ _ 3.7.9._ _ _ _ _ _ _ _ 3.3._ _ _ ( q.e.5._ _ _ _ _ 9.3._ _ _ r._ _ _ _ r._ _ _ r._ ) 6.h.g.d.h.h.g._ _ _ / } dXZ.| kX`._.L ] a Q a 3 { { W |.{ K ;.&.. * q 9 9 9 9 i ; +.VXNXVX,.; i 9 9 9 9 q , * 8 q u a G G G a a G G G G i 9 9 * , p * , , , , , , , , , , , , * 8 p * , , , , , , , , , , , , * p q * , , , , , , , , , , , , * p 8 , , , , , * , mXGX*.# , , , I fX9 , , , , , , , , , , , * q 9 * , ",
"8._ 3.d._ ) g.d.h.d._ 3.3._ _ 3.j.) _ 3.9._ _ t.5.5.5.6.f.x.+X0.$.0.8.2.2.2._ _ _ _ _ _ _ _ 3.3._ _ _ _ _ _ _ _ _ _ _ 3.7.9._ _ _ _ _ _ _ _ 3.3._ _ _ ( q.e.5._ _ _ _ _ 9.3._ _ _ r._ _ _ _ r._ _ _ r._ ( r.g.f.d.d.h.h._ _ _ _ / / ) x 1X_.W.7.W J 4 3 3 S 7 S 6 D S ;.&.. * q 9 9 9 9 i ; +.VXNXVX,.; i 9 9 9 9 q , * 8 q q G J G J a a J G G J i 9 9 * , p * , , , , , , , , , , , , * 8 p * , , , , , , , , , , , , * p q * , , , , , , , , , , , , * p 8 , , , , * * +XGX..# , , * , I fX9 , , , , , , , , , , , * q 9 * , ",
"r.) 5.d._ ) g.h.h.d._ 3.3._ _ 3.j.) _ 3.9._ _ t.5.5.5.6.f.x.+X0.$.0.8.2.2.2._ _ _ _ _ _ _ _ 3.3._ _ _ _ _ _ _ _ _ _ _ 3.7.9._ _ _ _ _ _ _ _ 3.3._ _ _ ( q.e.5._ _ _ _ _ 9.3._ _ _ r._ _ _ _ r._ _ _ r._ ( r.3.' d.g.h.d.5._ _ _ _ _ _ ) /._.Q.Q./.L 3 3 3 L S S D D S ;.&.. * q 9 9 9 9 i ; +.VXNXVX,.; i 9 9 9 9 q , * 8 q u G G G G a a G G G G i 9 9 * , p * , , , , , , , , , , , , * 8 p * , , , , , , , , , , , , * p q * , , , , , , , , , , , , * p 8 , , , * * +XGX..# < , , * , I fX9 , , , , , , , , , , , * q 9 * , ",
"r.) 5.g._ ) g.h.h.d._ 3.3._ _ 3.j.) _ 3.9._ _ t.5.5.5.6.f.x.+X0.$.0.8.2.2.2._ _ _ _ _ _ _ _ 3.3._ _ _ _ _ _ _ _ _ _ _ 3.7.9._ _ _ _ _ _ _ _ 3.3._ _ _ ( q.e.5._ _ _ _ _ 9.3._ _ _ r._ _ _ _ r._ _ _ r._ ( r.3._ d.g.h.h.5.) _ _ _ _ _ ) C A.kXW._.Q 2 3 3 L 5 S S D S ;.&.. * q 9 9 9 9 i ; +.VXNXVX,.; i 9 9 9 9 q , * 8 q u G G G G a a G G G G i 9 9 * , p * , , , , , , , , , , , , * 8 p * , , , , , , , , , , , , * p q * , , , , , , , , , , , , * p 8 , , * * +XGX*.# < , , , * , I fX9 , , , , , , , , , , , * q 9 * , ",
"9.) 6.g._ ) g.h.h.g.) 3.3._ _ 3.j.) _ 3.9._ _ t.5.5.5.6.f.x.+X0.$.0.8.2.2.2._ _ _ _ _ _ _ _ 3.3._ _ _ _ _ _ _ _ _ _ _ 3.7.9._ _ _ _ _ _ _ _ 3.3._ _ _ ( q.e.5._ _ _ _ _ 9.3._ _ _ r._ _ _ _ r._ _ _ r._ ( r.3._ 6.6.h.h.g.6._ _ _ _ _ _ / e.rX`.Q.k.4 3 3 L 5 S S D S ;.&.. * q 9 9 9 9 i ; +.VXNXVX,.; i 9 9 9 9 q , * 8 q u G G G G a a J G G G i 9 9 * , p * , , , , , , , , , , , , * 8 p * , , , , , , , , , , , , * p q * , , , , , , , , , , , , * p 8 , , * +XGX*.# , , , , , * , I fX9 , , , , , , , , , , , * q 9 * , ",
"9.) 6.g.) ) g.d.d.g.) 3.3._ _ 3.j.) _ 3.9._ _ t.5.5.5.6.f.x.+X0.$.0.8.2.2.2._ _ _ _ _ _ _ _ 3.3._ _ _ _ _ _ _ _ _ _ _ 3.7.9._ _ _ _ _ _ _ _ 3.3._ _ _ ( q.e.5._ _ _ _ _ 9.3._ _ _ r._ _ _ _ r._ _ _ r._ ( r.3._ 5.6.h.h.h.h.3._ _ _ _ _ ( r.iX4XW.L.S 2 3 L 5 S S D S ;.&.. * q 9 9 9 9 i ; +.VXNXVX,.; i 9 9 9 9 q , * 8 q u G G G G a a G G G G i 9 9 * , p * , , , , , , , , , , , , * 8 p * , , , , , , , , , , , , * p q * , , , , , , , , , , , , * p 8 , # ;.GX*.# , , , , , , * , I fX9 , , , , , , , , , , , * q 9 * , ",
"9.) f.f.) ) i.d.6.6.) 3.3._ _ 3.j.) _ 3.9._ _ t.5.5.5.6.f.x.+X0.$.0.8.2.2.2._ _ _ _ _ _ _ _ 3.3._ _ _ _ _ _ _ _ _ _ _ 3.7.9._ _ _ _ _ _ _ _ 3.3._ _ _ ( q.e.5._ _ _ _ _ 9.3._ _ _ r._ _ _ _ r._ _ _ r._ ( r.3._ _ _ 6.d.d.g.f.) _ _ _ _ ( 9.rXyX`.Q.S 2 3 L 5 S S D S ;.&.. * q 9 9 9 9 i ; +.VXNXVX,.; i 9 9 9 9 q , * 8 q q G J G J G a J G J J i 9 9 * , p * , , , , , , , , , , , , * 8 p * , , , , , , , , , , , , * p q * , , , , , , , , , , , , * p 8 @ ;.GX*.# , , , , , , , * , I fX9 , , , , , , , , , , , * q 9 * , ",
"9._ d.5._ _ r.6.3.3.) 3.3._ _ 3.j.) _ 3.9._ _ t.5.5.5.6.f.x.+X0.$.0.8.2.2.2._ _ _ _ _ _ _ _ 3.3._ _ _ _ _ _ _ _ _ _ _ 3.7.9._ _ _ _ _ _ _ _ 3.3._ _ _ ( q.e.5._ _ _ _ _ 9.3._ _ _ r._ _ _ _ r._ _ _ r._ ( r.3._ _ _ ) 6.d.5.d.3._ _ _ _ ) ' _.tXkXW.V 4 a L 5 S S D S ;.&.. * q 9 9 9 9 i ; +.VXNXVX,.; i 9 9 9 9 q , * 8 q u a G G G a a G G G G i 9 9 * , p * , , , , , , , , , , , , * 8 p * , , , , , , , , , , , , * p q * , , , , , , , , , , , , , p @ ;.GX*.# , , , , , , , , * , I fX9 , , , , , , , , , , , * q 9 * , ",
"9.5.g.) _ _ r._ _ _ _ 3.3._ _ 3.j.) _ 3.9._ _ t.5.5.5.6.f.x.+X0.$.0.8.8.2.3._ _ _ _ _ _ _ _ 3.3._ _ _ _ _ _ _ _ _ _ _ 3.7.9._ _ _ _ _ _ _ _ 3.3._ _ _ ( q.e.5._ _ _ _ _ 9.3._ _ _ r._ _ _ _ r._ _ _ r._ ( r.3._ _ _ ) 6.d._ g.5.) _ _ _ _ _ E.eXkX!.R.4 3 L 5 S S D S ;.&.. * q 9 9 9 9 i ; +.VXNXVX,.; i 9 9 9 9 q , * 8 q q G J J J G a J J J J i 9 9 * , p * 8 , , , , , , , , , , , , 8 p * , , , , , , , , , , , 8 * p q * , , , , , , , , , , , , , 0 ;.GX*.# , , , , , , , , , * , I fX9 , 8 , , , , , , , , , * i 9 * , ",
"5.g.6.) _ _ r._ _ _ ( 3.3.( ) 3.j.) _ 3.9.( ( t.5.5.5.6.' x.+X$.$.8.8.2.2._ _ _ _ _ _ _ _ ( 3.3.( _ _ _ _ _ _ _ _ _ _ 3.7.9.( _ _ _ _ _ _ ( 3.3.( _ _ ( q.e.5._ _ _ _ ( 9.3._ _ _ 9._ _ _ _ r._ _ _ r._ ( r.3.( _ _ ) 5.d.) f.d.6.) _ _ _ _ C qX1X_.!.x 3 L 3 S S D S ;.&.. * q 9 9 9 9 i ; +.VXNXVX,.; i 9 9 9 9 q , * 8 q u a G G G a a G G G G i 9 9 * , p * , * * * * * * * * * * * * 8 p * , * * * * * * * * * * , * i q * , * * * * * * * * * , , # ;.GX*.# , , * * * * * * * * * , I fX9 * * * * * * * * * * , * q 9 * * ",
"i.d.r.9.r.r.t.r.r.r.9.t.r.9.9.t.j.9.r.r.t.9.r.y.t.i.i.i.g.c.+Xw.w.w.w.w.9.9.r.r.r.r.r.r.r.9.r.t.9.r.r.r.r.r.r.r.r.r.9.r.a.t.r.r.r.r.r.r.r.9.r.t.9.r.r.5.l.w.t.9.r.r.r.9.t.r.r.r.9.t.r.r.r.r.t.r.r.r.t.r.9.t.t.9.r.r.9.r.i.9.g.h.g.9.r.r.r.9.3.2X-X5X`.Y.D W L L @.@.W +X&.. * q 9 9 9 9 i ; +.VXNXVX,.; i 9 9 9 9 q , * 8 q q G J J J G a J J J J i 9 9 * , p i p p p p p p p p p p p p p p g p p p p p p p p p p p p p i j g p p p p p p p p p p p p 0 >.ZX*.0 p p p p p p p p p p p p p ` fXs p p p p p p p p p p p p g s p p ",
"g.6.) _ _ _ r._ _ _ _ 3.3._ _ 3.j.) _ 3.9._ _ t.5.5.5.6.f.x.+X0.$.0.8.8.2.3._ _ _ _ _ _ _ _ 3.9._ _ _ _ _ _ _ _ _ _ _ 3.7.9._ _ _ _ _ _ _ _ 3.3._ _ _ ( q.e.5._ _ _ _ _ 9.3._ _ _ r.3._ _ _ r._ _ _ r._ _ r.3._ _ _ _ _ _ ) 6.h.g._ _ _ _ _ _ ( x 1XkX~.h L 5 S D D S ;.&.. * q 9 9 9 9 i ; +.VXNXVX,.; i 9 9 9 9 q , * 8 q u a a a G a a G a a G i 9 9 * , p * 8 8 8 8 8 8 8 8 8 8 8 8 , 8 p , 8 8 8 8 8 8 8 8 8 8 8 8 * p i * 8 8 8 8 8 8 8 8 8 8 @ >.GX>.@ 8 8 8 8 8 8 8 8 8 8 8 8 8 8 I fX9 , 8 8 8 8 8 8 8 8 8 8 * i 9 , 8 ",
"g.6.) _ _ _ r._ _ _ ( 3.3._ _ 3.j.) _ 3.9._ _ t.5.5.5.6.f.x.+X0.$.0.8.2.2.2._ _ _ _ _ _ _ _ 3.3.( _ _ _ _ _ _ _ _ _ _ 3.7.9._ _ _ _ _ _ _ _ 3.3.( _ _ ( q.e.5._ _ _ _ _ 9.3._ _ _ r._ _ _ _ r._ _ _ r._ ( r.3._ _ _ _ _ _ ) 6.h.g.) _ _ _ _ _ _ x 1X5XW.C D 5 S S D S ;.&.. * q 9 9 9 9 i ; +.VXNXVX,.; i 9 9 9 9 q , * 8 q q G J J K G a K J J J i 9 9 * , p * , , , , , , , , , , , , * 8 p * , , , , , , , , , , , , * p q * , , , , , , , , , @ :.GX*.0 8 , , , , , , , , , , , , * , I fX9 * , , , , , , , , , , * q 9 * , ",
"g.5.) _ _ _ r._ _ _ _ 3.3._ _ 3.j.) _ 3.9._ _ t.5.5.5.6.f.x.+X0.$.0.8.2.2.2._ _ _ _ _ _ _ _ 3.3._ _ _ _ _ _ _ _ _ _ _ 3.7.9._ _ _ _ _ _ _ _ 3.3._ _ _ ( q.e.5._ _ _ _ _ 9.3._ _ _ r._ _ _ _ r._ _ _ r._ ( r.3._ _ _ _ _ _ ) 6.h.d.6._ _ _ _ _ _ x 1X1X~.R.D 5 S S D S ;.&.. * q 9 9 9 9 i ; +.VXNXVX,.; i 9 9 9 9 q , * 8 q u a a a a a a a a a a i 9 9 * , p * , , , , , , , , , , , , * 8 p * , , , , , , , , , , , , * p q * , , , , , , , , @ :.ZX*.@ p 8 , , , , , , , , , , , , * , I fX9 , , , , , , , , , , , * q 9 * , ",
"d.5._ _ _ _ r._ _ _ _ 3.3._ _ 3.j.) _ 3.9._ _ t.5.5.5.6.f.x.+X0.$.0.8.2.2.2._ _ _ _ _ _ _ _ 3.3._ _ _ _ _ _ _ _ _ _ _ 3.7.9._ _ _ _ _ _ _ _ 3.3._ _ _ ( q.e.5._ _ _ _ _ 9.3._ _ _ r._ _ _ _ r._ _ _ r._ ( r.3._ _ _ _ _ _ _ _ 6.h.d._ _ _ _ _ _ x -XwXA !.O.6 S S D S ;.&.. * q 9 9 9 9 i ; +.VXNXVX,.; i 9 9 9 9 q , * 8 q q G K J K G a K J J K i 9 9 * , p * , , , , , , , , , , , , * 8 p * , , , , , , , , , , , , * p q * , , , , , , , @ :.GX>.@ , p 8 , , , , , , , , , , , , * , I fX9 , , , , , , , , , , , * q 9 * , ",
"h._ _ _ _ _ r._ _ _ _ 3.3._ _ 3.j.) _ 3.9._ _ t.5.5.5.6.f.x.+X0.$.0.8.2.2.2._ _ _ _ _ _ _ _ 3.3._ _ _ _ _ _ _ _ _ _ _ 3.7.9._ _ _ _ _ _ _ _ 3.3._ _ _ ( q.e.5._ _ _ _ _ 9.3._ _ _ r._ _ _ _ r._ _ _ r._ ( r.3._ _ _ _ _ _ _ ) _ h.d._ _ _ _ _ _ x -X3X& !.C S S S D S ;.&.. * q 9 9 9 9 i ; +.VXNXVX,.; i 9 9 9 9 q , * 8 q u a a a a a a a a a a i 9 9 * , p * , , , , , , , , , , , , * 8 p * , , , , , , , , , , , , * p q * , , , , , , @ :.GX;.* , , p 8 , , , , , , , , , , , , * , I fX9 , , , , , , , , , , , * q 9 * , ",
"g.) _ _ _ _ r._ _ _ _ 3.3._ _ 3.j.) _ 3.9._ _ t.5.5.5.6.f.x.+X0.$.0.8.2.2.2._ _ _ _ _ _ _ _ 3.3._ _ _ _ _ _ _ _ _ _ _ 3.7.9._ _ _ _ _ _ _ _ 3.3._ _ _ ( q.e.5._ _ _ _ _ 9.3._ _ _ r._ _ _ _ r._ _ _ r._ ( r.3._ _ _ _ _ _ _ _ _ g.d._ _ _ _ _ _ x -XqXG R.R.S S S D S ;.&.. * q 9 9 9 9 i ; +.VXNXVX,.; i 9 9 9 9 q , * 8 q q J K K K G a K K K K i 9 9 * , p * , , , , , , , , , , , , * 8 p * , , , , , , , , , , , , * p q * , , , , , @ :.GX;.; * , * p 8 , , , , , , , , , , , , * , I fX9 , , , , , , , , , , , * q 9 * , ",
"6.) _ _ _ _ r._ _ _ _ 3.3._ _ 3.j.) _ 3.9._ _ t.5.5.5.6.f.x.+X0.$.0.8.2.2.2._ _ _ _ _ _ _ _ 3.3._ _ _ _ _ _ _ _ _ _ _ 3.7.9._ _ _ _ _ _ _ _ 3.3._ _ _ ( q.e.5._ _ _ _ _ 9.3._ _ _ r._ _ _ _ r._ _ _ r._ ( r.3._ _ _ _ _ _ _ _ _ 3.d.6._ _ _ _ _ / C.uX&XY.Q.h S S D S ;.&.. * q 9 9 9 9 i ; +.VXNXVX,.; i 9 9 9 9 q , * 8 q u a a a a a a a a a a i 9 9 * , p * , , , , , , , , , , , , * 8 p * , , , , , , , , , , , , * p q * , , , , @ >.GX;.; * , , * p 8 , , , , , , , , , , , , * , I fX9 , , , , , , , , , , , * q 9 * , ",
"5.) _ _ _ _ r._ _ _ _ 3.3._ _ 3.j.) _ 3.9._ _ t.5.5.5.6.f.x.+X0.$.0.8.2.2.2._ _ _ _ _ _ _ _ 3.3._ _ _ _ _ _ _ _ _ _ _ 3.7.9._ _ _ _ _ _ _ _ 3.3._ _ _ ( q.e.5._ _ _ _ _ 9.3._ _ _ r._ _ _ _ r._ _ _ r._ ( r.3._ _ _ _ _ _ _ _ _ _ d.d._ _ _ _ _ / C.uX&Xn Q.V S S D S ;.&.. * q 9 9 9 9 i ; +.VXNXVX,.; i 9 9 9 9 q , * 8 q q J K K K G a K K K K i 9 9 * , p * , , , , , , , , , , , , * 8 p * , , , , , , , , , , , , * p q * , , , @ *.GX;.; * , , , * p 8 , , , , , , , , , , , , * , I fX9 , , , , , , , , , , , * q 9 * , ",
"5.) _ _ _ _ r._ _ _ _ 3.3._ _ 3.j.) _ 3.9._ _ t.5.5.5.6.f.x.+X0.$.0.8.2.2.2._ _ _ _ _ _ _ _ 3.3._ _ _ _ _ _ _ _ _ _ _ 3.7.9._ _ _ _ _ _ _ _ 3.3._ _ _ ( q.e.5._ _ _ _ _ 9.3._ _ _ r._ _ _ _ r._ _ _ r._ ( r.3._ _ _ _ _ _ _ _ _ _ g.d.5._ _ _ _ ) 6.eX&X% Q.T.S S D S ;.&.. * q 9 9 9 9 i ; +.VXNXVX,.; i 9 9 9 9 q , * 8 q u a a a a a a a a a a i 9 9 * , p * , , , , , , , , , , , , * 8 p * , , , , , , , , , , , , * p q * , , @ *.GX;.; * , , , , * p 8 , , , , , , , , , , , , * , I fX9 , , , , , , , , , , , * q 9 * , ",
"9._ _ _ _ _ r._ _ _ _ 3.3._ _ 3.j.) _ 3.9._ _ t.5.5.5.6.f.x.+X0.$.0.8.2.2.2._ _ _ _ _ _ _ _ 3.3._ _ _ _ _ _ _ _ _ _ _ 3.7.9._ _ _ _ _ _ _ _ 3.3._ _ _ ( q.e.5._ _ _ _ _ 9.3._ _ _ r._ _ _ _ r._ _ _ r._ ( r.3._ _ _ _ _ _ _ _ _ _ 7.d.g._ _ _ _ _ x V.2X= T.R.S S D S ;.&.. * q 9 9 9 9 i ; +.VXNXVX,.; i 9 9 9 9 q , * 8 q q J K K K G a K K K K i 9 9 * , p * , , , , , , , , , , , , * 8 p * , , , , , , , , , , , , * p q * , @ *.GX;.; * , , , , , * p 8 , , , , , , , , , , , , * , I fX9 , , , , , , , , , , , * q 9 * , ",
"9._ _ _ _ _ r._ _ _ _ 3.3._ _ 3.j.) _ 3.9._ _ t.5.5.5.6.f.x.+X0.$.0.8.2.2.2._ _ _ _ _ _ _ _ 3.3._ _ _ _ _ _ _ _ _ _ _ 3.7.9._ _ _ _ _ _ _ _ 3.3._ _ _ ( q.e.5._ _ _ _ _ 9.3._ _ _ r._ _ _ _ r._ _ _ r._ ( r.3._ _ _ _ _ _ _ _ _ _ _ g.d._ _ _ _ _ x -X3X< C Q.U D D S ;.&.. * q 9 9 9 9 i ; +.VXNXVX,.; i 9 9 9 9 q , * 8 q u a a a a a a a a a a i 9 9 * , p * , , , , , , , , , , , , * 8 p * , , , , , , , , , , , , * p i * @ *.GX;.; * , , , , , , * p 8 , , , , , , , , , , , , * , I fX9 , , , , , , , , , , , * q 9 * , ",
"9._ _ _ _ _ r._ _ _ _ 3.3._ _ 3.j.) _ 3.9._ _ t.5.5.5.6.f.x.+X0.$.0.8.2.2.2._ _ _ _ _ _ _ _ 3.3._ _ _ _ _ _ _ _ _ _ _ 3.7.9._ _ _ _ _ _ _ _ 3.3._ _ _ ( q.e.5._ _ _ _ _ 9.3._ _ _ r._ _ _ _ r._ _ _ r._ ( r.3._ _ _ _ _ _ _ _ _ _ ) 6.d.3._ _ _ _ x C.wXp x Q.V D D S ;.&.. * q 9 9 9 9 i ; +.VXNXVX,.; i 9 9 9 9 q , * 8 q q J K K K G a K K K K i 9 9 * , p * , , , , , , , , , , , , * 8 p * , , , , , , , , , , , , * p i . ..ZX;.; * , , , , , , , * p 8 , , , , , , , , , , , , * , I fX9 , , , , , , , , , , , * q 9 * , ",
"9._ _ _ _ _ r._ _ _ _ 3.3._ _ 3.j.) _ 3.9._ _ t.5.5.5.6.f.x.+X0.$.0.8.8.2.3._ _ _ _ _ _ _ _ 3.3._ _ _ _ _ _ _ _ _ _ _ 3.7.9._ _ _ _ _ _ _ _ 3.3._ _ _ ( q.e.5._ _ _ _ _ 9.3._ _ _ r._ _ _ _ r._ _ _ r._ ( r.3._ _ _ _ _ _ _ _ _ _ _ ) g.5.) _ _ _ x C.wXs p Q.T.D D S ;.&.. * q 9 9 9 9 i ; +.VXNXVX,.; i 9 9 9 9 q , * 8 q u a a a a a a a a a a i 9 9 * , p * , , , , , , , , , , , , , 8 p * , , , , , , , , , , , 8 * p 0 ..ZX+X; * , , , , , , , , * p 8 , , , , , , , , , , , , * , I fX9 , 8 , , , , , , , , , * i 9 * , ",
"3.( _ _ _ _ 9._ _ _ ( 3.3.( ) 3.j.) _ 3.9.( ( t.5.5.5.5.' x.+X$.$.#.8.2.2._ _ _ _ _ _ _ _ ( 3.3.( _ _ _ _ _ _ _ _ _ ) 4.7.9.( _ _ _ _ _ _ ( 3.3.( _ _ ( q.e.5.) _ _ _ ( 9._ ( _ ( 9._ _ _ _ 9._ _ _ 9._ ( r.3.( _ _ _ _ _ _ _ _ _ _ ) f.g._ _ _ _ x C.wXj 2 T.R.S D S ;.&.. * q 9 9 9 9 i ; +.VXNXVX,.; i 9 9 9 9 q , * 8 q q J K K K G a K K K K i 9 9 * , p * * * * * * * * * * * * * * 8 p * * * * * * * * * * * * * * 0 *.ZX;.o * , * * * * * * * * * p , * * * * * * * * * * * * * , I fX8 * * * * * * * * * * * * q 9 * * ",
"r.3.3.3.3.3.r.3.3.3.3.r.9.3.3.5.j._ 3.3.r.3.3.t.5.5.6.6.f.x.+X0.q.0.0.8.9.3.3.3.3.3.3.3.3.3.9.r.3.3.3.3.3.3.3.3.3.3.3.3.i.r.3.3.3.3.3.3.3.3.9.r.3.3.3._ w.w.r.3.3.3.3.3.r.3.3.3.3.r.3.3.3.3.r.3.3.3.r.3.3.t.9.3.3.3.3.3.3.3.3.3.3.3.3.6.h.5.3.3.3.( C.wXk 2 C Q.L D D ;.&.. * q 9 9 9 9 i ; +.VXNXVX,.; i 9 9 9 9 q , * 8 q u a a a a a a a a a a i 9 9 * , p 8 9 9 9 9 9 9 9 9 9 9 9 9 9 9 s 8 9 9 9 9 9 9 9 9 9 9 9 9 ; ..ZX+X8 9 9 9 9 9 9 9 9 9 9 9 9 s 9 9 9 9 9 9 9 9 9 9 9 9 9 9 9 I fXd 8 9 9 9 9 9 9 9 9 9 9 8 p i 8 9 ",
"t.r.r.r.r.r.y.r.r.r.r.t.t.r.r.t.k.9.r.t.t.r.r.u.i.i.i.i.j.c.+Xw.l.w.w.w.r.r.r.r.r.r.r.r.r.r.t.t.r.r.r.r.r.r.r.r.r.r.r.t.a.t.r.r.r.r.r.r.r.r.t.t.r.r.r.r.x.w.t.r.r.r.r.r.t.t.r.r.r.y.r.r.r.r.y.r.r.r.y.r.r.y.t.r.r.r.r.r.r.r.r.r.r.r.r.r.k.i.r.r.r.5.C.tX1XJ V Q.2...@.+X&.. * q 9 9 9 9 i ; +.VXNXVX,.; i 9 9 9 9 q , * 8 q q J K K K G a K K K K i 9 9 * , p p s p p p p p p p p p p p p s j p s p p p p p p p p p s 0 &.ZX+Xw p s p p p p p p p p p s p j s p p p p p p p p p p p p p p ) fXg p s p p p p p p p p s p j g p s ",
"3.( _ _ ( ( 9._ ( ( ( 3.3.( ) _ j./ ( _ 3.( ( t.3.' 5.5.' x.+X$.$.#.8.2.2.) ( ( ( ( ( ( ( ( 3.3.( _ _ ( ( ( ( ( ( ( ) _ 7.3.( ( ( ( ( ( ( ( 3.3.( _ _ ( e.8.3.) ( ( ( ( 3._ ( ( ( 9._ ( ( ( 9._ ( _ 9.( / r.3.( ( ( ( ( ( ( ( ( ( ( ( ) g.6.) ( _ / e.tXiXa r Q.C F S ;.&.. * q 9 9 9 9 i ; +.VXNXVX,.; i 9 9 9 9 q , * 8 q u a a a a a a a a a a i 9 9 * , p * * * * * * * * * * * * * * , i * * * * * * * * * * , . ..ZXmX9 * * * * * * * * * * * * * * i * * * * * * * * * * * * * * , I fX8 * * * * * * * * * * * * q 8 * * ",
"3.( _ ( _ _ r._ _ _ _ 3.3._ _ 3.j.) _ 3.9._ _ t.3.5.5.5.f.x.+X0.$.0.8.8.2.3._ _ _ _ _ _ _ _ 3.3.( _ ( _ _ _ _ _ _ _ _ 3.7.9._ _ _ _ _ _ _ _ 3.3._ _ _ ( q.e.5._ _ _ _ _ 9.3._ _ _ r._ _ _ _ 3._ _ _ r._ _ r.3._ _ _ _ _ _ _ _ _ _ _ _ _ g.h.5._ _ ( z.iXiXJ < R.T.F S ;.&.. * q 9 9 9 9 i ; +.VXNXVX,.; i 9 9 9 9 q , * 8 q q J K K K G a K K K K i 9 9 * , p * 8 , , , , , , , , , , , , 8 p * 8 , , , , , , , < # ..ZX+Xw q , 8 , , , , , , , , , , 8 , p 8 , , , , , , , , , , , 8 , 8 I fX9 , 8 , , , , , , , , 8 * i 9 * 8 ",
"y.3.3.r._ _ r._ _ _ _ 3.3._ _ 3.j.) _ 3.9._ ( t.i.5.i.i.' x.+X0.$.0.8.2.2.2._ _ _ _ _ _ _ _ 3.y.3.9.r.3._ _ _ _ _ _ _ 3.7.9._ _ _ _ _ _ _ ( r.t._ r.3.( q.e.5._ _ _ _ _ 9.3._ _ _ r._ _ _ _ y.3.3.9.9._ ( r.3._ _ _ _ _ _ _ _ _ _ _ _ ) g.h.6.) _ ( e.iXtXL 1 T.T.D S ;.&.. * q 9 9 9 9 i ; +.VXNXVX,.; i 9 9 9 9 q , * 8 q u a a a a a a a a a a i 9 9 * , p * , , , , , , , , , , , , * 8 p * , , , , , , , < # ..ZX+X* w i * , , , , , , , , , , , , * p 8 , , , , , , , , , , , , * , I fX9 , , , , , , , , , , , * q 9 * , ",
"b.r.b.y._ _ r._ _ _ _ 3.3._ _ 3.j.) _ 3.9.( 3.S.u.i.S.i.' x.+X0.$.0.8.2.2.2._ _ _ _ _ _ _ ( u.b.r.t.S.t.( _ _ _ _ _ _ 3.7.9._ _ _ _ _ _ _ 3.S.y.y.b.u.( q.e.5._ _ _ _ _ 9.3._ _ _ r._ _ ( u.b.t.u.p.t._ ( r.3._ _ _ _ _ _ _ _ _ _ _ _ ) g.h.g.) _ ( e.rXuXT - C R.D S ;.&.. * q 9 9 9 9 i ; +.VXNXVX,.; i 9 9 9 9 q , * 8 q q J K K K G a K K K K i 9 9 * , p * , , , , , , , , , , , , * 8 p * , , , , , , < # ..ZXmX; * p q * , , , , , , , , , , , , * p 8 , , , , , , , , , , , , * , I fX9 , , , , , , , , , , , * q 9 * , ",
"9./ b.u.3._ r._ _ _ _ 3.3._ _ 3.j.) _ 3.9./ y.S.( u.S.i.' x.+X0.$.0.8.2.2.2._ _ _ _ _ _ _ _ S.3./ ( u._ _ _ _ _ _ _ _ 3.7.9._ _ _ _ _ _ ( y.y.( r.S.y.( q.e.5._ _ _ _ _ 9.3._ _ _ r._ _ 3.b.3.3.u.b.u.( _ r.3._ _ _ _ _ _ _ _ _ _ _ _ ) f.d.g.) _ ( e.iXuXW - C Q.X.S ;.&.. * q 9 9 9 9 i ; +.VXNXVX,.; i 9 9 9 9 q , * 8 q u a a a a a a a a a a i 9 9 * , p * , , , , , , , , , , , , * 8 p * , , , , , , # ..ZXmX, ; * p q * , , , , , , , , , , , , * p 8 , , , , , , , , , , , , * , I fX9 , , , , , , , , , , , * q 9 * , ",
"r.( ( u.y./ r._ _ _ _ 3.3._ _ 3.j.) _ 3.9./ t.S.( j.j.S.f.x.+X0.$.0.8.2.2.2._ _ _ _ _ _ _ _ S.r./ t.u.( _ _ _ _ _ _ _ 3.7.9._ _ _ _ _ _ ( y.p._ y.u.p.( q.e.5._ _ _ _ _ 9.3._ _ _ r._ _ 3.b.r._ r.S.y.( _ r.3._ _ _ _ _ _ _ _ _ _ _ _ ) 6.g.g._ _ ( 9.rXuXQ - V Q.4.S ;.&.. * q 9 9 9 9 i ; +.VXNXVX,.; i 9 9 9 9 q , * 8 q q J K K K G a K K K K i 9 9 * , p * , , , , , , , , , , , , * 8 p * , , , , < @ ..ZXmX, ; , * p q * , , , , , , , , , , , , * p 8 , , , , , , , , , , , , * , I fX9 , , , , , , , , , , , * q 9 * , ",
"S.t.y.p.3._ r._ _ _ _ 3.3._ _ 3.j.) _ 3.9.( _ S.p.i.S.j.' x.+X0.$.0.8.2.2.2._ _ _ _ _ _ _ ( y.S.r.t.9.( _ _ _ _ _ _ _ 3.7.9._ _ _ _ _ _ _ _ b.p.t.b.y.( q.e.5._ _ _ _ _ 9.3._ _ _ r._ _ ( t.S.r.y.u.9._ ( r.3._ _ _ _ _ _ _ _ _ _ _ _ _ 5.f.g._ _ _ 9.rXtX-., s Q.7.S ;.&.. * q 9 9 9 9 i ; +.VXNXVX,.; i 9 9 9 9 q , * 8 q u a a a a a a a a a a i 9 9 * , p * , , , , , , , , , , , , * 8 p * , , , < # ..ZXmX, ; , , * p q * , , , , , , , , , , , , * p 8 , , , , , , , , , , , , * , I fX9 , , , , , , , , , , , * q 9 * , ",
"9._ _ _ _ _ r._ _ _ _ 3.3._ _ 3.j.) _ 3.9._ _ t.5.5.5.5.f.x.+X0.$.0.8.8.2.2._ _ _ _ _ _ _ _ 3.9._ _ _ _ _ _ _ _ _ _ _ 3.7.9._ _ _ _ _ _ _ ( 3.9.( _ _ ( q.e.5._ _ _ _ _ 9.3._ _ _ r._ _ _ ( r._ _ _ r._ ( r.3._ _ _ _ _ _ _ _ _ _ _ _ _ _ 5.g._ _ _ 2.0XeX-., i R.P.S ;.&.. * q 9 9 9 9 i ; +.VXNXVX,.; i 9 9 9 9 q , * 8 q q G K J K G a K J K K i 9 9 * , p * , , , , , , , , , , , , * 8 p * , , < # ..ZXmX, ; , , , * p q * , , , , , , , , , , , , * p 8 , , , , , , , , , , , , * , I fX9 , , , , , , , , , , , * q 9 * , ",
"9.( _ _ _ ( 9._ _ _ ( 3.3._ ) 3.j.) _ _ 9._ ( t.5.' 5.6.' x.+X0.$.8.8.2.2.3._ _ _ _ _ _ _ _ 3.3.( _ _ _ _ _ _ _ _ _ ) 3.7.9.( _ _ _ ( _ _ ( 3.3.( _ _ ( q.e.5.) _ _ _ _ r._ ( _ _ 9._ _ _ _ r._ _ _ r.( ( r.3.( _ _ _ _ _ _ _ _ _ _ _ _ ) 5.g._ _ _ ) ' eX-.z 2 R.T.S ;.&.. * q 9 9 9 9 i ; +.VXNXVX,.; i 9 9 9 9 q , * 8 q u a a a a a a a a a a i 9 9 * , p * , , , , , , , , , , , , * 8 p * , < # ..ZXmX1 ; , , , , * p q * , , , , , , , , , , , , * p 8 , , , , , , , , , , , , * , I fX9 , , , , , , , , , , , * q 9 * , ",
"_ y.t./ _ u.y./ 3.y.r.u.t./ 3.p.j.` 9.u.r./ r.r.r.p.6.' j.m.+X#.x.w.x.u.2.) y.y.( ( y.y.( _ t._ u.t./ 3.u.t./ 3.t.r.u.t.7.9.u.9./ r.u.3./ t.3.r.u.3./ t.n.8.( t.r.y.y.( _ y.y.( _ u.t./ 3.t.3.u.t./ 3.u.r.( r.t.r.u.9./ r.u.t._ _ _ _ 3.y.i.k.y.y.y.y.6.4XoXj 5 T.T.S ;.&.. * q 9 9 9 9 i ; +.VXNXVX,.; i 9 9 9 9 q , * 8 q q G K J K G a K J J K i 9 9 * , p * , , , , , , , , , , , , * 8 p * < @ ..ZXmX1 ; , , , , , * p q * , , , , , , , , , , , , * p 8 , , , , , , , , , , , , * , I fX9 , , , , , , , , , , , * q 9 * , ",
"_ b.u./ _ b.y./ 3.u.t.b.t.` 9.S.j.` r.b.r.` y.r.t.S.6.' k.F.+X#.c.x.v.v.2.) u.b.( ( b.u./ _ u._ b.u./ 3.b.y.` 9.u.t.b.t.7.9.S.r.` t.b.9.` y.3.t.b.3./ y.M.8./ u.t.u.b.( ( b.u./ _ b.u./ 3.y._ b.y.` 3.b.t.` r.u.t.b.r.` t.b.y.3._ _ _ 3.u.r.d.r.r.r.9.6.4X-.j S C R.S ;.&.. * q 9 9 9 9 i ; +.VXNXVX,.; i 9 9 9 9 q , * 8 q u a a a a a a a a a G i 9 9 * , p * , , , , , , , , , , , , * 8 p , @ 6 ZXmX1 ; , , , , , , * p q * , , , , , , , , , , , , * p 8 , , , , , , , , , , , , * , I fX9 , , , , , , , , , , , * q 9 * , ",
"_ p.u./ _ b.y./ 3.u.t.b.t.` 9.S.j.` r.b.r.` t.r.t.S.6.' k.H.+X#.c.x.v.v.2.) u.p.( ( p.u./ _ y._ b.y./ 3.b.y.` 9.u.t.b.t.7.9.b.r.` r.b.9.` y.3.t.b.3./ y.m.8./ u.t.u.p.( ( u.u.( _ b.u./ 3.y._ b.y./ 3.b.t.` r.y.t.b.r.` r.b.y.3._ _ _ 3.y.3.h.g._ 3._ ' 4X-.s S C R.L ;.&.. * q 9 9 9 9 i ; +.VXNXVX,.; i 9 9 9 9 q , * 8 q q G J J J G a K J J J i 9 9 * , p * , , , , , , , , , , , , * 8 p # 6 AXmX1 ; , , , , , , , * p q * , , , , , , , , , , , , * p 8 , , , , , , , , , , , , * , I fX9 , , , , , , , , , , , * q 9 * , ",
"_ p.u./ _ b.y./ 3.u.t.b.t.` 9.S.j.` r.b.r.` t.r.t.S.6.' k.H.+X#.c.x.v.v.2.) u.p.( ( p.u./ _ y._ b.y./ 3.b.y.` 9.u.t.b.t.7.9.b.r.` r.b.9.` y.3.t.b.3./ y.m.8./ u.t.u.p.( ( p.u.( _ b.u./ 3.y._ b.y.` 3.b.t.` r.u.t.b.r.` r.b.y.3._ _ _ 3.y.3.d.h.L.:X:Xj.4X-.s S V R.O.;.&.. * q 9 9 9 9 i ; +.VXNXVX,.; i 9 9 9 9 q , * 8 q u a G a G a a G a a G i 9 9 * , p * , , , , , , , , , , , , * 9 0 6 AXmX1 ; , , , , , , , , * p q * , , , , , , , , , , , , * p 8 , , , , , , , , , , , , * , I fX9 , , , , , , , , , , , * q 9 * , ",
"_ p.u./ _ b.y./ 3.u.t.b.t.` 9.S.j.` r.b.r.` t.r.t.S.6.' k.H.+X#.c.x.v.v.2.) u.p.( ( p.u./ _ y._ b.y./ 3.b.y.` 9.u.t.b.t.7.9.b.r.` r.b.9.` y.3.t.b.3./ y.m.8./ u.t.u.p.( ( p.u.( _ b.u./ 3.y._ b.y.` 3.b.t.` r.u.t.b.r.` r.b.y.3._ _ ( 3.y.3.d.).S.r.b.L.4XXXs J V Q.4.:.&.. * q 9 9 9 9 i ; +.VXNXVX,.; i 9 9 9 9 q , * 8 q q G J J J G a J J J J i 9 9 * , p * , , , , , , , , , , , * , ; X.AXmX1 ; , * , , , , , , , * i q * , , , , , , , , , , , , * p 8 * , , , , , , , , , , , * , I fX9 * , , , , , , , , , , * q 9 * , ",
"_ p.u./ _ b.y./ 3.u.t.b.t.` 9.S.j.` r.b.r.` t.r.t.S.6.' k.H.+X#.c.x.v.v.2.) u.p.( ( p.u./ _ y._ b.y./ 3.b.y.` 9.u.t.b.t.7.9.b.r.` r.b.9.` y.3.t.b.3./ y.m.8./ u.t.u.p.( ( p.u.( _ b.u./ 3.y._ b.y.` 3.b.t.` r.u.t.b.r.` r.b.y.3._ _ _ 3.y.3.k./.d.3.3.p.4XwXQ h k Q.7.;.&.. * q 9 9 9 9 i ; +.VXNXVX,.; i 9 9 9 9 q , * 8 q u a G G G a a G G G G i 9 9 * , p , 8 8 8 8 8 8 8 8 8 8 8 8 ; 5 AXmX1 ; 8 8 8 8 8 8 8 8 8 8 , p i , 8 8 8 8 8 8 8 8 8 8 8 8 8 p 8 8 8 8 8 8 8 8 8 8 8 8 8 8 8 I fX9 , 8 8 8 8 8 8 8 8 8 8 , i 9 8 8 ",
"_ p.u./ _ b.y./ 3.u.t.b.t.` 3.S.j.` r.b.r.` t.r.t.S.6.' k.H.+X#.c.x.v.v.2./ u.p.( ( p.u./ _ y._ b.y./ 3.b.y.` 3.u.t.b.t.7.9.b.r.` r.b.9.` y.3.t.b.3./ y.M.8./ u.t.u.p.( ( p.u./ _ b.u./ 3.y._ b.y.` 3.b.t.` r.u.t.b.r.` r.b.y.9.r.r.9.t.y.3.6._.).( B.kX4XyX$.h j Q.P.+X&.. * q 9 9 9 9 i ; +.VXNXVX,.; i 9 9 9 9 q , * 8 q q G J J J G a J J J J i 9 9 * , p i p p p p p p p p p p p 0 L MXMXh w p p p p p p p p p p p i j g i p p p p p p p p p p p p p g p p p p p p p p p p p p p p p ` fXs i p p p p p p p p p p p g s p p ",
"_ p.u.( 3.b.y./ 3.u.t.b.t./ 9.S.j.` r.b.r./ y.r.t.S.i.' k.H.+X#.c.x.v.v.2.) u.p._ _ p.u.( 3.y._ b.y./ 3.b.y./ r.u.t.b.t.7.9.b.r./ t.b.9./ y.3.t.b.3./ y.m.8.( u.t.u.p._ _ p.u.( _ b.u./ 3.y._ b.y./ 3.b.t./ r.y.t.b.r./ t.b.y._ ( _ ( 3.y.3.6.P._.5.>XL.4XyX-.h 2 R.C :.&.. * q 9 9 9 9 i ; +.VXNXVX,.; i 9 9 9 9 q , * 8 q u a G G G a a G G G G i 9 9 * , p * * * * * * * * * * , @ 5 MXMXh o , * * * * * * * * * * * * i q * * * * * * * * * * * * * * p , * * * * * * * * * * * * * , I fX8 * * * * * * * * * * * * q 9 * * ",
"_ p.u.r.u.b.u.r.p.u.t.b.y.t.p.S.k.t.p.b.t.t.b.5.t.S.i.j.k.M.+Xx.c.w.v.v.t.u.p.u.r.u.p.u.r.p.y._ b.u.r.u.b.y.t.b.y.t.b.y.a.u.b.t.t.p.b.t.y.b.3.t.b.t.y.u.m.w.y.b.t.u.p.r.u.p.u.r.u.b.u.r.p.y._ b.y.t.p.b.y.t.b.y.t.b.t.t.p.b.y.3._ _ _ 3.y.3.3.g.k.6.v.6.4XyX$.h 2 R.T.:.&.. * q 9 9 9 9 i ; +.VXNXVX,.; i 9 9 9 9 q , * 8 q u G J G J a a J G G J i 9 9 * , p * 8 , , , , , , , < @ 5 MXMX2 0 , 8 , , , , , , , , , , 8 * p i * 8 , , , , , , , , , , , * p 8 , , , , , , , , , , , , * , I fX9 , 8 , , , , , , , , 8 * i 9 * , ",
"_ p.u.t.p.b.u.t.b.y.t.b.y.t.b.S.k.t.b.b.y.y.b.5.t.S.i.p.k.M.+Xc.c.w.v.v.w.u.p.u.t.u.p.u.t.b.y._ b.u.t.b.b.y.t.b.y.t.b.u.a.b.b.y.y.b.b.t.y.b.3.t.b.t.u.u.m.w.u.b.t.u.p.t.u.p.u.t.p.b.u.t.b.y._ b.y.t.b.b.y.t.b.y.t.b.y.y.b.p.y.3._ _ _ 3.y.3.3.g.h.g._ ' 4XyX-.h 4 T.T.;.&.. * q 9 9 9 9 i ; +.VXNXVX,.; i 9 9 9 9 q , * 8 q u G G G G a a G G G G i 9 9 * , p * , , , , , , , < @ 5 MXMX2 ; p * , , , , , , , , , , , , * p q * , , , , , , , , , , , , * p 8 , , , , , , , , , , , , * , I fX9 , , , , , , , , , , , * q 9 * , ",
"_ b.u.t.p.b.u.t.b.u.t.b.y.t.b.S.k.t.b.b.y.y.b.5.t.S.i.p.k.B.+Xc.n.w.v.v.w.u.b.p.t.u.b.u.t.b.y._ b.u.t.b.b.u.t.b.y.t.b.u.a.b.b.y.y.b.b.t.y.b.3.t.b.t.u.u.m.w.u.b.t.u.p.t.u.b.u.t.p.b.u.t.b.y._ b.u.t.b.b.y.t.b.y.y.b.y.y.b.b.y.3._ _ _ 3.y.3.9.6.g.g.9.5.4XyX-.h 4 T.T.;.&.. * q 9 9 9 9 i ; +.VXNXVX,.; i 9 9 9 9 q , * 8 q u G G G G a a G G G G i 9 9 * , p * , , , , , , < @ 5 MXMX2 @ 8 p * , , , , , , , , , , , , * p q * , , , , , , , , , , , , * p 8 , , , , , , , , , , , , * , I fX9 , , , , , , , , , , , * q 9 * , ",
"_ u.u.r.u.u.u.r.p.y.t.p.y.t.u.p.k.t.p.p.t.t.b.5.t.S.i.j.k.M.+Xx.c.w.v.v.t.u.u.u.r.u.u.u.r.u.y._ p.y.r.u.u.y.t.p.y.t.p.y.a.u.p.t.t.u.u.t.y.b.3.t.b.r.y.u.n.w.u.u.r.u.u.r.u.u.u.r.u.p.u.r.p.t._ p.y.t.p.u.y.t.b.t.t.p.t.t.u.u.t.3._ _ _ 3.u.y.y.y.u.k.u.i.4XyX-.h 7 T.R.;.&.. * q 9 9 9 9 i ; +.VXNXVX,.; i 9 9 9 9 q , * 8 q u G G G J a a J G G G i 9 9 * , p * , , , , , < @ 5 MXMX6 @ , 8 p * , , , , , , , , , , , , * p q * , , , , , , , , , , , , * p 8 , , , , , , , , , , , , * , I fX9 , , , , , , , , , , , * q 9 * , ",
"9._ _ _ _ _ r._ _ _ _ 9.3._ _ 3.j.) _ 3.9._ _ t.5.5.5.6.f.x.+X0.$.0.8.8.2.3._ _ _ _ _ _ _ _ 3.3._ _ _ _ _ _ _ _ _ _ _ 3.7.9._ _ _ _ _ _ _ _ 3.3._ _ _ ( q.e.5._ _ _ _ _ 9.3._ _ _ r._ _ _ _ r._ _ _ r._ _ r.3._ _ _ _ _ _ _ _ _ _ _ _ _ _ _ _ _ _ d.3.( 4XyXW 1 7 C R.;.&.. * q 9 9 9 9 i ; +.VXNXVX,.; i 9 9 9 9 q , * 8 q u G G G G a a G G G G i 9 9 * , p * , , , , < @ 5 MXMX6 @ , * 8 p * , , , , , , , , , , , , * p q * , , , , , , , , , , , , * p 8 , , , , , , , , , , , , * , I fX9 , , , , , , , , , , , * q 9 * , ",
"9._ _ _ _ _ r._ _ _ ( 3.3._ _ 3.j.) _ 3.9._ _ t.5.5.5.6.f.x.+X0.$.0.8.2.2._ _ _ _ _ _ _ _ _ 3.3.( _ _ _ _ _ _ _ _ _ _ 3.7.9._ _ _ _ _ _ _ _ 3.3.( _ _ ( q.e.5._ _ _ _ _ 9.3._ _ _ r._ _ _ _ r._ _ _ r._ ( r.3._ _ _ _ _ _ _ _ _ _ _ _ _ _ _ _ _ _ d.5.x 4XyX~ 1 7 C R.>.&.. * q 9 9 9 9 i ; +.VXNXVX,.; i 9 9 9 9 q , * 8 q q G J G J G a J J J J i 9 9 * , p * , , , , @ 5 MXMX6 @ < , * 8 p * , , , , , , , , , , , , * p q * , , , , , , , , , , , 8 8 p 8 8 , , 8 8 8 8 , , , 8 8 ; 8 I fX9 , , , , , , , , , , , * q 9 * , ",
"9.( ( _ ( ( 9.( _ _ _ 3.3._ _ 3.j.) _ 3.9._ _ t.5.' 5.6.[ x.+X0.$.0.8.2.2.3._ _ _ _ _ _ _ _ 3.3.( ( ( _ _ _ _ _ _ _ _ 3.7.9.( ( ( _ _ _ _ _ 3.3._ _ _ ( q.e.5._ ( _ _ _ 9.3._ _ _ r._ _ _ _ r._ _ _ r._ ( r.3.( ( _ ( ( _ _ _ _ _ _ _ _ _ _ _ _ ) g.5.x 4XyX~ , 7 V R.>.&.# * q 9 9 9 9 i ; +.VXNXVX,.; i 9 9 9 9 q , * 8 q u a G G G a a G G G G i 9 9 * , p * , , < @ 5 MXAX6 @ < , , * 8 p * , , , , , , , , , , , , * p q * , , , , , , , , , , , * o q , * , 8 o * o * 8 8 , * * o , I fX9 , , , , , , , , , , , * q 9 * , ",
"3.3.u.9.t.y.t.v.9._ _ 3.3._ _ 3.j.) _ 3.9._ _ t.5.t.y.i.f.x.+X0.$.0.8.2.2.2._ _ _ _ _ _ _ _ 3.3.3.u.9.9.( _ _ _ _ _ _ 3.7.9.9.y.9.9.( _ _ _ 3.3._ _ _ ( q.e.5._ y.r.9._ 3.3._ _ _ r._ _ _ _ r._ _ _ r._ ( r.3.3.y._ y.r.9._ _ _ _ _ _ _ _ _ _ _ ) g.6.x 5XyX-.Y L 4.(.1.+.. * q 9 9 9 9 i ; +.VXNXVX,.; i 9 9 9 9 q , * 8 q q G J J J G a J J J J i 9 9 * , p * , , @ 5 MXAXS @ < , , , * 8 p * , , , , , , , , , , , , * p q * , , , , , , , , , 8 , ] { I { ] , o ] ` ] ] * * 8 ` ] | ] I fX9 , , , , , , , , , , , * q 9 * , ",
"3.9.v.3.y.t.M.9.y._ _ 3.3._ _ 3.j.) _ 3.9._ _ t.5.y.p.y.j.c.+X0.$.0.8.2.2.2._ _ _ _ _ _ _ _ 3.3._ 9.v.y.t.3._ _ _ _ _ 3.7.9.3.u.y.y.9._ _ _ 3.3._ _ _ ( q.e.5.3.v.3.y.t.t._ _ _ _ r._ _ _ _ r._ _ _ r._ ( r.3.9.v.r.t.y.u.t.3._ _ _ _ _ _ _ _ _ ) f.6.x 5XyX-.q $.a.(.@X+.. * q 9 9 9 9 i ; +.VXNXVX,.; i 9 9 9 9 q , * 8 q u a G G G a a G G G G i 9 9 * , p * < ; 5 MXAXS @ < , , , , * 8 p * , , , , , , , , , , , , * p q * , , , , , , , , 8 * * 9 { { ] | o , |.] { { X ! | | { | | I fX9 , , , , , , , , , , , * q 9 * , ",
"3._ r.v.t.3.M._ u._ _ 3.3._ _ 3.j.) _ 3.9._ _ t.5.5.u.y.S.x.+X0.$.0.8.2.2.2._ _ _ _ _ _ _ _ 3.9./ t.9.N.y.( _ _ _ _ _ 3.7.9._ y.y.M.9.( _ _ 3.3._ _ _ ( q.e.5._ 9.y.v.v.3.3._ _ _ r._ _ _ _ r._ _ _ r._ ( r.3._ y.y.3.t.m.v.( _ _ _ _ _ _ _ _ _ ) 6.6.x ;XyX~ i W 7.R.@X$.o * q 9 9 9 9 i ; +.VXNXVX,.; i 9 9 9 9 q , * 8 q q G J J J G a J J J J i 9 9 * , p , ; 1 mXAXS @ < , , , , , * 8 p * , , , , , , , , , , , , * p q * , , , , , , , , * d f , { p ] | X { |.] d ] X { ` { { | { I fX9 , , , , , , , , , , , * q 9 * , ",
"3.3.9.u.y.y.b.y.y._ _ 3.3._ _ 3.j.) _ 3.9._ _ t.5.r.u.u.S.c.+X0.$.0.8.2.2.2._ _ _ _ _ _ _ _ 3.3.9.v.9.v.u.3._ _ _ _ _ 3.7.9.3.t.v.v.y._ _ _ 3.3._ _ _ ( q.e.5._ 9.y.v.v.t._ _ _ _ r._ _ _ _ r._ _ _ r._ ( r.3._ y.9.u.y.v.v.3._ _ _ _ _ _ _ _ _ ) 6.6.x ;XyX-.0.L 0.(.H.$.o * q 9 9 9 9 i ; +.VXNXVX,.; i 9 9 9 9 q , * 8 q u a a a a a a G a a G i 9 9 * , p o 2 mXAXS @ < , , , , , , * 8 p * , , , , , , , , , , , , * p q * , , , , , , , 8 * f ! | { I ] | d ! | | ! { X { { | { ] | I fX9 , , , , , , , , , , , * q 9 * , ",
"3.3.y.3.3.9.r.t.3._ _ 3.3._ _ 3.j.) _ 3.9._ _ t.5.5.5.6.f.c.+X0.$.0.8.2.2.2._ _ _ _ _ _ _ _ 3.3.3.t.9.3.3.3._ _ _ _ _ 3.7.9.9.r.3.3.9._ _ _ 3.3._ _ _ ( q.e.5._ t.9.3.3.t._ _ _ _ r._ _ _ _ r._ _ _ r._ ( r.3._ 3._ 9.9.3.3.3._ _ _ _ _ _ _ _ _ ) 6.g.x ;XyX-.s L P (.].&.# * q 9 9 9 9 i ; +.VXNXVX,.; i 9 9 9 9 q , * 8 q q G K J K G a K J J J i 9 9 * < 0 1 mXAXS @ < , , , , , , , * 8 p * , , , , , , , , , , , , * p q * , , , , , , , , 8 * * ] ] ] ] d f X 8 9 9 d * 0 ] d f ] d I fX9 , , , , , , , , , , , * q 9 * , ",
"9.( ( _ ( ( r.( _ _ ( 3.3.( ) 3.j.) _ 3.9.( ( t.5.5.5.6.[ x.+X$.$.$.8.2.2._ _ _ _ _ _ _ _ ( 3.3.( ( ( _ ( _ _ _ _ _ ) 3.7.9.( ( _ _ ( _ _ ( 3.3.( _ _ ( q.e.5.) ( ( _ ( 3.3._ _ _ 9._ _ _ _ r._ _ _ r._ ( r.3.( ( _ ( ( _ ( ( _ _ _ _ _ _ _ _ _ ) 6.g.x ;XyXOXXX4 h Q.].*.# * q 9 9 9 9 i 8 +.VXNXVX,.; i 9 9 9 9 q , * 8 q u a a a a a a a a a a i 9 9 * ; L mXAXS @ < , , , , , , , , * 8 p * , , , , , , , , , , , , * p i * , , , , , , , , , 8 8 X X q X * * 8 , , , * 8 * X * * X , I nX9 * , , , , , , , , , , * i 9 * , ",
"r._ 3.3.3.3.r.3.3.3._ 9.3._ 3.5.j._ 3.3.r._ 3.t.5.5.5.5.6.w.<.8.0.8.8.9.3.3.3.3.3.3.3.3.3._ 3.9._ 3.3.3.3.3.3.3.3.3.3.3.7.9.3.3.3.3.3.3.3._ 3.9._ 3.3._ e.9.5.3.3.3.3.3.r.3.3.3.3.r.3.3.3.3.r.3.3.3.r.3._ r.3._ 3.3.3.3.3.3.3.3.3.3.3.3.3.3.3.3._ 6.g.x 5XyXwXwX2 h Q.H...@ * q 9 9 9 9 i ; +.SXBXSX<.; i 9 9 9 9 q , * 8 q q G K J K G a K J J K i 9 9 * ; &.MXD @ < 8 8 8 8 8 8 8 8 8 , 8 q , 8 8 8 8 8 8 8 8 8 8 8 8 * q 9 * 8 8 8 8 8 8 8 8 8 8 8 8 8 i 8 8 8 8 8 8 8 8 , 8 8 8 8 8 8 j dX9 , 8 8 8 8 8 8 8 8 8 8 * 9 9 , 8 ",
"j j j j j j j j j j j j j j j j j j j j j j j j j j j j j j f j j j j j j j j j j j j j j j j j j j j j j j j j j j j j j j j j j j j j j j j j j j j j j j j j j j j j j j j j j j j j j j j j j j j j j j j j j j j j j j j j j j j j j j j j j j k j E ~ Q Q p p c x p * * q 9 9 9 9 q 8 X.@X@X@X%.8 i 9 9 9 9 q , * 8 q u a a a a a a a a a a i 9 9 * * p h p p p p p p p p p p p p p p p p p p p p p p p p p p p p p p p p p p p p p p p p p p p p p p p p p p p p p p p p p p p p p i 9 p p p p p p p p p p p p p p p p p ",
"o o o o o o o o o o o o o o o o o o o o o o o o o o o o o o = o o o o o o o o o o o o o o o o o o = o o o o o o o o o o o o o o o o o o o o o o o o o o o o o o o o o o o o o o o o o o o o o o o o o o o o o o o o o o o o o o o o o o o o o o o X X o   O     * * = = * * * q 9 9 9 q q 9 9 ; 8 ; 9 i 9 q 9 9 9 q , * 8 q q J K K K G a K K K K i 9 9 * * * o * * * * * * * * * * * * * * * * * * * * * * * * * * * * * * * * * * * * * * * * * * * * * * * * * * * * * * * * * * * * * * * * * * * * * * * * * * * * * * * * ",
", , , , , , , , , , , 8 8 8 8 8 8 8 8 8 8 8 8 8 8 8 8 8 8 8 8 8 8 8 8 8 8 8 8 8 8 8 8 8 8 , , , * * * , , , , , , , , , , , , , , , , , , , , , , , , , , , , , , , , , , , , , , , , , , , , , , , , , , , , , , , , , , , , , , , , , , , , , , , , , , < , , , , 8 8 , * * q 9 9 9 9 9 i 9 i 9 i 9 8 i 9 9 9 9 q , * 8 q q a a a a a p a a a a i 9 9 * * , , , , , , , , , , , , , , , , , , , , , , , , , , , , , , , , , , , , , , , , , , , , , , , , , , , , , , , , , , , , , , , , , , , , , , , , , , , , , , , , , , ",
"q q q q q q q q q i 9 @ @ @ @ @ @ @ @ @ @ @ @ @ @ @ @ @ @ @ @ @ @ @ @ @ @ @ @ @ @ @ @ @ @ 9 i i , * 9 i q q q q q q q q q q q q q q q q q q q q q q q q q q q q q q q q q q q q q q q q q q q q q q q q q q q q q q q q q q q q q q q q q q q q q q q q q q q q q q q q 9 * * q 9 9 q 9 m.>XR * R >Xx.o.>Xx.8 q 9 q , * 8 q 9 9 9 9 9 9 9 9 9 9 9 9 q 9 * * q q q 9 9 9 9 9 9 9 9 9 9 9 9 9 9 9 9 9 9 9 9 9 9 9 9 q q 9 9 9 9 9 9 9 9 9 9 9 9 9 9 9 9 9 9 9 9 9 9 9 9 9 9 9 9 9 9 q q q q q q q q q q q q q q q q q q q q q q q ",
"9 9 9 9 9 9 9 9 q 9 J -.oXoXoXoXoXoXoXoXoXoXoXoXoXoXoXoXoXoXoXoXoXoXoXoXoXoXoXoXoXoXoXoX-.L 8 i , * 9 q 9 j P P P P P P P P P P P P P P P P P P P P P P P P P P P P P P P P P P P P P P P P P P P P P P P P P P P P P P P P P P P P P P P P P P P P P P P P P P P j q 9 9 * * q 9 q 9 P J.U J.* J.Y B.<Xj J.g 9 q q , * 8 q 9 9 u a i 9 9 i 9 9 9 q q 9 * * 9 9 q s s s s s s s s s s s s s s s s s s s s s s s s i 9 p s s s s s s s s s s s s s s s s s s s s s s s s s s s s s q 9 9 9 9 9 9 9 9 9 9 9 9 9 9 9 9 9 9 9 9 9 9 ",
"9 9 9 9 9 9 9 9 i % -.PX7XLXJXJXJXJXJXJXJXJXJXJXJXJXJXJXJXJXJXJXJXJXJXJXJXJXJXJXJXLXLX7XPXoX@ i , * 9 q 9 P s i p i i i i i i i i i i i i i i i i i i i i i i i i i i p p i p p p p i p p p p p i i i i i i i i i i i i i i i i i i i i i i i i i i i i i i i i p P q q 9 * * q 9 q 8 Y m.i K.o J.i B.,X, F.P 8 q q , * 8 q q 9 p -.OXi W OXa W XX8 i 9 * * 9 9 i U j j j j j j j j j j j j j j j j j j j j j j U s 9 P P j j j j j j j j j j j j j j j j j j j j j j j j j j j U i 9 q 9 9 9 9 9 9 9 9 9 9 9 9 9 9 9 9 9 9 9 9 ",
"9 9 9 9 9 9 9 9 i % -.LX.X X X X X X X X X X X X X X X X X X X X X X X X X X X X X X X.X7XoX@ i , * 9 q 9 P p 9 9 9 9 9 9 9 9 9 9 9 9 9 9 9 9 9 9 9 9 9 9 9 9 9 9 9 9 8 9 9 , 8 8 8 9 8 9 9 9 8 9 9 9 9 9 9 9 9 9 9 9 9 9 9 9 9 9 9 9 9 9 9 9 9 9 9 9 9 9 9 9 9 q P q q 9 * * q 9 q 9 s J.w.J.P M.x.F.K.w.K.p 9 9 q , * 8 q 9 a u p -.9 -.-.~ -.-.8 i 9 * * 9 9 p P 9 9 9 8 9 8 8 9 8 8 9 9 9 9 9 9 9 8 9 9 9 8 j s 9 j p 9 9 8 9 9 9 8 9 9 8 8 9 8 8 9 9 9 9 9 9 9 9 9 9 9 9 9 P i 9 q 9 9 9 9 9 9 9 9 9 9 9 9 9 9 9 9 9 9 9 9 ",
"9 9 9 9 9 9 9 9 i % -.LX X#X#X$X#X#X#X#X#X#X$X#X#X$X#X#X#X#X#X#X$X#X$X#X#X#X#X#X#X#X#X XJXoX@ i , * 9 q 9 P p 9 q q q q q q q q q q q q q q q q q q q q q q q q q q 9 U g 9 e.E R P i U g P s R 9 q q q q q q q q q q q q q q q q q q q q q q q q q q q q q q 9 i P q q 9 * * q 9 9 q 8 8.J.P w.g J.8.s J.o.8 q 9 q , * 8 i 9 W K -.W 8 W %X-.OXOX9 q 9 * * 9 9 p P 9 9 p s 9 s s 9 s g q q i 9 i i p p 9 i i 9 j s 9 P p 9 9 g p p p g q 9 s g 9 s s i i i q 9 9 p p q 9 i q q P i 9 q 9 9 9 9 9 9 9 9 9 9 9 9 9 9 9 9 9 9 9 9 ",
"9 9 9 9 9 9 9 9 i % -.LX X$X6X*X6X7X*X6X$X6X6X*X6X6X$X6X6X$X#X6X*X6X6X*X6X$X$X6X6X7X$X X7XoX@ i , * 9 q 9 P p 9 q 9 9 9 9 9 9 9 9 9 9 9 9 9 9 9 9 9 9 9 9 9 9 9 9 i , c.R * n.R V.G.p l.R l.x.U 9 q q q 9 9 9 9 9 9 9 9 9 9 9 9 9 9 9 9 9 9 9 9 9 9 9 9 9 9 9 9 i P q q 9 * * q 9 9 9 q 8 * 9 8 9 * 8 9 * 8 q 9 9 q , * 8 q q 9 9 W i a W ~ i K ~ 9 q 9 * * 9 9 p P 9 9 n.c.E c.c.E n.#.i s :X8 c.q.l.c.R q.s 9 j s 9 P p 8 #.l.R n.l.n.w.P V.U R n.R q.8 q.9 V.U 8.l.V.j 8.p 9 P i 9 q 9 9 9 9 9 9 9 9 9 9 9 9 9 9 9 9 9 9 9 9 ",
"9 9 9 9 9 9 9 9 i % -.LX X$X6X#X#X6X#X7X$X6X*X6X6X6X6X$X#X6X#X6X#X*X6X6X6X$X#X6X#X6X X X7XoX@ i , * 9 q 9 P p 9 q 9 9 9 9 9 9 9 9 9 9 9 9 9 9 9 9 9 9 9 9 9 9 9 9 i , l.R * q.E e.V.l.8.P ,Xq.* q 9 9 9 9 9 9 9 9 9 9 9 9 9 9 9 9 9 9 9 9 9 9 9 9 9 9 9 9 9 9 9 i P q q 9 * * q 9 9 9 9 q i i 9 9 9 8 q i q 9 9 9 q , * 8 q 9 q q 8 9 9 9 8 9 8 8 q q 9 * * 9 9 p P 9 i l.e.q.q.0.8.V.#.8 i :XP V.#.e.s V.0.8 9 j s 9 P s 8 q.q.i q.q.s #.q.V.E c.p , V.l.V.g V.#.E #.V.n.e.p 9 P i 9 q 9 9 9 9 9 9 9 9 9 9 9 9 9 9 9 9 9 9 9 9 ",
"9 9 9 9 9 9 9 9 i % -.LX X#X$X6X$X6X$X6X#X6X7X$X6X#X6X$X#X6X#X#X6X6X6X#X6X#X#X6X#X6X#X X7XoX@ i , * 9 q 9 P p 9 q 9 9 9 9 9 9 9 9 9 9 9 9 9 9 9 9 9 9 9 9 9 9 9 9 i , x.P X q.Y l.P :Xc.E V.n.s i i i p 9 9 9 9 9 9 9 9 9 9 9 9 9 9 9 9 9 9 9 9 9 9 9 9 9 9 9 9 i P q q 9 * * q 9 9 9 9 9 i * o.P s Y q 9 q 9 9 9 q , * 8 q 9 9 i K G 9 i J 9 J i 9 q 9 * * 9 9 p P 9 9 V.q.p V.V.j c.i R #.x.c.c.R q.j V.q.8 9 j s 9 P p 9 8 q.x.0.q.s 8.q.l.q c.p , c.P l.0.:XV.#.0.#.c.:Xq 9 P i 9 q 9 9 9 9 9 9 9 9 9 9 9 9 9 9 9 9 9 9 9 9 ",
"9 9 9 9 9 9 9 9 i % -.LX X#X6X6X$X6X#X6X$X6X$X6X6X6X$X6X6X$X#X6X6X6X$X X6X6X*X6X#X6X#X X7XoX@ i , * 9 q 9 P p 9 q 9 9 9 9 9 9 9 9 9 9 9 9 9 9 9 9 9 9 9 9 9 9 9 9 i , l.G.8.V.e.w.p e.V.U #.Y c.0.8.#.q.q 9 9 9 9 9 9 9 9 9 9 9 9 9 9 9 9 9 9 9 9 9 9 9 9 9 9 9 i P q q 9 * * q 9 9 9 9 q 9 p J.q.:XB.F.9 q q 9 9 q , * 8 q q 8 i -.OXi ~ OXW -.-.8 u 9 * * 9 9 p P 9 i q.8 p 0.E e.n.8.s P 0.c.#.R l.n.P q.g 8 j s 9 P p 9 R l.q.c.l.V.q.j V.E #.n.Y q.9 0.c.P #.V.l.#.g :Xi 9 P i 9 q 9 9 9 9 9 9 9 9 9 9 9 9 9 9 9 9 9 9 9 9 ",
"9 9 9 9 9 9 9 9 i % -.LX X#X$X#X#X#X#X#X#X#X#X#X#X$X#X#X#X#X#X$X#X#X#X#X#X$X#X#X#X#X#X XJXoX@ i , * 9 q 9 P p 9 q q q q q q q q q q q q q q q q q q q q q q q q q q 9 i g s p p q q 9 q q i 9 i i i i i q q q q q q q q q q q q q q q q q q q q q q q q q q q 9 i P q q 9 * * q 9 9 9 q , 0.K.,X0.J.8.K.9 q q 9 9 q , * 8 q 9 G i a -.8 -.-.~ i -.8 u 9 * * 9 9 p P 9 q i i q i q i p s 9 9 i 9 q i p p 9 q i 9 j s 9 P p 9 p s 9 p i g q 9 s s 9 s p q q i i 9 9 p p i 9 q q q P i 9 q 9 9 9 9 9 9 9 9 9 9 9 9 9 9 9 9 9 9 9 9 ",
"9 9 9 9 9 9 9 9 i % -.LX.X X X X X X X X X X X X X X X X X X X X X X X X X X X X X X X.X7XoX@ i , * 9 q 9 P p 9 9 9 9 9 9 9 9 9 9 9 9 9 9 9 9 9 9 9 9 9 9 9 9 9 9 9 9 9 8 9 9 9 9 9 9 9 9 9 9 9 9 9 9 9 9 9 9 9 9 9 9 9 9 9 9 9 9 9 9 9 9 9 9 9 9 9 9 9 9 9 9 9 q P q q 9 * * q 9 9 9 i , J.s x.q.:XB.F.q 9 q 9 9 q , * 8 i 9 W J -.W 9 W %XW OXW 9 q 9 * * 9 9 p P 9 9 9 9 9 9 9 9 9 8 9 9 9 9 9 9 9 9 9 9 9 8 j s 9 j p 9 9 8 9 9 9 8 9 9 8 8 9 8 9 9 9 9 9 9 9 9 9 9 9 9 9 9 P i 9 q 9 9 9 9 9 9 9 9 9 9 9 9 9 9 9 9 9 9 9 9 ",
"9 9 9 9 9 9 9 9 i % -.PX7XLXLXLXLXLXLXLXLXLXLXLXLXLXLXLXLXLXLXLXLXLXLXLXLXLXLXLXLXLXLX7XPXoX@ i , * 9 q 9 P s i p p p p p p p p p p p p p p p p p p p p p p p p p p p p p p p p p p p p p p p p p p p p p p p p p p p p p p p p p p p p p p p p p p p p p p p i p P q q 9 * * q 9 9 9 i , n.m.>Xw.:XR >Xs 9 q 9 9 q , * 8 q q 8 9 K q a K W a -.W 9 q 9 * * 9 9 i U j j j j j j j j j j j j j j j j j j j j j j U s 9 P P j j j j j j j j j j j j j j j j j j j j j j j j j j j U i 9 q 9 9 9 9 9 9 9 9 9 9 9 9 9 9 9 9 9 9 9 9 ",
"9 9 9 9 9 9 9 9 q 9 J -.oXoXoXoXoXoXoXoXoXoXoXoXoXoXoXoXoXoXoXoXoXoXoXoXoXoXoXoXoXoXoX-.-.L 8 i , * 9 q 9 j P P P P P P P P P P P P P P P P P P P P P P P P P P P P P P P P P P P P P P P P P P P P P P P P P P P P P P P P P P P P P P P P P P P P P P P P P P P j q 9 9 * * 9 9 9 9 9 9 i l.w.s w.M.U 8 q 9 9 9 q , * 8 q 9 q q 8 9 9 8 8 9 8 8 9 9 9 * * 9 9 q s s s s s s s s s s s s s s s s s s s s s s s s i 9 p s s s s s s s s s s s s s s s s s s s s s s s s s s s s s q 9 9 9 9 9 9 9 9 9 9 9 9 9 9 9 9 9 9 9 9 9 9 ",
"q q q q q q q q q i 9 8 % @ @ @ @ @ @ @ @ @ @ @ @ @ @ @ @ @ @ @ @ @ @ @ @ @ @ @ @ @ @ % @ 9 i i , * 9 i q q q q q q q q q q q q q q q q q q q q q q q q q q q q q q q q q q q q q q q q q q q q q q q q q q q q q q q q q q q q q q q q q q q q q q q q q q q q q q q q 9 * * q q q q q q 9 , , 9 , * 9 i q q q q i , * 9 i q q q i q q i i i i i q q 9 * * q q q 9 9 9 9 9 9 9 9 9 9 9 9 9 9 9 9 9 9 9 9 9 9 9 9 q q 9 9 9 9 9 9 9 9 9 9 9 9 9 9 9 9 9 9 9 9 9 9 9 9 9 9 9 9 9 9 q q q q q q q q q q q q q q q q q q q q q q q ",
", , , , , , , , , , , < < < < < < < < < < < < < < < < < < < < < < < < < < < < < < < < < < , , , * * * , , , , , , , , , , , , , , , , , , , , , , , , , , , , , , , , , , , , , , , , , , , , , , , , , , , , , , , , , , , , , , , , , , , , , , , , , , , , , , , , , * * * , , , , , , , 8 8 , 8 8 , , , , , , , * * * , , , , , , , , , , , , , , , * * , , , , , , , , , , , , , , , , , , , , , , , , , , , , , , , , , , , , , , , , , , , , , , , , , , , , , , , , , , , , , , , , , , , , , , , , , , , , , , , , , , ",
"o o o o o o o o o o o o o o o o o o o o o o o o o o o o o o o o o o o o o o o o o o o o o o o o * * o o o o o o o o o o o o o o o o o o o o o o o o o o o o o o o o o o o o o o o o o o o o o o o o o o o o o o o o o o o o o o o o o o o o o o o o o o o o o o o o o o o * * o o o o o o o o o o o o o o o o o o o * * * o o o o o o o o o o o o o o o * * o o o o o o o o o o o o o o o o o o o o o o o o o o o o o o o o o o o o o o o o o o o o o o o o o o o o o o o o o o o o o o o o o o o o o o o o o o o o o o o o o o ",
"j j j j j j j j j j j j j j j j j j j j j j j j j j j j j j j j j j j j j j j j j j j j j j j j g g g j j j j j j j j j j j j j j j j j j j j j j j j j j j j j j j j j j j j j j j j j j j j j j j j j j j j j j j j j j j j j j j j j j j j j j j j j j j j j j j j j g g g j j j j j j j j j j j j j j j j j g j 9 o p j g j j j j j j j j j j j j g g g j j j j j j j j j j j j j j j j j j j j j j j j j j j j j j j j j j j j j j j j j j j j j j j j j j j j j j j j j j j j j j j j j j j j j j j j j j j j j j j j j j ",
"Y Y Y Y Y Y Y Y Y Y Y Y Y Y Y Y Y Y Y Y Y Y Y Y Y Y Y Y Y Y Y Y Y Y Y Y Y Y Y Y Y Y Y Y Y Y Y Y Y Y Y Y Y Y Y Y Y Y Y Y Y Y Y Y Y Y Y Y Y Y Y Y Y Y Y Y Y Y Y Y Y Y Y Y Y Y Y Y Y Y Y Y Y Y Y Y Y Y Y Y Y Y Y Y Y Y Y Y Y Y Y Y Y Y Y Y Y Y Y Y Y Y Y Y Y Y Y Y Y Y Y Y Y Y Y Y Y Y Y Y Y Y Y Y Y Y Y Y Y Y Y Y Y R i X g R Y Y Y Y Y Y Y Y Y Y Y Y Y Y Y Y Y Y Y Y Y Y Y Y Y Y Y Y Y Y Y Y Y Y Y Y Y Y Y Y Y Y Y Y Y Y Y Y Y Y Y Y Y Y Y Y Y Y Y Y Y Y Y Y Y Y Y Y Y Y Y Y Y Y Y Y Y Y Y Y Y Y Y Y Y Y Y Y Y Y Y Y Y Y Y Y Y Y ",
"U U U U U U U U U U U U U U U U U U U U U U U U U U U U U U U U U U U U U U U U U U U U U U U U U U U U U U U U U U U U U U U U U U U U U U U U U U U U U U U U U U U U U U U U U U U U U U U U U U U U U U U U U U U U U U U U U U U U U U U U U U U U U U U U U U U U U U U U U U U U U U U U U U U U U U U U U Y u X s Y U P Y j P U U U U U U U U U U U U U U U U U U U U U U U U U U U U U U U U U U U U U U U U U U U U U U U U U U U U U U U U U U U U U U U U U U U U U U U U U U U U U U U U U U U U U U U U U U U U U ",
"U U U U U U U U U U U U U U U U U U U U U U U U U U U U U U U U U U U U U U U U U U U U U U U U U U U U U U U U U U U U U U U U U U U U U U U U U U U U U U U U U U U U U U U U U U U U U U U U U U U U U U U U U U U U U U U U U U U U U U U U U U U U U U U U U U U U U U U U U U U U U U U U U U U U U U U U U Y i X g Y j :X>X:XY P Y P U Y j U Y P R U U Y P P Y U U U U U U U U U U U U U U U U U U U U U U U U U U U U U U U U U U U U U U U U U U U U U U U U U U U U U U U U U U U U U U U U U U U U U U U U U U U U U ",
"U U U U U U U U U U U U U U U U U U U U U U U U U U U U U U U U U U U U U U U U U U U U U U U U U U U U U U U U U U U U U U U U U U U U U U U U U U U U U U U U U U U U U U U U U U U U U U U U U U U U U U U U U U U U U U U U U U U U U U U U U U U U U U U U U U U U U U U U U U U U U U U U U U U U U U U U U Y i X g Y P >XU G.B.n.:Xq.B.:Xx.:XM.F.:Xq.G.J.l.<Xx.P U U U U U U U U U U U U U U U U U U U U U U U U U U U U U U U U U U U U U U U U U U U U U U U U U U U U U U U U U U U U U U U U U U U U U U U U U U U U ",
"U U U U U U U U U U U U U U U U U U U U U U U U U U U U U U U U U U U U U U U U U U U U U U U U U U U U U U U U U U U U U U U U U U U U U U U U U U U U U U U U U U U U U U U U U U U U U U U U U U U U U U U U U U U U U U U U U U U U U U U U U U U U U U U U U U U U U U U U U U U U U U U U U U U U U U U U U Y i X g Y P :XU 8.<X,X:X,X<X:X<X:Xq.J.B.m.,X:X<X:Xj Y U U U U U U U U U U U U U U U U U U U U U U U U U U U U U U U U U U U U U U U U U U U U U U U U U U U U U U U U U U U U U U U U U U U U U U U U U U U U ",
"U U U U U U U U U U U U U U U U U U U U U U U U U U U U U U U U U U U U U U U U U U U U U U U U U U U U U U U U U U U U U U U U U U U U U U U U U U U U U U U U U U U U U U U U U U U U U U U U U U U U U U U U U U U U U U U U U U U U U U U U U U U U U U U U U U U U U U U U U U U U U U U U U U U U U U U U U Y i X g Y P <X8.:XG.<Xn.v.,Xn.8.q.,X8.J.,X>Xw.B.G.j Y U U U U U U U U U U U U U U U U U U U U U U U U U U U U U U U U U U U U U U U U U U U U U U U U U U U U U U U U U U U U U U U U U U U U U U U U U U U U ",
"U U U U U U U U U U U U U U U U U U U U U U U U U U U U U U U U U U U U U U U U U U U U U U U U U U U U U U U U U U U U U U U U U U U U U U U U U U U U U U U U U U U U U U U U U U U U U U U U U U U U U U U U U U U U U U U U U U U U U U U U U U U U U U U U U U U U U U U U U U U U U U U U U U U U U U U U U Y i X s Y j G.>XB.j x.:X8.x.J.w.J.M.m.:X8.m.F.l.x.j Y U U U U U U U U U U U U U U U U U U U U U U U U U U U U U U U U U U U U U U U U U U U U U U U U U U U U U U U U U U U U U U U U U U U U U U U U U U U U ",
"U U U U U U U U U U U U U U U U U U U U U U U U U U U U U U U U U U U U U U U U U U U U U U U U U U U U U U U U U U U U U U U U U U U U U U U U U U U U U U U U U U U U U U U U U U U U U U U U U U U U U U U U U U U U U U U U U U U U U U U U U U U U U U U U U U U U U U U U U U U U U U U U U U U U U U U U U Y i X g Y U j j j U P j U P j P j j P j P j P P P U U U U U U U U U U U U U U U U U U U U U U U U U U U U U U U U U U U U U U U U U U U U U U U U U U U U U U U U U U U U U U U U U U U U U U U U U U U U U U ",
"U U U U U U U U U U U U U U U U U U U U U U U U U U U U U U U U U U U U U U U U U U U U U U U U U U U U U U U U U U U U U U U U U U U U U U U U U U U U U U U U U U U U U U U U U U U U U U U U U U U U U U U U U U U U U U U U U U U U U U U U U U U U U U U U U U U U U U U U U U U U U U U U U U U U U U U U U Y u X s Y U U Y U U U U U U U U U U U U U U U U U U U U U U U U U U U U U U U U U U U U U U U U U U U U U U U U U U U U U U U U U U U U U U U U U U U U U U U U U U U U U U U U U U U U U U U U U U U U U U U ",
"u u u u u u u u i i 9 * , < < < < < < < < < < < < < < < < < < < < < < < < < < < < < < < < < < < < < < < < < < < < < < < < < < < < < < < < < < < < < < < < < < < < < < < < < < < < < < < * * 9 i i i i i i i i i i i i i i i i i i i i i i i i i i i i i i i i i i i i i i i i i i i i i i i i i i i i i i i i i i i 8 * 9 i i i i i i i i i i i i i i i i i i i i i i i i i i i i i i i i i i i i i i i i i i i i i i i i i i i i i i i i i i i i i i i i i i i i i i i i i i i i i i i i i i i i i i i i i i i i i i i i i i i ",
"w w w w w w w w 9 q 8 * * * * * * * * * * * * * * * * * * * * * * * * * * * * * * * * * * * * * * * * * * * * * * * * * * * * * * * * * * * * * * * * * * * * * * * * * * * * * * * * * * * 9 q 9 9 9 9 9 9 9 9 9 9 9 9 9 9 9 9 9 9 9 9 9 9 9 9 9 9 9 9 9 9 9 9 9 9 9 9 9 9 9 9 9 9 9 9 9 9 9 9 9 9 9 9 9 9 9 9 9 q , * 8 q 9 9 9 9 9 9 9 9 9 9 9 9 9 9 9 9 9 9 9 9 9 9 9 9 9 9 9 9 9 9 9 9 9 9 9 9 9 9 9 9 9 9 9 9 9 9 9 9 9 9 9 9 9 9 9 9 9 9 9 9 9 9 9 9 9 9 9 9 9 9 9 9 9 9 9 9 9 9 9 9 9 9 9 9 9 9 9 9 9 9 9 9 9 9 9 9 9 9 ",
"[.[.[.[.[.[.[.B < q 9 * * , * 9 p p p p p p p p p p p p p p p p p p p p p p p p p p p p p p p p p p p p p p p p p p p p p p p p p p p p p p p p p p p p p p p p p p p p p p p p p 9 * , * * 9 q 9 q q 9 q q q q q q 9 q 9 * * * * * * * * * * * * * * * * * * * * * * * * * * * * * * * * * * 8 * * * * * * * 8 q q , * 8 q 9 9 9 9 i i q 9 q 9 q q 9 9 q 9 9 9 9 9 9 9 9 9 9 9 9 q 9 q q q q 9 q 9 9 9 9 9 9 9 9 9 9 9 9 9 9 9 9 9 9 9 q i i i 9 9 q 9 9 9 9 9 9 9 q 9 9 q 9 9 9 9 9 9 9 9 9 9 9 q 9 q i 9 q q q q 9 9 9 9 q 9 ",
"M M M M M M B [.< q 9 * * * * 9 i * , , , , , , , , , , , , , , , , , , , , , , , , , , , , * * , * * * * * * * , * * , , , , , , , , , , , , , , , , , , , , , , , , , , , , * i 9 * * * * 9 q 9 9 9 q 8 8 q 9 , 8 9 q 9 * * * * * * * * * * * o * * * * * * * * * * * * * * * * * * * * * * 8 * * * o * * * 8 q q , * 8 q 9 9 9 q , * 8 q i i 9 9 g i q i q 9 9 9 9 9 9 9 9 9 9 9 q 8 9 8 8 i i q q i q q i q 9 9 9 9 9 9 9 9 9 9 9 9 9 , * , p i q q i q q i q i q p p q q 9 9 9 9 9 9 9 9 9 9 9 q 9 , q 9 q 9 q q i q i q p ",
"M M M M M M B B < q 9 * * * * 9 u * * * * * * * * * * * * * * * * * * * * * * * * * * * * * < i * u 9 , < , < < * i , * * * * * * * * * * * * * * * * * * * * * * * * * * * * * i 9 * * * * 9 q 9 s q 9 j R 9 p R U 9 q 9 * * O X * O   * * * * 9 X O   * *   * * * * * * * * * * * * * * * * 8 * * o i * * * 8 q q , * 8 q 9 9 q 9 m.K.o.8 8 , g 9 j p , , 9 q 9 9 9 9 9 9 9 9 9 q 8 8.j o.o.* , 9 9 , 9 9 , 9 q 9 9 9 9 9 9 9 9 9 q 9 q m.:Xn.K.p * 9 * 9 9 , 9 8 X v.8.  q q 9 9 9 9 9 9 9 9 9 q 8 R l., j 8 j 9 8 , 9 9   B.",
"M M M M M M B B < q 9 * * * * 9 u * * * * * * * * * * * * * * * * * * * * * * * * * * * , * s #.g Q i T G a E i , T P * , * * * * * * * * * * * * * * * * * * * * * * * * * * * i 9 * * * * 9 q q K.i i >XF.n.n.:X8.q 9 9 * X w.R , B.w.* *   * B.j K.v.8 9 o.O   * o O * q X * * * * * * * * 8 * X P FXR   * 8 q q , * 8 q 9 9 9 q :XU >Xj B.8.:X:X8.s x.G.s 9 q 9 9 9 9 9 9 9 9 i * n.B.F.j m.J.P j F.Y P F.Y 8 q 9 9 9 9 9 9 9 9 9 9 9 g >Xj J.:Xw.g F.o.Y F.P x.v.m.>Xm.p 9 q 9 9 9 9 9 9 9 9 i , M.>Xp FXm.FXw.o.F.s w.m.F.",
"M M M M M M B B < q 9 * * * * 9 u * * * * * * * * * * * * * * * * * * * * * * * * * * * * * a E P E i Q E T e.* * u s * * * * * * * * * * * * * * * * * * * * * * * * * * * * * i 9 * * * * 9 q q :Xp p :Xw.F.n.n.p 9 q 9 * * K.v.* s F.j O 8.J.F.w.8.x.8.o.q.8.F.8 g B.B.,Xp o * * * * * * * 8 * o V.,XG.* * 8 q q , * 8 q 9 9 q 9 >X<Xx.9 v.:XJ.o.B.n.m.0.F.* i 9 9 9 9 9 9 9 9 i * w.UXR p <X8.F.J.J.>X>XF.>X9 q 9 9 9 9 9 9 9 9 9 q 9 9 J.9 K.0.F.x.>Xq >XF.>X>XR n.n.M.q., q 9 9 9 9 9 9 9 q 9 p :X:Xo.K.P :Xs P K.J.J.i B.",
"M M M M M M B B < q 9 * * * * 9 u * * * * * * * * * * * * * * * * * * * * * * * * * * * , * G Q 8 Q P Q E T Q i < $.u * * * * * * * * * * * * * * * * * * * * * * * * * * * * * i 9 * * * * 9 q i J., 9 ,Xm.9 m.>X8.9 q 9 *   P v.+ 8 J.* 9 J.U F.8.<X:Xs x.8.n.Y M.B.g R B.  * * * * * * * * 8 * * p 9 p , * 8 q q , * 8 q 9 9 9 i K.n.n.v.K.:XJ.U n.B.x.j J.* i 9 9 9 9 9 9 9 9 i * n.F.J.R B.p J.:XB.q.,Xm.0.9 9 9 9 9 9 9 9 9 9 9 q 9 q :Xi K.p M.m.v., ,Xn.8.j J.:XU w.w.* i 9 9 9 9 9 9 9 q , 0.>XJ.M.J.p K.j K.K.>XF.O F.",
"M M M M M M B B < q 9 * * * * 9 u * * * * * * * * * * * * * * * * * * * * * * * * * * * * * 9 , * s G , < p 9 u 9 T i * * * * * * * * * * * * * * * * * * * * * * * * * * * * * i 9 * * * * 9 q 9 <Xw.R K., * F.R o i q 9 * O R n.O F.j O s F.9 F.w.8.R :Xw.Y v.u G.F.* P m.O * * * * * * * * 8 * X V.IX:X* * 8 q q , * 8 q 9 9 9 q B.i B.M.J.m.w.F.m.U B.:XY 8 q 9 9 9 9 9 9 9 9 i * x.Y 0.M.x.g n.R K.o.8.J.8.9 q 9 9 9 9 9 9 9 9 9 q 9 q B.i m.s x.w.x.* w.F.8.n.F.B.U 0.8., q 9 9 9 9 9 9 9 q 8 n.j * m.F.x.m.B.F.J.q.B.F.m.",
"M M M M M M B B < q 9 * * * * 9 u * * * * * * * * * * * * * * * * * * * * * * * * * * * * * * * * * * * * * * * * * * * * * * * * * * * * * * * * * * * * * * * * * * * * * * * i 9 * * * * 9 q 9 0.M.R Y i 9 U j 9 q q 9 *   P 8.R ,Xm.s   v.K.v.R >XM.n.Y X m.K.p R :XR J.g X * * * * * * * 8 * o 9 <Xs X * 8 q q , * 8 q 9 9 9 9 9 9 9 9 p 9 9 i 9 9 9 i 9 q 9 9 9 9 9 9 9 9 9 9 q 9 9 9 9 9 9 9 9 p p 8 p p 9 9 9 9 9 9 9 9 9 9 9 9 9 9 9 9 9 9 9 9 9 q 9 s i p i 8 9 9 9 q 9 9 9 9 9 9 9 9 9 q 9 9 q 9 9 i 9 q 9 i 8 9 p 9 ",
"M M M M M M B B < q 9 * * * * 9 u * * * * * * * * * * * * * * * * * * * * * * * * * * * * * * * * * * * * * * * * * * * * * * * * * * * * * * * * * * * * * * * * * * * * * * * u 9 * * * * 9 q q , * 8 8 9 q 8 9 q 9 q 9 * * * * * * 8 * * o * o * * * X * * o * o o * * * * * * * * * * * * 8 * * * * * * * 8 q q , * 8 q 9 9 9 9 q q q q 9 q q 9 9 q 9 9 q 9 9 9 9 9 9 9 9 9 9 9 9 q q q 9 q 9 q q 9 9 q 9 9 9 9 9 9 9 9 9 9 9 9 9 9 9 9 q 9 q 9 q q q 9 q 9 9 9 9 q 9 q q 9 9 9 9 9 9 9 9 9 9 9 9 q q q q 9 q 9 9 9 q q 9 q ",
"B B B B B B B [.< q 9 * * * * 9 i 8 8 8 8 8 8 8 8 8 8 8 8 8 8 8 8 8 8 8 8 8 8 8 8 8 8 8 8 8 8 8 8 8 8 8 8 8 8 8 8 8 8 8 8 8 8 8 8 8 8 8 8 8 8 8 8 8 8 8 8 8 8 8 8 8 8 8 8 8 8 8 p 9 * * * * 9 q 9 i i q q 9 9 q q 9 9 q 9 * * * * * * * * * * * * * * * * * * * * * * * * * * * * * * * * * * 8 * * * * * * * 8 q q , * 8 q 9 9 9 9 9 9 9 9 9 9 9 9 9 9 9 9 9 9 9 9 9 9 9 9 9 9 9 9 9 9 9 9 9 9 9 9 9 9 9 9 9 9 9 9 9 9 9 9 9 9 9 9 9 9 9 9 9 9 9 9 9 9 9 9 9 9 9 9 9 9 9 9 9 9 9 9 9 9 9 9 9 9 9 9 9 9 9 9 9 9 9 9 9 9 9 9 9 9 ",
"B B B B B B [.A u q 9 * * * * 8 p i i i i i i i i i i i i i i i i i i i i i i i i i i i i i i i i i i i i i i i i i i i i i i i i i i i i i i i i i i i i i i i i i i i i i i i p 8 * * * * 9 q 9 9 9 9 9 9 9 9 9 9 9 q 9 * * * * * * * * * * * * * * * * * * * * * * * * * * * * * * * * * * 8 * * * * * * * 8 q q , * 8 q 9 9 9 9 9 9 9 9 9 9 9 9 9 9 9 9 9 9 9 9 9 9 9 9 9 9 9 9 9 9 9 9 9 9 9 9 9 9 9 9 9 9 9 9 9 9 9 9 9 9 9 9 9 9 9 9 9 9 9 q i i u u u u i i q 9 9 9 9 9 9 9 9 9 9 9 9 9 9 9 9 9 9 9 9 9 9 9 9 9 9 9 9 9 ",
"< < < < < < < u 9 q 9 * * * * * * * * * * * * * * * * * * * * * * * * * * * * * * * * * * * * * * * * * * * * * * * * * * * * * * * * * * * * * * * * * * * * * * * * * * * * * * * * * * * 9 q 9 9 9 9 9 9 9 9 9 9 9 9 9 q q q q q q q q q q q q q q q q q q q q q q q q q q q q q q q q q q q q q q q q q q q 9 q , * 8 q 9 9 9 9 9 9 9 9 9 9 9 9 9 9 9 9 9 9 9 9 9 9 9 9 9 9 9 9 9 9 9 9 9 9 9 9 9 9 9 9 9 9 9 9 9 9 9 9 9 9 9 9 9 9 9 9 9 q i 9 < < < < < < , < q i 9 9 9 9 9 9 9 9 9 9 9 9 9 9 9 9 9 9 9 9 9 9 9 9 9 9 9 9 ",
"q q q q q q q q 9 q 9 * * * * * * * * * * * * * * * * * * * * * * * * * * * * * * * * * * * * * * * * , * , * * * * * * * * * * * * * * * * * * * , * * * * * * * * * * * * * * * * * * * * 9 q 9 9 9 9 9 9 9 q 9 9 9 q 9 9 9 9 9 9 9 9 9 9 9 9 9 9 9 9 9 9 9 9 9 9 9 9 9 9 9 9 9 9 q 9 9 q 9 9 9 9 9 9 9 9 9 9 9 q , * 8 q 9 9 9 9 9 9 9 9 9 9 9 9 9 9 9 9 9 9 9 9 9 9 9 9 9 9 9 9 9 9 9 9 9 9 9 9 9 9 9 9 9 9 9 9 9 9 9 9 9 9 9 9 9 9 9 9 u 9 , d { |.jXgXjXjX| ] 9 , 9 q 9 9 9 9 9 9 9 9 9 9 9 9 9 9 9 9 9 9 9 9 9 9 9 9 9 9 ",
"9 9 q 9 9 9 9 9 9 q 9 * * * * * * * * * * 8 8 * * * * * , * * * * * * * * * * * * * * * * * * * * * * * 8 * * * * * * * * * * * * * * * * * * * * * * 8 * * * 8 p * * * * * * * * * * * * * 9 q 9 9 9 9 9 9 q 9 9 p i 9 9 q 9 q q 9 q 9 9 9 9 9 9 9 9 9 9 9 9 9 9 9 9 9 9 9 9 9 9 q 8 i q 8 q 9 9 9 9 9 9 9 9 9 9 q , * 8 q 9 9 9 9 9 9 9 9 q q q q q 9 9 9 9 9 9 9 9 9 9 9 9 9 9 9 9 9 9 9 q q i i i q 9 9 9 9 9 9 9 9 9 9 9 9 9 9 9 9 9 i < s | nXbXbXbXbXbXbXbXcXjX{ 9 9 q 9 9 9 9 9 9 9 9 9 9 9 9 9 9 9 9 q q q q q q 9 9 9 ",
"9 i 9 q 9 9 9 9 9 q 9 * * * * * * * , o 8.c.E * < * , < * , * * * * * * * * * * * * * * * * * * * * , q.l.#.* * * * * * * * * * * * * * * * * , * g l.q.i , 8 * i * < * * * * * * * * * * * 9 q 9 9 9 9 9 q 9 p >XG.U , p 9 p 9 9 p 9 9 9 9 9 9 9 9 9 9 9 9 9 9 9 9 9 9 9 9 9 9 q 8 8.:XK.Y 8 q 9 9 9 9 9 9 9 9 9 q , * 8 q 9 9 9 9 9 9 q q 9 9 9 9 9 q q 9 9 9 9 9 9 9 9 9 9 9 9 9 9 9 9 q q 9 8 8 8 9 q i 9 9 9 9 9 9 9 9 9 9 9 9 9 9 i , ] fXbXcXjX| ] ! ! ] | fXbXxX| i 9 q 9 9 9 9 9 9 9 9 9 9 9 9 9 q q 9 < 1 1 < 9 q q 9 ",
":X:Xo.8 q 9 9 9 9 q 9 * * * * * * * , X q.P X q.q.p q.8.s l.n.j * , * * * * * * * * * * * * * * , o R e.O l.P = , * * * * * * * * * * * * * * * * n.p , * P l.P R R c.w.8 * * * * * * * * * 9 q 9 9 9 9 9 q 9 j :X9 j <X0.8.:X8.w.:X:X9 9 9 9 9 9 9 9 9 9 9 9 9 9 9 9 9 9 9 9 q 9 q >Xp U :X8 q 9 9 9 9 9 9 9 9 9 q , * 8 q 9 9 9 9 q q 9 9 a h J h p 9 9 q q 9 9 9 9 9 9 9 9 9 9 9 9 q q 8 9 L @.+.@.h 8 8 q q 9 9 9 9 9 9 9 9 9 9 9 i , { xXbXjX` X O   X X     * { dXdX| d 9 q 9 9 9 9 9 9 9 9 9 9 9 q 9 1 p x ' ' ` p 1 9 q ",
"M.U F.* i 9 9 9 9 q 9 * * * * * * * , X q.m.g c.9 R c.l.V.p R R X , * * * * * * * * * * * * * * , X 0.P + R R X , * * * * * * * * * * * * * * * u l.o x.R p x.l.#.q.s 8.g * * * * * * * * * 9 q 9 9 9 9 9 q 9 s ,XB.q.:X* ,XF.,X:Xq >Xi 9 9 9 9 9 9 9 9 9 9 9 9 9 9 9 9 9 9 9 q 9 j :X* q >X9 9 9 9 9 9 9 9 9 9 9 q , * 8 q 9 9 9 q 9 8 h @.*.*.*.*.*.@.J 9 9 q 9 9 9 9 9 9 9 9 9 9 q 9 9 @.@XBXSXSXSXNX@X@.8 9 q 9 9 9 9 9 9 9 9 9 i < ] xXcX|.o X * * * * * * * s 9 ; | dX| d 9 q 9 9 9 9 9 9 9 9 9 q < q [ _.'.lXlXlX'.^.f 1 ",
"n.U J.* i 9 9 9 9 q 9 * * * * * * * , X w.s   c., U n.s 0.R e.E o , * * * * * * * * * * * * * * , = P l.< l.s * , * * * * * * * * * * * * * * * * c.g U c.l.l.x.8.q.i e.g * , * * * * * * * 9 q 9 9 9 9 9 q 8 j :X  R G.o >Xm.R :XR >Xq 9 9 9 9 9 9 9 9 9 9 9 9 9 9 9 9 9 9 9 9 q 9 :Xo.8.F., q 9 9 9 9 9 9 9 9 9 q , * 8 q 9 9 q 9 9 <.@X*.&.......&.*.*.@.u 9 q 9 9 9 9 9 9 9 9 q 9 i <.VXSXDX@X,.<.DXSXVX,.q 9 q 9 9 9 9 9 9 9 q 9 s fXbX|.  * * * * * * * * * IXIX  * | dX .9 q 9 9 9 9 9 9 9 9 q < f ^.lXlX^.^.^.^.'.lX'.' ",
"o.g 0.8 q 9 9 9 9 q 9 * * * * * * * , * P i * E 8 * R #.u #.n.U o , * * * * * * * * * * * * * * * * * U V.x.= , * * * * * * * * * * * * * * * * * i q.w.g R #.P P P 9 P i * * * * * * * * * 9 q 9 9 9 9 9 q 9 s w.8 j q.* U F.o.o.F.<Xq 9 9 9 9 9 9 9 9 9 9 9 9 9 9 9 9 9 9 9 9 q 9 j F.IXU 8 q 9 9 9 9 9 9 9 9 9 q , * 8 q 9 q q 9 <.SXDX5 X * o o * 5 &.*.@.9 9 q 9 9 9 9 9 9 q 9 q @XSXDX%.< o . o , @.NXSX@X9 9 q 9 9 9 9 9 9 i , |.bXjXX * * * * * * * * O G.UX8.  * > |.|.! 9 q 9 9 9 9 9 9 q 9 f '.lX^.x * X X X 0 [ '.lX",
"8 9 8 q 9 9 9 9 9 q 9 * * * * * * * * * * * , * * * * * * O E E X , * * * * * * * * * * * * * * * * * o , R < * * * * * * * * * * * * * * * * * * * o o * * = * * * * * * * * * * * * * * * 9 q 9 9 9 9 9 9 q 9 8 q 9 8 i 9 , 9 8 * J.p 9 9 9 9 9 9 9 9 9 9 9 9 9 9 9 9 9 9 9 9 9 q 9 * 8.o.8 q 9 9 9 9 9 9 9 9 9 q , * 8 q 9 i ; %.SXDX5 q #.o * * * o < &.*.@.9 q 9 9 9 9 9 9 i ; ,.SXDX5 O * * * * * . 3 DXSX&.8 i 9 9 9 9 9 q 9 f nXxX! X * * * * * * *   P UX:XO * * X  .dX{ 9 q 9 9 9 9 9 q 9 9 ).lX^.;   * * * * =   ' '.",
"q q q 9 9 9 9 9 9 q 9 * * * * * * * * * , * * , , , < < , , 8 < * * * * * * * * * * * * * * * * * * , < , * * * * * * * * * * * * * * * * * * * * * , , , < < , , , * , * * * * * * * * * * 9 q 9 9 9 9 9 9 9 q i 9 q i i i i i i i p q 9 9 9 9 9 9 9 9 9 9 9 9 9 9 9 9 9 9 9 9 9 q u i 8 9 q 9 9 9 9 9 9 9 9 9 9 q , * 8 q q 9 a DXVXX.+ B.UXP   * * * o 1 &.*.a 9 q 9 9 9 9 q 9 h NXBXJ . * * * * * * , O L BXNXh 9 q 9 9 9 9 i , { bXjXX * * * * * * * * * IXUX8 o * * * : |.|.d 9 q 9 9 9 9 q < ' lX^.* = * * * * * * *   [ ",
"q 9 9 9 9 9 9 9 9 q 9 * * * * * * * * * * , * * * * * * * , * * * * * * * * * * * * * * * * * * , * * * * * * * , * * * * * * * * * * * * * * * * * , * * * * * * * , * * * * * * * * * * * 9 q 9 9 9 9 9 9 9 9 q i 9 e e @ e e 9 q 9 9 9 9 9 9 9 9 9 9 9 9 9 9 9 9 9 9 9 9 9 q 9 9 0 e 0 0 9 q q 9 9 9 9 9 9 9 9 q , * 8 q q 8 +.SX@Xo * 8 IXIX, * * * * o ..*.X.9 q 9 9 9 9 i 8 %.SX<.. * * * * * o O   *   <.SX%.8 i 9 9 9 9 u < dXbX{   * * * * * * * O w.UXe.O * * * * X | dX! 9 q 9 9 9 9 q < ^.lX'   * * * * * * * * o : ",
"< 9 q 9 9 9 9 9 9 q 9 * * * * * * * * * , * * p P U U g 9 * * , * * * * * * * * * * * * * * , * * 9 g U U P i * * , * * * * * * * * * * * * * * * * * , s P U U s < * * * * * * * * * * * * 9 q 9 9 9 9 9 9 9 u 9 e a =..X.X.XF i 0 q q 9 9 9 9 9 9 9 9 9 9 9 9 9 9 9 9 9 q q 0 q S F ^ ^ D i 0 9 q 9 9 9 9 9 9 9 q , * 8 q q 8 ,.SX%.. , O #.UX8.  * * * o 5 *.@.9 q 9 9 9 9 q 8 <.SX@.. * * * * * u x.,XIXU 6 <.@.9 q 9 9 9 9 q 9 gXcX! X * * * * * * * * i q.* * * * * * X  .dX .< q 9 9 9 q 9 p '.'.0 = * * * * * * * * 8 X ",
"N 9 9 q 9 9 9 9 9 q 9 * * * * * * * * * * p 8.n.M.B.B.M.v.R 9 * , * * * * * * * * * * * * , * 9 R v.m.B.B.M.n.e.g * * * * * * * * * * * * * * * * * g w.m.M.B.B.m.l.Y 8 * * * * * * * * * * 9 q 9 9 9 9 9 9 u 0 i .XKXHXHXHXHXHX9XF 9 9 q 9 9 9 9 9 9 9 9 9 9 9 9 9 9 9 q 9 9 D =. X X X X X.X=.i 9 q 9 9 9 9 9 9 q , * 8 q q 8 @XSXL . * * * s * * * * * * 1 *.%.9 9 9 9 9 9 q 8 @XVXh o * * * * O n.UXUX,Xs 1 *.@.9 q 9 9 9 q 9 9 fXcXd X * * * * * * * * o   * * * * * * X ! dX .< u 9 9 9 q 9 f '.^.* * * * * *   G.UXUXUX1 ",
"[.B w 9 q 9 9 9 9 q 9 * * * * * * * * * Y n.M.w.R j P R x.B.x.s * , * * * * * * * * * * , * p l.M.v.8.P j U q.M.m.R * * * * * * * * * * * * * * < 8.m.m.q.Y j P 8.n.B.R , * * * * * * * * * 9 q 9 9 9 9 9 u e J 9XHXHX=X.X=..X9X=X.X=.i 9 q 9 9 9 9 9 9 9 9 9 9 9 9 9 q 9 q =. X X=.^ F F =..X X.XS 9 q 9 9 9 9 9 q , * 8 q q 8 @XSXL . * * * X * * * * * * 1 *.&.9 9 9 9 9 9 q 8 @XVXh o * * * * o u U *     2 *.%.9 q 9 9 9 q 9 9 fXcXd X * * * * * * * * * * * * * * * * X  .dX .< u 9 9 9 q 9 f '._.* * * * * * X l.,X:X:X< ",
"B [.B w 9 q 9 9 9 q 9 * * * * * * , * R m.v.j =   O O   * R m.v.p * , * * * * * * * * , * p v.m.o.,   O O O X s x.M.R * * * * * * * * * * * * * 8.M.w.p X O O   O * R P g < * * * * * * * * 9 q 9 9 9 9 q 9 J 9XHX9XF o . . .   7 =. X=.9 9 9 9 9 9 9 9 9 9 9 9 9 9 9 q 9 =. X.XF * o . . o 4 =. X.Xa 9 q 9 9 9 9 q , * 8 q q 8 ,.SX&.. * * * * * * * * * o 2 *.@.9 q 9 9 9 9 q 8 @XSX%.. * * * * * o   * * * 5 *.@.9 q 9 9 9 9 q 9 jXcX] X * * * * * * * * * * * * * * * * X  .dX .< q 9 9 9 q 9 d '.'.r X * * * * * X O O O o ",
"* B [.M u q 9 9 9 q 9 * * * * * , * p m.x.i O   X X X X   O P m.w.8 * * * * * * * * * * * q.m.Y     X X X X   O 9 x.m.g * , * * * * * * * , * P M.q., O X X o   9 s O p P s * * * * * * * * 9 q 9 9 9 9 u e =XHX=X< . * *   n.,Xo < =. X^ 0 q 9 9 9 9 9 9 9 9 9 9 9 q 0 F  X.X4 . * * * * * o o ^  X=.9 9 9 9 9 9 q , * 8 q q 8 @.SX@Xo * * * * * * * * * o ..*.L 9 q 9 9 9 9 i 8 +.SX@X. * * * * * * * * * * ..*.J 9 q 9 9 9 9 i < |.bX| O * * * * * * * * * * * * * * * * o | dX! 9 q 9 9 9 9 q < ^.lX'   * * * * * * * * * ; ",
"= % B B t u q 9 9 q 9 * * * * * * * 0.M.j O o X     X   X X   8.M.U * , * * * * * * , * j m.e.    X   X   X o = O s m.q.* * * * * * * * * * 9 l.n.u O o X X     :X,X= X g P 9 * * * * * * * 9 q 9 9 9 u e F HXKX4 . * * * * UXIX= . 4 .X.Xa 9 q 9 9 9 9 9 9 9 9 9 q 9 i =. XS . * * * * * * * * * =. XF 0 q 9 9 9 q , * 8 q q 9 i DXVX@.O * * * * * * * . 2 *.&.p 9 q 9 9 9 9 q 9 a NXBXX.O * * * * * * * . 5 *.&.i 9 q 9 9 9 9 i , { bXjXo * * * * * * * * * * * * * * * o > |.|.d 9 q 9 9 9 9 q 1 ' lX_.: X * * * * * * * X x ",
"O   N [.N u q 9 9 q 9 * * * * * * 9 v.l.=   X       X X X X O i m.q.* * * * * * * * * * 8.M.p O X       X O O O O   w.m.s * , * * * * * , * s M.8.  X   X X O l.FXE O   9 P p * * * * * * * 9 q 9 9 9 i e .XHX.X. * * * O n.UX8.O * o =. XF 0 q 9 9 9 9 9 9 9 9 9 q 9 S  X=.* * * * * * * * * * . F  X=.9 q 9 9 9 q , * 8 q 9 i 8 +.VXNXL o * * * * * * 2 &.*.L 9 q 9 9 9 9 9 9 i 8 %.SXNXJ o * * * * * * 2 &.*.L 9 q 9 9 9 9 9 q 9 d fXcX]   * * * * * * * * * * * * * * X  .dX .8 q 9 9 9 9 9 q q 9 ^.lX^.: = * * * * * * v [ ",
"FXE & B N u q 9 9 q 9 * * * * , * g m.R   X X     X   O O X   * l.x.9 * * * * * * * * < w.v.*   X     X   9 E l.V.* j q.s * , * * * * * , * Y M.j O X   X   = <Xc.+ X   * P s * * * * * * * 9 q 9 9 9 q 0 =XHXF . * * *   n.FX* * * . F  X=.0 q 9 9 9 9 9 9 9 9 9 q 0 F  X^ . * * * * * * * * * o 4 .X=.u 9 q 9 9 q , * 8 q 9 9 q 8 ,.VXVXL o * * * * 1 &.*.@.9 9 9 9 9 9 9 9 9 9 q 8 ,.SXBXh * * * * * 2 *.*.@.9 q 9 9 9 9 9 9 9 i , | bXgX* * * * * * * * * * * * * * X > |.|.f 9 q 9 9 9 9 9 9 q 9 d ^.lX^., * * * * * x ^.[ ",
"UXq.. N N u 9 9 9 q 9 * * * * , * P B.P O X     X   = E i O O   q.n.9 * * * * * * * * 9 v.w.X   X     X O c.FX<X:X9 * P i * * * * * * * , * o.B.p O X     X   * o   X   = j g * * * * * * * 9 q 9 9 9 9 9 9XHX3 . * * * *   o * * * o 3  X=.0 q 9 9 9 9 9 9 9 9 9 u e ^  XF . * * *   X * * * * * * .X.Xi 9 q 9 9 q , * 8 q 9 9 q q 8 ,.@Xi 9 9 9 9 9 9 @.@.q 9 q 9 9 9 9 9 9 9 9 q 9 8 ,.@Xq 9 9 9 9 9 q @.@.9 9 q 9 9 9 9 9 9 9 q 9 i gXbXdX  o * * * * * * * * * * X : | dX .9 q 9 9 9 9 9 9 9 9 q 9 d ).[ 1 9 9 9 9 9 d [ x ",
"    % N N u 9 9 9 q 9 * * * * , * P B.U O X X   X   < ,XFX:XE O w.n.9 * * * * * * * * 8 v.l.=   X     X   8 p * O   9 U i * * * * * * * , * R M.p O X       X     X X   = j g * * * * * * * 9 q 9 9 9 q 9 9XHXS . * * * * * * * * * . 6  X=.0 q 9 9 9 9 9 9 9 9 9 u e ^  XF . * * X #.s o * * * * * .X.Xi 9 q 9 9 q , * 8 q 9 9 9 q 9 9 i 9 q q q q q 9 q 9 9 q 9 9 9 9 9 9 9 9 9 9 q 9 9 q 9 q q q q q 9 q 9 9 q 9 9 9 9 9 9 9 9 9 u < ! nXbXdX: o * * * * * * * * * > | dX| q 9 q 9 9 9 9 9 9 9 9 9 q 9 9 9 9 q q q q 9 9 q 9 ",
"* = & M & u 9 9 9 q 9 * * * * , * s m.e.  X X   X   o u #.<XQ   l.l.< * * * * * * * * , w.n.9   X       X   O   X   i P 9 * * * * * * * , * U M.Y O X         X X   X   * P s * * * * * * * 9 q 9 9 9 q e =XHX=.. * * * * * * * * * . F  X^ 0 q 9 9 9 9 9 9 9 9 9 q 0 F  X=.o *   g UX:XO * * * o 4 .X=.9 9 9 9 9 q , * 8 q 9 9 9 9 q q 9 q 9 9 9 9 9 9 9 q q 9 9 9 9 9 9 9 9 9 9 9 9 q q 9 q 9 9 9 9 9 9 9 q 9 9 9 9 9 9 9 9 9 9 9 9 i < ] nXbXjX* * * * * * * * * d |.dX| d 9 q 9 9 9 9 9 9 9 9 9 9 9 q 9 9 9 9 9 9 9 9 9 9 q ",
"* * & M t u 9 9 9 q 9 * * * * * * 8 l.n.<   X     X   O +     8 Y j * * * * * * * * , * R B.P O o         X X X   * j j , * * * * * * * , * i n.w.o   X           X X   i P u * * * * * * * 9 q 9 9 9 i e =.HX=X. * * * * * * * * * * =. XS 0 q 9 9 9 9 9 9 9 9 9 q 9 a .X.X< * = ,XUXi o * * * . ^  X^ 0 u 9 9 9 q , * 8 q 9 9 9 9 9 9 q 9 9 9 9 9 9 9 9 9 9 9 9 9 9 9 9 9 9 9 9 9 9 9 9 q 9 9 9 9 9 9 9 9 9 9 9 9 9 9 9 9 9 9 9 9 9 9 i < ! gX| < 9 8 , * , , 8 9 9 {  .9 9 q 9 9 9 9 9 9 9 9 9 9 9 9 9 q q 9 9 9 9 9 9 9 9 9 ",
"= & N N w 9 9 9 9 q 9 * * * * * , * R M.8.    X     X X o   * j j 9 * * * * * * * * , * i n.v.9 O X X     X X     i P p * * * * * * * * * * * e.M.U O   X     X X X   * P j 8 * * * * * * * 9 q 9 9 9 q 9 a KXHX=.. * * * * * * * . F  X=.u 9 9 9 9 9 9 9 9 9 9 9 9 q 9 =. X=.O j UXn.O * * * . 4 .X.XS 9 q 9 9 9 q , * 8 q 9 9 9 9 9 9 9 9 9 9 9 9 9 9 9 9 9 9 9 9 9 9 9 9 9 9 9 9 9 9 9 9 9 9 9 9 9 9 9 9 9 9 9 9 9 9 9 9 9 9 9 9 9 9 9 i < 9 q 9 q q q q q q q q 9 u 9 9 q 9 9 9 9 9 9 9 9 9 9 9 9 9 9 9 9 9 9 9 9 9 9 9 9 9 ",
"& N N & u 9 9 9 9 q 9 * * * * * * * 8 w.M.R =             * s P p * * * * * * * * * * , * Y M.w.9             X u P j < * * * * * * * * * , * i v.n.j               * j P u * * * * * * * * 9 q 9 9 9 9 i e =.HXKX^ o * * * * * * F .X.XS 0 q 9 9 9 9 9 9 9 9 9 9 9 q 9 a .X X^ < j 8 * * * * 3 .X X^ 0 q 9 9 9 9 q , * 8 q 9 9 9 9 9 9 9 9 9 9 9 9 9 9 9 9 9 9 9 9 9 9 9 9 9 9 9 9 9 9 9 9 9 q 9 9 9 q 9 9 q 9 9 9 9 9 9 9 9 9 9 9 9 9 9 9 u 9 9 q 9 9 9 9 9 9 9 9 q 9 q q 9 9 9 9 9 9 9 9 9 9 9 9 9 9 9 9 9 9 9 q 9 9 9 9 q 9 ",
"N N & u 9 9 9 9 9 q 9 * * * * * * , * i l.B.U   o X X o * s P s , * * * * * * * * * * * * * o.B.w.* X X X X X 9 P j 9 * * * * * * * * * * * , * g n.M.p   X X X o * j P p * * * * * * * * * 9 q 9 9 9 9 9 u e .XHXHXS * * * * * 3  X.XF 0 q 9 9 9 9 9 9 9 9 9 9 9 9 9 q 0 S .XKX=.. * * * * 8 =. X=.q 9 9 9 9 9 9 q , * 8 q 9 9 9 9 9 9 9 9 9 9 9 9 9 9 9 9 9 9 9 9 9 9 9 9 9 9 9 9 9 9 9 q q 9 9 9 q 9 q q 9 q 9 9 9 9 9 9 9 9 9 9 9 9 9 9 9 q q 9 9 q 9 9 q 9 9 q 9 q 9 9 9 9 9 9 9 9 9 9 9 9 9 9 9 9 9 q q 9 q 9 9 q q 9 9 q ",
"& & u 9 9 9 9 9 9 q 9 * * * * * * * , * i 8.9 * * * * * * 9 p , * * * * * * * * * * * * * * * R j * * * * * * , p 9 * * * * * * * * * * * * * , * g o., * * * * * * i p * * * * * * * * * * 9 q 9 9 9 9 9 q q e .X.Xe q 9 9 9 q q =.F 0 q 9 9 9 9 9 9 9 9 9 9 9 9 9 9 9 u e F =Xa q 9 9 9 q 0 F =.q 9 q 9 9 9 9 9 q , * 8 q 9 9 9 9 9 9 9 9 9 9 9 9 9 9 9 9 9 9 9 9 9 9 9 9 9 9 9 9 9 9 q 9 9 g i 9 9 p 9 9 p 9 9 9 9 9 9 9 9 9 9 9 9 9 9 9 9 q 9 p i 9 s i 9 q q 9 q 8 9 q 9 9 9 9 9 9 9 9 9 9 9 9 9 9 q 9 8 q 9 p q 9 9 9 p 9 ",
"9 u 9 9 9 9 9 9 9 q 9 * * * * * * * * , * * * * * * * * * * * * * * * * * * * * * * * * * * * * * * * * * * * * * * * * * * * * * * * * * * * * * * * * * * * * * * * * * * * * * * * * * * 9 q 9 9 9 9 9 9 q q e 9 9 9 q q q 9 9 9 9 q 9 9 9 9 9 9 9 9 9 9 9 9 9 9 9 9 9 q 9 0 9 q q q q 9 9 9 9 9 q 9 9 9 9 9 9 q , * 8 q 9 9 9 9 9 9 9 9 9 9 9 9 9 9 9 9 9 9 9 9 9 9 9 9 9 9 9 9 9 q i 9 x.B.j , q.<Xq.q.<Xq.8 q 9 9 9 9 9 9 9 9 9 9 9 9 q 9 g J.J.o.F.J.g 9 * :X0.0.>X8 q 9 9 9 9 9 9 9 9 9 9 9 9 q 9 q >X0.j >XB.9 9 F.>XU ",
"9 9 9 9 9 9 9 9 9 q 9 * * * * * * * * * * * * * * * * * * * * * * * * * * * * * * * * * * * * * * * * * * * * * * * * * * * * * * * * * * * * * * * * * * * * * * * * * * * * * * * * * * * 9 q 9 9 9 9 9 9 9 q u q 9 9 9 9 9 9 9 q q 9 9 9 9 9 9 9 9 9 9 9 9 9 9 9 9 9 9 9 q q q 9 9 9 9 9 9 q q q 9 9 9 9 9 9 9 q , * 8 q 9 9 9 9 9 9 9 q q 9 9 q q 9 q q 9 9 9 9 9 9 9 9 9 9 9 9 q 9 * j ,Xx.p 9 K.g K.:Xg K.i 9 9 9 9 9 9 9 9 9 9 9 9 q 9 * p * M.w.9 K.R * U ,Xq.U >X9 q 9 9 9 9 9 9 9 9 9 9 9 9 q 9 q F.q.n.o.m.Y U B.Y F.",
"9 9 9 i q q q 9 9 q 9 * * * * * * * * * * * * * * * * * * * * * * * * * * * * * * * * * * * * * * * * * * * * * * * * * * * * * * * * * * * * * * * * * * * * * * * * , * * * * * * * * * * 9 q 9 9 9 9 9 9 q q q q q q q q q q 9 q q 9 q 9 9 9 9 9 9 9 9 9 9 9 9 9 9 9 9 9 q q 9 9 q q 9 q q 9 q q 9 9 9 9 9 9 9 q , * 8 q 9 9 9 9 9 q q 8 9 q q 9 9 q 8 9 q 9 9 9 9 9 9 9 9 9 9 q 9 j v.x.J.x.m.* J.8 :X:X8 K.p 9 9 9 9 9 9 9 9 9 9 9 q 9 P M.9 g J.8 w.>Xs 9 J.m.v.* K.9 q 9 9 9 9 9 9 9 9 9 9 9 9 9 i * q.w.n.g n.Y U v.s J.",
"q 9 q 8 9 8 8 q 9 q 9 * * * * * * * * * * * , * * , * * * * * * * * * * * * * * * * * * * * * * * * * * * * * , * * * * * * * * * * * * * * * * * * * * , * * * * * , * * * * * * * * * * * 9 q 9 9 9 9 9 q 9 9 8 9 9 8 9 9 8 9 q 9 9 q 9 9 q q 9 9 9 9 9 9 9 9 9 9 9 9 9 q 9 9 q q 9 8 q 9 8 q 9 9 q 9 9 9 9 9 9 q , * 8 q 9 9 9 9 9 9 9 P p 9 9 j i 9 j q 9 q 9 9 9 9 9 9 9 9 9 q 9 p P R F.e.J.U F.x.J.J.x.J.9 q 9 9 9 9 9 9 9 9 9 9 q 9 s U j <X8.j s F.m.8.B.,X>X9 >X9 q 9 9 9 9 9 9 9 9 9 9 9 9 9 i * x.w.q.m.F.w.o.F.n.n.",
"9 q , 0.p j P 9 9 q 9 * * * * * * * s , 9 u * 9 9 * 9 9 * * 8 * < , * * * * * * * * * * * * * * * * < * * u 8 * i < * * * * * * * * * * * * 8 p , * , i * < i * * , o P 9 9 p * * * * * * * 9 q 9 9 9 9 q 9 p j Y g p Y g p U 9 9 i p 9 p 9 8 9 q 9 9 9 9 9 9 9 9 9 9 9 q 9 g s 9 9 i j 8 i j 8 p j 9 q 9 9 9 9 9 q , * 8 q 9 9 9 9 q 8 x.B.j * q.>Xv.q.>Xv.8 q 9 9 9 9 9 9 9 9 9 9 q 9 8 8 q.M.U 8.g J.P j J.P 8 q 9 9 9 9 9 9 9 9 9 9 9 q 9 * Y J.M.w.F.w.Y 8.  P U 9 q.9 q 9 9 9 9 9 9 9 9 9 9 9 9 9 q 8 Y Y 9 B.8.o.U 8.B.p ",
"9 q j :X0.>XF.x.8 i 9 * * * * * * #.#.p l.l.g l.l.g x.l.9 * l.o P #.u i , * * * * * * * * * * , X c.#.  g n.0.P c.e.* * * * * * * * * * * 9 q.R < * e.c.P e.c.g * , 9 l.P c.q.8.* , * * * * 9 q 9 9 9 i * x.>X8.J.>XJ.J.Y q.J.m.* 8.n.  F.Y P s 9 q 9 9 9 9 9 9 9 9 9 q 8 P :XK.g 8 B.>X8.M.>X8.F.>XR 8 q 9 9 9 9 q , * 8 q 9 9 9 q 9 s ,Xm.g 8 J.g F.<Xp J.s 9 q 9 9 9 9 9 9 9 9 9 9 q q q , * 9 8 9 * 9 9 * 9 q 9 9 9 9 9 9 9 9 9 9 9 9 9 9 q 9 * , 8 * 8 8 8 p 9 9 q 8 9 9 9 9 9 9 9 9 9 9 9 9 9 9 9 9 q 9 8 9 * 8 8 9 8 * 9 ",
", m.K.>X0.B.w.M., i 9 * * * * * p V.E R E s G.g g G.s E E X n.s 8.8.R G.9 * * * * * * * * * , * p n.E   q.s R V.9 0.s * , * * * * * * , = U m.E * p q.8 V.#.i w.  R l.m.P q.P w.* , * * * * 9 q 9 9 q 9 p J.J.  P m.B.K.U 9 w.F.* 8.K.j :X8.>XJ.* i 9 9 9 9 9 9 9 9 9 i , n.8.w.w.s J.p ,XM.s ,Xv.P F.* i 9 9 9 9 q , * 8 q 9 9 9 q 8 R :X8.J.X J.9 J.<X, J.j 9 q 9 9 9 9 9 9 9 9 9 9 9 9 9 q i 9 8 9 8 9 i i q 9 9 9 9 9 9 9 9 9 9 9 9 9 9 9 9 q i i i i 8 9 8 8 q q 9 i 9 9 9 9 9 9 9 9 9 9 9 9 9 9 9 9 9 q i q i i q q i i q ",
"8 :X* F.0.>XF.x.8 i 9 * * * , = P q.g G.g p G.p s G.u U R   n.8.n.U p R o , * * * * * * * * * 9 l.e.e.O e.u R B.* 8.g * , * * * * * * , o 8.R #.P 9 e.* B.R 9 l.X x.* 8.P n.q.8.* * * * * * 9 q 9 9 q 8 F.M.:X8 B.8.* U :Xs F.M.* o.,Xv.,Xq n.j 9 q 9 9 9 9 9 9 9 9 9 i , n.R e.w.p F.8 ,Xn.9 FXw.g J., i 9 9 9 9 q , * 8 q 9 9 9 q 9 s J.w.J.o.m.M.F.F.n.J.q 9 q 9 9 9 9 9 9 9 9 9 9 9 9 9 q 8 s 0.i o.g 8 q 9 9 9 9 9 9 9 9 9 9 9 9 9 9 9 9 9 9 9 q 9 , w.p Y Y 9 9 9 9 9 9 9 9 9 9 9 9 9 9 9 9 9 9 9 9 9 9 9 8 9 8 9 9 , 9 q ",
"* K.x.>Xq.J.8.:X8 i 9 * * * * * p w.R l.e.e.q.e.e.q.8.w.s * c.  P q.n.P , * * * * * * * * * * 9 #.m.m.P R e.e.q.8.l.9 * * * * * * * * , * P e.#.8.g q.8.q.q.e.#.  q.R n.U l.s n.* * * * * * 9 q 9 9 q 9 x.J.IXY :Xq Y 8.K.Y 8.:X* 0.M.O F.J.:Xg 9 q 9 9 9 9 9 9 9 9 9 q 8 8.F.B.v.o.F.M.F.F.M.F.F.B.x., i 9 9 9 9 q , * 8 q 9 9 9 9 q 8 R m.j 8.p M.U p M.P 8 q 9 9 9 9 9 9 9 9 9 9 9 9 9 q 9 p x.B.m.J.K.U 8 q 9 9 9 9 9 9 9 9 9 9 9 9 9 9 9 9 9 q 9 i Y :Xq.>XB.v., q 9 9 9 9 9 9 9 9 9 9 9 9 9 9 9 9 9 9 9 g Y s Y q q R g 9 ",
"8 j n.8.g m.m.g 9 q 9 * * * * , * P #.* P R * E E * R U * * g , i j R R 8 * * * * * * * * * * *   9 i g < R g * #.g * , * * * * * * * * * * E P p p p #.* s #.< * 9 R U 9 R 8.p * * * * * * 9 q 9 9 9 q * 8 U s R , 8.M.j 8.M.j 8 j R 9 R 0.m.8.9 q 9 9 9 9 9 9 9 9 9 9 q 9 w.8.P Y P m.i Y m.9 o.v.q 9 q 9 9 9 9 q , * 8 q 9 9 9 9 9 q 8 * 9 8 9 * 8 9 * 9 q 9 9 9 9 9 9 9 9 9 9 9 9 9 q 9 s K.:XM.m.w.J.Y 8 q 9 9 9 9 9 9 9 9 9 9 9 9 9 9 9 9 9 q 8 B.J.>X0.F.x.n., i 9 9 9 9 9 9 9 9 9 9 9 9 9 9 9 9 9 q 9 >XK.>XK.w.n.:XP 9 ",
"q 9 * , 9 * * 9 q q 9 * * * * * , * X * = o , o o , o = * * * * * * X o * * * * * * * * * * * * < * * * * X * * X * , * * * * * * * * * * * o * * * * X * * X * * * X = * o X * * * * * * * 9 q 9 9 9 9 i q 8 9 8 i 8 * 9 , * 9 q 9 8 q 8 , * 8 q 9 9 9 9 9 9 9 9 9 9 9 9 q * , 9 8 9 * 9 8 * q 8 * 9 q 9 9 9 9 9 q , * 8 q 9 9 9 9 9 9 q i q q q i q q i q 9 9 9 9 9 9 9 9 9 9 9 9 9 9 q , 0.v.p B.m.G.J.Y 8 q 9 9 9 9 9 9 9 9 9 9 9 9 9 9 9 9 q 9 p :X* F.q.:XB.v.8 q 9 9 9 9 9 9 9 9 9 9 9 9 9 9 9 9 9 9 i K.s J.j B.Y F.U 9 ",
"9 q i i q i i q 9 q 9 * * * * * * , , * , , * , , * , , * * , * * , , , * * * * * * * * * * * * * * , , * , , * , , * * * * * * * * * * * * , , * * , , * , , * * * , , * , , , * * * * * * 9 q 9 9 9 9 9 q q q q 9 q i q q i q 9 q q 9 q i i q 9 9 9 9 9 9 9 9 9 9 9 9 9 9 i i q q q i q q i 9 q i q 9 9 9 9 9 9 q , * 8 q 9 9 9 9 9 9 9 9 9 9 9 9 9 9 9 9 9 9 9 9 9 9 9 9 9 9 9 9 9 9 q 9 P K.F.F.B.w.J.q., i 9 9 9 9 9 9 9 9 9 9 9 9 9 9 9 9 q q 9 J.n.>Xq.J.w.K.8 q 9 9 9 9 9 9 9 9 9 9 9 9 9 9 9 9 9 9 i :Xj J.Y F.s J.G.* ",
"9 9 9 9 9 9 9 9 9 q 9 * * * * * * * * * * * * * * * * * * * * * * * * * * * * * * * * * * * * * * * * * * * * * * * * * * * * * * * * * * * * * * * * * * * * * * * * * * * * * * * * * * * 9 q 9 9 9 9 9 9 9 9 9 9 9 9 9 9 9 9 9 9 9 9 9 9 9 9 9 9 9 9 9 9 9 9 9 9 9 9 9 9 9 9 9 9 9 9 9 9 9 9 9 9 9 9 9 9 9 9 9 q , * 8 q 9 9 9 9 9 9 9 9 9 9 9 9 9 9 9 9 9 9 9 9 9 9 9 9 9 9 9 9 9 9 9 q 8 o.w.j U m.8.9 q 9 9 9 9 9 9 9 9 9 9 9 9 9 9 9 9 9 9 q 9 j x.R s v.x.p 9 q 9 9 9 9 9 9 9 9 9 9 9 9 9 9 9 9 9 9 q Y p U p P Y x.s 9 ",
"q q q q q q q q q i 9 * * * * * * * * * * * * * * * * * * * * * * * * * * * * * * * * * * * * * * * * * * * * * * * * * * * * * * * * * * * * * * * * * * * * * * * * * * * * * * * * * * * 9 q q q q q q q q q q q q q q q q q q q q q q q q q q q q q q q q q q q q q q q q q q q q q q q q q q q q q q q q q q i , * 9 i q q q q q q q q q q q q q q q q q q q q q q q q q q q q q q q q i 8 * 9 9 * , q q q q q q q q q q q q q q q q q q q q q q 9 * 8 9 * * 9 q q q q q q q q q q q q q q q q q q q q q 8 9 8 9 9 8 * 9 q ",
"* * * * * * * * * * * * * * * * * * * * * * * * * * * * * * * * * * * * * * * * * * * * * * * * * * * * * * * * * * * * * * * * * * * * * * * * * * * * * * * * * * * * * * * * * * * * * * * * * * * * * * * * * * * * * * * * * * * * * * * * * * * * * * * * * * * * * * * * * * * * * * * * * * * * * * * * * * * * * * * * * * * * * * * * * * * * * * * * * * * * * * * * * * * * * * * , , , , 8 , * * * * * * * * * * * * * * * * * * * * * * , , , * 8 , * * * * * * * * * * * * * * * * * * * * * * , * , * , , 8 , * ",
"* * * * * * * * * * * * * * * * * * * * * * * * * * * * * * * * * * * * * * * * * * * * * * * * * * * * * * * * * * * * * * * * * * * * * * * * * * * * * * * * * * * * * * * * * * * * * * * * * * * * * * * * * * * * * * * * * * * * * * * * * * * * * * * * * * * * * * * * * * * * * * * * * * * * * * * * * * * * * * * * * * * * * * * * * * * * * * * * * * * * * * * * * * * * * * * * * * * * * * * * * * * * * * * * * * * * * * * * * * * * * * * * * * * * * * * * * * * * * * * * * * * * * * * * * * * * * * * * ",
"9 9 9 9 9 9 9 9 9 9 9 9 9 9 9 9 9 9 9 9 9 9 9 9 9 9 9 9 9 9 9 9 9 9 9 9 9 9 9 9 9 9 9 9 9 9 9 9 9 9 9 9 9 9 9 9 9 9 9 9 9 9 9 9 9 9 9 9 9 9 9 9 9 9 9 9 9 9 9 9 9 9 9 9 9 9 9 9 9 9 9 9 9 9 9 9 9 9 9 9 9 9 9 9 9 9 9 9 9 9 9 9 9 9 9 9 9 9 9 9 9 9 9 9 9 9 9 9 9 9 9 9 9 9 9 9 9 9 9 9 9 9 9 9 9 9 9 9 9 9 9 9 9 9 9 9 9 9 9 9 9 9 9 9 9 9 9 9 9 9 9 9 9 9 9 9 9 9 9 9 9 9 9 9 9 9 9 9 9 9 9 9 9 9 9 9 9 9 9 9 9 9 9 9 9 9 9 9 9 9 9 9 9 9 9 9 9 9 9 9 9 9 9 9 9 9 9 9 9 9 9 9 9 9 9 9 9 9 9 9 9 9 9 9 9 9 9 9 9 9 9 9 9 9 9 9 ",
"q q q q q q q q q q q q q q q q q q q q q q q q q q q q q q q q q q q q q q q q q q q q q q q q q q q q q q q q q q q q q q q q q q q q q q q q q q q q q q q q q q q q q q q q q q q q q q q q q q q q q q q q q q q q q q q q q q q q q q q q q q q q q q q q q q q q q q q q q q q q q q q q q q q q q q q q q q q q q q q q q q q q q q q q q q q q q q q q q q q q q q q q q q q q q q q q q q q q q q q q q q q q q q q q q q q q q q q q q q q q q q q q q q q q q q q q q q q q q q q q q q q q q q q q q q q q q q q q ",
"9 9 9 9 9 9 9 9 9 9 9 9 9 9 9 9 9 9 9 9 9 9 9 9 9 9 9 9 9 9 9 9 9 9 9 9 9 9 9 9 9 9 9 9 9 9 9 9 9 9 9 9 9 9 9 9 9 9 9 9 9 9 9 9 9 9 9 9 9 9 9 9 9 9 9 9 9 9 9 9 9 9 9 9 9 9 9 9 9 9 9 9 9 9 9 9 9 9 9 9 9 9 9 9 9 9 9 9 9 9 9 9 9 9 9 9 9 9 9 9 9 9 9 9 9 9 9 9 9 9 9 9 9 9 9 9 9 9 9 9 9 9 9 9 9 9 9 9 9 9 9 9 9 9 9 9 9 9 9 9 9 9 9 9 9 9 9 9 9 9 9 9 9 9 9 9 9 9 9 9 9 9 9 9 9 9 9 9 9 9 9 9 9 9 9 9 9 9 9 9 9 9 9 9 9 9 9 9 9 9 9 9 9 9 9 9 9 9 9 9 9 9 9 9 9 9 9 9 9 9 9 9 9 9 9 9 9 9 9 9 9 9 9 9 9 9 9 9 9 9 9 9 9 9 9 9 ",
"9 9 9 9 9 9 9 9 9 9 9 9 9 9 9 9 9 9 9 9 9 9 9 9 9 9 9 9 9 9 9 9 9 9 9 9 9 9 9 9 9 9 9 9 9 9 9 9 9 9 9 9 9 9 9 9 9 9 9 9 9 9 9 9 9 9 9 9 9 9 9 9 9 9 9 9 9 9 9 9 9 9 9 9 9 9 9 9 9 9 9 9 9 9 9 9 9 9 9 9 9 9 9 9 9 9 9 9 9 9 9 9 9 9 9 9 9 9 9 9 9 9 9 9 9 9 9 9 9 9 9 9 9 9 9 9 9 9 9 9 9 9 9 9 9 9 9 9 9 9 9 9 9 9 9 9 9 9 9 9 9 9 9 9 9 9 9 9 9 9 9 9 9 9 9 9 9 9 9 9 9 9 9 9 9 9 9 9 9 9 9 9 9 9 9 9 9 9 9 9 9 9 9 9 9 9 9 9 9 9 9 9 9 9 9 9 9 9 9 9 9 9 9 9 9 9 9 9 9 9 9 9 9 9 9 9 9 9 9 9 9 9 9 9 9 9 9 9 9 9 9 9 9 9 9 9 ",
"9 9 9 9 9 9 9 9 9 9 9 9 9 9 9 9 9 9 9 9 9 9 9 9 9 9 9 9 9 9 9 9 9 9 9 9 9 9 9 9 9 9 9 9 9 9 9 9 9 9 9 9 9 9 9 9 9 9 9 9 9 9 9 9 9 9 9 9 9 9 9 9 9 9 9 9 9 9 9 9 9 9 9 9 9 9 9 9 9 9 9 9 9 9 9 9 9 9 9 9 9 9 9 9 9 9 9 9 9 9 9 9 9 9 9 9 9 9 9 9 9 9 9 9 9 9 9 9 9 9 9 9 9 9 9 9 9 9 9 9 9 9 9 9 9 9 9 9 9 9 9 9 9 9 9 9 9 9 9 9 9 9 9 9 9 9 9 9 9 9 9 9 9 9 9 9 9 9 9 9 9 9 9 9 9 9 9 9 9 9 9 9 9 9 9 9 9 9 9 9 9 9 9 9 9 9 9 9 9 9 9 9 9 9 9 9 9 9 9 9 9 9 9 9 9 9 9 9 9 9 9 9 9 9 9 9 9 9 9 9 9 9 9 9 9 9 9 9 9 9 9 9 9 9 9 9 ",
"9 9 9 9 9 9 9 9 9 9 9 9 9 9 9 9 9 9 9 9 9 9 9 9 9 9 9 9 9 9 9 9 9 9 9 9 9 9 9 9 9 9 9 9 9 9 9 9 9 9 9 9 9 9 9 9 9 9 9 9 9 9 9 9 9 9 9 9 9 9 9 9 9 9 9 9 9 9 9 9 9 9 9 9 9 9 9 9 9 9 9 9 9 9 9 9 9 9 9 9 9 9 9 9 9 9 9 9 9 9 9 9 9 9 9 9 9 9 9 9 9 9 9 9 9 9 9 9 9 9 9 9 9 9 9 9 9 9 9 9 9 9 9 9 9 9 9 9 9 9 9 9 9 9 9 9 9 9 9 9 9 9 9 9 9 9 9 9 9 9 9 9 9 9 9 9 9 9 9 9 9 9 9 9 9 9 9 9 9 9 9 9 9 9 9 9 9 9 9 9 9 9 9 9 9 9 9 9 9 9 9 9 9 9 9 9 9 9 9 9 9 9 9 9 9 9 9 9 9 9 9 9 9 9 9 9 9 9 9 9 9 9 9 9 9 9 9 9 9 9 9 9 9 9 9 9 ",
"9 9 9 9 9 9 9 9 9 9 9 9 9 9 9 9 9 9 9 9 9 9 9 9 9 9 9 9 9 9 9 9 9 9 9 9 9 9 9 9 9 9 9 9 9 9 9 9 9 9 9 9 9 9 9 9 9 9 9 9 9 9 9 9 9 9 9 9 9 9 9 9 9 9 9 9 9 9 9 9 9 9 9 9 9 9 9 9 9 9 9 9 9 9 9 9 9 9 9 9 9 9 9 9 9 9 9 9 9 9 9 9 9 9 9 9 9 9 9 9 9 9 9 9 9 9 9 9 9 9 9 9 9 9 9 9 9 9 9 9 9 9 9 9 9 9 9 9 9 9 9 9 9 9 9 9 9 9 9 9 9 9 9 9 9 9 9 9 9 9 9 9 9 9 9 9 9 9 9 9 9 9 9 9 9 9 9 9 9 9 9 9 9 9 9 9 9 9 9 9 9 9 9 9 9 9 9 9 9 9 9 9 9 9 9 9 9 9 9 9 9 9 9 9 9 9 9 9 9 9 9 9 9 9 9 9 9 9 9 9 9 9 9 9 9 9 9 9 9 9 9 9 9 9 9 9 ",
"9 9 9 9 9 9 9 9 9 9 9 9 9 9 9 9 9 9 9 9 9 9 9 9 9 9 9 9 9 9 9 9 9 9 9 9 9 9 9 9 9 9 9 9 9 9 9 9 9 9 9 9 9 9 9 9 9 9 9 9 9 9 9 9 9 9 9 9 9 9 9 9 9 9 9 9 9 9 9 9 9 9 9 9 9 9 9 9 9 9 9 9 9 9 9 9 9 9 9 9 9 9 9 9 9 9 9 9 9 9 9 9 9 9 9 9 9 9 9 9 9 9 9 9 9 9 9 9 9 9 9 9 9 9 9 9 9 9 9 9 9 9 9 9 9 9 9 9 9 9 9 9 9 9 9 9 9 9 9 9 9 9 9 9 9 9 9 9 9 9 9 9 9 9 9 9 9 9 9 9 9 9 9 9 9 9 9 9 9 9 9 9 9 9 9 9 9 9 9 9 9 9 9 9 9 9 9 9 9 9 9 9 9 9 9 9 9 9 9 9 9 9 9 9 9 9 9 9 9 9 9 9 9 9 9 9 9 9 9 9 9 9 9 9 9 9 9 9 9 9 9 9 9 9 9 9 ",
"9 9 9 9 9 9 9 9 9 9 9 9 9 9 9 9 9 9 9 9 9 9 9 9 9 9 9 9 9 9 9 9 9 9 9 9 9 9 9 9 9 9 9 9 9 9 9 9 9 9 9 9 9 9 9 9 9 9 9 9 9 9 9 9 9 9 9 9 9 9 9 9 9 9 9 9 9 9 9 9 9 9 9 9 9 9 9 9 9 9 9 9 9 9 9 9 9 9 9 9 9 9 9 9 9 9 9 9 9 9 9 9 9 9 9 9 9 9 9 9 9 9 9 9 9 9 9 9 9 9 9 9 9 9 9 9 9 9 9 9 9 9 9 9 9 9 9 9 9 9 9 9 9 9 9 9 9 9 9 9 9 9 9 9 9 9 9 9 9 9 9 9 9 9 9 9 9 9 9 9 9 9 9 9 9 9 9 9 9 9 9 9 9 9 9 9 9 9 9 9 9 9 9 9 9 9 9 9 9 9 9 9 9 9 9 9 9 9 9 9 9 9 9 9 9 9 9 9 9 9 9 9 9 9 9 9 9 9 9 9 9 9 9 9 9 9 9 9 9 9 9 9 9 9 9 9 ",
"9 9 9 9 9 9 9 9 9 9 9 9 9 9 9 9 9 9 9 9 9 9 9 9 9 9 9 9 9 9 9 9 9 9 9 9 9 9 9 9 9 9 9 9 9 9 9 9 9 9 9 9 9 9 9 9 9 9 9 9 9 9 9 9 9 9 9 9 9 9 9 9 9 9 9 9 9 9 9 9 9 9 9 9 9 9 9 9 9 9 9 9 9 9 9 9 9 9 9 9 9 9 9 9 9 9 9 9 9 9 9 9 9 9 9 9 9 9 9 9 9 9 9 9 9 9 9 9 9 9 9 9 9 9 9 9 9 9 9 9 9 9 9 9 9 9 9 9 9 9 9 9 9 9 9 9 9 9 9 9 9 9 9 9 9 9 9 9 9 9 9 9 9 9 9 9 9 9 9 9 9 9 9 9 9 9 9 9 9 9 9 9 9 9 9 9 9 9 9 9 9 9 9 9 9 9 9 9 9 9 9 9 9 9 9 9 9 9 9 9 9 9 9 9 9 9 9 9 9 9 9 9 9 9 9 9 9 9 9 9 9 9 9 9 9 9 9 9 9 9 9 9 9 9 9 9 "
};
