/* XPM */
static char *sc_deesser_mono[] = {
/* columns rows colors chars-per-pixel */
"256 256 256 2 ",
"   c #0F1C14",
".  c #0C1615",
"X  c #16161C",
"o  c #1E151B",
"O  c #16191D",
"+  c #19191F",
"@  c #111416",
"#  c #0C0D0E",
"$  c #21191D",
"%  c #21171B",
"&  c #351B1E",
"*  c #17231D",
"=  c #29291D",
"-  c #373819",
";  c #1C1D23",
":  c #171C25",
">  c #0E1C23",
",  c #221E24",
"<  c #271F29",
"1  c #291D26",
"2  c #331D2C",
"3  c #1F2025",
"4  c #1C2A24",
"5  c #1D232A",
"6  c #1C292E",
"7  c #14282A",
"8  c #1C2C33",
"9  c #192532",
"0  c #1B3239",
"q  c #183737",
"w  c #0E3432",
"e  c #212126",
"r  c #292A22",
"t  c #25262D",
"y  c #2B252A",
"u  c #26282F",
"i  c #2A292A",
"p  c #322226",
"a  c #3A2629",
"s  c #34292D",
"d  c #3E2D2E",
"f  c #352826",
"g  c #39382A",
"h  c #383729",
"j  c #252630",
"k  c #262A31",
"l  c #2A2B33",
"z  c #262D3D",
"x  c #2D2F38",
"c  c #2C2434",
"v  c #312E35",
"b  c #3D2D31",
"n  c #34273B",
"m  c #2E313A",
"M  c #26353A",
"N  c #3D3233",
"B  c #31323C",
"V  c #363B3E",
"C  c #3A3B3C",
"Z  c #383636",
"A  c #28332C",
"S  c #412E2E",
"D  c #4A2B2C",
"F  c #4B312C",
"G  c #46342B",
"H  c #58352C",
"J  c #402F30",
"K  c #492E35",
"L  c #433234",
"P  c #4C3434",
"I  c #443935",
"U  c #463639",
"Y  c #48373B",
"T  c #4A3A3C",
"R  c #463A3A",
"E  c #533534",
"W  c #5A3B3B",
"Q  c #573935",
"!  c #522F2E",
"~  c #653B36",
"^  c #6E3933",
"/  c #4F341C",
"(  c #0A4A3B",
")  c #39433D",
"_  c #2B4338",
"`  c #3C5427",
"'  c #595804",
"]  c #4C4C11",
"[  c #727306",
"{  c #474339",
"}  c #554236",
"|  c #4F4D2F",
" . c #6F4A35",
".. c #756427",
"X. c #5F5C14",
"o. c #193C43",
"O. c #0E3943",
"+. c #262F42",
"@. c #2E2E43",
"#. c #273145",
"$. c #273148",
"%. c #263B44",
"&. c #343641",
"*. c #373944",
"=. c #393B46",
"-. c #3B3D4A",
";. c #373947",
":. c #382E4A",
">. c #2E3760",
",. c #4D3D42",
"<. c #483942",
"1. c #533E44",
"2. c #4C2B54",
"3. c #683B4B",
"4. c #593066",
"5. c #6A3172",
"6. c #5C1F66",
"7. c #184549",
"8. c #035B43",
"9. c #15545A",
"0. c #154F51",
"q. c #264449",
"w. c #3E414D",
"e. c #394846",
"r. c #2A4C58",
"t. c #294C53",
"y. c #3D4253",
"u. c #2A5457",
"i. c #00644B",
"p. c #006A4F",
"a. c #0A654E",
"s. c #056C53",
"d. c #007D5D",
"f. c #037557",
"g. c #146454",
"h. c #1E5461",
"j. c #185B65",
"k. c #095B67",
"l. c #2C516A",
"z. c #0B6571",
"x. c #0B6A76",
"c. c #15727D",
"v. c #116971",
"b. c #2D6776",
"n. c #296977",
"m. c #2A6D72",
"M. c #2D7058",
"N. c #474446",
"B. c #514146",
"V. c #55454B",
"C. c #59494E",
"Z. c #5B4549",
"A. c #424553",
"S. c #46495B",
"D. c #484A59",
"F. c #584A52",
"G. c #4E584C",
"H. c #664747",
"J. c #774944",
"K. c #72534D",
"L. c #4A4E63",
"P. c #4D5163",
"I. c #4E5369",
"U. c #52566A",
"Y. c #56596C",
"T. c #545769",
"R. c #5A5E71",
"E. c #555A74",
"W. c #4E4D78",
"Q. c #5E6176",
"!. c #5E627A",
"~. c #4D6F69",
"^. c #61657B",
"/. c #64687E",
"(. c #6C6E71",
"). c #656957",
"_. c #8B5533",
"`. c #8F6934",
"'. c #B26F31",
"]. c #9F6A18",
"[. c #D0772E",
"{. c #E67929",
"}. c #DA642C",
"|. c #864B45",
" X c #89544B",
".X c #99554B",
"XX c #925752",
"oX c #A5594D",
"OX c #A95C53",
"+X c #B35C52",
"@X c #966557",
"#X c #B86558",
"$X c #AE6B55",
"%X c #B67163",
"&X c #9F5A6F",
"*X c #C86B5C",
"=X c #D26E59",
"-X c #D77262",
";X c #CD7063",
":X c #D76569",
">X c #8A3D5A",
",X c #098F6F",
"<X c #028763",
"1X c #00996D",
"2X c #029673",
"3X c #02A179",
"4X c #00A273",
"5X c #238569",
"6X c #5B866D",
"7X c #7F800A",
"8X c #898A0A",
"9X c #DB8131",
"0X c #9D8551",
"qX c #793384",
"wX c #7A3687",
"eX c #772684",
"rX c #7F1F8A",
"tX c #1A7581",
"yX c #0B7985",
"uX c #306295",
"iX c #676C84",
"pX c #6D728B",
"aX c #747995",
"sX c #70748F",
"dX c #656595",
"fX c #3475F3",
"gX c #346CD9",
"hX c #843A91",
"jX c #893A98",
"kX c #953D99",
"lX c #84258F",
"zX c #9B3CAA",
"xX c #A53FAE",
"cX c #AA3FAD",
"vX c #A73EB6",
"bX c #95439C",
"nX c #A841B0",
"mX c #9453A1",
"MX c #CC529B",
"NX c #B643C7",
"BX c #CE46DE",
"VX c #088C95",
"CX c #0499A7",
"ZX c #3392A7",
"AX c #3496AB",
"SX c #359EB4",
"DX c #338EA2",
"FX c #00ABB9",
"GX c #01A7B5",
"HX c #05ABB6",
"JX c #36A4B9",
"KX c #2B8A94",
"LX c #7783A0",
"PX c #00B3C1",
"IX c #858BAC",
"UX c #9EA6D1",
/* pixels */
"t t t t t t t t t t t t t t t t t t t t t t t t t t t t t t t t t t t t t t t t t t t t t t t t t t t t t t t t t t t t t t t t t t t t t t t t t t t t t t t t t t t t t t t t t t t t t t t t t t t t t t t t t t t t t t t t t t t t t t t t t t t t t t t t t t t t t t t t t t t t t t t t t t t t t t t t t t t t t t t t t t t t t t t t t t t t t t t t t t t t t t t t t t t t t t t t t t t t t t t t t t t t t t t t t t t t t t t t t t t t t t t t t t t t t t t t t t t t t t t t t t u u u u k u t u u u t t u k ",
"t t t t t t t t t t t t t t t t t t t t t t t t t t t t t t t t t t t t t t t t t t t t t t t t t t t t t t t t t t t t t t t t t t t t t t t t t t t t t t t t t t t t t t t t t t t t t t t t t t t t t t t t t t t t t t t t t t t t t t t t t t t t t t t t t t t t t t t t t t t t t t t t t t t t t t t t t t t t t t t t t t t t t t t t t t t t t t t t t t t t t t t t t t t t t t t t t t t t t t t t t t t t t t t t t t t t t t t t t t t t t t t t t t t t t t t t t t t t t t t t t u t 3 t t e t t e 3 t u t e 3 ",
"t t t t t t t t t t t t t t t t t t t t t t t t t t t t t t t t t t t t t t t t t t t t t t t t t t t t t t t t t t t t t t t t t t t t t t t t t t t t t t t t t t t t t t t t t t t t t t t t t t t t t t t t t t t t t t t t t t t t t t t t t t t t t t t t t t t t t t t t t t t t t t t t t t t t t t t t t t t t t t t t t t t t t t t t t t t t t t t t t t t t t t t t t t t t t t t t t t t t t t t t t t t t t t t t t t t t t t t t t t t t t t t t t t t t t t t t t t t t t t t t u t B S.&.B S.&.k A.S.&.e t =.S.",
"t t t t t t t t t t t t t t t t t t t t t t t t t t t t t t t t t t t t t t t t t t t t t t t t t t t t t t t t t t t t t t t t t t t t t t t t t t t t t t t t t t t t t t t t t t t t t t t t t t t t t t t t t t t t t t t t t t t t t t t t t t t t t t t t t t t t t t t t t t t t t t t t t t t t t t t t t t t t t t t t t t t t t t t t t t t t t t t t t t t t t t t t t t t t t t t t t t t t t t t t t t t t t t t t t t t t t t t t t t t t t t t t t t t t t t t t t t t t t t t u t B iXU.P.&.aX=.&.sXP.pXA.3 iXY.",
"t t t t t t t t t t t t t t t t t t t t t t t t t t t t t t t t t t t t t t t t t t t t t t t t t t t t t t t t t t t t t t t t t t t t t t t t t t t t t t t t t t t t t t t t t t t t t t t t t t t t t t t t t t t t t t t t t t t t t t t t t t t t t t t t t t t t t t t t t t t t t t t t t t t t t t t t t t t t t t t t t t t t t t t t t t t t t t t t t t t t t t t t t t t t t t t t t t t t t t t t t t t t t t t t t t t t t t t t t t t t t t t t t t t t t t t t t t t t t t t u e &.sX&.3 k iXl ;.^.X -.iXt iXP.",
"t t t t t t t t t t t t t t t t t t t t t t t t t t t t t t t t t t t t t t t t t t t t t t t t t t t t t t t t t t t t t t t t t t t t t t t t t t t t t t t t t t t t t t t t t t t t t t t t t t t t t t t t t t t t t t t t t t t t t t t t t t t t t t t t t t t t t t t t t t t t t t t t t t t t t t t t t t t t t t t t t t t t t t t t t t t t t t t t t t t t t t t t t t t t t t t t t t t t t t t t t t t t t t t t t t t t t t t t t t t t t t t t t t t t t t t t t t t t t t t t u e -.iXU.k iXl ;.iX; m iXk iXR.",
"t t t t t t t t t t t t t t t t t t t t t t t t t t t t t t t t t t t t t t t t t t t t t t t t t t t t t t t t t t t t t t t t t t t t t t t t t t t t t t t t t t t t t t t t t t t t t t t t t t t t t t t t t t t t t t t t t t t t t t t t t t t t t t t t t t t t t t t t t t t t t t t t t t t t t t t t t t t t t t t t t t t t t t t t t t t t t t t t t t t t t t t t t t t t t t t t t t t t t t t t t t t t t t t t t t t t t t t t t t t t t t t t t t t t t t t t t t t t t t t u t x x ;.sXm iXx ;.iXk R.!.3 iX;.",
"t t t t t t t t t t t t t t t t t t t t t t t t t t t t t t t t t t t t t t t t t t t t t t t t t t t t t t t t t t t t t t t t t t t t t t t t t t t t t t t t t t t t t t t t t t t t t t t t t t t t t t t t t t t t t t t t t t t t t t t t t t t t t t t t t t t t t t t t t t t t t t t t t t t t t t t t t t t t t t t t t t t t t t t t t t t t t t t t t t t t t t t t t t t t t t t t t t t t t t t t t t t t t t t t t t t t t t t t t t t t t t t t t t t t t t t t t t t t t t t u t *.iXiXy.-.sXw.m iX/.R.x e R.iX",
"t t t t t t t t t t t t t t t t t t t t t t t t t t t t t t t t t t t t t t t t t t t t t t t t t t t t t t t t t t t t t t t t t t t t t t t t t t t t t t t t t t t t t t t t t t t t t t t t t t t t t t t t t t t t t t t t t t t t t t t t t t t t t t t t t t t t t t t t t t t t t t t t t u u u u u u u u u u u u u u u u u u u u u u u u u u u u u u u u u u u u u u u u u u u u u u u u u u u u u u u u u u u u u u u u u u u u u u u u u u u u u u u u u u u u u u u u u u u u u u u u t t t e u t u t t t e t u t t ",
"t t t t t t t t t t t t t t t t t t t t t t t t t t t t t t t t t t t t t t t t t t t t t t t t t t t t t t t t t t t t t t t t t t t t t t t t t t t t t t t t t t t t t t t t t t t t t t t t t t t t t t t t t t t t t t t t t t t t t t t t t t t t t t t t t t t t t t t t t t t t t t t t t t t t t t t t t t t t t t t t t t t t t t t t t t t t t t t t t t t t t t t t t t t t t t t t t t t t t t t t t t t t t t t t t t t t t t t t t t t t t t t t t t t t t t t t t t t t t t t t t t t t t t t t t t t t t t t t ",
"t t t t t t t t t t t t t t t t t t t t t t t t t t t t t t t t t t t t t t t t t t t t t t t t t t t t t t t t t t t t t t t t t t t t t t t t t t t t t t t t t t t t t t t t t t t t t t t t t t t t t t t t t t t t t t t t t t t t t t t t t t t t t t t t t t t t t t t t t t t t t t t u 3 ; ; ; ; ; ; ; ; ; ; ; ; ; ; ; ; ; ; ; ; ; ; ; ; ; ; ; ; ; ; ; ; ; ; ; ; ; ; ; ; ; ; ; ; ; ; ; ; ; ; ; ; ; ; ; ; ; ; ; ; ; ; ; ; ; ; ; ; ; ; ; ; ; ; ; ; ; ; ; ; ; ; ; ; ; ; ; ; ; ; ; ; ; ; ; ; ; ; ; ; ; ; ; ; ; ; ; ; ; ; ; ",
"t t t t t t t t t t t t t t t t t t t t t t t t t t t t t t t t t t t t t t t t t t t t t t t t t t t t t t t t t t t t t t t t t t t t t t t t t t t t t t t t t t t t t t t t t t t t t t t t t t t t t t t t t t t t t t t t t t t t t t t t t t t t t t t t t t t t t t t t t t t t t t u 3 ; ; ; ; ; ; ; ; ; ; ; ; ; ; ; ; ; ; ; ; ; ; ; ; ; ; ; ; ; ; ; ; ; ; ; ; ; ; ; ; ; ; ; ; ; ; ; ; ; ; ; ; ; ; ; ; ; ; ; ; ; ; ; ; ; ; ; ; ; ; ; ; ; ; ; ; ; ; ; ; ; ; ; ; ; ; ; ; ; ; ; ; ; ; ; ; ; ; ; ; ; ; ; ; ; ; ; ; ; ; ; ; ",
"t t t t t t t t t t t t t t t t t t t t t t t t t t t t t t t t t t t t t t t t t t t t t t t t t t t t t t t t t t t t t t t t t t t t t t t t t t t t t t t t t t t t t t t t t t t t t t t t t t t t t t t t t t t t t t t t t t t t t t t t t t t t t t t t t t t t t t t t t t t t t u 3 ; ; ; ; ; ; ; ; ; ; ; ; ; ; ; ; ; ; ; ; ; ; ; ; ; ; ; ; ; ; ; ; ; ; ; ; ; ; ; ; ; ; ; ; ; ; O @ X ; ; ; ; + ; ; ; ; ; ; ; : ; ; ; ; ; ; ; ; ; ; ; ; ; ; ; ; ; ; ; : ; ; ; ; ; ; ; ; ; ; ; ; ; ; ; ; ; ; ; ; ; ; ; ; ; ; ; ; ; ; ; ",
"t t t t t t t t t t t t t t t t t t t t t t t t t t t t t t t t t t t t t t t t t t t t t t t t t t t t t t t t t t t t t t t t t t t t t t t t t t t t t t t t t t t t t t t t t t t t t t t t t t t t t t t t t t t t t t t t t t t t t t t t t t t t t t t t t t t t t t t t t t t t u 3 ; ; ; ; ; ; ; ; + ; ; ; ; ; ; ; ; ; ; ; ; ; ; ; ; ; ; ; ; ; ; ; ; ; ; ; ; ; ; ; ; ; ; ; ; ; O m P.&.: @ @ x Y.O @ X ; X @ ; t X ; + X @ ; + X X + @ ; + @ X ; @ X ; t X ; ; ; ; ; ; ; ; ; ; ; ; ; ; ; ; ; ; ; ; ; ; ; ; ; ; ; ; ; ; ",
"t t t t t t t t t t t t t t t t t t t t t t t t t t t t t t t t t t t t t t t t t t t t t t t t t t t t t t t t t t t t t t t t t t t t t t t t t t t t t t t t t t t t t t t t t t t t t t t t t t t t t t t t t t t t t t t t t t t t t t t t t t t t t t t t t t t t t t t t t t t u 3 ; ; ; ; ; ; ; + 5 j.6 + ; ; ; ; ; ; ; ; ; ; ; ; ; ; ; ; ; ; ; ; ; ; ; ; ; ; ; ; ; ; ; ; ; ; + u sXA.w.O D.*.x iXO D.*.@ =.D.P.aXm X l -.D.3 k -.*.l P.e t P.&.; D.x A.LXB + ; ; ; ; ; ; ; ; ; ; ; ; ; ; ; ; ; ; ; ; ; ; ; ; ; ; ; ; ; ",
"t t t t t t t t t t t t t t t t t t t t t t t t t t t t t t t t t t t t t t t t t t t t t t t t t t t t t t t t t t t t t t t t t t t t t t t t t t t t t t t t t t t t t t t t t t t t t t t t t t t t t t t t t t t t t t t t t t t t t t t t t t t t t t t t t t t t t t t t t t u 3 ; ; ; ; ; ; ; ; 5 n.0 + ; ; ; ; ; ; ; ; ; ; ; ; ; ; ; ; ; ; ; ; ; ; ; ; ; ; ; ; ; ; ; ; ; ; ; ; e sXw.# P.^.iXY.Y.T.Q.pXD.iX-.T.sXl @ P.sXT.R.P.aX&.iXR.iXiXY.l R.Q.iXR.sXl ; ; ; ; ; ; ; ; ; ; ; ; ; ; ; ; ; ; ; ; ; ; ; ; ; ; ; ; ; ; ",
"t t t t t t t t t t t t t t t t t t t t t t t t t t t t t t t t t t t t t t t t t t t t t t t t t t t t t t t t t t t t t t t t t t t t t t t t t t t t t t t t t t t t t t t t t t t t t t t t t t t t t t t t t t t t t t t t t t t t t t t t t t t t t t t t t t t t t t t t t u 3 ; ; ; ; ; ; ; ; + 8 n.3 + ; ; ; ; ; ; ; ; ; ; ; ; ; ; ; ; ; ; ; ; ; ; ; ; ; ; ; ; ; ; ; ; ; ; ; ; O e ^.R.pX^.R.U.R.aXQ.R.pXA.# =.U.# @ D.D.# iXY.w.l IXU.R.-.!.B aXR.Q.P.P.# ; ; ; ; ; ; ; ; ; ; ; ; ; ; ; ; ; ; ; ; ; ; ; ; ; ; ; ; ; ; ",
"t t t t t t t t t t t t t t t t t t t t t t t t t t t t t t t t t t t t t t t t t t t t t t t t t t t t t t t t t t t t t t t t t t t t t t t t t t t t t t t t t t t t t t t t t t t t t t t t t t t t t t t t t t t t t t t t t t t t t t t t t t t t t t t t t t t t t t t t u 3 ; ; ; ; ; ; ; ; ; ; o 0 n.5 ; ; ; ; ; ; ; ; ; ; ; ; ; ; ; ; ; ; ; ; ; ; ; ; ; ; ; ; ; ; ; ; ; ; ; ; t m B iXQ.T.t =.^.Q.P.e A.iXu A.iXe @ D.iXw.^.U.D.e sXB l j D.pX/.D.t =.pXe ; ; ; ; ; ; ; ; ; ; ; ; ; ; ; ; ; ; ; ; ; ; ; ; ; ; ; ; ; ; ",
"t t t t t t t t t t t t t t t t t t t t t t t t t t t t t t t t t t t t t t t t t t t t t t t t t t t t t t t t t t t t t t t t t t t t t t t t t t t t t t t t t t t t t t t t t t t t t t t t t t t t t t t t t t t t t t t t t t t t t t t t t t t t t t t t t t t t t t t u 3 ; ; ; ; ; ; ; ; ; ; ; ; + 5 5 ; ; ; ; ; ; ; ; ; ; ; ; ; ; ; ; ; ; ; ; ; ; ; ; ; ; ; ; ; ; ; ; ; ; ; ; e Y.^.m ; R.R.&.w.t Q.Y.e D.Q.k Y.w.# D.pXR.l *.*.@ -./.A.A.^.B t Q.Y.t T.w.O ; ; ; ; ; ; ; ; ; ; ; ; ; ; ; ; ; ; ; ; ; ; ; ; ; ; ; ; ; ",
"t t t t t t t t t t t t t t t t t t t t t t t t t t t t t t t t t t t t t t t t t t t t t t t t t t t t t t t t t t t t t t t t t t t t t t t t t t t t t t t t t t t t t t t t t t t t t t t t t t t t t t t t t t t t t t t t t t t t t t t t t t t t t t t t t t t t t t u 3 ; ; ; ; ; ; ; ; ; ; ; ; ; ; + ; ; ; ; ; ; ; ; ; ; ; ; ; ; ; ; ; ; ; ; ; ; ; ; ; ; ; ; ; ; ; ; ; ; ; ; ; ; @ @ O ; @ @ O X : @ @ ; X @ + @ + @ P.P.# ; O O ; X @ X X @ O : @ X ; @ X ; ; ; ; ; ; ; ; ; ; ; ; ; ; ; ; ; ; ; ; ; ; ; ; ; ; ; ; ; ; ",
"u u u u u u u u u u u u u u u u u u u u u u u u u u u u u u u u u u u u u u u u u u u u u u u u u u u u u u u u u u u u u u u u u u u u u u u u u u u u u u u u u u u u u u u u u u u u u u u u u u u u u u u u u u u u u u u u u u u u u u u u u u u u u u u u u u u u u u 3 ; ; ; ; ; ; ; ; ; ; ; ; ; ; ; ; ; ; ; ; ; ; ; ; ; ; ; ; ; ; ; ; ; ; ; ; ; ; ; ; ; ; ; ; ; ; ; ; ; ; ; ; ; ; ; ; ; ; ; ; ; ; ; ; ; ; ; ; ; ; ; X &.*.+ ; ; ; ; ; ; ; ; ; ; ; ; ; ; ; ; ; ; ; ; ; ; ; ; ; ; ; ; ; ; ; ; ; ; ; ; ; ; ; ; ; ; ; ; ; ; ",
"e e e e e e e e e e e e e e e e e e e e e e e e e e e e e e e e e e e e e e e e e e e e e e e e e e e e e e e e e e e e e e e e e e e e e e e e e e e e e e e e e e e e e e e e e e e e e e e e e e e e e e e e e e e e e e e e e e e e e e e e e e e e e e e e e e e e e ; ; ; ; ; ; ; ; ; ; ; ; ; ; ; ; ; ; ; ; ; ; ; ; ; ; ; ; ; ; ; ; ; ; ; ; ; ; ; ; ; ; ; ; ; ; ; ; ; ; ; ; ; ; ; ; ; ; ; ; ; ; ; ; ; ; ; ; ; ; ; ; ; ; + O ; ; ; ; ; ; ; ; ; ; ; ; ; ; ; ; ; ; ; ; ; ; ; ; ; ; ; ; ; ; ; ; ; ; ; ; ; ; ; ; ; ; ; ; ; ; ; ",
"+ + + + + + + + + + + + + + + + + + + + + + + + + + + + + + + + + + + + + + + + + + + + + + + + + + + + + + + + + + + + + + + + + + + + + + + + + + + + + + + + + + + + + + + + + + + + + + + + + + + + + + + + + + + + + + + + + + + + + + + + + + + + + + + + + + + + + ; ; ; ; ; ; ; ; ; ; ; ; ; ; ; ; ; ; ; ; ; ; ; ; ; ; ; ; ; ; ; ; ; ; ; ; ; ; ; ; ; + + + + + + + + + + + + + + + + + + + + + + + + + + + + + + + + + ; ; + + + + + + + + + + + + + + + + + + + + + + + + + + + + + + + + + + + + + + + + + + + + + + + ",
"l l l l l l l l l l l l l l l l l l l l l l l l l l l l l l l l l l l l l l l l l l l l l l l l l l l l l l l l l l l l l l l l l l l l l l l l l l l l l l l l l l l l l l l l l l l l l l l l l l l l l l l l l l l l l l l l l l l l l l l l l l l l l l l l l l l l l ; ; e e e e e e e e e e e e e e e e e e e ; ; 3 e e e e e e e e e e e e e e e ; ; l l l l l l l l l l l l l l l l l l l l l l l l l l l l l l l l l l l l l l l l l l l l l l l l l l l l l l l l l l l l l l l l l l l l l l l l l l l l l l l l l l ",
"=.=.=.=.=.=.=.=.=.=.=.=.=.=.=.=.=.=.=.=.=.=.=.=.=.=.=.=.=.=.=.=.=.=.=.=.=.=.=.=.=.=.=.=.=.=.=.=.=.=.=.=.=.=.=.=.=.=.=.=.=.=.=.=.=.=.=.=.=.=.=.=.=.=.=.=.=.=.=.=.=.=.=.=.=.=.=.=.=.=.=.=.=.=.=.=.=.=.=.=.=.=.=.=.=.=.=.=.=.=.=.=.=.=.=.=.=.=.=.=.=.=.=.=.=.=.=.=.=.=.=.-.&.; ; u u u u u u t t t t t t t u u u u u k 3 : t k u u k k u u u u u u u u u u ; ; =.=.=.-.-.=.-.-.=.-.-.-.=.-.=.=.=.=.-.=.-.-.-.-.=.=.-.-.=.=.-.=.=.=.=.=.=.=.=.=.=.=.=.=.=.=.=.=.=.=.=.=.=.=.=.=.=.=.=.=.=.=.=.=.=.=.=.=.=.=.=.=.=.=.=.=.=.=.=.=.=.=.",
"*.*.*.*.*.*.*.*.*.*.*.*.*.*.*.*.*.*.*.*.*.*.*.*.*.*.*.*.*.*.*.*.*.*.*.*.*.*.*.*.*.*.*.*.*.*.*.*.*.*.*.*.*.*.*.*.*.*.*.*.*.*.*.*.*.*.*.*.*.*.*.*.*.*.*.*.*.*.*.*.*.*.*.*.*.*.*.*.*.*.*.*.*.*.*.*.*.*.*.*.*.*.*.*.*.*.*.*.*.*.*.*.*.*.*.*.*.*.*.*.*.*.*.*.*.*.*.*.*.*.*.*.B ; ; t t t t u t m w.*.-.=.w.&.t u t t t u 3 ; e u u t 3 e u u u t t u u t t t ; ; *.*.&.B B &.B B &.B B B *.B *.B &.&.B B B B B B &.&.B B &.&.B *.B &.*.*.*.*.*.*.*.*.*.*.*.*.*.*.*.*.*.*.*.*.*.*.*.*.*.*.*.*.*.*.*.*.*.*.*.*.*.*.*.*.*.*.*.*.*.*.*.*.",
"*.*.*.*.*.*.*.*.*.*.*.*.*.*.*.*.*.*.*.*.*.*.*.*.*.*.*.*.*.*.*.*.*.*.*.*.*.*.*.*.*.*.*.*.*.*.*.*.*.*.*.*.*.*.*.*.*.*.*.*.*.*.*.*.*.*.*.*.*.*.*.*.*.*.*.*.*.*.*.*.*.*.*.*.*.*.*.*.*.*.*.*.*.*.*.*.*.*.*.*.*.*.*.*.*.*.*.*.*.*.*.*.*.*.*.*.*.*.*.*.*.*.*.*.*.*.*.*.*.*.*.=.&.; ; u t t t u e =.-.P.!.P.m A.e u t t t u 3 ; e k t l A.=.t 3 3 *.m e 3 t u t ; ; *.&.A.pXiXw.Q.pXP.!.pXY.=.R.B P.D.D.pXR.^.sX!.iXU.-.iXiXw.D.^.B U.w.&.*.*.*.*.*.*.*.*.*.*.*.*.*.*.*.*.*.*.*.*.*.*.*.*.*.*.*.*.*.*.*.*.*.*.*.*.*.*.*.*.*.*.*.*.*.*.*.",
"*.*.*.*.*.*.*.*.*.*.*.*.*.*.*.*.*.*.*.*.*.*.*.*.*.*.*.*.*.*.*.*.*.*.*.*.*.*.*.*.*.*.*.*.*.*.*.*.*.*.*.*.*.*.*.*.*.*.*.*.*.*.*.*.*.*.*.*.*.*.*.*.*.*.*.*.*.*.*.*.*.*.*.*.*.*.*.*.*.*.*.*.*.*.*.*.*.*.*.*.*.*.*.*.*.*.*.*.*.*.*.*.*.*.*.*.*.*.*.*.*.*.*.*.*.*.*.*.*.*.*.=.&.; ; u t t t u t &.Y.D.u P.D.=.t u t t t u 3 ; t t x iXT.A.k A.m x x B w.l t t ; ; *.B P.^.U./.iXA.*.sXw.iXR.pXm Q.R.pXA.w.w.sX-.iXP.iXP.S.iXP.IXA.^.D.&.*.*.*.*.*.*.*.*.*.*.*.*.*.*.*.*.*.*.*.*.*.*.*.*.*.*.*.*.*.*.*.*.*.*.*.*.*.*.*.*.*.*.*.*.*.*.*.",
"*.*.*.*.*.*.*.*.*.*.*.*.*.*.*.*.*.*.*.*.*.*.*.*.*.*.*.*.*.*.*.*.*.*.*.*.*.*.*.*.*.*.*.*.*.*.*.*.*.*.*.*.*.*.*.*.*.*.*.*.*.*.*.*.*.*.*.*.*.*.*.*.*.*.*.*.*.*.*.*.*.*.*.*.*.*.*.*.*.*.*.*.*.*.*.*.*.*.*.*.*.*.*.*.*.*.*.*.*.*.*.*.*.*.*.*.*.*.*.*.*.*.*.*.*.*.*.*.*.*.*.=.&.; ; u t t t u e &.^.l O B U.=.t u t t t u 3 ; t ; U.I.u =.l T.Q.R.D.pXQ.R.3 u ; ; *.B D.aXaXA.pXsXD.iXB S.iXiXm Y.iX!.x *.=.iX&.R.I.iX&.B iXU.^.iX!.A.&.*.*.*.*.*.*.*.*.*.*.*.*.*.*.*.*.*.*.*.*.*.*.*.*.*.*.*.*.*.*.*.*.*.*.*.*.*.*.*.*.*.*.*.*.*.*.*.",
"*.*.*.*.*.*.*.*.*.*.*.*.*.*.*.*.*.*.*.*.*.*.*.*.*.*.*.*.*.*.*.*.*.*.*.*.*.*.*.*.*.*.*.*.*.*.*.*.*.*.*.*.*.*.*.*.*.*.*.*.*.*.*.*.*.*.*.*.*.*.*.*.*.*.*.*.*.*.*.*.*.*.*.*.*.*.*.*.*.*.*.*.*.*.*.*.*.*.*.*.*.*.*.*.*.*.*.*.*.*.*.*.*.*.*.*.*.*.*.*.*.*.*.*.*.*.*.*.*.*.*.=.&.; ; u t t t u t &.P.U.*.Q.Q.-.t u t t t u 3 ; t ; Y.D.l sXD.Y.iXQ.D.R.u iXe u ; ; *.B P.^.^.P.iXA.*.sX&./.R.iX&.^.R.pX=.*.-.pX*.!.L.pXD.A.iXY.U.R.IXw.&.*.*.*.*.*.*.*.*.*.*.*.*.*.*.*.*.*.*.*.*.*.*.*.*.*.*.*.*.*.*.*.*.*.*.*.*.*.*.*.*.*.*.*.*.*.*.*.",
"*.*.*.*.*.*.*.*.*.*.*.*.*.*.*.*.*.*.*.*.*.*.*.*.*.*.*.*.*.*.*.*.*.*.*.*.*.*.*.*.*.*.*.*.*.*.*.*.*.*.*.*.*.*.*.*.*.*.*.*.*.*.*.*.*.*.*.*.*.*.*.*.*.*.*.*.*.*.*.*.*.*.*.*.*.*.*.*.*.*.*.*.*.*.*.*.*.*.*.*.*.*.*.*.*.*.*.*.*.*.*.*.*.*.*.*.*.*.*.*.*.*.*.*.*.*.*.*.*.*.*.=.&.; ; u t t t u e =.*.A.U.T.IXU.3 k t t t u 3 ; t t &.pXA./.iX/././.P.Q.x iXe u ; ; *.B D.Y.A.Q./.sXP.iXpX^.&.U.pX^.&.Y.sXY.=.!.=.iXY.A.pXpXA.D.P.&.aXw.&.*.*.*.*.*.*.*.*.*.*.*.*.*.*.*.*.*.*.*.*.*.*.*.*.*.*.*.*.*.*.*.*.*.*.*.*.*.*.*.*.*.*.*.*.*.*.*.",
"*.*.*.*.*.*.*.*.*.*.*.*.*.*.*.*.*.*.*.*.*.*.*.*.*.*.*.*.*.*.*.*.*.*.*.*.*.*.*.*.*.*.*.*.*.*.*.*.*.*.*.*.*.*.*.*.*.*.*.*.*.*.*.*.*.*.*.*.*.*.*.*.*.*.*.*.*.*.*.*.*.*.*.*.*.*.*.*.*.*.*.*.*.*.*.*.*.*.*.*.*.*.*.*.*.*.*.*.*.*.*.*.*.*.*.*.*.*.*.*.*.*.*.*.*.*.*.*.*.*.*.=.&.; ; u t t t u t m A.*.*.*.D.-.e u t t t u 3 ; e k e &.P.w.x D.*.&.m &.k *.t t ; ; *.*.*.&.*.&.&.=.*.&.=.B *.&.*.&.*.B *.*.*.&.*.&.*.&.*.*.&.*.&.*.B *.*.*.*.*.*.*.*.*.*.*.*.*.*.*.*.*.*.*.*.*.*.*.*.*.*.*.*.*.*.*.*.*.*.*.*.*.*.*.*.*.*.*.*.*.*.*.*.*.",
"*.=.=.=.=.=.*.=.=.=.=.*.=.=.=.=.*.=.=.=.*.=.=.*.=.=.=.=.=.=.*.*.*.*.&.*.*.*.*.=.=.=.=.=.=.=.*.*.=.=.=.=.=.=.=.=.=.=.=.=.*.*.=.=.=.=.=.=.=.=.=.*.=.=.=.=.=.*.*.=.=.=.=.=.*.=.=.=.=.*.=.=.=.=.*.=.=.=.*.=.=.*.=.=.=.=.=.=.=.=.=.=.=.=.=.=.=.=.=.=.=.=.=.=.=.*.=.=.*.*.*.*.B ; ; u t t t t u t t u u t e t u t t t t u 3 ; e u u e ; e t ; e e t t t e u t ; ; *.=.=.=.=.=.=.=.=.=.=.=.=.=.=.=.*.=.=.=.=.=.=.=.=.=.=.=.=.=.=.*.=.=.=.=.=.=.=.=.=.=.=.=.=.=.=.*.=.=.=.=.=.=.=.=.=.=.=.=.=.&.V =.=.=.=.=.=.=.=.=.=.=.=.=.=.=.*.=.=.=.",
"u t t t t t k t t t t u u t t t k t t t u t t k t t t t t u u i i i %.z k k k u t t t t t t i l t t t t t t t t t t t t i l t t t t t t t t u u t t t t t k l t t t t t u t t t t k t t t t k t t t k t t k u t t t t t t t t t t t t t t t t t t t t t t k t u k k k o.%.; ; u t t t t t u t t t t t u t t t t t u 3 ; e u t u k u u k u u u u t u t t ; 3 x t t t t t t t t t t t t t t t k t t t t t t t t t t t t t t u u t t t t t t t t t t t t t t k t t t t t t t t t t t t e :.2.t t t t t t t t t t t t t t t u t t t ",
"k ; ; ; ; ; l ; ; ; ; u t ; ; e l ; ; e k ; ; x e ; ; e e y y s s a yX7.8 8 8 6 5 3 ; ; ; : s L : ; ; ; ; ; ; ; ; ; 3 : h v ; ; ; ; ; ; ; ; t t ; ; ; 3 ; q M ; ; ; ; ; k e ; ; ; l 3 ; ; ; l ; ; 3 l ; ; l t ; ; ; ; ; ; ; ; ; ; ; ; ; ; ; ; ; ; ; ; ; 5 l 5 6 8 0 8 x.h.o ; u t t t t t u e ; ; ; 3 u t t t t t u 3 ; e u t u u u u u u u u u u u u t ; 3 k ; ; ; ; ; ; ; ; ; ; ; ; ; ; e l ; ; ; ; ; ; ; ; ; ; ; ; ; ; k u ; ; ; ; ; ; ; ; ; ; ; ; ; ; l 3 ; ; ; ; ; ; ; ; ; ; ,   wXjX4 ; ; ; ; ; ; ; ; ; ; ; ; ; ; u t ; ; ",
"k ; e 3 3 3 l e 3 e ; u t ; 3 e l ; 3 e l ; ; x e 3 3 e e y y s s a c.7.8 8 8 6 5 5 3 3 e ; s L : e 3 3 3 3 3 3 3 3 e ; h v ; e 3 3 3 3 3 ; t u ; e 3 3 , q M ; 3 3 e ; l e 3 e ; l e 3 3 3 l 3 3 e l 3 ; l t ; 3 3 3 3 3 3 3 3 3 3 3 3 3 3 3 3 3 3 3 3 e l 5 8 8 0 8 z.h.o ; u t t t t t u e ; ; ; 3 u t t t t t u 3 ; e u t j j j j j j j j j j t u t ; 3 l ; e 3 3 3 3 3 3 3 3 3 3 3 3 e l ; e 3 3 3 3 3 3 3 3 3 3 e ; l u ; e 3 3 3 3 3 3 3 3 3 3 3 ; l e 3 3 3 3 3 3 3 3 3 3 e   qXhX4 e 3 3 e 3 3 3 3 e 3 3 3 3 ; u t ; 3 ",
"k ; 3 3 3 3 l 3 3 3 ; u t ; 3 e l ; ; e l ; ; x e ; 3 e e y y s s a c.7.8 8 8 6 5 5 3 3 e ; s L : e 3 3 3 3 3 3 3 3 e ; h v ; e 3 3 3 3 3 ; t u ; 3 3 3 , q M ; 3 3 3 ; l e ; 3 ; l e 3 3 3 l 3 3 e l 3 ; l t ; 3 3 3 3 3 3 3 3 3 3 3 3 3 3 3 3 3 3 3 ; e l 5 8 8 0 8 z.h.o ; u t t t t t u e ; ; ; 3 u t t t t t u 3 ; e u i h h h h h h h h h h s t t ; 3 l ; 3 3 3 3 3 3 3 3 3 3 3 3 ; e l ; 3 3 3 3 3 3 3 3 3 3 3 3 ; l u ; 3 3 3 3 3 3 3 3 3 3 3 3 ; l e 3 3 3 3 3 3 3 3 3 3 e   qXzXwX4.4.c ; 3 e 3 e + e c 4.e ; l e c 2.",
"k ; 3 3 3 3 l 3 3 3 ; u t ; 3 e l ; ; e l ; ; x e ; 3 e e y y s s a c.7.8 8 8 6 5 5 3 3 e ; s L : e 3 3 3 3 3 3 3 3 e ; h v ; e 3 3 3 3 3 ; t u ; 3 3 3 , q M ; 3 3 3 ; l e ; 3 ; l e 3 3 3 l 3 3 e l 3 ; l t ; 3 3 3 3 3 3 3 3 3 3 3 3 3 3 3 3 3 3 3 ; e l 5 8 8 0 8 z.h.o ; u t t t t t u e ; ; ; 3 u t t t t t u 3 ; t j s ].].].].].].].].].].] 9 t ; 3 l ; 3 3 3 3 3 3 3 3 3 3 3 3 ; e l ; 3 3 3 3 3 3 3 3 3 3 3 3 ; l u ; 3 3 3 3 3 3 3 3 3 3 3 3 ; l e 3 3 3 3 3 3 3 3 3 3 e   wXwX4.c 5.5.2.5.2.4.5.4.5.n qX5.n 5.5.:.5.",
"k ; 3 3 3 3 l 3 3 3 ; u t ; 3 e l ; ; e l ; ; x e ; 3 e e y y s s a c.7.8 8 8 6 5 5 3 3 e ; s L : e 3 3 3 3 3 3 3 3 e ; h v ; e 3 3 3 3 3 ; t u ; 3 3 3 , q M ; 3 3 3 ; l e ; 3 ; l e 3 3 3 l 3 3 e l 3 ; l t ; 3 3 3 3 3 3 3 3 3 3 3 3 3 3 3 3 3 3 3 ; e l 5 8 8 0 8 z.h.o ; u t t t t t u t ; ; ; 3 u t t t t t u 3 ; t t x G.G.G.G.G.G.G.G.G.G.C t u ; 3 l ; 3 3 3 3 3 3 3 3 3 3 3 3 ; e l ; 3 3 3 3 3 3 3 3 3 3 3 3 ; l u ; 3 3 3 3 3 3 3 3 3 3 3 3 ; l e 3 3 3 3 3 3 3 3 3 3 e   qXwX4.n 4.2.4.4.c wX4.2.4.:.4.2.5.2.2.4.qX",
"k ; 3 3 3 3 l 3 3 3 ; u t ; 3 e l ; ; e l ; ; x e ; 3 e e y y s s a c.7.8 8 8 6 5 5 3 3 e ; s L : e 3 3 3 3 3 3 3 3 e ; h v ; e 3 3 3 3 3 ; t u ; 3 3 3 , q M ; 3 3 3 ; l e ; 3 ; l e 3 3 3 l 3 3 e l 3 ; l t ; 3 3 3 3 3 3 3 3 3 3 3 3 3 3 3 3 3 3 3 ; e l 5 8 8 0 8 z.h.o ; u t t t t k e t.DXKXZXb., k t t t t u 3 ; t t +.gXfXfXfXfXfXfXfXfXfXl.e j ; 3 l ; 3 3 3 3 3 3 3 3 3 3 3 3 ; e l ; 3 3 3 3 3 3 3 3 3 3 3 3 ; l u ; 3 3 3 3 3 3 3 3 3 3 3 3 ; l e 3 3 3 3 3 3 3 3 3 3 e   qXwX4.n 2.:.4.4.t 5.2.n 5.2.2.2.2.5.5.2.5.",
"k ; 3 3 3 3 l 3 3 3 ; u t ; 3 e l ; ; e l ; ; x e ; 3 e e y y s s a c.7.8 8 8 6 5 5 3 3 e ; s L : e 3 3 3 3 3 3 3 3 e ; h v ; e 3 3 3 3 3 ; t u ; 3 3 3 , q M ; 3 3 3 ; l e ; 3 ; l e 3 3 3 l 3 3 e l 3 ; l t ; 3 3 3 3 3 3 3 3 3 3 3 3 3 3 3 3 3 3 3 ; e l 5 8 8 0 8 z.h.o ; u t t t t k , r.JXAXJXb., k t t t t u 3 ; t t +.uXuXuXuXuXuXuXuXuXuX>.e u ; 3 l ; 3 3 3 3 3 3 3 3 3 3 3 3 ; e l ; 3 3 3 3 3 3 3 3 3 3 3 3 ; l u ; 3 3 3 3 3 3 3 3 3 3 3 3 ; l e 3 3 3 3 3 3 3 3 3 3 e   qXhXt , t e t t 3 t n c n 3 t e ; n n ; e ",
"k ; 3 3 3 3 l 3 3 3 ; u t ; 3 e l ; ; e l ; ; x e ; 3 e e y y s s a c.7.8 8 8 6 5 5 3 3 e ; s L : e 3 3 3 3 3 3 3 3 e ; h v ; e 3 3 3 3 3 ; t u ; 3 3 3 , q M ; 3 3 3 ; l e ; 3 ; l e 3 3 3 l 3 3 e l 3 ; l t ; 3 3 3 3 3 3 3 3 3 3 3 3 3 3 3 3 3 3 3 ; e l 5 8 8 0 8 z.h.o ; u t t t t k , r.SXZXSXb., k t t t t u 3 ; t t z gXfXfXfXfXfXfXfXfXfXl.e j ; 3 l ; 3 3 3 3 3 3 3 3 3 3 3 3 ; e l ; 3 3 3 3 3 3 3 3 3 3 3 3 ; l u ; 3 3 3 3 3 3 3 3 3 3 3 3 ; l e 3 3 3 3 3 3 3 3 3 3 e   qXhX4 , 3 3 3 3 3 3 + ; ; 3 3 3 ; t e ; 3 ",
"k ; 3 3 3 3 l 3 3 3 ; u t ; 3 e l ; ; e l ; ; x e ; 3 e e y y s s a c.7.8 8 8 6 5 5 3 3 e ; s L : e 3 3 3 3 3 3 3 3 e ; h v ; e 3 3 3 3 3 ; t u ; 3 3 3 , q M ; 3 3 3 ; l e ; 3 ; l e 3 3 3 l 3 3 e l 3 ; l t ; 3 3 3 3 3 3 3 3 3 3 3 3 3 3 3 3 3 3 3 ; e l 5 8 8 0 8 z.h.o ; u t t t t k , r.SXZXSXb., k t t t t u 3 ; t t +.uXuXuXuXuXuXuXuXuXuX>.e u ; 3 l ; 3 3 3 3 3 3 3 3 3 3 3 3 ; e l ; 3 3 3 3 3 3 3 3 3 3 3 3 ; l u ; 3 3 3 3 3 3 3 3 3 3 3 3 ; l e 3 3 3 3 3 3 3 3 3 3 e   qXhX4 , e 3 3 3 3 3 e 3 e 3 3 e ; k t ; 3 ",
"k ; 3 3 3 3 l 3 3 3 ; u t ; 3 e l ; ; e l ; ; x e ; 3 e e y y s s a c.7.8 8 8 6 5 5 3 3 e ; s L : e 3 3 3 3 3 3 3 3 e ; h v ; e 3 3 3 3 3 ; t u ; 3 3 3 , q M ; 3 3 3 ; l e ; 3 ; l e 3 3 3 l 3 3 e l 3 ; l t ; 3 3 3 3 3 3 3 3 3 3 3 3 3 3 3 3 3 3 3 ; e l 5 8 8 0 8 z.h.o ; u t t t t k , r.SXZXSXb., k t t t t u 3 ; t t +.gXfXfXfXfXfXfXfXfXfXl.e j ; 3 l ; 3 3 3 3 3 3 3 3 3 3 3 3 ; e l ; 3 3 3 3 3 3 3 3 3 3 3 3 ; l u ; 3 3 3 3 3 3 3 3 3 3 3 3 ; l e 3 3 3 3 3 3 3 3 3 3 e   qXhX4 , 3 3 3 3 3 3 3 3 3 3 3 3 ; u t ; 3 ",
"k ; 3 3 3 3 l 3 3 3 ; u t ; 3 e l ; ; e l ; ; x e ; 3 e e y y s s a c.7.8 8 8 6 5 5 3 3 e ; s L : e 3 3 3 3 3 3 3 3 e ; h v ; e 3 3 3 3 3 ; t u ; 3 3 3 , q M ; 3 3 3 ; l e ; 3 ; l e 3 3 3 l 3 3 e l 3 ; l t ; 3 3 3 3 3 3 3 3 3 3 3 3 3 3 3 3 3 3 3 ; e l 5 8 8 0 8 z.h.o ; u t t t t k , r.SXZXSXb., k t t t t u 3 ; t t z l.l.l.l.l.l.l.l.>.l.$.t t ; 3 l ; 3 3 3 3 3 3 3 3 3 3 3 3 ; e l ; 3 3 3 3 3 3 3 3 3 3 3 3 ; l u ; 3 3 3 3 3 3 3 3 3 3 3 3 ; l e 3 3 3 3 3 3 3 3 3 3 e   qXhX4 , 3 3 3 3 3 3 3 3 3 3 3 3 ; u t ; 3 ",
"k ; 3 3 3 3 l 3 3 3 ; u t ; 3 e l ; ; e l ; ; x e ; 3 e e y y s s a c.7.8 8 8 6 5 5 3 3 e ; s L : e 3 3 3 3 3 3 3 3 e ; h v ; e 3 3 3 3 3 ; t u ; 3 3 3 , q M ; 3 3 3 ; l e ; 3 ; l e 3 3 3 l 3 3 e l 3 ; l t ; 3 3 3 3 3 3 3 3 3 3 3 3 3 3 3 3 3 3 3 ; e l 5 8 8 0 8 z.h.o ; u t t t t k , r.SXZXSXb., k t t t t u 3 ; e u t z +.+.+.+.+.+.+.+.+.k t t ; 3 l ; 3 3 3 3 3 3 3 3 3 3 3 3 ; e l ; 3 3 3 3 3 3 3 3 3 3 3 3 ; l u ; 3 3 3 3 3 3 3 3 3 3 3 3 ; l e 3 3 3 3 3 3 3 3 3 3 e   qXhX4 , 3 3 3 3 3 3 3 3 3 3 3 3 ; u t ; 3 ",
"k ; 3 3 3 3 l 3 3 3 ; u t ; 3 e l ; ; e l ; ; x e ; 3 e e y y s s a c.7.8 8 8 6 5 5 3 3 e ; s L : e 3 3 3 3 3 3 3 3 e ; h v ; e 3 3 3 3 3 ; t u ; 3 3 3 , q M ; 3 3 3 ; l e ; 3 ; l e 3 3 3 l 3 3 e l 3 ; l t ; 3 3 3 3 3 3 3 3 3 3 3 3 3 3 3 3 3 3 3 ; e l 5 8 8 0 8 z.h.o ; u t t t t k , r.SXZXSXb., k t t t t u 3 ; e u j z z z z z z z z z z k t t ; 3 l ; 3 3 3 3 3 3 3 3 3 3 3 3 ; e l ; 3 3 3 3 3 3 3 3 3 3 3 3 ; l u ; 3 3 3 3 3 3 3 3 3 3 3 3 ; l e 3 3 3 3 3 3 3 3 3 3 e   qXhX4 , 3 3 3 3 3 3 3 3 3 3 3 3 ; u t ; 3 ",
"k ; e 3 3 3 l e 3 e ; u t ; 3 e l ; 3 e l ; ; x e 3 3 e e y y s s a c.7.8 8 8 6 5 5 3 3 e ; s L : e 3 3 3 3 3 3 3 3 e ; h v ; e 3 3 3 3 3 ; t u ; e 3 3 , q M ; 3 3 e ; l e ; e ; l e 3 3 3 l 3 3 e l 3 ; l t ; 3 3 3 3 3 3 3 3 3 3 3 3 3 3 3 3 3 3 3 3 e l 5 8 8 0 8 z.h.o ; u t t t t k , r.SXZXSXb., k t t t t u 3 ; e u u #.$.$.$.$.$.$.$.$.$.k t t ; 3 l ; e 3 3 3 3 3 3 3 3 3 3 3 3 e l ; 3 3 3 3 3 3 3 3 3 3 3 e ; l u ; e 3 3 3 3 3 3 3 3 3 3 3 ; l e 3 3 3 3 3 3 3 3 3 3 e   qXhX4 , e 3 3 3 3 3 3 3 3 3 3 e ; k t ; 3 ",
"u ; ; ; ; ; l ; ; ; ; u t ; ; e l ; ; e k ; ; x e ; ; , e y y s s a c.7.8 8 8 6 5 3 ; ; ; : s L : ; ; ; ; ; ; ; ; ; ; : g Z ; ; ; ; ; ; ; ; t t ; ; ; ; ; q M ; ; ; ; ; k e ; ; ; l 3 ; ; ; l ; ; ; l ; ; l t ; ; ; ; ; ; ; ; ; ; ; ; ; ; ; ; ; ; ; ; ; 3 l 5 6 8 0 8 z.h.o ; u t t t t k , r.SXZXSXb., k t t t t u 3 ; e u j z z z z z z z z z z k t t ; 3 l ; ; ; ; ; ; ; ; ; ; ; ; ; ; e l ; ; ; ; ; ; ; ; ; ; ; ; ; ; k u ; ; ; ; ; ; ; ; ; ; ; ; ; ; l 3 ; ; ; ; ; ; ; ; ; ; ,   qXhX4 ; ; ; ; ; ; ; ; ; ; ; ; ; ; u t ; ; ",
"l t t t t t x t t t t l l t t u x t t u l t t B u t t t i s v v b J c.7.M M M k k u t t t e b U 5 t t t t t t t t t t h { g g u t t t t t t l l t t t t e q M e t t t t x u t t t x t t t t x t t t x t t m l t t t t t t t t t t t t t t t t t t t t t u m k M M 0 M x.h.o ; u t t t t k , r.SXZXSXb., k t t t t u 3 ; e u u #.$.$.$.$.$.$.$.$.$.k t t ; 3 l t t t t t t t t t t t t t t u x t t t t t t t t t t t t t t x l t t t t t t t t t t t t t t x t t t t t t t t t t t u * wXhX4 t t t t t t t t t t t t t t l k t t ",
"x t u u u u m u u u t x l u u k x u u l x u u B k u u u l v v b N L tX0.M M M M l k u u u t N U t u u u u u u u u u Z h ] ] h Z u u u u u u l l t u u u y M %.t u u u u x l u u u x k u u u m u u u m u t m l t u u u u u u u u u u u u u u u u u u u u k m k M M %.M x.h.o ; u t t t t k , r.SXZXSXb., k t t t t u 3 ; e u j z z z z z z z z z z k t t ; 3 l t u u u u u u u u u u u u u k x u u u u u u u u u u u u u t m x t u u u u u u u u u u u u u m k u u u u u u u u u u l * wXhXu u u u u u u u u u u u u u t x l u u ",
"u ; ; ; ; ; l ; ; ; ; t t ; ; 3 k ; ; e k ; ; x 3 ; ; , e y y y s a c.7.8 8 8 6 5 3 ; ; ; : s b : ; ; ; ; ; ; ; ; e f - 0X0X- r e ; ; ; ; ; t t ; ; ; ; ; q M ; ; ; ; ; k e ; ; ; l 3 ; ; ; l ; ; ; l ; ; l t ; ; ; ; ; ; ; ; ; ; ; ; ; ; ; ; ; ; ; ; ; 3 l 5 6 8 8 8 z.h.o ; u t t t t k , r.SXZXSXb., k t t t t u 3 ; e u u #.$.$.$.$.$.$.$.$.$.k t t ; 3 l ; ; ; ; ; ; ; ; ; ; ; ; ; ; e k ; ; ; ; ; ; ; ; ; ; ; ; ; ; k u ; ; ; ; ; ; ; ; ; ; ; ; ; ; l ; ; ; ; ; ; ; ; ; ; ; ,   qXhX4 ; ; ; ; ; ; ; ; ; ; ; ; ; ; u e ; ; ",
"g h g h g h { g h g h g g h h g { h h g Z h h { g h h g g G G I I Q c.t._ _ _ Z g g g h g h I } h g h h h h h g g h | - ....] | h g g h g h g g h g h g h _ ) h g h g h ) g h g h { g h g h { g h g { h h { g h g h h h h h h h h h h h h h h h h h g h g ) g _ _ _ _ v.h.o ; u t t t t k , r.SXZXSXb., k t t t t u 3 ; e u j z z z z z z z z z z k t t ; 3 l ; e 3 3 3 3 3 3 3 3 3 3 3 3 e l ; e 3 3 3 3 3 3 3 3 3 3 e ; l k ; e 3 3 3 3 3 3 3 3 3 3 3 3 l e 3 3 3 3 3 3 3 3 3 3 e   qXhX4 , e 3 3 3 3 3 3 3 3 3 3 e ; k t ; 3 ",
"k ; e 3 3 3 l e 3 e ; u t ; 3 e l ; 3 e l ; ; x e 3 3 e e y y s s a c.7.8 8 8 6 5 5 3 3 e ; s L : e 3 3 3 3 3 e e ; ] X.- - ] X.e ; e 3 e ; t u ; e 3 3 , q M ; 3 3 e ; l e 3 e ; l e 3 3 3 l e 3 e l 3 ; l t ; e 3 3 3 3 3 3 3 3 3 3 3 3 3 3 3 3 3 3 3 e l 5 8 8 0 8 z.h.o ; u t t t t k , r.SXZXSXb., k t t t t u 3 ; e u u +.$.#.#.#.#.#.#.#.$.k t t ; 3 l ; 3 3 3 3 3 3 3 3 3 3 3 3 ; e l ; 3 3 3 3 3 3 3 3 3 3 3 3 ; l u ; 3 3 3 3 3 3 3 3 3 3 3 3 ; l e 3 3 3 3 3 3 3 3 3 3 e   qXhX4 , 3 3 3 3 3 3 3 3 3 3 3 3 ; u t ; 3 ",
"k ; 3 3 3 3 l 3 3 3 ; u t ; 3 e l ; ; e k ; ; x e ; 3 e e y y s s a c.7.8 8 8 6 5 5 3 3 e ; s L : e 3 3 3 3 3 e : ] ' r | | r ] ] ; 3 3 3 ; t u ; 3 3 3 , q M ; 3 3 3 ; l e ; 3 ; l e 3 3 3 l 3 3 e l 3 ; l t ; 3 3 3 3 3 3 3 3 3 3 3 3 3 3 3 3 3 3 3 ; e l 5 8 8 0 8 z.h.o ; u t t t t k , r.SXZXSXb., k t t t t u 3 ; e u j z z z z z z z z z z k t t ; 3 l ; 3 3 3 3 3 3 3 3 3 3 3 3 ; e l ; 3 3 3 3 3 3 3 3 3 3 3 3 ; l u ; 3 3 3 3 3 3 3 3 3 3 3 3 ; l e 3 3 3 3 3 3 3 3 3 3 e   qXhX4 , 3 3 3 3 3 3 3 3 3 3 3 3 ; u t ; 3 ",
"k ; 3 3 3 3 l 3 3 3 ; u t ; 3 e l ; ; e l ; ; x e ; 3 e e y y s s a c.7.8 8 8 6 5 5 3 3 e ; s L : e 3 3 3 3 e : - ' = e g g = r ] ] : e 3 ; t u ; 3 3 3 , q M ; 3 3 3 ; l e ; 3 ; l e 3 3 3 l 3 3 e l 3 ; l t ; 3 3 3 3 3 3 3 3 3 3 3 3 3 3 3 3 3 3 3 ; e l 5 8 8 0 8 z.h.o ; u t t t t k , r.SXZXSXb., k t t t t u 3 ; e u u +.#.#.#.#.#.#.#.#.#.k t t ; 3 l ; 3 3 3 3 3 3 3 3 3 3 3 3 ; e l ; 3 3 3 3 3 3 3 3 3 3 3 3 ; l u ; 3 3 3 3 3 3 3 3 3 3 3 3 ; l e 3 3 3 3 3 3 3 3 3 3 e   qXhX4 , 3 3 3 3 3 3 3 3 3 3 3 3 ; u t ; 3 ",
"k ; 3 3 3 3 l 3 3 3 ; u t ; 3 e l ; ; e l ; ; x e ; 3 e e y y s s a c.7.8 8 8 6 5 5 3 3 e ; s L : e 3 3 3 e : = ' - r = g g = r r ' - : e ; t u ; 3 3 3 , q M ; 3 3 3 ; l e ; 3 ; l e 3 3 3 l 3 3 e l 3 ; l t ; 3 3 3 3 3 3 3 3 3 3 3 3 3 3 3 3 3 3 3 ; e l 5 8 8 0 8 z.h.o ; u t t t t k , r.SXZXSXb., k t t t t u 3 ; e u j z +.z z z z z z z +.k t t ; 3 l ; 3 3 3 3 3 3 3 3 3 3 3 3 ; e l ; 3 3 3 3 3 3 3 3 3 3 3 3 ; l u ; 3 3 3 3 3 3 3 3 3 3 3 3 ; l e 3 3 3 3 3 3 3 3 3 3 e   qXhX4 , 3 3 3 3 3 3 3 3 3 3 3 3 ; u t ; 3 ",
"k ; 3 3 3 3 l 3 3 3 ; u t ; 3 e l ; ; e l ; ; x e ; 3 e e y y s s a c.7.8 8 8 6 5 5 3 3 e ; s L : e 3 3 e : r ' - e r r g g = r r = ' - : 3 t u ; 3 3 3 , q M ; 3 3 3 ; l e ; 3 ; l e 3 3 3 l 3 3 e l 3 ; l t ; 3 3 3 3 3 3 3 3 3 3 3 3 3 3 3 3 3 3 3 ; e l 5 8 8 0 8 z.h.o ; u t t t t k , r.SXZXSXb., k t t t t u 3 ; e u u +.#.#.#.#.#.#.#.#.#.k t t ; 3 l ; 3 3 3 3 3 3 3 3 3 ; 3 3 ; e l ; 3 3 3 3 3 3 3 3 3 3 3 3 ; l u ; 3 3 3 3 3 3 3 3 ; 3 3 ; ; l e 3 3 3 3 3 3 3 3 3 ; e   qXhX4 , 3 3 3 3 3 3 3 3 3 3 3 3 ; u t ; 3 ",
"k ; 3 3 3 3 l 3 3 3 ; u t ; 3 e l ; ; e l ; ; x e ; 3 e e y y s s a c.7.8 8 8 6 5 5 3 3 e ; s L : e e 3 : r ' - e r r r g g = r r r - X.- : t u ; 3 3 3 , q M ; 3 3 3 ; l e ; 3 ; l e 3 3 3 l 3 3 e l 3 ; l t ; 3 3 3 3 3 3 3 3 3 3 3 3 3 3 3 3 3 3 3 ; e l 5 8 8 0 8 z.h.o ; u t t t t k , r.SXZXSXb., k t t t t u 3 ; e u j z +.+.+.+.+.+.+.+.+.k t t ; 3 l ; e ; 3 3 3 3 3 3 ; e e e 3 e l ; 3 3 3 3 3 3 3 3 ; ; ; e ; l u ; 3 3 3 3 3 3 3 3 t 3 ; t 3 l e 3 3 3 3 3 3 3 3 e e e   qXhX4 , 3 3 3 3 3 3 3 3 ; 3 e e ; u t ; 3 ",
"k ; 3 3 3 3 l 3 3 3 ; u t ; 3 e l ; ; e l ; ; x e ; 3 e e y y s s a c.7.8 8 8 6 5 5 3 3 e ; s L ; e ; ; - ' - e r r r e g g = r r r r - ' ] t j ; e 3 3 , q M ; 3 3 3 ; l e ; 3 ; l e 3 3 3 l 3 3 e l 3 ; l t ; 3 3 3 3 3 3 3 3 3 3 3 3 3 3 3 3 3 3 3 ; e l 5 8 8 0 8 z.h.o ; u t t t t k , r.SXZXSXb., k t t t t u 3 ; e u u +.#.#.#.#.#.#.#.#.#.k t t ; e k e t e e ; 3 3 e ; k -.k -.=.e l ; 3 3 3 3 3 3 e 3 e A.B w.B u k ; 3 3 3 3 3 3 3 t =.&.m =.e l e 3 3 3 3 3 3 e ; x A.l 4 mXwX4 , 3 3 3 3 3 3 e ; =.&.u A.x t t ; 3 ",
"k ; 3 3 3 3 l 3 3 3 ; u t ; 3 e l ; ; e l ; ; x e ; 3 e e y y s s a c.7.8 8 8 6 5 5 3 3 e ; s L : ; r ] ' - e r r r 4 r | G * r r r r r r ] X.h ; : ; e , q M ; 3 3 3 ; l e ; 3 ; l e 3 3 3 l 3 3 e l 3 ; l t ; 3 3 3 3 3 3 3 3 3 3 3 3 3 3 3 3 3 3 3 ; e l 5 8 8 0 8 z.h.o ; u t t t t k , r.SXZXSXb., k t t t t u 3 ; e u j z +.+.+.+.+.+.+.+.+.k t t ; e u k -.w.-.3 3 3 3 + *.=.B B B x u ; 3 3 3 3 3 3 ; + B -.B A.B u k ; 3 3 3 3 3 3 ; ; &.-.w.&.3 l e 3 3 3 3 3 3 ; ; ; x *.A mXwX4 , 3 3 3 3 3 3 ; + B *.+ l *.t t ; 3 ",
"k ; 3 3 3 3 l 3 3 3 ; u t ; 3 e l ; ; e l ; ; x e ; 3 e e y y s s a c.7.8 8 8 6 5 5 3 ; ; : y L = ] ' ] r r r r r 4 H [.{.[.H e r r r r r e - X.] - e : : q M ; e e e ; l e ; 3 ; l e 3 3 3 l 3 3 e l 3 ; l t ; 3 3 3 3 3 3 3 3 3 3 3 3 3 3 3 3 3 3 3 ; e l 5 8 8 0 8 z.h.o ; u t t t t k , r.SXZXSXb., k t t t t u 3 ; e u u +.#.+.+.+.+.+.+.+.#.k t t ; e u l D.l =.t ; ; t B w.m D.l B x u ; 3 3 3 3 3 ; l &.A.D.-.-.&.u k ; 3 3 3 3 3 3 B u e A.w.V B t e 3 3 3 3 3 ; t B e &.B e.wXwX4 , 3 3 3 3 3 ; x l u &.; =.e u t ; 3 ",
"l 3 3 3 3 3 l 3 3 3 3 k t 3 3 e l 3 3 t l 3 3 x e 3 e e y y y s s a c.7.8 8 9 9 5 : ; e r - X...X.] r e r r r r 3  .9X'. .[.{.G e r r r r = i A - ' ' ] - M M ; : : ; ; k e ; e ; l e e e e l e e e l e ; l t ; e e e e e e e e e e e 3 3 3 3 3 e e e 3 e l 5 8 8 0 8 z.h.o ; u t t t t k , r.SXZXSXb., k t t t t u 3 ; e u j +.+.+.+.+.+.+.+.+.+.k t t ; e u l A.l *.t 3 3 e t m -.&.-.-.t l ; e 3 3 3 3 3 t u t -.=.=.&.k k ; e 3 3 3 3 e t l *.=.&.-.l k e 3 3 3 3 3 3 e t -.A.l 4 bXwX4 , e 3 3 3 3 3 t t l B *.D.l u t ; 3 ",
"y o $ $ $ $ y $ $ $ o y e o $ , y o o , y + ; l ; ; ; ; , t y y s a c.7.M M A g ` ] ] ' X.X.} F F d r r r r r 4  .{.].r A I [.'.r r r r r r A A e r - ] ] X.X.] ] - - = l e 3 3 ; k ; : : : k : : ; k : : l t : ; ; ; ; ; ; ; ; ; ; ; ; ; ; ; ; ; ; ; ; 5 k 7 9 9 0 9 z.h.o ; u t t t t k , r.SXZXSXb., k t t t t u 3 ; e u j +.+.+.+.+.+.+.+.+.+.k t t ; 3 l ; e ; 3 ; ; ; ; ; ; t ; e e ; k ; ; ; ; ; ; ; ; ; ; ; ; u ; u t ; ; ; ; ; ; ; ; 3 u ; ; t ; l ; ; ; ; ; ; ; ; ; e t t . qXhX4 ; ; ; ; ; ; ; ; ; ; 3 e t e t e ; ; ",
"7.o.o.o.o.o.q.o.o.o.o.7.7.o.o.o.q.o.7._ q._ M ) g h - ] ] ] ] ] X.X.c.` X.| ] ] ] ] - = h D ~ oX! F r = = = =  .{.].= * G h / 9X .* = * = * r i = = = e = A ` - ] ] ' ' X.X.' ] ] ] ] ] ] - ] - - - g - - g h - r = = = = = = = = = r e e e e e e e e r i Z s Z Z { I m.h.o ; u t t t t k , r.SXZXSXb., k t t t t u 3 ; e u j +.+.+.+.+.+.+.+.+.+.k t t ; 3 l t t t t t t t t t t t t t t k m t t t t t t t t t t t t t t m x t t t t t t t t t t t t t t m u t t t t t t t t t t u * wXhXA t t t t t t t t t t t t t e x l t t ",
"GXGXGXGXGXGXGXGXFXFXFXFXFXFXFXFXFXFXFXFXGXGXHXHXHXHXCXKX5X5X~.G.| } tXu.e.q.q.q.%.%.B B N.D +X-X|.L N.V B V _.9X`.M M V { } C '.[.} W ~ ~ ^ ^  .^ ^ ^ ^ ^ J.J.^ 3.^ ^ J._._._._._._._._._._._...................................X.......`.`.].'.'.'.[.[.[.[.[.[.'.$X'.6Xh.o ; u t t t t k , r.SXZXSXb., k t t t t u 3 ; e u j +.+.+.+.+.+.+.+.+.+.k t t ; ; m Y.R.R.R.R.R.R.R.R.R.R.R.R.R.R.R.R.R.R.R.R.R.R.R.R.R.R.R.R.R.R.R.R.R.R.R.R.R.R.R.R.R.R.R.R.R.R.R.R.R.R.R.R.R.R.R.R.R.R.T.mXmXY.R.R.R.R.R.R.R.R.R.R.R.R.R.R.R.R.R.R.",
"r.q.q.q.t.t.u.t.t.t.0.h.h.9.9.9.j.j.j.v.v.v.v.,X,XVXVXVXCXGXHXHXKXb.yXj.t.t.q.%.%.V V M e.T ~ .X! B.*.%.e.`.9X_.<.H.H.J.|.|.J.J.9XoX1.B.B.,.N.N.C =.V *.V q.e.M M M M M q.%.M %.M q.%.%.%.M q.M M M q.M M q.%.M M M q q q M ) } ..`.'.9X9X[.[.'.'.`.`... .H.| { N.e.N.c.h.o ; u t t t t k , r.SXZXSXb., k t t t t u 3 ; e u u +.#.+.+.+.+.+.+.+.#.k t t ; 3 l e e e e e e e e e e e e e e t l e e e e e e e e e e e e e e l l e e e e e e e e e e e e e e x t e e e e e e e e e e t   qXhX4 e e e e e e e e e e e e e e l u e e ",
"a & & & & & a & & & & a a & & & a & & p a & & J p p i A v V e.u.KXAXCX,Xg.g.g.g.g.0.q._ M T E F T *.M  .[.[..X3.H.} T C { { V w `.'.q w w w q o.w q q q q 7.7.q q q q q 7.q q q q 7.q q q q q.q q q q.q q q.q w w q _  .`.'.9X[.[.'.`. .} { Z k 8 8 9 9 9 o.w w q O.0 x.h.o ; u t t t t k , r.SXZXSXb., k t t t t u 3 ; e u j z +.+.+.+.+.+.+.+.+.k t t ; 3 l ; 3 ; ; ; ; ; ; ; ; ; ; ; ; e l ; ; ; ; ; ; ; ; ; ; ; ; 3 ; k u ; ; ; ; ; ; ; ; ; ; ; ; ; ; l 3 ; ; ; ; ; ; ; ; ; ; e   qXhX4 ; 3 ; ; ; ; ; ; ; ; ; ; 3 ; u t ; ; ",
"b p p p p p b p p p p b s p p s b p p s b p p N p p p p a a D D D N.VXGXyX9.q.q.0.9.g.g.g.a.M.u.N. .'.[.`.) M q M _ _ M ) N.V q ) 9X..w q q o.q.q q q q q 7.0.q q q q q q.q q ).e.7.q q q q q.q q q q.q w o.%.{ ..'.9X[.'.`. .{ M 8 9 9 9 9 8 8 8 8 8 8 M %.0 0 o.o.o.x.h.o ; u t t t t k , r.SXZXSXb., k t t t t u 3 ; e u u +.#.#.#.#.#.#.#.#.#.k t t ; 3 l ; e 3 3 3 3 3 3 3 3 3 3 3 3 e l ; 3 3 3 3 3 3 3 3 3 3 3 e ; l u ; 3 3 3 3 3 3 3 3 3 3 3 3 ; l e 3 3 3 3 3 3 3 3 3 3 e   qXhX4 , e 3 3 3 3 3 3 3 3 3 3 3 ; k t ; 3 ",
"b p p p p p b p p p p b s p p p b p p s b p p N p p p p a a d S D D c.yXCXGXVXj.%.m s s Z N.).).'.[.`.e.w w q q Z Z C C { { Z q N.*X[.) q q q M q q q q 8 7.q.8 q q q q %.q q @XN.q q q q q %.q q q o.q { _.'.[.'.`.} h 6 7 7 7 6 6 6 6 t 6 6 6 6 6 6 6 8 M 8 0 0 o.0 x.h.o ; u t t t t k , r.SXZXSXb., k t t t t u 3 ; e u j z +.+.+.+.+.+.+.+.+.k t t ; 3 l ; 3 3 3 3 3 3 3 3 3 3 3 3 ; e l ; 3 3 3 3 3 3 3 3 3 3 3 3 ; l u ; 3 3 3 3 3 3 3 3 3 3 3 3 ; l e 3 3 3 3 3 3 3 3 3 3 e   qXhX4 , 3 3 3 3 3 3 3 3 3 3 3 3 ; u t ; 3 ",
"b p p p p p b p p p p b s p p p b p p s b p p b p p p p a a a S D D c.%.M v.VXGXFXCXVXyXb.(.6X0X0XG.g.d.d.g.0.7.e.q.G.).).G.q.7.G.@X0X).7.7.7.0.7.7.7.7.7.0.9.7.7.7.7.7.0.7.7.@XG.0.7.7.7.7.t.7.7.7.G.K.0X0X@XG.o.O.O.O.o.o.o.o.o.o.o.o.o.o.o.o.o.o.o.o.o.t.7.7.7.0.7.x.h.o ; u t t t t k , r.SXZXSXb., k t t t t u 3 ; e u u +.#.#.#.#.#.#.#.#.#.k t t ; 3 l ; 3 3 3 3 3 3 3 3 3 3 3 3 ; e l ; 3 3 3 3 3 3 3 3 3 3 3 3 ; l u ; 3 3 3 3 3 3 3 3 3 3 3 3 ; l e 3 3 3 3 3 3 3 3 3 3 e   qXhX4 , 3 3 3 3 3 3 3 3 3 3 3 3 ; u t ; 3 ",
"b p p p p p b p p p p b s p p p b p p s b p p b p p p p a a a S D D c.q.x v k q.(.iXDXSXHXGXGXGXGXGXGXFXFXFXFXFXFXGXGXGXFXGXFXFXGXGXFXFXGXFXFXFXFXFXFXFXFXFXFXFXFXFXFXFXGXFXFXGXGXFXFXFXGXGXGXGXGXFXHXHXFXFXGXGXFXFXFXFXFXFXFXFXFXFXFXFXFXFXFXFXFXFXFXFXFXFXGXGXGXGXGXGXj.o ; u t t t t k , r.SXZXSXb., k t t t t u 3 ; e u j z +.z z z z z z z +.k t t ; 3 l ; 3 3 3 3 3 3 3 3 3 3 3 3 ; e l ; 3 3 3 3 3 3 3 3 3 3 3 3 ; l u ; 3 3 3 3 3 3 3 3 3 3 3 3 ; l e 3 3 3 3 3 3 3 3 3 3 e   qXhX4 , 3 3 3 3 3 3 3 3 3 3 3 3 ; u t ; 3 ",
"b p p p p p b p p p p b s p p p b p p s b p p b p p p p a a a S D D c.q.x M b ^ }.}.{.'. .M %.e.w ).(.7.7.u.u.u.u.5XVX5X(.(.h.u.(.6X9.).6X9.j.j.9.9.9.9.9.k.v.9.9.9.9.9.~.m.9.6X~.j.9.9.~.(.).0X0X~.j.9.9.j.9.9.9.9.9.9.9.9.9.9.9.9.9.9.9.9.9.9.9.9.9.9.9.j.9.9.j.j.j.yXh.o ; u t t t t k , r.SXZXSXb., k t t t t u 3 ; e u u +.#.#.#.#.#.#.#.#.#.k t t ; 3 l ; 3 3 3 3 3 3 3 3 3 3 3 3 ; e l ; 3 3 3 3 3 3 3 3 3 3 3 3 ; l u ; 3 3 3 3 3 3 3 3 3 3 3 3 ; l e 3 3 3 3 3 3 3 3 3 3 e   qXhX4 , 3 3 3 3 3 3 3 3 3 3 3 3 ; u t ; 3 ",
"b p p p p p b p p p p b s p p p b p p s b p p b p p p p a a a S D D c.7.v 3.oX[.[.[.oXe : + a F @ oX.X@ 1 +X^ & ^ *X$X~.~.).f F *X*Xs  .{.H 7 u r i 3 r ~ M M ; 3 3 }  .oX} 3 ;X Xt e 3 _.{.{.'.^ $ y % % y 1 @ ^ ^ @ $ % % % % % % % % % % % % % % % % , i ; 5 5 8 5 z.h.o ; u t t t t k , r.SXZXSXb., k t t t t u 3 ; e u j z z z z z z z z z z k t t ; 3 l ; 3 3 3 3 3 3 3 3 3 3 3 3 ; e l ; 3 3 3 3 3 3 3 3 3 3 3 3 ; l u ; 3 3 3 3 3 3 3 3 3 3 3 3 ; l e 3 3 3 3 3 3 3 3 3 3 e   qXhX4 , 3 3 3 3 3 3 3 3 3 3 3 3 ; u t ; 3 ",
"b p p p p p b p p p p b s p p p b p p s b p p b p p p a a a a S D D c.F..X[.[.'.=X$XOXe 3 J.OX|.b -XXX: Q -X .|.-X#X=X#X@X6XM.{ $X%X$XM '.[.M 8 K.@X6 C $Xq.7.6 A K.%X$X%XH.A %X%XN.k _.{.[.@XW XXe l e ; l u X  X X> e 3 3 3 3 3 3 3 3 3 3 3 3 3 3 3 3 t M 6 8 8 0 8 z.h.o ; u t t t t k , r.SXZXSXb., k t t t t u 3 ; e u u +.$.#.#.#.#.#.#.#.$.k t t ; 3 l ; 3 3 3 3 3 3 3 3 3 3 3 3 ; e l ; 3 3 3 3 3 3 3 3 3 3 3 3 ; l u ; 3 3 3 3 3 3 3 3 3 3 3 3 ; l e 3 3 3 3 3 3 3 3 3 3 e   qXhX4 , 3 3 3 3 3 3 3 3 3 3 3 3 ; u t ; 3 ",
"b p p p p p b p p p p b s p p p b p p s b p p b f 1 ! oXa a S d S ^ tX$X'.$XK.Z.;X*X*Xd e *X-X#X|.=X.X+  .-X.X*X-XoXOX*X=X;X@XM.).$X;XZ G {._.w @X;XK.R ;XK.e.A Z.;X%X%X;XK.A %X;X X'.{.$X#X;X.X#Xy k e y x L W  X X> e 3 3 3 3 3 3 3 3 3 3 3 3 3 3 3 ; e l 5 8 8 0 8 z.h.o ; u t t t t k , r.SXZXSXb., k t t t t u 3 ; e u j z z z z z z z z z z k t t ; 3 l ; 3 3 3 3 3 3 3 3 3 3 3 3 ; e l ; 3 3 3 3 3 3 3 3 3 3 3 3 ; l u ; 3 3 3 3 3 3 3 3 3 3 3 3 ; l e 3 3 3 3 3 3 3 3 3 3 e   qXhX4 , 3 3 3 3 3 3 3 3 3 3 3 3 ; u t ; 3 ",
"b p p p p p b p p p p b s p p p b p p s b p p N a 1 ! *XD f a H oX}.6X). .@XXX XOX#X-XP e *X=X*X-X+XOXr .X*X#X*X-X.XP *X*X*X=X*X~.6X%X .l [.{.} @X;X@XK.;X%X%XK.K.@X$X%X;X@X} @X$X{.[.$X*X*X=X+X*XP U |..XH.W #X.X.X: e 3 3 3 3 3 3 3 3 3 3 3 3 3 3 3 ; e l 5 8 8 0 8 z.h.o ; u t t t t k , r.SXZXSXb., k t t t t u 3 ; e u u #.$.$.$.$.$.$.$.$.$.k t t ; 3 l ; 3 3 3 3 3 3 3 3 3 3 3 3 ; e l ; 3 3 3 3 3 3 3 3 3 3 3 3 ; l u ; 3 3 3 3 3 3 3 3 3 3 3 3 ; l e 3 3 3 3 3 3 3 3 3 3 e   qXhX4 , 3 3 3 3 3 3 3 3 3 3 3 3 ; u t ; 3 ",
"b p p p p p b p p p p b s p p p b p p s b p p b p p |.=XK S _.}.{.'.m.7.K.%X%X%XJ.#X-X .y ;X*X;X#X|.oX~ -X#X=X*X-X.Xy OX*X*X;X-X+X).6X@XJ.%X{.[.%X%X%X%X%X%X;X@X XK. X$X%X%X$X$X[.[.$X;X+XoX-X*X-X.XZ.-X=XH.J.#X.X.X: ; 3 3 3 3 3 3 3 3 3 3 3 3 3 3 3 ; e l 5 8 8 0 8 z.h.o ; u t t t t k , r.SXZXSXb., k t t t t u 3 ; e u j z z z z z z z z z z k t t ; 3 l ; 3 3 3 3 3 3 3 3 3 3 3 3 ; e l ; 3 3 3 3 3 3 3 3 3 3 3 3 ; l u ; 3 3 3 3 3 3 3 3 3 3 3 3 ; l e 3 3 3 3 3 3 3 3 3 3 e   qXhX4 , 3 3 3 3 3 3 3 3 3 3 3 3 ; u t ; 3 ",
"b p p p p p b p p p p b s p p p b p p s b p p T S a *X=X_.'.{.'.oX.XtX(.XX X%X%X} OX*XJ.s ;X*X*XoX~ OX .-XoX*X#X-X|.s P |.J.#X-X.X+X%X6X(.*X=X{.*XZ.$XK.@X;X@X@X@XK.v @X@X%X*X{.'.K.oX-X^ _.-X*X.X.XH.-X-XK. X*XOX.Xe J.e e e e e 3 3 3 3 3 3 3 3 3 3 ; e l 5 8 8 0 8 z.h.o ; u t t t t k , r.SXZXSXb., k t t t t u 3 ; e u u #.$.$.$.$.$.$.$.$.$.k t t ; 3 l ; 3 3 3 3 3 3 3 3 3 3 3 3 ; e l ; 3 3 3 3 3 3 3 3 3 3 3 3 ; l u ; 3 3 3 3 3 3 3 3 3 3 3 3 ; l e 3 3 3 3 3 3 3 3 3 3 e   qXhX4 , 3 3 3 3 3 3 3 3 3 3 3 3 ; k t ; B ",
"b p p p p p b p p p p b s p p p v p p a b 1 , |.|.E *X}.{.[. .s OX-XKX&X%XK.%X%XQ W  X XL #X .*XoXE OX|.-X|.J.OX-X .d d I I .X-X.XoX-X$X6X@X#X[.[.R R Z XX;X@X@X%XH.v } V.$X{.'.C b J.-X^ _.-X*XJ..XJ.*X;X#X#X*X*X.X.X-Xs : e 3 e 3 3 3 3 3 3 3 3 3 3 3 e l 5 8 8 0 8 z.h.o ; u t t t t k , r.SXZXSXb., k t t t t u 3 ; e u j z z z z z z z z z z k t t ; 3 l ; e 3 3 3 3 3 3 3 3 3 3 3 3 e l ; e 3 3 3 3 3 3 3 3 3 3 e ; l k ; e 3 3 3 3 3 3 3 3 3 3 e 3 l e 3 3 3 3 3 3 3 3 3 3 e   qXhX4 , e 3 3 3 3 3 3 3 3 3 3 e ; u t m m ",
"b 1 1 p p 1 v p p p p s s p p p J.a , y b |.p |.+X+X{.[.'.#XJ.J.*X*XKX(.%XC.%XK.E d ~ .XP +XH *X.XS #XOX-XQ y #XoXS d d } T ~ J.~ oX-XoX X5X)._.{. .x v XX@XN.J.%X} Z v } {.'.{ S N J.=X~  .;X*X ..X X#X*X-X*X*X-XOX#X=XL E y s y ; ; ; ; ; ; ; ; ; ; ; 3 l 5 6 8 8 8 z.h.o ; u t t t t k , r.SXZXSXb., k t t t t u 3 ; e u u #.$.$.$.$.$.$.$.$.$.k t t ; 3 l ; ; ; ; ; ; ; ; ; ; ; ; ; ; e k ; ; ; ; ; ; ; ; ; ; ; ; ; ; k u ; ; ; ; ; ; ; ; ; ; ; ; ; ; l ; ; ; ; ; ; ; ; ; ; ; ,   qXhX4 ; ; ; ; ; ; ; ; ; ; ; ; ; ; t B x ; ",
"U b E b b J.3.b b s s N b b v W =X~ ~ ~ Y *XE .X}.[.[.=XOX*X-X;XoXJ.tXP.%XC.%XB.Q Q ~ #XoXOXQ *XoXv XX-X$XT N #X|.N U L } } N N L Z..X XP H.5XG.{.'.{ C  X).e.{ %XZ.V { [.[.N.Q E U J.*X .~ J.OX .OX@X+X*X-X#X.X-X#X#X;XH.#XN J.|.5 l k k k k k k k k k l m l M M %.M x.h.o ; u t t t t k , r.SXZXSXb., k t t t t u 3 ; e u j z z z z z z z z z z k t t ; 3 l u k k k k k k k k k k k k k l m u k k k k k k k k k k k k u m x u k k k k k k k k k k k k k m l k k k k k k k k k k l 4 wXhXA l k k k k k k k k k k k k u B &.k k ",
"OX|.-XK J =X-X~ , W W b b a y ~ =X*X-X=X+X*XoX[.{.=X;X;X;X=X*X-X XP tXP.%XN.@X} Q Q H #X-X.XQ .X .s J.-XJ.b b OX|.b L b } T L L L b ! H P H ) M.$X{. .B Z e.e.Z  X{ Z '.9X| b H P U H.*X~ H T E H #X#XoX*X-XoX^ =X*X*X-XJ.#XW OX X5 t t t t t t t t t t t m k k 0 0 z z.h.o ; u t t t t k , r.SXZXSXb., k t t t t u 3 ; e u u #.$.$.$.$.$.$.$.$.$.k t t ; 3 l e t t t t t t t t t t t t t t l e t t t t t t t t t t t t e l l e t t t t t t t t t t t t e x t t t t t t t t t t t t * wXhX4 t t t t t t t t t t t t t B &.t e t ",
"=X#X*XE D *X+XoX^ =XoXy s 1 D +X=X+X+X=X=X[.{.[.=X;X*XOX;X*X;XOXW E c.u.@X=.C E E H F .X*XH ~ W d s ~ -XJ.s d W P d d d Q T d d d d F H F H D u.~.'.[.Z Z ) e.N Z v  .{...v S H F N ~ *XH F Q ! D .X-X|.*X*XH ~ *X*X*X-X X*XoX-X X: e ; ; ; ; ; ; ; ; ; e l 5 6 8 0 8 z.h.o ; u t t t t k , r.SXZXSXb., k t t t t u 3 ; e u j z z z z z z z z z z k t t ; 3 l ; ; ; ; ; ; ; ; ; ; ; ; ; ; e l ; ; ; ; ; ; ; ; ; ; ; ; ; ; k u ; ; ; ; ; ; ; ; ; ; ; ; ; ; l 3 ; ; ; ; ; ; ; ; ; ; e   qXhX4 ; ; ; ; ; ; ; ; ; ; ; ; m x u t ; ; ",
"J.D oX~ ! +XE *X-X+XoXE S , ! -X.XJ oX}.[.[.oX#X*X-X.XE *X-X#XW P Q tXt.=.R T Q E H H  .OXS Q W d d E ;X .s J d d S S d } T d S S d F H H H P W ~.G.{._.v ) e.N Z { {.'.e.J S H F U E .XH S Q H d J.-X .+X#X! E *X#X;X;XOX*X#X-X.X: y e 3 3 3 3 3 3 3 3 e l 5 8 8 0 8 z.h.o ; u t t t t k , r.SXZXSXb., k t t t t u 3 ; e u u #.$.$.$.$.$.$.$.$.$.k t t ; 3 l ; 3 3 3 3 3 3 3 3 3 3 3 3 3 e l ; 3 3 3 3 3 3 3 3 3 3 3 e ; l u ; 3 3 3 3 3 3 3 3 3 3 3 3 ; l e 3 3 3 3 3 3 3 3 3 3 e   qXhX4 , e 3 3 3 3 3 3 3 3 ; m B ; u t ; 3 ",
"~ a .X.XoX+XP oX=X|.OX=X|.p |.*X3. .[.{.=X*X#X X|.*XL s J.#X#XP E E tXt.C { Q Q P H H G J d P W d d P *X .s J S S d S d } T d d d d F H H H P E P s.'.[.I e.e.Z Z '.[.) L L d H H Q H F F S Q H d ~ *XE H ~ E P #XoX-X;X#X#X*X-X.Xy  Xy ; e 3 3 3 3 3 ; e l 5 8 8 0 8 z.h.o ; u t t t t k , r.SXZXSXb., k t t t t u 3 ; e u j z z z z z z z z z z k t t ; 3 l ; 3 3 3 3 3 3 3 3 3 3 3 3 ; e l ; 3 3 3 3 3 3 3 3 3 3 3 3 ; l u ; 3 3 3 3 3 3 3 3 3 3 3 3 ; l e 3 3 3 3 3 3 3 3 3 3 e   qXhX4 , 3 3 3 3 3 3 3 3 ; m m 3 ; k t ; 3 ",
"W D |.*X-XoXP ~ ~ E +X-X+X.X-X+X'.{.[.+X X*X-XK.E oXd L d J.#XP E E tXt.R R R Q I F F d d d E W d J d .XW s S d d d S d } T d d d d S F H H E Q H q.M.{._.q.N.v  .{...v Y L F H H ~ H b d d T F d L W G H Q E L #X.X*XOX*X+X*X-X.XP *Xs ; e 3 3 3 3 3 ; e l 5 8 8 0 8 z.h.o ; u t t t t k , r.SXZXSXb., k t t t t u 3 ; e u u #.$.$.$.$.$.$.$.$.$.k t t ; 3 l ; 3 3 3 3 3 3 3 3 3 3 3 3 ; e l ; 3 3 3 3 3 3 3 3 3 3 3 3 ; l u ; 3 3 3 3 3 3 3 3 3 3 3 3 ; l e 3 3 3 3 3 3 3 3 3 3 e   qXhX4 , 3 3 3 3 3 3 3 ; m m ; 3 ; u t ; 3 ",
"Q D  .=X*X|.E D D D +X=X=X*X=X{.{. . XOXN J.-XK.s J S J d ~ .XP ~ Q c.e.{ C C Q N N S d S d P W d J d d d d d d d d S d } T d d d d d d G H E Q H D a...{.G.t.} {.`._ S U P H H H T J d d d U d d d U S H Q E S Q |.OX~ -XoX#X#XoX .*Xs ; e 3 3 3 3 3 ; e l 5 8 8 0 8 z.h.o ; u t t t t k , r.SXZXSXb., k t t t t u 3 ; e u j z z z z z z z z z z k t t ; 3 l ; 3 3 3 3 3 3 3 3 3 3 3 3 ; e l ; 3 3 3 3 3 3 3 3 3 3 3 3 ; l u ; 3 3 3 3 3 3 3 3 3 3 3 3 ; l e 3 3 3 3 3 3 3 3 3 3 e   qXhX4 , 3 3 3 3 3 3 ; x m ; 3 e ; u t ; 3 ",
"E D ^ -X .D W ! ! D oX-X=X[.{.'.Q y  XOXN S  .1.b d d S L L H Q ~ ~ c.e.} C C Q N N d d S d P W d S d d d d d d d d S d } T d d d d d S d F H Q H F Z g.'.`.G.'.'.e.d d U P H H F U J d d d U d d J Y S H Q E d s Q  .P -X|.#X.XOX.X;XW ; e 3 3 3 3 3 ; e l 5 8 8 0 8 z.h.o ; u t t t t k , r.SXZXSXb., k t t t t u 3 ; e u u #.$.$.$.$.$.$.$.$.$.k t t ; 3 l ; 3 3 3 3 3 3 3 3 3 3 3 3 ; e l ; 3 3 3 3 3 3 3 3 3 3 3 3 ; l u ; 3 3 3 3 3 3 3 3 3 3 3 3 ; l e 3 3 3 3 3 3 3 3 3 3 e   qXhX4 , 3 3 3 3 3 ; x B ; 3 3 3 ; u t ; 3 ",
"E D ~ =X~ D W ! E S |.=X{.[.=X XZ d ~ J.L d s Y L d d J L P ~ Q ~ ^ c.e.} C C T N N b d b d P W d J d d d d d d d d S d } T d b d d d d b F Q E H F S u.g._ ( | M.v S d U E H H d U L d d d U d d J U S F Y L d b F F d  X~ OX.X#X;X-X#X3 3 3 3 3 e 3 3 e l 5 8 8 0 8 z.h.o ; u t t t t k , r.SXZXSXb., k t t t t u 3 ; e u j z z z z z z z z z z k t t ; 3 l ; 3 3 3 3 3 3 3 3 3 3 3 3 ; e l ; 3 3 3 3 3 3 3 3 3 3 3 3 ; l u ; 3 3 3 3 3 3 3 3 3 3 3 3 ; l e 3 3 3 3 3 3 3 3 3 3 e   qXhX4 , 3 3 3 3 ; x B 3 3 3 3 3 ; u t ; 3 ",
"E D E |.! ! Q ! K ~ '.{.'.=X.XW U S d b U d S T J d S S J P ~ Q ~ ^ c.t.T C Z N N b d d S d E W a S d d d d d d d d S d Q T d S d d d S d D H P H H D ) ( ,XVX8._ L d d Q H F F d U S d d d U S d S U d d Y L d d F H d a f .X .#X-X;X#Xf , , , ; ; , , e l 5 6 8 8 8 z.h.o ; u t t t t k , r.SXZXSXb., k t t t t u 3 ; e u u #.$.$.$.$.$.$.$.$.$.k t t ; 3 l ; 3 3 3 3 3 3 3 3 3 3 3 3 ; e l ; 3 3 3 3 3 3 3 3 3 3 3 3 ; l u ; 3 3 3 3 3 3 3 3 3 3 3 3 ; l e 3 3 3 3 3 3 3 3 3 3 e   qXhX4 , 3 3 3 ; x B 3 3 3 3 3 3 ; u t ; 3 ",
"B.{ { R { { N.{ _.{.[. .C.-XH._ N.) ) e.e.) ) N.e.) ) ) N.{ } }  . .tXu.e.e.e.e.e.e.) ) ) ) N.N.) ) ) ) ) ) ) ) ) ) ) ) N.N.) ) ) ) ) ) ) { } N.} } { u.w d.2X( q.e.) { } } ) ) ) e.) ) ) ) N.) ) ) N.) ) N.e.) ) { } ) 1.hX5.F.oXK.$X*X{ q w q %.-.w q q ( %.y.( L.q.x.h.o ; u t t t t k , r.SXZXSXb., k t t t t u 3 ; e u j z z z z z z z z z z k t t ; 3 l ; 3 3 3 3 3 3 3 3 3 3 3 3 ; e l ; 3 3 3 3 3 3 3 3 3 3 3 3 ; l u ; 3 3 3 3 3 3 3 3 3 3 3 3 ; l e 3 3 3 3 3 3 3 3 3 3 e   qXhX4 , e 3 ; l B 3 3 3 3 3 3 3 ; u t ; 3 ",
"E ! P E P K  .'.9X_.F Z W #X~ N R d N L U d d T L N N H H H ~ ~ ~ ^ c.t.V *.C Z Z N N N N d T W d N N N N N N N N N N b } T d N N N N N N G Q U S H H C _ w w _ ) F F H Q H J N b R N N N N R N N N R N d R L d N G F N d 5.<.5.qX<.&X:X3.4.2.4.:.wX4.j 4.4.:.4.4.jXz z.h.o ; u t t t t k , r.SXZXSXb., k t t t t u 3 ; e u u #.$.$.$.$.$.$.$.$.$.k t t ; 3 l ; 3 3 3 3 3 3 3 3 3 3 3 3 ; e l ; 3 3 3 3 3 3 3 3 3 3 3 3 ; l u ; 3 3 3 3 3 3 3 3 3 3 3 3 ; l e 3 3 3 3 3 3 3 3 3 3 e   qXhX4 , e ; x B 3 ; 3 3 3 3 3 3 ; u t 3 3 ",
"E ! ! D ! _.{.[. .b s U L P d J U d d L U d d T b S H H H ~ ~ ~ ~ ^ c.t.C V C Z N N d d S d E W d S d d d d d d d d S d } T d S d d d d d S Q L d ! H S I e.e.V F H H H Q L d d d U J d d d U d d S U d d Y L d d d d J f 5.Y 5.4.5.kX:XcX5.5.4.<.4.2.5.2.4.4.wX:.4.@.z.h.o ; u t t t t k , r.SXZXSXb., k t t t t u 3 ; e u j z z z z z z z z z z k t t ; 3 l ; 3 3 3 3 3 3 3 3 3 3 3 3 ; e l ; 3 3 3 3 3 3 3 3 3 3 3 3 ; l u ; 3 3 3 3 3 3 3 3 3 3 3 3 ; l e 3 3 3 3 3 3 3 3 3 3 e   qXhX4 , ; x B e ; 3 3 3 3 3 3 3 3 k t + $ ",
"Q D D ^ [.9X`.J s S d U L d d L U d d L U d d T L F H H H ~ H ~ Q ~ c.t.V V C Z N N d d S d P W d J d d d d d d d d S d } T d d d d d d d d L U d d H H H R } D H ! H H Q N d d d U J d d d U d d J U d d Y L d d d d J f 5.<.5.3.5.&X;XMX&X<.5.5.2.2.4.4.5.2.qX4.wX@.z.h.o ; u t t t t k , r.SXZXSXb., k t t t t u 3 ; e u u #.$.$.$.$.$.$.$.$.$.k t t ; 3 l ; 3 3 3 3 3 3 3 3 3 3 3 3 ; e l ; 3 3 3 3 3 3 3 3 3 3 3 3 ; l u ; 3 3 3 3 3 3 3 3 3 3 3 3 ; l e 3 3 3 3 3 3 3 3 3 3 e   qXhX4 ; x B e 3 3 3 3 3 3 , $ $ o y t 8 o.",
"P ! _.{.[. .N d S d d U L d d L U d d L U d d W H F H H H ~ H Q Q E tXt.V V C Z N N d d S d P W d S d d d d d d d d S d } T d d d d d d d d L U d d ! H H } } F H S F H Q N d d d U J d d d U d d b U d d Y L d d d d d d <.J Y U L OX XOXMXXX;X-XK j t :.2.t z :.-.8 z.h.o ; u t t t t k , r.SXZXSXb., k t t t t u 3 ; e u j z z z z z z z z z z k t t ; 3 l ; 3 3 3 3 3 3 3 3 3 3 3 3 ; e l ; 3 3 3 3 3 3 3 3 3 3 3 3 ; l u ; 3 3 3 3 3 3 3 3 3 3 3 3 ; l e 3 3 3 3 3 3 3 3 3 3 e   qXhX4 l B 3 3 , $ $ % $ ; 8 o.9.x.VXCXGXFX",
" .[.9X_.L b T J J J d U L d J L Y b J L U d b W H H H H E H E Q Q E tXt.C *.C Z N N J J J d E W d J J J J J J J J J J b } T d J J J J J J d L U d J L H H } } ! H J J S Y L J J J Y L J J J Y J J J Y J d Y L d J J J J J d b d S s .XJ. X-X.X*X-XQ : e 3 k 5 6 7 w 8 z.h.o ; u t t t t k , r.SXZXSXb., k t t t t u 3 ; e u u +.$.#.#.#.#.#.#.#.$.k t t ; 3 l ; e 3 3 3 3 3 3 3 3 3 3 3 3 e l ; e 3 3 3 3 3 3 3 3 3 3 e ; l k ; e 3 3 3 3 3 3 3 3 3 3 e 3 l e 3 3 3 3 3 3 3 3 3 3 e   qXwX7.r.8 % , 5 o.0.x.VXCXGXFXFXCXVXyXj.7.",
"{.[. .Z I I R I I I I R R I I I R I I I R I I } Q Q Q Q Q Q T Q W W tXu.e.e.e.) R I I I I I W } N I I I I I I I I I I I } { I I I I I I I I R R I I I Q H } } H E I I I R I I I I R I I I I R I I I R I I T R I I I I I I I I I I I T I } .X*X*X-XJ.6 l l M M M M %.M x.h.o ; u t t t t k , r.SXZXSXb., k t t t t u 3 ; e u j z z z z z z z z z z k t t ; 3 l l m x x x x x x x x x x x x m B x x x x x x x x x x x x x x B B x x x x x x x x x x x x x x B m x x x x x x x x x x B t wXdX( 7.9.c.VXCXFXFXCXVXyXv.h.q.m B v y c ",
"MXnXzXnXxXxXnXxXxXxXxXnXnXxXxXxXnXxXxXnXnXxXxXnXnXnXnXnXnXnXnXnXnXnXvXnXnXnXnXnXnXxXxXxXxXxXnXnXxXxXxXxXxXxXxXxXxXxXxXxXnXnXxXxXxXxXxXxXxXxXnXnXxXxXxXxXcXnXnXcXnXxXxXxXnXnXxXxXxXnXxXxXxXxXnXxXxXxXnXxXxXnXnXxXxXxXxXxXxXxXxXxXxXxXxXxXxXnXNXNXNXnXzXzXzXxXzXzXzXzXxXmXh.o ; u t t t t k , r.SXZXSXb., k t t t t u 3 ; e u u +.#.#.#.#.#.#.#.#.#.k t t ; 3 l ; 3 3 3 3 3 3 3 3 3 3 3 3 ; e l ; 3 3 3 3 3 3 3 3 3 3 3 3 ; l u ; 3 3 3 3 3 3 3 3 3 3 3 3 ; l e ; 3 3 3 3 3 3 3 3 3 e * W.l.CXCXk.FXVXx.0.0 8 ; % % $ , ; u t 3 3 ",
"kXkXkXkXkXkXbXkXkXkXkXkXkXkXkXkXbXkXkXkXkXkXkXbXkXkXkXkXkXkXkXkXkXkXmXbXbXbXbXkXkXkXkXkXkXkXkXbXkXkXkXkXkXkXkXkXkXkXkXkXbXbXkXkXkXkXkXkXkXkXkXkXkXkXkXkXkXbXbXkXkXkXkXkXkXkXkXkXkXbXkXkXkXkXbXkXkXkXbXkXkXbXkXkXkXkXkXkXkXkXkXkXkXkXkXkXkXbXMXMXMXnXhXjXjXjXjXjXjXjXjXdXh.o ; u t t t t k , r.SXZXSXb., k t t t t u 3 ; e u j z +.z z z z z z z +.k t t ; 3 l ; 3 3 3 3 3 3 3 3 3 3 3 3 3 e l ; 3 3 3 3 3 3 3 3 3 3 3 3 ; l u ; 3 3 3 3 3 3 3 3 3 3 3 3 ; l e 3 3 3 3 3 3 3 3 3 3 ; i uXk.FXFX0.0.5 % $ , , 3 3 3 3 3 ; k t ; 3 ",
"g f f f f f N f f f f h h f f f N f f f G / / H G / G G f d G G G F c.7.M M A A h f f f f f G E r f f f f f f f f f f f | I f f f f f f f f h h f f f f / | { / f f f f g f f f f N f f f f N f f f N f f N h f f f f f f f f f f f f f = H =X=X#X X. O * 6 * 7 7 w 7 z.h.o ; u t t t t k , r.SXZXSXb., k t t t t u 3 ; e u u +.#.#.#.#.#.#.#.#.#.k t t ; 3 l ; 3 3 3 3 3 3 3 3 3 3 3 3 ; e l ; 3 3 3 3 3 3 3 3 3 3 3 3 ; l u ; 3 3 3 3 3 3 3 3 3 3 3 3 ; l e 3 3 3 3 3 3 3 3 3 $ l c.FXx.k.k.O.0 ; 5 3 3 3 3 3 3 3 3 ; u t ; 3 ",
"Y J J J J J Y J J J J U L F H P Y J J L E H H T P H ! ! L P P E E Q tXt.*.*.C Z N L J J J b E W d J J J J J J J J J J b } T b J J J J J J J U U J J J b ! { B.H L J J J Y L J J J Y L J J J Y J J J Y J d T U J J J J J J J J J J K d K K W ;X#XoX.X< e t x 5 8 z #.8 z.h.o ; u t t t t k , r.SXZXSXb., k t t t t u 3 ; e u j z +.+.+.+.+.+.+.+.+.k t t ; 3 l ; 3 3 3 3 3 3 3 3 3 3 3 3 ; e l ; 3 3 3 3 3 3 3 3 3 3 3 3 ; l u ; 3 3 3 3 3 3 3 3 3 3 3 3 ; l e 3 3 3 3 3 3 3 3 $ %.VXFXuXdXq o.o.5 3 3 3 3 3 3 3 3 3 3 ; u t ; 3 ",
"U d d d d d U d d d d U L F H H Q d d L Q F F T L S S S L P P P E E tXt.V V C Z N N d d S d P W d S d d d d d d d d S d } T d d d d d d d d L U d d d b D { B.H S d d d U L d d d U J d d d U d d J U d d Y L d d d d d d d J d <.5.4.5.4.W ;X&X&X&X5.2.3 l 4.2.5.5.@.z.h.o ; u t t t t k , r.SXZXSXb., k t t t t u 3 ; e u u +.#.#.#.#.#.#.#.#.#.k t t ; 3 l ; 3 3 3 3 3 3 3 3 3 3 3 3 ; e l ; 3 3 3 3 3 3 3 3 3 3 3 3 ; l u ; 3 3 3 3 3 3 3 3 3 3 3 3 ; l e 3 3 3 3 3 3 3 $ 0.GXCXw eXhX8 6 ; 3 3 3 3 3 3 3 3 3 3 3 ; u t ; 3 ",
"U d d d d d U d d d d U L F F L Q ! F P Q d d T L d d J L L P P E E tXt.V V C Z N N d d S d P W d S d d d d d d d d S d } T d d d d d d d d L U d d d d d C N.H S d d d U L d d d U J d d d U d d J U d d Y L d d d d d d d d f d Y 5.hX2.E ;X .&XXX:.4.t 5.wX2.qXqX@.z.h.o ; u t t t t k , r.SXZXSXb., k t t t t u 3 ; e u j z +.+.+.+.+.+.+.+.+.k t t ; 3 l ; 3 3 3 3 3 3 3 3 3 3 3 3 ; e l ; 3 3 3 3 3 3 3 3 3 3 3 3 ; l u ; 3 3 3 3 3 3 3 3 3 3 3 3 ; l e 3 3 3 3 3 3 % z.FXVXk   qXhX4 , 3 3 3 3 3 3 3 3 3 3 3 3 ; u t ; 3 ",
"U d d d d d U d d d d U L F F b Q H H H Q d d T L d d S L L P P E E tXt.V V C Z N N d d S d P W d S d d d d d d d d S d } T d d d d d d d d L U d d d d S C N.F S d d d U L d d d U J d d d U d d J U d d Y L d d d d d d d J 4.K 5.<.d 5.3.#XXX>XoX4.; 2.2.2.4.4.4.2.z.h.o ; u t t t t k , r.SXZXSXb., k t t t t u 3 ; e u u +.#.+.+.+.+.+.+.+.#.k t t ; 3 l ; 3 3 3 3 3 3 3 3 3 3 3 3 ; e l ; 3 3 3 3 3 3 3 3 3 3 3 3 ; l u ; 3 3 3 3 3 3 3 3 3 3 3 3 ; l e 3 3 3 3 ; , x.FXx., ,   qXhX4 , 3 3 3 3 3 3 3 3 3 3 3 3 ; u t ; 3 ",
"U d d d d d U d d d d U L F F b Q H H H E d d T L d d S L L P P E E tXt.V V C Z N N d d S d P W d S d d d d d d d d S d } T d d d d d d d d L U d d d d S C N.d b d d d U L d d d U J d d d U d d J U d d Y L d d d d d d d J K 4.jX3.4.5.3.;XbX>XMXqXn c 5.5.2.qX5.:.z.h.o ; u t t t t k , r.SXZXSXb., k t t t t u 3 ; e u j +.+.+.+.+.+.+.+.+.+.k t t ; 3 l ; 3 3 3 3 3 3 3 3 3 3 3 3 ; e l ; 3 3 3 3 3 3 3 3 3 3 3 3 ; l u ; 3 3 3 3 3 3 3 3 3 3 3 3 ; l e 3 3 3 ; ; yXPXj.$ 3 e   qXhX4 , 3 3 3 3 3 3 3 3 3 3 3 3 ; u t ; 3 ",
"U d d d d d U d d S d E E F F b U S ! H P d d T L d d S L L P P E E tXt.V V C Z N N d d S d P W d S d d d d d d d d S d } T d d d d d d d d L U d d d d S C N.d d d d d U L d d d U J d d d U d d J U d d Y L d d d d d d d d d K Y Y <.K P *X1.3.OXc < 3 &.l 8 @.#.6 z.h.o ; u t t t t k , r.SXZXSXb., k t t t t u 3 ; e u j +.+.+.+.+.+.+.+.+.+.k t t ; 3 l ; 3 3 3 3 3 3 3 3 3 3 3 3 ; e l ; 3 3 3 3 3 3 3 3 3 3 3 3 ; l u ; 3 3 3 3 3 3 3 3 3 3 3 3 ; l e 3 3 ; ; yXPXj.% 3 3 e   qXhX4 , 3 3 3 3 3 3 3 3 3 3 3 3 ; u t ; 3 ",
"U d S d d d U d d S d Q E ! F b U d F H U d d T L d d S L L P P E E tXt.V V C Z N N d d S d P W d S d d d d d d d d S d } T d d d d d d d d L U d d d d S C N.d d d d d U L d d d U J d d d U d d J U d d Y L d d d d d d d d J d d d d d L #XQ P OX .f 5 l 5 8 6 0 8 z.h.o ; u t t t t k , r.SXZXSXb., k t t t t u 3 ; e u j +.+.+.+.+.+.+.+.+.+.k t t ; 3 l ; 3 3 3 3 3 3 3 3 3 3 3 3 ; e l ; 3 3 3 3 3 3 3 3 3 3 3 3 ; l u ; 3 3 3 3 3 3 3 3 3 3 3 3 ; l e 3 3 ; yXPXj.% 3 3 3 e   qXhX4 , 3 3 3 3 3 3 3 3 3 3 3 3 ; u t ; 3 ",
"U d b d d F Y b d d d Q E ! G b U d F H U d d T L d d S L L P P E E tXt.V V C Z N N d d S d P W d S d d d d d d d d S d } T d d d d d d d d L U d d d d S C N.d d d d d U L d d d U J d d d U d d J U d d Y L d d d d d d d d d d J d b d J W J E OX*XQ : x 5 8 8 0 8 z.h.o ; u t t t t k , r.SXZXSXb., k t t t t u 3 ; e u j +.+.+.+.+.+.+.+.+.+.k t t ; 3 l ; 3 3 3 3 3 3 3 3 3 3 3 3 ; e l ; 3 3 3 3 3 3 3 3 3 3 3 3 ; l u ; 3 3 3 3 3 3 3 3 3 3 3 3 ; l e 3 % c.PXj.% 3 3 3 3 e   qXhX4 , 3 3 3 3 3 3 3 3 3 3 3 3 ; u t ; 3 ",
"U S F S ! H Y S d S F Q H H S b U d S P U d d T L d d S L L P P E E tXt.V V C Z N N d d S d P W d S d d d d d d d d S d } T d d d d d d d d L U d d d d S C N.d d d d d U L d d d U J d d d U d d J U d d Y L d d d d d d d d d d d d d d d d d P #X*XQ 3 x 5 8 8 0 8 z.h.o ; u t t t t k , r.SXZXSXb., k t t t t u 3 ; e u u +.#.+.#.#.#.#.#.#.#.k t t ; 3 l ; 3 3 3 3 3 3 3 3 3 3 3 3 ; e l ; 3 3 3 3 3 3 3 3 3 3 3 3 ; l u ; 3 3 3 3 3 3 3 3 3 3 3 3 ; l e % x.PXj.% 3 3 3 3 3 e   qXhX4 , 3 3 3 3 3 3 3 3 3 3 3 3 ; u t ; 3 ",
"U F H F H H T H S F H Q H H S L U d d L U d d T L d d S L L P P E E tXt.V V C Z N N d d S d P W d S d d d d d d d d S d } T d d d d d d d d L U d d d d S C N.d d d d d U L d d d U J d d d U d d J U d d Y L d d d d d d d d d d d d d d d S S d #X-XQ : x 5 8 8 0 8 z.h.o ; u t t t t k , r.SXZXSXb., k t t t t u 3 ; e u j z +.+.+.+.+.+.+.+.+.k t t ; 3 l ; 3 3 3 3 3 3 3 3 3 3 3 3 ; e l ; 3 3 3 3 3 3 3 3 3 3 3 3 ; l u ; 3 3 3 3 3 3 3 3 3 3 3 3 3 l $ x.PXj.% 3 3 3 3 3 3 e   qXhX4 , 3 3 3 3 3 3 3 3 3 3 3 3 ; u t ; 3 ",
"U F H H F ! Q H F ! H Q Q H S L U d d L U d d T L d d J L P P P E E tXt.V V C Z N N b d S d E W d J d d d d d d d d S d } T d S d d d d d d L U d d d b S C N.d b d d d U L d d d U J d d d U d d J U d d Y L d d d d d d d d d d d d d d d d J s .X-XW : x 5 8 8 0 8 z.h.o ; u t t t t k , r.SXZXSXb., k t t t t u 3 ; e u u +.#.#.#.#.#.#.#.#.#.k t t ; 3 l ; e 3 3 3 3 3 3 3 3 3 3 3 3 e l ; 3 3 3 3 3 3 3 3 3 3 3 e ; l u ; 3 3 3 3 3 3 3 3 3 3 3 3 3 y x.PXj.% 3 3 3 3 3 3 3 e   qXhX4 , e 3 3 3 3 3 3 3 3 3 3 3 ; k t ; 3 ",
"U ! H H F F ~ H H H H E P H S J U d d L U d d T J d d S J L P P E E tXt.V V C Z N N d d d d P W a S d d d d d d d d d d } T d d d d d d d d L L d d d d d C N.d d d d d U L d d d U J d d d U d d d U d d Y L d d d d d d d d d d d d d d d d S s |.-X~ : x 5 6 8 0 8 z.h.o ; u t t t t k , r.SXZXSXb., k t t t t u 3 ; e u j z +.+.+.+.+.+.+.+.+.k t t ; 3 l ; 3 ; ; ; ; ; ; ; ; ; ; ; ; e l ; 3 ; ; ; ; ; ; ; ; ; ; 3 ; k u ; 3 ; ; ; ; ; ; ; ; ; 3 3 % c.PX9.% 3 3 ; ; ; ; ; ; e   qXhX4 ; 3 ; ; ; ; ; ; ; ; ; ; 3 ; u t ; ; ",
"W Q Y E Y E } Y Q Q Y T T Q U Y T U U Y T U U ,.Y U U Y T T W W W W tXu.w.w.N.<.R R U U Y U W Z.U Y U U U U U U U U Y U } } U Y U U U U U U T T U U U U U N.N.U U U U U T Y U U U T Y U U U T U U Y T U U ,.T U U U U U U U U U U U U U U U U Y N J.-XH.k m M M M %.M x.h.o ; u t t t t k , r.SXZXSXb., k t t t t u 3 ; e u u +.#.#.#.#.#.#.#.#.#.k t t ; 3 l k l l l l l l l l l l l l l l m l l l l l l l l l l l l l k B m l l l l l l l l l l l l y v.FXj.y l l l l l l l l l l 4 wXhXA l l l l l l l l l l l l l l m x l l ",
"Q F b b b S Q J H F d U P ! S L U d d L U d d T L d J L L P P P E Q tXt.V *.C Z N N J J J d E W d J J J J J J J J J J d } T d J J J J J J d L U d J J J S C N.S J J J d U L d J d Y L b J J Y J J J Y J d Y L d J J J J J J J J J J J J J J J L s ~ -XJ.: x 6 8 8 0 8 z.h.o ; u t t t t k , r.SXZXSXb., k t t t t u 3 ; e u j z z z z z z z z z +.k t t ; 3 l ; e e e e e e e e e e e e 3 e l 3 e e e e e e e e e e e e ; l k ; e e e e e e e e e e $ v.PXv.$ e e e e e e e e e e e   qXhX4 e e e e e e e e e e e e e ; k t 3 e ",
"Q D d d d d U d ! F d U L S d L U d d L U d d T L d d S L L P P E E tXt.V V C Z N N d d d d P W d S d d d d d d d d d d } T d d d d d d d d L L d d d d d C N.d d d d d U L d d d U J d d d U d d d U d d Y L d d d d d d d d d d d d d d d d d d d OXJ.: x 5 8 8 0 8 z.h.o ; u t t t t k , r.SXZXSXb., k t t t t u 3 ; e u u +.#.#.#.#.#.#.#.#.#.k t t ; 3 l ; 3 3 3 3 3 3 3 3 3 3 3 3 ; e l ; 3 3 3 3 3 3 3 3 3 3 3 3 ; l u ; 3 3 3 3 3 3 3 3 3 $ z.PXk.y e 3 3 3 3 3 3 3 3 3 3 e   qXhX4 , 3 3 3 3 3 3 3 3 3 3 3 3 ; u t ; 3 ",
"~ S d d d d U d d d d U L d d L U d d L U d d T L d d S L L P P E E tXt.V V C Z N N d d S d P W d S d d d d d d d d S d } T d d d d d d d d L U d d d d S C N.d d d d d U L d d d U J d d d U d d J U d d Y L d d d d d d d d d d d d d d d d d J s |..X: x 5 8 8 0 8 z.h.o ; u t t t t k , r.SXZXSXb., k t t t t u 3 ; e u j z z z z z z z z z z k t t ; 3 l ; 3 3 3 3 3 3 3 3 3 3 3 3 ; e l ; 3 3 3 3 3 3 3 3 3 3 3 3 ; l u ; 3 3 3 3 3 3 3 3 $ z.FXk.$ l e 3 3 3 3 3 3 3 3 3 3 e   qXhX4 , 3 3 3 3 3 3 3 3 3 3 3 3 ; u t ; 3 ",
"~ S d d d d U d d d d U L d d L U d d L U d d T L d d S L L P P E E tXt.V V C Z N N d d S d P W d S d d d d d d d d S d } T d d d d d d d d L U d d d d S C N.d d d d d U L d d d U J d d d U d d J U d d Y L d d d d d d d d d d d d d d d d d J s |..X; x 5 8 8 0 8 z.h.o ; u t t t t k , r.SXZXSXb., k t t t t u 3 ; e u u +.$.#.#.#.#.#.#.#.$.k t t ; 3 l ; 3 3 3 3 3 3 3 3 3 3 3 3 ; e l ; 3 3 3 3 3 3 3 3 3 3 3 3 ; l u ; 3 3 3 3 3 3 3 $ z.PXz.$ 3 l e 3 3 3 3 3 3 3 3 3 3 e   qXhX4 , 3 3 3 3 3 3 3 3 3 3 3 3 ; u t ; 3 ",
"E d d d d d U d d d d U L d d L U d d L U d d T L d d S L L P P E E tXt.V V C Z N N d d S d P W d S d d d d d d d d S d } T d d d d d d d d L U d d d d S C N.d d d d d U L d d d U J d d d U d d J U d d Y L d d d d d d d d d d d d d d d d d J s J.oX> x 5 8 8 0 8 z.h.o ; u t t t t k , r.SXZXSXb., k t t t t u 3 ; e u j z z z z z z z z z z k t t ; 3 l ; 3 3 3 3 3 3 3 3 3 3 3 3 ; e l ; 3 3 3 3 3 3 3 3 3 3 3 3 ; l u ; 3 3 3 3 3 3 $ z.PXx.; 3 3 l e 3 3 3 3 3 3 3 3 3 3 e   qXhX4 , 3 3 3 3 3 3 3 3 3 3 3 3 ; u t ; 3 ",
"U d d d d d U d d d d U L d d L U d d L U d d T L d d S L L P P E E tXt.V V C Z N N d d S d P W d S d d d d d d d d S d } T d d d d d d d d L U d d d d S C N.d d d d d U L d d d U J d d d U d d J U d d Y L d d d d d d d d d d d d d d d d d J s J.+XP x 5 8 8 0 8 z.h.o ; u t t t t k , r.SXZXSXb., k t t t t u 3 ; e u u #.$.$.$.$.$.$.$.$.$.k t t ; 3 l ; 3 3 3 3 3 3 3 3 3 3 3 3 ; e l ; 3 3 3 3 3 3 3 3 3 3 3 3 ; l u ; 3 3 3 3 3 $ z.PXx., ; 3 ; l e 3 3 3 3 3 3 3 3 3 3 e   qXhX4 , 3 3 3 3 3 3 3 3 3 3 3 3 ; u t ; 3 ",
"U d d d d d U d d d d U L d d L U d d L U d d T L d d S L L P P E E tXt.V V C Z N N d d S d P W d S d d d d d d d d S d } T d d d d d d d d L U d d d d S C N.d d d d d U L d d d U J d d d U d d J U d d Y L d d d d d d d d d d d d d d d d d J s  .*XOXB 5 8 8 0 8 z.h.o ; u t t t t k , r.SXZXSXb., k t t t t u 3 ; e u j z z z z z z z z z z k t t ; 3 l ; 3 3 3 3 3 3 3 3 3 3 3 3 ; e l ; 3 3 3 3 3 3 3 3 3 3 3 3 ; l u ; 3 3 3 3 $ z.PXx., ; 3 3 ; l e 3 3 3 3 3 3 3 3 3 3 e   qXhX4 , 3 3 3 3 3 3 3 3 3 3 3 3 ; u t ; 3 ",
"U d d d d d U d d d d U L d d L U d d L U d d T L d d S L L P P E E tXt.V V C Z N N d d S d P W d S d d d d d d d d S d } T d d d d d d d d L U d d d d S C N.d d d d d U L d d d U J d d d U d d J U d d Y L d d d d d d d d d d d d d d d d d S s W *X#XB 5 8 8 0 8 z.h.o ; u t t t t k , r.SXZXSXb., k t t t t u 3 ; e u u #.$.$.$.$.$.$.$.$.$.k t t ; 3 l ; 3 3 3 3 3 3 3 3 3 3 3 3 ; e l ; 3 3 3 3 3 3 3 3 3 3 3 3 ; l u ; 3 3 3 $ k.PXx., ; 3 3 3 ; l e 3 3 3 3 3 3 3 3 3 3 e   qXhX4 , 3 3 3 3 3 3 3 3 3 3 3 3 ; u t ; 3 ",
"U d d d d d U d d d d U L d d L U d d L U d d T L d d S L L P P E E tXt.V V C Z N N d d S d P W d S d d d d d d d d S d } T d d d d d d d d L U d d d d S C N.d d d d d U L d d d U J d d d U d d J U d d Y L d d d d d d d d d d d d d d d d d S d P *X#XB 5 8 8 0 8 z.h.o ; u t t t t k , r.SXZXSXb., k t t t t u 3 ; e u j z z z z z z z z z z k t t ; 3 l ; 3 3 3 3 3 3 3 3 3 3 3 3 ; e l ; 3 3 3 3 3 3 3 3 3 3 3 3 ; l u ; 3 3 $ k.PXc., ; 3 3 3 3 ; l e 3 3 3 3 3 3 3 3 3 3 e   qXhX4 , 3 3 3 3 3 3 3 3 3 3 3 3 ; u t ; 3 ",
"U d d d d d U d d d d U L d d L U d d L U d d T L d d S L L P P E E tXt.V V C Z N N d d S d P W d S d d d d d d d d S d } T d d d d d d d d L U d d d d S C N.d d d d d U L d d d U J d d d U d d J U d d Y L d d d d d d d d d d d d d d d d d d d d #X*XB 5 8 8 0 8 z.h.o ; u t t t t k , r.SXZXSXb., k t t t t u 3 ; e u u #.$.$.$.$.$.$.$.$.$.k t t ; 3 l ; 3 3 3 3 3 3 3 3 3 3 3 3 ; e l ; 3 3 3 3 3 3 3 3 3 3 3 3 ; l u ; 3 $ k.PXc., ; 3 3 3 3 3 ; l e 3 3 3 3 3 3 3 3 3 3 e   qXhX4 , 3 3 3 3 3 3 3 3 3 3 3 3 ; u t ; 3 ",
"U d d d d d U d d d d U L d d L U d d L U d d T L d d S L L P P E E tXt.V V C Z N N d d S d P W d S d d d d d d d d S d } T d d d d d d d d L U d d d d S C N.d d d d d U L d d d U J d d d U d d J U d d Y L d d d d d d d d d d d d d d d d d d d d #X*XB 5 8 8 0 8 z.h.o ; u t t t t k , r.SXZXSXb., k t t t t u 3 ; e u j z z z z z z z z z z k t t ; 3 l ; 3 3 3 3 3 3 3 3 3 3 3 3 ; e l ; 3 3 3 3 3 3 3 3 3 3 3 3 ; l k ; $ j.PXc., ; 3 3 3 3 3 3 ; l e 3 3 3 3 3 3 3 3 3 3 e   qXhX4 , 3 3 3 3 3 3 3 3 3 3 3 3 ; u t ; 3 ",
"U d d d d d U d d d d U L d d L U d d L U d d T L d d S L L P P E E tXt.V V C Z N N d d S d P W d S d d d d d d d d S d } T d d d d d d d d L U d d d d S C N.d d d d d U L d d d U J d d d U d d J U d d Y L d d d d d d d d d d d d d d d d d d S d OX;XB 7 8 8 0 8 z.h.o ; u t t t t k , r.SXZXSXb., k t t t t u 3 ; e u u #.$.$.$.$.$.$.$.$.$.k t t ; 3 l ; 3 3 3 3 3 3 3 3 3 3 3 3 ; e l ; 3 3 3 3 3 3 3 3 3 3 3 3 ; l k o 9.FXc., ; 3 3 3 3 3 3 3 ; l e 3 3 3 3 3 3 3 3 3 3 e   qXhX4 , 3 3 3 3 3 3 3 3 3 3 3 3 ; u t ; 3 ",
"U d d d d d U b d d d U L d d L U d d L U d d T L d d J L P P P E E tXt.V V C Z N N b d S d E W d J d d d d d d d d S d } T d S d d d d d d L U d d d b S C N.d b d d d U L d d d U J d d d U d d J U d d Y L d d d d d d d d d d d d d d d d d d S d .X-XZ 7 8 8 0 8 z.h.o ; u t t t t k , r.SXZXSXb., k t t t t u 3 ; e u j z z z z z z z z z z k t t ; 3 l ; 3 3 3 3 3 3 3 3 3 3 3 3 3 e l ; 3 3 3 3 3 3 3 3 3 3 3 e ; l y 0.FXyX, ; 3 3 3 3 3 3 3 3 ; l e 3 3 3 3 3 3 3 3 3 3 e   qXhX4 , e 3 3 3 3 3 3 3 3 3 3 3 ; k t ; 3 ",
"U d d d d d U d d d d L L d d J U d d L U d d T J d d S J L P P E E tXt.V V Z Z N N d d d d P W a d d d d d d d d d d d Q T d d d d d d d d L L d d d d d C N.d d d d d U L d d d U d d d d U d d d U d d Y L d d d d d d d d d d d d d d d d d d d s .X-XZ 7 6 8 0 8 z.h.o ; u t t t t k , r.SXZXSXb., k t t t t u 3 ; e u u #.$.$.$.$.$.$.$.$.$.k t t ; 3 l ; ; ; ; ; ; ; ; ; ; ; ; ; ; e l ; ; ; ; ; ; ; ; ; ; ; ; ; ; y j.FXc.+ ; 3 ; ; ; ; ; ; ; ; ; l 3 ; ; ; ; ; ; ; ; ; ; e   qXhX4 ; ; ; ; ; ; ; ; ; ; ; ; ; ; u t ; ; ",
"Y L L L L L T L L L L Y U L L L T L L L Y L L ,.L L L L P P P E Q Q tXr.=.=.C C Z L L L L N E W b L L L L L L L L L L b } T J L L L L L L L U U L L L L J ) N.J L L L L T L L L L T L L L L T L L L T L L T U L L L L L L L L L L L L L L L L L L L b |.;X<.6 k 0 0 M z.h.o ; u t t t t k , r.SXZXSXb., k t t t t u 3 ; e u j z z z z z z z z z z k t t ; 3 l e t t t t t t t t t t t t t t x e t t t t t t t t t t t t , 0.FXyXe t t t t t t t t t t t t x t t t t t t t t t t t t * wXhX4 t t t t t t t t t t t t t e l k e t ",
",.Y T Y T Y ,.T Y T Y ,.T Y Y T ,.Y Y T ,.Y Y 1.T Y Y T T T W W 1.~ tXu.N.w.N.<.<.T T Y T U 1.H.U T Y Y Y Y Y Y Y Y T Y } B.Y T Y Y Y Y T Y T ,.Y T Y T Y N.N.Y T Y T Y ,.T Y T Y ,.T Y T Y ,.T Y T ,.Y Y ,.T Y T Y Y Y Y Y Y Y Y Y Y Y Y Y Y Y Y T Y Q #XN.M M %.%.%.x.h.o ; u t t t t k , r.SXZXSXb., k t t t t u 3 ; e u u #.$.$.$.$.$.$.$.$.$.k t t ; 3 l l x l l l l l l l l l l l l x B l x l l l l l l l l l x y h.FXyXi l x l l l l l l l l l l l B x l l l l l l l l l l x 4 wXjXA x x l l l l l l l l l l x l B m l l ",
"U d d d d d U d d d d L L d d d U d d J U d d T J d d d S J P P E E c.t.V V Z Z N d d d d a P W a d d d d d d d d d d a Q T a d d d d d d d L L d d d d a C N.a d d d d U J d d d U d d d d U d d d U d a U L d d d d d d d d d d d d d d d d d d d d F #XR 7 6 8 8 8 z.h.o ; u t t t t k , r.SXZXSXb., k t t t t u 3 ; e u j z z z z z z z z z z k t t ; 3 l ; ; ; ; ; ; ; ; ; ; ; ; ; ; 3 k ; ; ; ; ; ; ; ; ; ; 3 o 0.FXVXt ; ; ; ; ; ; ; ; ; ; ; ; ; ; k ; ; ; ; ; ; ; ; ; ; ; ,   qXhX4 ; ; ; ; ; ; ; ; ; ; ; ; ; ; u e ; ; ",
"L d d d d d Y J d J d U L d d L U d d L U d d T d d d S L P P P E E tXt.V V C Z N N b d J d E W a d d d b d d d d d J d } T d J d d d d b d L L d d d b S C N.d b d J d U L d J d U L d J d U d d d Y d d Y L d J d d d d d d d d d d d d d d d d S b F #X,.7 8 8 0 8 z.h.o ; u t t t t k , r.SXZXSXb., k t t t t u 3 ; e u u #.$.$.$.$.$.$.$.$.$.k t t ; 3 l ; e 3 3 3 3 3 3 3 3 3 3 3 3 e l ; e 3 3 3 3 3 3 3 5 $ 0.FXyXu u 3 e 3 3 3 3 3 3 3 3 3 3 e 3 l e 3 3 3 3 3 3 3 3 3 3 e   qXhX4 , e 3 3 3 3 3 3 3 3 3 3 e ; k t ; e ",
",.L L Y J d U d d d d U L d d L U d d L U d d ,.T d U U J P P P E E tXt.V V C Z N N d d S d P H.L U Y L d d d d d d S d } T d d d d d d b d U ,.d U L d S C N.d d d d d U L d d d U J d d d B.L L U U d d Y L d d d d d d d d d d d d d d d d d d d d F #X,.7 8 8 0 8 z.h.o ; u t t t t k , r.SXZXSXb., k t t t t u 3 ; e u j z z z z z z z z z z k t t ; 3 l ; 3 3 3 3 3 3 3 3 3 3 3 3 ; e l ; 3 3 3 3 3 3 3 3 % 0.FXyX; u k ; 3 3 3 3 3 3 3 3 3 3 3 3 ; l e 3 3 3 3 3 3 3 3 3 3 e   qXhX4 , 3 3 3 3 3 3 3 3 3 3 3 3 ; u t ; 3 ",
"F.Y C.,.J d U d d d d U L d d L U d d L U d L F.,.Y V.U J P P P E E tXt.V V C Z N N d d J a Z.H.Y T F.T d b d d d d S d } T d d d d d d d L F.B.,.C.B.d S C N.d d d d d U L d d d U J d d V.C.T V.V.,.d d Y L d d d d d d d d d d d d d d d d d d d d F #XB.7 8 8 0 8 z.h.o ; u t t t t k , r.SXZXSXb., k t t t t u 3 ; e u u #.$.$.$.$.$.$.$.$.$.k t t ; 3 l ; 3 3 3 3 3 3 3 3 3 3 3 3 ; e l ; 3 3 3 3 3 3 3 % 0.FXVX, ; l u ; 3 3 3 3 3 3 3 3 3 3 3 3 ; l e 3 3 3 3 3 3 3 3 3 3 e   qXhX4 , 3 3 3 3 3 3 3 3 3 3 3 3 ; u t ; 3 ",
"U a V.B.L d Y d d d d U L d d L U d d L U a ,.C.a ,.F.T J P P P E E tXt.V V C Z N N d d d b K.W a d V.L d d d d d d S d } T d d d d d b d 1.,.d Y F.,.d S C N.d d d d d U L d d d U J d L V.L L B.V.V.d d Y L d d d d d d d d d d d d d d d d d d d d F #XZ.7 8 8 0 8 z.h.o ; u t t t t k , r.SXZXSXb., k t t t t u 3 ; e u j z z z z z z z z z z k t t ; 3 l ; 3 3 3 3 3 3 3 3 3 3 3 3 ; e l ; 3 3 3 3 3 3 % 0.FXVX3 , ; l u ; 3 3 3 3 3 3 3 3 3 3 3 3 ; l e 3 3 3 3 3 3 3 3 3 3 e   qXhX4 , 3 3 3 3 3 3 3 3 3 3 3 3 ; u t ; 3 ",
"T d d B.,.a Y d d d d U L d d L U d d L U a ,.F.a B.,.C.L L P P E E tXt.V V C Z N N d d d d K.W f T B.d J d d d d d S d } T d d d d d b d ,.V.J ,.B.V.d S C N.d d d d d U L d d d U J d L C.Y d U F.,.d d Y L d d d d d d d d d d d d d d d d d d d b F +XZ.> 8 8 0 8 z.h.o ; u t t t t k , r.SXZXSXb., k t t t t u 3 ; e u u #.$.$.$.$.$.$.$.$.$.k t t ; 3 l ; 3 3 3 3 3 3 3 3 3 3 3 3 ; e l ; 3 3 3 3 5 $ 0.FXVX3 , 3 ; l u ; 3 3 3 3 3 3 3 3 3 3 3 3 ; l e 3 3 3 3 3 3 3 3 3 3 e   qXhX4 , 3 3 3 3 3 3 3 3 3 3 3 3 ; u t ; 3 ",
"F.T ,.V.L d Y d d d d U L d d L U d d L U d J F.V.U C.,.J P P P E E tXt.V V C Z N N d d J a 1.K.U ,.U d d d d d d d S d } T d d d d d d d L F.V.T V.,.d S C N.d d d d d U L d d d U J d d ,.F.U ,.B.U d d Y L d d d d d d d d d d d d d d d d d d d b S oX Xv 6 8 0 8 z.h.o ; u t t t t k , r.SXZXSXb., k t t t t u 3 ; e u j z z z z z z z z z z k t t ; 3 l ; 3 3 3 3 3 3 3 3 3 3 3 3 ; e l ; 3 3 3 5 % 7.FXVX3 , 3 3 ; l u ; 3 3 3 3 3 3 3 3 3 3 3 3 ; l e 3 3 3 3 3 3 3 3 3 3 e   qXhX4 , 3 3 3 3 3 3 3 3 3 3 3 3 ; u t ; 3 ",
"U d J d d d U d d b d U L d d L U d d L U d d Y L d d S L P P P E E tXt.V V C Z N N b d S d P W d d d d d d d d d d S d } T d S d d d d d d L U d J d b S C N.d b d b d U L d d d U J d d d Y J J d U d d Y L d d d d d d d d d d d d d d d d d d d J d  X;XK.7 8 0 8 z.h.o ; u t t t t k , r.SXZXSXb., k t t t t u 3 ; e u u +.$.$.$.$.$.$.$.$.$.k t t ; 3 l ; 3 3 3 3 3 3 3 3 3 3 3 3 ; e l ; 3 3 5 % 7.FXVX3 , 3 3 3 ; l u ; 3 3 3 3 3 3 3 3 3 3 3 3 ; l e 3 3 3 3 3 3 3 3 3 3 e   qXhX4 , 3 3 3 3 3 3 3 3 3 3 3 3 ; u t ; 3 ",
"U d d d d d U J d d d L L d d d U d d L U d d T J d d J J L P P E E tXt.V V Z Z N N d d J d P W a d d d d d d d d d d d } T a d d d d d J d L L d d b d d C N.d d d d d U J d d d U d d d d Y d d J Y d d Y L d d d d d d d d d d d d d d d d d d d d s |.-XK.7 8 0 8 z.h.o ; u t t t t k , r.SXZXSXb., k t t t t u 3 ; e u j z z z z z z z z z z k t t ; 3 l ; 3 3 3 3 3 3 3 3 3 3 3 3 ; e l ; 3 3 $ 7.FXVX6 , 3 3 3 3 ; l u ; 3 3 3 3 3 3 3 3 3 3 3 3 ; l e 3 3 3 3 3 3 3 3 3 3 e   qXhX4 , 3 3 3 3 3 3 3 3 3 3 3 3 ; u t ; 3 ",
"L B.,.a J B.,.a L ,.Y V.T a L V.T a U V.Y a T U U B.L a T Z.P P Z.1.tXl.V V N.N.N b ,.,.d d Z.W ,.,.a L B.T a L ,.Y B.U F T B.U a Y B.L a T L T B.L a ,.1.C Z T Y ,.1.d b B.,.d d B.,.a L T L B.T a U B.Y a U ,.T B.U a Y B.T L d d d L ,.,.,.,.,.,.1.<. X-X X0 8 0 8 z.h.o ; u t t t t k , r.SXZXSXb., k t t t t u 3 ; e u u +.$.#.#.#.#.#.#.#.$.k t t ; 3 l ; 3 3 3 3 3 3 3 3 3 3 3 3 ; e l ; 5 $ 7.FXVX6 , 3 3 3 3 3 ; l u ; 3 3 3 3 3 3 3 3 3 3 3 3 ; l e 3 3 3 3 3 3 3 3 3 3 e   qXhX4 , 3 3 3 3 3 3 3 3 3 3 3 3 ; u t ; 3 ",
"b C.V.a J C.B.a L V.,.C.,.a U F.T a Y F.Y f ,.U T F.L a 1.C.P D H.H.tXl.V B D.F.N b V.V.a b H.Q V.B.a L C.,.a U B.,.F.T G T F.Y f T F.U f 1.L T F.L a B.C.C N B.,.V.V.d d V.V.a d C.B.a L B.J C.,.a L F.,.f Y B.,.F.T f T C.,.L d b d L B.U Y Y Y Y T L J.-XXX0 8 0 8 z.h.o ; u t t t t k , r.SXZXSXb., k t t t t u 3 ; e u j z z z z z z z z z +.k t t ; 3 l ; 3 3 3 3 3 3 3 3 3 3 3 3 ; e l 3 $ 0 FXVX6 , 3 3 3 3 3 3 ; l u ; 3 3 3 3 3 3 3 3 3 3 3 3 ; l e 3 3 3 3 3 3 3 3 3 3 e   qXhX4 , 3 3 3 3 3 3 3 3 3 3 3 3 ; u t ; 3 ",
"b V.B.a J C.1.a L B.T C.,.a U C.T a Y C.Y f ,.U Y C.L a 1.C.P D H.3.tXl.V V D.D.N b V.B.a b Z.Q V.B.a L C.,.a U B.,.C.Y G T C.Y a T C.U a ,.L T C.L a B.V.C Z 1.<.V.V.d d V.V.a d V.B.a L ,.J C.,.a L C.T a Y B.,.C.Y a T C.,.L d d d L ,.L L L d L L s H.-XXX0 8 0 8 z.h.o ; u t t t t k , r.SXZXSXb., k t t t t u 3 ; e u u +.#.#.#.#.#.#.#.#.#.k t t ; 3 l ; 3 3 3 3 3 3 3 3 3 3 3 3 ; e l % 0 GXVX6 , 3 3 3 3 3 3 3 ; l u ; 3 3 3 3 3 3 3 3 3 3 3 3 ; l e 3 3 3 3 3 3 3 3 3 3 e   qXhX4 , 3 3 3 3 3 3 3 3 3 3 3 3 ; u t ; 3 ",
"b V.B.a J C.1.a L B.T C.,.a U C.T a Y C.Y f ,.U Y C.L a 1.C.P D H.3.tXl.V V D.D.N b V.V.a b Z.Q V.B.a L C.,.a U B.,.C.Y G T C.Y a T C.U a ,.L T C.L a B.V.C Z 1.<.V.V.d d V.V.a d V.B.a L ,.J C.,.a L C.,.a Y B.,.C.Y a T C.,.L d b d L 1.L L Y Q.(.(.,.~ ;X@XM 8 0 8 z.h.o ; u t t t t k , r.SXZXSXb., k t t t t u 3 ; e u j z +.z +.+.+.+.+.z +.k t t ; 3 l ; 3 3 3 3 3 3 3 3 3 3 3 3 ; e y 0 GXVX5 , 3 3 3 3 3 3 3 3 ; l u ; 3 3 3 3 3 3 3 3 3 3 3 3 ; l e 3 3 3 3 3 3 3 3 3 3 e   qXhX4 , 3 3 3 3 3 3 3 3 3 3 3 3 ; u t ; 3 ",
"b V.B.a J C.1.a L B.T C.,.a U C.T a Y C.Y f ,.U Y C.L a 1.C.P D H.3.tXl.V V D.D.N b V.V.a b Z.Q V.B.a L C.,.a U B.,.C.Y G T C.Y a T C.U a ,.L T C.L a B.V.C Z 1.<.V.V.d d V.V.a d V.B.a L ,.J C.,.a L C.,.a Y B.,.C.Y a T C.,.L d d d L 1.L L T.F.Y V.R.Z.;X@XM 8 0 8 z.h.o ; u t t t t k , r.SXZXSXb., k t t t t u 3 ; e u u +.#.#.#.#.#.#.#.#.#.k t t ; 3 l ; 3 3 3 3 3 3 3 3 3 3 3 ; 3 , q.GXVX5 , 3 ; 3 3 3 3 3 3 3 ; k u ; 3 3 3 3 3 3 3 3 3 3 3 3 ; l e ; 3 3 3 3 3 3 3 3 3 e   qXhX4 , 3 3 3 3 3 3 3 3 3 3 3 3 ; u t ; 3 ",
"b V.B.a J C.1.a L B.T C.,.a U C.T a Y C.Y f ,.U Y C.L a 1.C.P D H.3.tXl.V V D.D.N b V.V.a b Z.Q V.B.a L C.,.a U B.,.C.Y G T C.Y a T C.U a ,.L T C.L a B.V.C Z 1.<.V.V.d d V.V.a d V.B.a L ,.J C.,.a L C.,.a Y B.,.C.Y a T C.,.L J L d U 1.L T F.L L L F.C.*X@XM 8 0 8 z.h.o ; u t t t t k , r.SXZXSXb., k t t t t u 3 ; e u j z +.+.+.+.+.+.+.+.+.k t t ; 3 l 3 e e e e e e e e e e e e , 0 GXVX6 , e e e e e e e e e e 3 l k 3 e e e e e e e e e e e e e l e e e e e e e e e e e t   qXhX4 e e e e e e e e e e e e e 3 k t e e ",
"b V.B.a J C.1.a L B.T C.,.a U C.T f Y C.Y f ,.U Y C.L a 1.C.P D H.3.tXl.V B D.D.N d V.V.a b Z.Q V.B.a L C.,.a U B.,.C.Y G T C.Y f T C.U f ,.L T C.L a B.V.C N 1.<.V.V.d d V.V.a d V.B.a L ,.J C.,.a L C.,.f Y B.,.C.Y f T C.,.U U U U T ,.L L iXiXa T.mXT $X@X%.M %.M x.h.o ; u t t t t k , r.SXZXSXb., k t t t t u 3 ; e u u +.#.#.#.#.#.#.#.#.#.k t t ; 3 l k l l l l l l l l l l l y %.GXCXM i l l l l l l l l l l l k B m k l l l l l l l l l l l l l m l l l l l l l l l l l l 4 wXhXA l l l l l l l l l l l l l l m x l l ",
"b V.B.d L C.B.a U B.<.C.,.a U C.T a T C.Y a ,.U Y C.U a 1.C.P P H.3.tXl.*.V D.D.N N V.V.d b Z.Q V.B.a L C.,.a U B.,.C.Y G T C.Y a T C.U a 1.L T C.L a B.V.) Z 1.<.V.V.d d V.V.d J V.B.a L ,.J C.,.a U C.,.a T B.,.C.Y a T C.,.L d d d L 1.L L T.mXU (./.L |.@XM 8 0 8 z.h.o ; u t t t t k , r.SXZXSXb., k t t t t u 3 ; e u j z +.+.+.+.+.+.+.+.+.k t t ; 3 l ; ; ; ; ; ; ; ; ; ; 3 $ 0 CXCXM o 3 ; ; ; ; ; ; ; ; ; ; ; ; k u ; ; ; ; ; ; ; ; ; ; ; ; ; ; l 3 ; ; ; ; ; ; ; ; ; ; e   qXhX4 ; ; ; ; ; ; ; ; ; ; ; ; ; ; u t ; ; ",
"b V.V.T V.V.B.T V.B.,.C.,.T V.V.,.,.V.V.,.,.C.L T C.<.1.C.C.1.Z.H.3.tXl.N.D.D.D.<.V.V.V.T B.Z.W V.B.T V.V.B.T V.,.,.C.,.} Z.V.,.,.V.V.,.,.C.L T C.T 1.V.V.N.V.V.T V.V.T B.V.V.T V.V.B.T V.,.J C.B.T V.V.,.T V.,.,.C.,.,.V.V.,.L d J d L 1.L L L V.U V.T N |.@XM 8 0 8 z.h.o ; u t t t t k , r.SXZXSXb., k t t t t u 3 ; e u j +.#.+.+.+.+.+.+.+.#.k t t ; 3 l ; e 3 3 3 3 3 3 3 5 $ 0 CXCX8 y 3 e 3 3 3 3 3 3 3 3 3 3 e ; l k ; e 3 3 3 3 3 3 3 3 3 3 3 ; l e 3 3 3 3 3 3 3 3 3 3 e   qXhX4 , e 3 3 3 3 3 3 3 3 3 3 e ; k t ; 3 ",
"b V.V.T V.V.B.<.C.B.,.C.,.,.V.V.,.,.V.V.,.,.C.L T C.,.B.C.Z.1.Z.H.3.tXl.A.D.D.D.<.V.V.V.T V.Z.W V.B.<.V.V.B.,.C.,.,.C.,.} C.V.,.,.V.V.,.,.C.L T C.<.B.V.V.N.F.V.T V.V.T V.V.V.T V.V.B.T C.,.J C.B.,.V.V.,.,.C.,.,.C.,.,.V.V.,.L d d d L ,.L L L L L L L L J.@XM 8 0 8 z.h.o ; u t t t t k , r.SXZXSXb., k t t t t u 3 ; e u j +.+.+.+.+.+.+.+.+.+.k t t ; 3 l ; 3 3 3 3 3 3 3 5 $ 0 CXCX8 , l ; 3 3 3 3 3 3 3 3 3 3 3 3 ; l u ; 3 3 3 3 3 3 3 3 3 3 3 3 ; l e 3 3 3 3 3 3 3 3 3 3 e   qXhX4 , 3 3 3 3 3 3 3 3 3 3 3 3 ; u t ; 3 ",
"b V.V.T V.V.B.<.C.B.,.C.1.,.V.V.,.,.V.V.,.,.C.L T C.,.B.C.C.1.Z.H.3.tXl.A.D.D.D.<.V.V.V.T V.Z.Q V.B.<.V.V.B.,.C.1.,.C.,.} C.V.,.,.V.C.,.,.C.L ,.C.<.B.V.V.N.V.V.T V.V.T V.V.V.T V.V.V.T C.,.J C.B.,.V.V.1.,.C.,.,.C.,.,.V.V.,.L d b d L B.L U U U U U U L J.@XM 8 0 8 z.h.o ; u t t t t k , r.SXZXSXb., k t t t t u 3 ; e u j +.+.+.+.+.+.+.+.+.+.k t t ; 3 l ; 3 3 3 3 3 3 5 $ 0 CXCX8 $ e l ; 3 3 3 3 3 3 3 3 3 3 3 3 ; l u ; 3 3 3 3 3 3 3 3 3 3 3 3 ; l e 3 3 3 3 3 3 3 3 3 3 e   qXhX4 , 3 3 3 3 3 3 3 3 3 3 3 3 ; u t ; 3 ",
"J V.B.T V.V.B.T V.,.T V.,.<.V.V.,.,.V.V.,.,.C.L Y V.T 1.Z.Z.1.Z.H.3.tXl.N.D.D.D.<.V.V.B.T B.Z.W B.B.T V.V.,.T V.,.<.V.,.} Z.V.,.,.V.V.,.,.V.L T V.T 1.V.B.N.V.B.T B.V.Y V.V.B.T V.V.B.T V.,.L V.,.T V.V.,.,.V.,.,.V.,.,.V.V.,.L d d d L B.B.B.B.B.B.B.B.,. X@XM 8 0 8 z.h.o ; u t t t t k , r.SXZXSXb., k t t t t u 3 ; e u j +.+.+.+.+.+.+.+.+.+.k t t ; 3 l ; 3 3 3 3 3 5 $ 0 CXCXq $ 3 e l ; 3 3 3 3 3 3 3 3 3 3 3 3 ; l u ; 3 3 3 3 3 3 3 3 3 3 3 3 ; l e 3 3 3 3 3 3 3 3 3 3 e   qXhX4 , 3 3 3 3 3 3 3 3 3 3 3 3 ; u t ; 3 ",
"U d J b J b Y J J J d U L d J L U d d L U d d T L b S J L P P P E E tXt.V *.C Z N N J J J d E W d J b J J J b J J b J d } T d J b J J b J d L U d J J J S C N.S b J J d U L d J d Y L d J d U J b J Y J d Y L d J J b b J J b d d d d d J J J J J J J J b J.$XB 8 0 8 z.h.o ; u t t t t k , r.SXZXSXb., k t t t t u 3 ; e u j +.+.+.+.+.+.+.+.+.+.k t t ; 3 l ; 3 3 3 3 5 $ 0 CXCXq $ 3 ; e l ; 3 3 3 3 3 3 3 3 3 3 3 3 ; l u ; 3 3 3 3 3 3 3 3 3 3 3 3 ; l e 3 3 3 3 3 3 3 3 3 3 e   qXhX4 , 3 3 3 3 3 3 3 3 3 3 3 3 ; u t ; 3 ",
"U d b d d d U J d d d U L d d L U d d L U d d T L d d S L L P P E E tXt.V V C Z N N d d d d P W d J d d d d d d d d d d } T d J d d d d d d L U d d d d d C N.d b d b d U L d d d U J d d d U d d b U d d Y L d b d b d d d d d d d d d d d d d d d d d d J.;XZ.7 0 8 z.h.o ; u t t t t k , r.SXZXSXb., k t t t t u 3 ; e u u +.#.#.#.#.#.#.#.#.#.k t t ; 3 l ; 3 3 3 3 $ 0 CXCXq $ 3 3 ; e l ; 3 3 3 3 3 3 3 3 3 3 3 3 ; l u ; 3 3 3 3 3 3 3 3 3 3 3 3 ; l e 3 3 3 3 3 3 3 3 3 3 e   qXhX4 , e e e e 3 3 e e e e 3 3 ; k t , e ",
"U d d d d d U d d b d U L d d L U d d L U d d T L d d S J P P P E E tXt.V V C Z N N b d S d P W a d d d b d d d d d S d } T d d d d b d d d L U d d d b S C N.d d d d d U L d d d U J d d d U d d J U d d Y L d d d d d d d d d d d d d d d d d d d d d b H.;XH.7 0 6 z.h.o ; u t t t t k , r.SXZXSXb., k t t t t u 3 ; e u j z +.+.+.+.+.+.+.+.+.k t t ; 3 l ; 3 3 3 $ 0 CXGXq $ 3 3 3 ; e l ; 3 3 3 3 3 3 3 3 3 3 3 3 ; l u ; 3 3 3 3 3 3 3 3 3 3 3 3 ; l e 3 3 3 3 3 3 3 3 3 3 e   qXhX4 ; + ; + 3 3 3 + ; ; + 3 e ; t 5 O ; ",
"U L V.U ,.N.,.F.U d d U L d d L U d d L U d d T S T ,.U Y D P P E E tXt.V V C Z N N d d S d E W N V.T T d d d d d d S d } T R B.<.U d b d d L U d d d d S C N.S V.<.<.b U L d d d U J d d d U d d J U d d Y L L N.b V.<.T b d d d d d d d d d d d d d d b J.*X).%.%.w.v.r.o ; u t t t t k , r.SXZXSXb., k t t t t u 3 ; e u u +.#.#.#.#.#.#.#.#.#.k t t ; 3 l ; 3 3 $ 0 CXGXo.$ 5 3 3 3 ; e l ; 3 3 3 3 3 3 3 3 3 3 3 3 ; l u ; 3 3 3 3 3 3 3 3 3 3 3 3 ; l e 3 3 3 3 3 3 3 3 3 3 e   qXhX4 2.4.n 5.:.+ n 5.:.2.4.e ; ; 2.2.5.2.",
"L T F.L B.,.T.<.V.d d U L d d L U d d L U d d T d ,.B.<.V.,.P P E E tXt.V V C Z N N d d S d P W d U F.N.,.L d d d d S d } T L V.V.N.<.d d d L U d d d d S C { L F.L N.,.,.J d d d U J d d d U d d J U d d Y L U F.<.,.B.V.,.U d d d d d d d d d d d d d b  .;XK.y.y.%.uXr.o ; u t t t t k , r.SXZXSXb., k t t t t u 3 ; e u j z +.+.+.+.+.+.+.+.+.k t t ; 3 l ; 3 , 0 CXGXo.$ 5 3 3 3 3 ; e l ; 3 3 3 3 3 3 3 3 3 3 3 3 ; l u ; 3 3 3 3 3 3 3 3 3 3 3 3 ; l e 3 3 3 3 3 3 3 3 3 3 e   qXhX4 y 2.5.5.t 3 t :.5.e 5.n c 5.5.4.5.5.",
"U J <.F.,.U T.d V.J d U L d d L U d d L U d d T J L ,.<.T.P P P E E tXt.V V C Z N N d d S d P W f ,.R P.B.d b d d d S d } T d B.V.T.U d b d L U d d d d S C N.S <.V.F.F.U L d d d U J d d d U d d J U d d Y L d ,.N.L ,.P.F.d b d d d d d d d d d d d d b H.;XK.%.e.M uXr.+ ; u t t t t k , r.SXZXSXb., k t t t t u 3 ; e u u +.#.#.#.#.#.#.#.#.#.k t t ; 3 l 3 , 6 VXGXo.$ 5 3 3 3 3 3 ; e l ; 3 3 3 3 3 3 3 3 3 3 3 3 ; l u ; 3 3 3 3 3 3 3 3 3 3 3 3 ; l e 3 3 3 3 3 3 3 3 3 3 e   qXkXm ; 4.c 2.4.;   2.:.e 4.+ 4.:.5.4.4.4.",
"U L R V.V.V.F.V.N.d d U L d d L U d d L U d d T S U N.,.F.,.P P E E tXt.V V C Z N N d d S d E Q R F.U F.V.L d d d d S d } T U ,.F.F.,.d b d L U d d d d S C N.J U V.F.F.,.J d d d U J d d d U d d J U d d Y L b N.U V.V.F.F.L d d d d d d d d d d d d d b  .%XR.M y.y.b.y.+ ; u t t t t k , r.SXZXSXb., k t t t t u 3 ; e u j z z z z z z z z z +.k t t ; 3 l + 6 VXGXo.$ 5 3 3 3 3 3 3 ; e l ; 3 3 3 3 3 3 3 3 3 3 3 3 ; l u ; 3 3 3 3 3 3 3 3 3 3 3 3 ; l e 3 3 3 3 3 3 3 3 3 3 e   qXkX@.5.5.c :.5.c 2.wXn qX4.; 4.4.5.4.4.5.",
"U L ,.L U <.U ,.L d d U L d d L U d d L U d d T J J L L U T P P E E c.t.V V C Z N N d d S d P W N ,.R L U L d d d d S d } T U <.L L U b d d L U d d d d S C N.S ,.U L L ,.J d d d U J d d d U d d J U d d Y L d U d <.U L L L d d d d d d d d d d d d d b } %XK.M %.&.z.h.o ; u t t t t k , r.SXZXSXb., k t t t t u 3 ; e u u +.$.#.#.#.#.#.#.#.#.k t t ; 5 y 6 VXGXo.$ 5 3 3 3 3 3 3 3 ; e l ; 3 3 3 3 3 3 3 3 3 3 3 3 ; l u ; 3 3 3 3 3 3 3 3 3 3 3 3 ; l e 3 3 3 3 3 3 3 3 3 3 e   qXwX* 2.2.:.2.c c :.2.2.2.2.t t 2.:.n 2.n ",
"U d a d d d Y d d d d U L d d L U d d L U d d T L d d S J K P P E E tXt.V *.V Z N N d d d d E W a d d d d d d d d d d d } T a d d d d d d d L U d d d d d C N.d d d d d U L d d d U J d d d Y d d d Y d d Y L d d d d d d d d d d d d d d d d d d d d d b B.;X X7 0 9 x.h.o ; u t t t t k e r.SXZXSXb., k t t t t u 3 ; e u j z z z z z z z z z z k t t ; , %.VXGXo.$ 5 3 3 3 3 3 3 3 3 ; e l ; 3 3 3 3 3 3 3 3 3 3 3 3 ; l k ; 3 3 3 3 3 3 3 3 3 3 3 3 ; l e 3 3 3 3 3 3 3 3 3 3 e   wXjX4 + O + O ; ; + O + O O 3 3 O t e O ; ",
"U S L J L L U L J J S L L S J L U S J L U S S Y L J J L L L P P P E m.e.C C Z N N L L J L d P Q d L L L L J J J J J L d E T b L J L L J J S L L S J J L S C R S L L L S U L J J S U L J J J U J J L U J S U L S L J L L J L J J J J J J J J J J J J J J N T ;XXX9 8 8 9.t.o ; u t t t t k , r.JXAXJXb., k t t t t u 3 ; e u u +.$.#.$.$.$.$.$.#.$.k t t ; , h.CXo.$ 5 e e e e e e e e e 3 e u 3 e e e e e e e e e e e e ; u t ; e e e e e e e e e e e e 3 k e 3 e e e e e e e e e e O 4.5.4 e e e e e e e e e e e e e e u t e e ",
"v v v v v v v v v v v v v v v v v v v v v v v v v v v v v v v v v x v v v v v v v v v v v v v x v v v v v v v v v v v v v v v v v v v v v v v v v v v v v v v v v v v v v v v v v v v v v v v v v v v v v v v v v v v v v v v v v v v v v v v v v v v v v v T Y l l l i l ; ; u t t t t u e q.tXtXtXl.e k t t t t u 3 ; e u j z z z z z z z z z z k t t ; ; l M l l l l l l l l l l l l l l l l l l l l l l l l l l l l l l l l l l l l l l l l l l l l l l l l l l l l l l l l l l l u u l l l l l l l l l l l l l l l l l l l ",
": : : : : : : : : : : : : : : : : : : : : : : : : : : : : : : : : : : : : : : : : : : : : : : : : : : : : : : : : : : : : : : : : : : : : : : : : : : : : : : : : : : : : : : : : : : : : : : : : : : : : : : : : : : : : : : : : : : : : : : : : : : : : : X O ; ; ; ; : ; ; u t t t u u t t , e , t k t u t t t u 3 ; e u u #.$.$.$.$.$.$.$.$.$.k t t ; ; : + ; ; ; ; ; ; ; ; ; ; ; ; ; ; ; ; ; ; ; ; ; ; ; ; ; ; ; ; ; ; ; ; ; ; ; ; ; ; ; ; ; ; ; ; ; ; ; ; ; ; ; ; ; ; ; ; ; ; ; ; ; ; ; ; ; ; ; ; ; ; ; ; ; ; ; ; ; ; ; ; ",
"3 3 3 3 3 3 3 3 3 3 3 3 3 3 3 3 3 3 3 3 3 3 3 3 3 3 3 3 3 3 3 3 3 3 3 3 3 3 3 3 3 3 3 3 3 3 3 3 ; ; ; 3 3 3 3 3 3 3 3 3 3 3 3 3 3 3 3 3 3 3 3 3 3 3 3 3 3 3 3 3 3 3 3 3 3 3 3 3 3 3 3 3 3 3 3 3 3 3 3 3 3 3 3 3 3 3 3 3 3 3 3 3 3 3 3 3 3 3 3 3 3 3 3 3 3 3 e e 3 3 3 3 3 ; ; u t t t t t k t k t k t e k t t t t u 3 ; e u j z z z z z z z z z z k t t ; ; 3 3 3 3 3 3 3 3 3 3 3 3 3 3 3 3 3 3 3 3 3 3 3 3 3 3 3 3 3 3 3 3 3 3 3 3 3 3 3 3 3 3 3 3 3 3 3 3 3 3 3 3 3 3 3 3 3 3 3 3 3 3 3 3 3 3 3 3 3 3 3 3 3 3 3 3 3 3 3 3 3 3 ",
"u u u u u u u u u u u u u u u u u u u u u u u u u u u u u u u u u u u u u u u u u u u u u u u k 3 ; t k u u u u u u u u u u u u u u u u u u u u u u u u u u u u u u u u u u u u u u u u u u u u u u u u u u u u u u u u u u u u u u u u u u u u u u u u u u u u u u u u t ; ; u t t u t Y.pX-.; -.sXP.w.sXP.e u t u 3 ; e u u #.$.$.$.$.$.$.$.$.$.k t t ; ; u u u t t t t t t t t t t t t t t t t t t t t t t t t u u t t t t t t t t t t t t t t t t t t t t t t t t t t t t t t u u u u u u u u u u u u u u u u u u u u u u u ",
"t t t t t t t t t t t t t t t t t t t t t t t t t t t t t t t t t t t t t t t t t t t t t t t u 3 ; t u t B &.&.&.&.&.&.&.&.&.&.&.&.&.&.&.&.&.&.&.&.&.&.&.&.&.&.&.&.&.&.&.&.&.&.&.&.&.&.&.&.&.&.&.&.&.&.&.&.&.&.&.&.&.&.&.&.&.&.&.&.&.&.&.&.&.&.&.&.&.&.&.&.&.&.&.B u t t ; ; u t u t &.^.*.^.; ^.=.R.sXB ^.m t u u 3 ; e u j z z z z z z z z z z k t t ; ; t t u x x x x x x x x x x x x x x x x x x x x x x x x k t l x x x x x x x x x x x x x x x x x x x x x x x x x x x x x u t t t t t t t t t t t t t t t t t t t t t t ",
"t t t t t t t t t t t t t t t t t t t t t t t t t t t t t t t t t t t t t t t t t t t t t t t u 3 ; t u t &.x k l k k k k k k k k k k k k k k k k k k k k k k k k k k l l k l l l l k l l l l l k k k k k k k k k k k k k k k k k k k k k k k k k k k k k k k k l &.u t t ; ; u t u e =.Y.k /.+ ^.k R.aX3 Q.&.e u u 3 ; e u u #.$.$.$.$.$.$.$.$.$.k t t ; ; t t k *.B B B B B B B B B B B B B B B B B B B B B B *.x t &.&.B B B B B B B B B B B B B B B B B B B B B B B B B B B *.k t t t t t t t t t t t t t t t t t t t t t t ",
"t t t t t t t t t t t t t t t t t t t t t t t t t t t t t t t t t t t t t t t t t t t t t t t u 3 ; t u t &.l t t t t t t t t t t t t t t t t t t t t t t t t t t t t e t t 3 e e t t e t t t e t t t t t t t t t t t t t t t t t t t t t t t t t t t t t t t t u &.u t t ; ; u t u t x ^.D.^.&.R.P.Q./.D./.l t t u 3 ; e u j z z z z z z z z z z k t t ; ; t t l &.t t t e t e e t e e t t t t t t t e t t t e B x t B l t t e t t t e t t e e t e e t t t t t t t t t t t t t &.k t t t t t t t t t t t t t t t t t t t t t t ",
"t t t t t t t t t t t t t t t t t t t t t t t t t t t t t t t t t t t t t t t t t t t t t t t u 3 ; t u t &.l t u t t t t t t t t t t t t t t t t t t t t t t t t u t ;.m t S.;.-.&.k *.m &.x -.t u t t t t t t t t t t t t t t t t t t t t t t t t t t t t u t k &.u t t ; ; u t t u e A.^.&.D.m ^.A.x ^.w.e u t u 3 ; e u u #.$.$.$.$.$.$.$.$.$.k t t ; ; t t l &.t t l x t l x t x m u u k t k k l l t k k t B x t &.l t t m l l l m u t x m t x x k k k u t t l l u t k u u &.k t t t t t t t t t t t t t t t t t t t t t t ",
"t t t t t t t t t t t t t t t t t t t t t t t t t t t t t t t t t t t t t t t t t t t t t t t u 3 ; t u t &.l t u t t t t t t t t t t t t t t t t t t t t t t t t k 3 I.-.; I.-.E.!.l L.-.L.P.;.t u u u t t t t t t t t t t t t t t t t t t t t t t t t t t t t k &.u t t ; ; u t t t u e ; t e t ; e t ; e u t t u 3 ; e u u k k l l k k l k l l k t t ; ; t t l &.t t U.I.;.I.I.;.U.y.k x iXe I.S.L.I.-.S.x t B x t &.l e y.L.-.U.L.U.S.&.E.*.-.U.-.S.e S.t E.;.A.L.E.B A.l t &.k t t t t t t t t t t t t t t t t t t t t t t ",
"t t t t t t t t t t t t t t t t t t t t t t t t t t t t t t t t t t t t t t t t t t t t t t t u 3 ; t u t &.l t u t t t t t t t t t t t t t t t t t t t t t t t t k 3 L.-.; S.;.S.E.L.A.&.aXS.; u t t t t t t t t t t t t t t t t t t t t t t t t t t t t t t t k &.u t t ; ; u t t t t u k k t t t e u k u t t t u 3 ; e u t t t e t t t e t t t t u t ; ; t t l &.t k L.S.S.S.A.A.E.w.e k iX&.E.y.S.x E.A.e t B x t &.x e S.S.k S.S.x y.S.E.;.I.l 3 E.L.E.m E.y.;.y.E.U.S.l t &.k t t t t t t t t t t t t t t t t t t t t t t ",
"t t t t t t t t t t t t t t t t t t t t t t t t t t t t t t t t t t t t t t t t t t t t t t t u 3 ; t u t &.l t u t t t t t t t t t t t t t t t t t t t t t t t t k 3 P.&.O S.;.L.&.iXI.;.E.U.x k k k l t t t t t t t t t t t t t t t t t t t t t t t t t t t t k &.u t t ; ; u t t t t t k ; w.&.x =.u t u t t t u 3 ; e u t u u #.l t t #.j z k t u t ; ; t t l &.t t E.S.l E.E.B I.k -.w.P.I.I.-.S.B E.S.e t B x t &.l t e S.P.A.S.x A.S.L.u I.l 3 I.&.L.A.iXE.y.A.y.I.iXu t &.k t t t t t t t t t t t t t t t t t t t t t t ",
"t t t t t t t t t t t t t t t t t t t t t t t t t t t t t t t t t t t t t t t t t t t t t t t u 3 ; t u t &.l t u t t t t t t t t t t t t t t t t t t t t t t t t k 3 L.!.A.E.S.S.l S.E.*.y.;.I.A.A.y.S.u t t t t t t t t t t t t t t t t t t t t t t t t t t t k &.u t t ; ; u t t t t u t l ^.D.iXR.Q.t u u t t u 3 ; e u u t j l.uXe >.l.+.uXl.t u t ; ; t t l &.t k S.e l A.;.A.U.A.x &.A.I.y.-.L.U.&.S.m e B x t &.l t -.L.S.I.L.E.S.B E.;.y.U.;.S.t A.I.&.y.E.L.y.m iXk t &.k t t t t t t t t t t t t t t t t t t t t t t ",
"t t t t t t t t t t t t t t t t t t t t t t t t t t t t t t t t t t t t t t t t t t t t t t t u 3 ; t u t &.l t u u u u u u u u u u u u u u u u u u u u u u u u u u t k m x l l u u t u u k t k k k k k u u u u u u u u u u u u u u u u u u u u u u u u u u u t k &.u t t ; ; u t t t u 3 A./.aXA.^.A./.t u u t t u 3 ; e u t +.k $.uXe uXl.l.$.>.z t t ; ; t t l &.t u k k u k u k l x t t k t u k l l t u k t B x t &.l t l x t l k m u t x x t x l u u k k t t l l k t u u u &.k t t t t t t t t t t t t t t t t t t t t t t ",
"t t t t t t t t t t t t t t t t t t t t t t t t t t t t t t t t t t t t t t t t t t t t t t t u 3 ; t u t &.l t t t t t t t t t t t t t t t t t t t t t t t t t t t t t e t t t t t t t t t t t t t t t t t t t t t t t t t t t t t t t t t t t t t t t t t t t u &.u t t ; ; u t t t k 3 ^.x P.D.iXR.Q.u t u t t u 3 ; e j t $.$.>.uXz l.uXuXl.l.j t t ; ; t t l &.t t t t t t t t t e t t t t t t t t t t t e B x t B l t t e t t t e t t e e t e t t t t t t t t t t t t t t &.k t t t t t t t t t t t t t t t t t t t t t t ",
"t t t t t t t t t t t t t t t t t t t t t t t t t t t t t t t t t t t t t t t t t t t t t t t u 3 ; t u t &.x k l l l l l l l l l l l l l l l l l l l l l l l l l l l l l l l l l l l l l l l l l l l l l l l l l l l l l l l l l l l l l l l l l l l l l l l k l &.u t t ; ; u t t t k 3 T.T.pXD.iX-.pXx t u t t u 3 ; e u u e j >.$.z #.>.k >.$.t u t ; ; t t k *.B B B B B B B B B B B B B B B B B B B B B B *.x t &.&.B B B B B B B B B B B B B B B B B B B B B B B B B B B *.k t t t t t t t t t t t t t t t t t t t t t t ",
"t t t t t t t t t t t t t t t t t t t t t t t t t t t t t t t t t t t t t t t t t t t t t t t u 3 ; t u t B &.&.&.&.&.&.&.&.&.&.&.&.&.&.&.&.&.&.&.&.&.&.&.&.&.&.&.&.&.&.&.&.&.&.&.&.&.&.&.&.&.&.&.&.&.&.&.&.&.&.&.&.&.&.&.&.&.&.&.&.&.&.&.&.&.&.&.&.&.&.&.&.&.&.&.B u t t ; ; t t t t t t k P.D.l D.R.*.e u t t t u 3 ; e u t j t e e t t e t e e u t t ; ; t t u x x x x x x x x x x x x x x x x x x x x x x x x k t l x x x x x x x x x x x x x x x x x x x x x x x x x x x x x u t t t t t t t t t t t t t t t t t t t t t t ",
"u u u u u u u u u u u u u u u u u u u u u u u u u u u u u u u u u u u u u u u u u u u u u u u k 3 ; t k u u u u u u u u u u u u u u u u u u u u u u u u u u u u u u u u u u u u u u u u u u u u u u u u u u u u u u u u u u u u u u u u u u u u u u u u u u u u u u u u t ; ; u u u u u u t 3 3 t 3 ; t k u u u u k 3 : t k u u u k k u k k u k k u u t ; ; u u u t t t t t t t t t t t t t t t t t t t t t t t t u u t t t t t t t t t t t t t t t t t t t t t t t t t t t t t t u u u u u u u u u u u u u u u u u u u u u u u ",
"3 3 3 3 3 3 3 3 3 3 3 3 3 3 3 3 3 3 3 3 3 3 3 3 3 3 3 3 3 3 3 3 3 3 3 3 3 3 3 3 3 3 3 3 3 3 3 3 ; ; ; 3 3 3 3 3 3 3 3 3 3 3 3 3 3 3 3 3 3 3 3 3 3 3 3 3 3 3 3 3 3 3 3 3 3 3 3 3 3 3 3 3 3 3 3 3 3 3 3 3 3 3 3 3 3 3 3 3 3 3 3 3 3 3 3 3 3 3 3 3 3 3 3 3 3 3 3 3 3 3 3 3 ; ; ; 3 3 3 3 3 3 3 e e 3 e e 3 3 3 3 3 3 3 ; ; ; 3 3 3 3 3 3 3 3 3 3 3 3 3 3 3 ; ; 3 3 3 3 3 3 3 3 3 3 3 3 3 3 3 3 3 3 3 3 3 3 3 3 3 3 3 3 3 3 3 3 3 3 3 3 3 3 3 3 3 3 3 3 3 3 3 3 3 3 3 3 3 3 3 3 3 3 3 3 3 3 3 3 3 3 3 3 3 3 3 3 3 3 3 3 3 3 3 3 3 3 ",
"+ + + + + + + + + + + + + + + + + + + + + + + + + + + + + + + + + + + + + + + + + + + + + + + + : : + + + + + + + + + + + + + + + + + + + + + + + + + + + + + + + + + + + + + + + + + + + + + + + + + + + + + + + + + + + + + + + + + + + + + + + + + + + + + + + + + + + : : + + + + + + + + + + + + + + + + + + + ; ; ; + + + + + + + + + + + + + + + : : + + + + + + + + + + + + + + + + + + + + + + + + + + + + + + + + + + + + + + + + + + + + + + + + + + + + + + + + + + + + + + + + + + + + + + + + + + + + + + + + + + ",
"B B B B B B B B B B B B B B B B B B B B B B B B B B B B B B B B B B B B B B B B B B B B B B B B m m m B B B B B B B B B B B B B B B B B B B B B B B B B B B B B B B B B B B B B B B B B B B B B B B B B B B B B B B B B B B B B B B B B B B B B B B B B B B B B B B B B m m m B B B B B B B B B B B B B B B B B m B t + l B m B B B B B B B B B B B B m m m B B B B B B B B B B B B B B B B B B B B B B B B B B B B B B B B B B B B B B B B B B B B B B B B B B B B B B B B B B B B B B B B B B B B B B B B B B B B B B B B B B ",
"=.=.=.=.=.=.=.=.=.=.=.=.=.=.=.=.=.=.=.=.=.=.=.=.=.=.=.=.=.=.=.=.=.=.=.=.=.=.=.=.=.=.=.=.=.=.=.=.=.=.=.=.=.=.=.=.=.=.=.=.=.=.=.=.=.=.=.=.=.=.=.=.=.=.=.=.=.=.=.=.=.=.=.=.=.=.=.=.=.=.=.=.=.=.=.=.=.=.=.=.=.=.=.=.=.=.=.=.=.=.=.=.=.=.=.=.=.=.=.=.=.=.=.=.=.=.=.=.=.=.=.=.=.=.=.=.=.=.=.=.=.=.=.=.=.=.=.=.=.=.=.=.=.-.k O m -.=.=.=.=.=.=.=.=.=.=.=.=.=.=.=.=.=.=.=.=.=.=.=.=.=.=.=.=.=.=.=.=.=.=.=.=.=.=.=.=.=.=.=.=.=.=.=.=.=.=.=.=.=.=.=.=.=.=.=.=.=.=.=.=.=.=.=.=.=.=.=.=.=.=.=.=.=.=.=.=.=.=.=.=.=.=.=.=.=.=.=.=.=.=.=.=.=.=.",
"*.*.*.*.*.*.*.*.*.*.*.*.*.*.*.*.*.*.*.*.*.*.*.*.*.*.*.*.*.*.*.*.*.*.*.*.*.*.*.*.*.*.*.*.*.*.*.*.*.*.*.*.*.*.*.*.*.*.*.*.*.*.*.*.*.*.*.*.*.*.*.*.*.*.*.*.*.*.*.*.*.*.*.*.*.*.*.*.*.*.*.*.*.*.*.*.*.*.*.*.*.*.*.*.*.*.*.*.*.*.*.*.*.*.*.*.*.*.*.*.*.*.*.*.*.*.*.*.*.*.*.*.*.*.*.*.*.*.*.*.*.*.*.*.*.*.*.*.*.*.*.*.*.=.j O x =.*.&.=.B &.*.*.*.*.*.*.*.*.*.*.*.*.*.*.*.*.*.*.*.*.*.*.*.*.*.*.*.*.*.*.*.*.*.*.*.*.*.*.*.*.*.*.*.*.*.*.*.*.*.*.*.*.*.*.*.*.*.*.*.*.*.*.*.*.*.*.*.*.*.*.*.*.*.*.*.*.*.*.*.*.*.*.*.*.*.*.*.*.*.*.*.*.*.",
"*.*.*.*.*.*.*.*.*.*.*.*.*.*.*.*.*.*.*.*.*.*.*.*.*.*.*.*.*.*.*.*.*.*.*.*.*.*.*.*.*.*.*.*.*.*.*.*.*.*.*.*.*.*.*.*.*.*.*.*.*.*.*.*.*.*.*.*.*.*.*.*.*.*.*.*.*.*.*.*.*.*.*.*.*.*.*.*.*.*.*.*.*.*.*.*.*.*.*.*.*.*.*.*.*.*.*.*.*.*.*.*.*.*.*.*.*.*.*.*.*.*.*.*.*.*.*.*.*.*.*.*.*.*.*.*.*.*.*.*.*.*.*.*.*.*.*.*.*.*.*.*.*.=.j O m =.B iXpXiX=.&.=.&.*.=.B *.=.&.-.*.*.=.&.&.=.*.*.*.*.*.*.*.*.*.*.*.*.*.*.*.*.*.*.*.*.*.*.*.*.*.*.*.*.*.*.*.*.*.*.*.*.*.*.*.*.*.*.*.*.*.*.*.*.*.*.*.*.*.*.*.*.*.*.*.*.*.*.*.*.*.*.*.*.*.*.*.*.*.*.*.*.*.",
"*.*.*.*.*.*.*.*.*.*.*.*.*.*.*.*.*.*.*.*.*.*.*.*.*.*.*.*.*.*.*.*.*.*.*.*.*.*.*.*.*.*.*.*.*.*.*.*.*.*.*.*.*.*.*.*.*.*.*.*.*.*.*.*.*.*.*.*.*.*.*.*.*.*.*.*.*.*.*.*.*.*.*.*.*.*.*.*.*.*.*.*.*.*.*.*.*.*.*.*.*.*.*.*.*.*.*.*.*.*.*.*.*.*.*.*.*.*.*.*.*.*.*.*.*.*.*.*.*.*.*.*.*.*.*.*.*.*.*.*.*.*.*.*.*.*.*.*.*.*.*.*.*.=.j O m =.&.pX*.!.R.U.pXD.R.iXP.iXY.Q.iXD.!.^.L.sXP.&.*.*.*.*.*.*.*.*.*.*.*.*.*.*.*.*.*.*.*.*.*.*.*.*.*.*.*.*.*.*.*.*.*.*.*.*.*.*.*.*.*.*.*.*.*.*.*.*.*.*.*.*.*.*.*.*.*.*.*.*.*.*.*.*.*.*.*.*.*.*.*.*.*.*.*.*.",
"*.*.*.*.*.*.*.*.*.*.*.*.*.*.*.*.*.*.*.*.*.*.*.*.*.*.*.*.*.*.*.*.*.*.*.*.*.*.*.*.*.*.*.*.*.*.*.*.*.*.*.*.*.*.*.*.*.*.*.*.*.*.*.*.*.*.*.*.*.*.*.*.*.*.*.*.*.*.*.*.*.*.*.*.*.*.*.*.*.*.*.*.*.*.*.*.*.*.*.*.*.*.*.*.*.*.*.*.*.*.*.*.*.*.*.*.*.*.*.*.*.*.*.*.*.*.*.*.*.*.*.*.*.*.*.*.*.*.*.*.*.*.*.*.*.*.*.*.*.*.*.*.*.=.j O m =.&.iX*.A.sXaXiXaXsXiXsXiXD.^.R.Y.aXiXsXiXB =.*.*.*.*.*.*.*.*.*.*.*.*.*.*.*.*.*.*.*.*.*.*.*.*.*.*.*.*.*.*.*.*.*.*.*.*.*.*.*.*.*.*.*.*.*.*.*.*.*.*.*.*.*.*.*.*.*.*.*.*.*.*.*.*.*.*.*.*.*.*.*.*.*.*.*.*.",
"*.*.*.*.*.*.*.*.*.*.*.*.*.*.*.*.*.*.*.*.*.*.*.*.*.*.*.*.*.*.*.*.*.*.*.*.*.*.*.*.*.*.*.*.*.*.*.*.*.*.*.*.*.*.*.*.*.*.*.*.*.*.*.*.*.*.*.*.*.*.*.*.*.*.*.*.*.*.*.*.*.*.*.*.*.*.*.*.*.*.*.*.*.*.*.*.*.*.*.*.*.*.*.*.*.*.*.*.*.*.*.*.*.*.*.*.*.*.*.*.*.*.*.*.*.*.*.*.*.*.*.*.*.*.*.*.*.*.*.*.*.*.*.*.*.*.*.*.*.*.*.*.*.=.j O m =.&.sXA.iX!.sXU.I.aXU.A.D.aXA.^.aXpXS.R.Q.B =.*.*.*.*.*.*.*.*.*.*.*.*.*.*.*.*.*.*.*.*.*.*.*.*.*.*.*.*.*.*.*.*.*.*.*.*.*.*.*.*.*.*.*.*.*.*.*.*.*.*.*.*.*.*.*.*.*.*.*.*.*.*.*.*.*.*.*.*.*.*.*.*.*.*.*.*.",
"*.*.*.*.*.*.*.*.*.*.*.*.*.*.*.*.*.*.*.*.*.*.*.*.*.*.*.*.*.*.*.*.*.*.*.*.*.*.*.*.*.*.*.*.*.*.*.*.*.*.*.*.*.*.*.*.*.*.*.*.*.*.*.*.*.*.*.*.*.*.*.*.*.*.*.*.*.*.*.*.*.*.*.*.*.*.*.*.*.*.*.*.*.*.*.*.*.*.*.*.*.*.*.*.*.*.*.*.*.*.*.*.*.*.*.*.*.*.*.*.*.*.*.*.*.*.*.*.*.*.*.*.*.*.*.*.*.*.*.*.*.*.*.*.*.*.*.*.*.*.*.*.*.=.j O x =.B !.pXR.B P.iXA.P.^.S.^.Y.Y.iXA.Y.Q.P.P.B =.*.*.*.*.*.*.*.*.*.*.*.*.*.*.*.*.*.*.*.*.*.*.*.*.*.*.*.*.*.*.*.*.*.*.*.*.*.*.*.*.*.*.*.*.*.*.*.*.*.*.*.*.*.*.*.*.*.*.*.*.*.*.*.*.*.*.*.*.*.*.*.*.*.*.*.*.",
"*.*.*.*.*.*.*.*.*.*.*.*.*.*.*.*.*.*.*.*.*.*.*.*.*.*.*.*.*.*.*.*.*.*.*.*.*.*.*.*.*.*.*.*.*.*.*.*.*.*.*.*.*.*.*.*.*.*.*.*.*.*.*.*.*.*.*.*.*.*.*.*.*.*.*.*.*.*.*.*.*.*.*.*.*.*.*.*.*.*.*.*.*.*.*.*.*.*.*.*.*.*.*.*.*.*.*.*.*.*.*.*.*.*.*.*.*.*.*.*.*.*.*.*.*.*.*.*.*.*.*.*.*.*.*.*.*.*.*.*.*.*.*.*.*.*.*.*.*.*.*.*.*.=.k O m =.*.B B B *.&.B *.&.B &.B B &.B &.B &.&.&.*.*.*.*.*.*.*.*.*.*.*.*.*.*.*.*.*.*.*.*.*.*.*.*.*.*.*.*.*.*.*.*.*.*.*.*.*.*.*.*.*.*.*.*.*.*.*.*.*.*.*.*.*.*.*.*.*.*.*.*.*.*.*.*.*.*.*.*.*.*.*.*.*.*.*.*.*.*.",
"*.*.*.*.*.*.*.*.*.*.*.*.*.*.*.*.*.*.*.*.*.*.*.*.*.*.*.*.*.*.*.*.*.*.*.*.*.*.*.*.*.*.*.*.*.*.*.*.*.*.*.*.*.*.*.*.*.*.*.*.*.*.*.*.*.*.*.*.*.*.*.*.*.*.*.*.*.*.*.*.*.*.*.*.*.*.*.*.*.*.*.*.*.*.*.*.*.*.*.*.*.*.*.*.*.*.*.*.*.*.*.*.*.*.*.*.*.*.*.*.*.*.*.*.*.*.*.*.*.*.*.*.*.*.*.*.*.*.*.*.*.*.*.*.*.*.*.*.*.*.*.*.*.=.u O x =.*.*.=.*.*.*.*.*.*.*.*.*.*.*.*.*.*.*.*.*.*.*.*.*.*.*.*.*.*.*.*.*.*.*.*.*.*.*.*.*.*.*.*.*.*.*.*.*.*.*.*.*.*.*.*.*.*.*.*.*.*.*.*.*.*.*.*.*.*.*.*.*.*.*.*.*.*.*.*.*.*.*.*.*.*.*.*.*.*.*.*.*.*.*.*.*.*.*.",
"j j j j j j j j k k t ; e k k u u u u u u u u u u u u u u u u u u u u u u u u u u u u u u u u u u u u u u u u u u u u u u u u u u u u u u u u u u u u u u u u u u u u u u u u u u u k k e ; 3 5 5 5 5 5 5 5 5 5 5 5 5 5 5 5 5 5 5 5 5 5 5 5 5 5 5 5 5 5 5 5 5 5 5 5 5 5 5 5 5 5 5 5 5 5 5 5 5 5 5 5 5 5 5 5 5 5 5 e ; ; t k k k k k k k k k k k k k k k k k k k k k k k k k k k k k k k k k k k k k k k k k k k k k k k k k k k k k k k k k k k k k k k k k k k k k k k k k k k k k k k k k k k k k k k k k k k k k k k k k k k ",
"i i i i i i i i t u e : ; u t u k k k k k k k k k k k k k k k k k k k k k k k k k k k k k k k k k k k k k k k k k k k k k k k k k k k k k k k k k k k k k k k k k k k k k k k k k u t u ; ; ; ; ; ; ; ; ; ; ; ; ; ; ; ; ; ; ; ; ; ; ; ; ; ; ; ; ; ; ; ; ; ; ; ; ; ; ; ; ; ; ; ; ; ; ; ; ; ; ; ; ; ; ; ; ; ; ; ; ; ; ; ; e u t t t t t t t t t t t t t t t t t t t t t t t t t t t t t t t t t t t t t t t t t t t t t t t t t t t t t t t t t t t t t t t t t t t t t t t t t t t t t t t t t t t t t t t t t t t t t t t t t t ",
"8X8X8X8X8X8X8X[ 5 u t ; 3 k 1 g.VX3X3X3X3X3X3X3X3X3X3X3X3X3X3X3X3X3X3X3X3X3X3X3X3X3X3X3X3X3X3X3X3X3X3X3X3X3X3X3X3X3X3X3X3X3X3X3X3X3X3X3X3X3X3X3X3X3X3X3X3X3X3X3X3X3X3X3X3X3X3X3XVX0.< k 3 ; ; ; ; ; ; ; 3 3 ; ; 3 3 ; ; ; O O O O O O O O O O O O O O O O O O O O O O O O O O O O O O O O O O ; O O O O O O X ; 3 ; ; ; e u t t t t t u k k u t t u u t t u t t t t t t t t t t t t t t t t t u u u k t t t t t t t t t t t t t t t t t t t t t t t t t t u k k t t u t t t t t t t u t t u t t t t t t t t t t t t t t t t t k ",
"' ' ' ' ' ' [ 7X9 u t ; 3 k 1 g.2Xi.p.p.p.p.p.p.p.p.p.p.p.p.p.p.p.p.p.p.p.p.p.p.p.p.p.p.p.p.p.p.p.p.p.p.p.p.p.p.p.p.p.p.p.p.p.p.p.p.p.p.p.p.p.p.p.p.p.p.p.p.p.p.p.p.p.p.p.p.p.i.4Xg.1 k 3 ; ; ; ; ; ; ; ; : ; ; : ; ; ; ; X X O O O X X @ X @ X X X X X X X X X X X X X X X X X X X X X X X X : X X X X X X X ; 3 ; ; ; e u t t t t u e ; 3 t k k u t l m t k u t t t t t t t t t t t t t t u t e t 3 k k k t k k u k k t t t t t t t t t t t t t t t t u e ; ; k l u u k u u k u u k k l u u t t t t t t t t t t t t t t t u e ",
"' ' ' ' ' ' [ [ 9 u t ; 3 k 1 g.1X8.i.i.i.i.i.i.i.i.i.i.i.i.i.i.i.i.i.i.i.i.i.i.i.i.i.i.i.i.i.p.i.p.p.i.i.i.i.i.i.p.i.i.i.i.i.i.i.i.i.i.i.i.i.i.i.i.i.i.i.i.i.i.i.i.i.i.i.i.i.8.2Xg.1 k 3 ; ; ; ; t ; ; k x ; e m l ; ; ; X O @ @ @ X : t : t X X X X X X X X X X X X X X X X X X X X X X X O : X X X ; X X X ; 3 ; ; ; e u t t t u e -.iXT.l e 3 u m u &.e 3 e u t t t t t t t t t t t t u t x A.l P.3 ; e t 3 e t 3 e t t t t t t t t t t t t t t t u e D.iXR.Q.A.X u 3 e t 3 e t ; *.R.X t u t t t t t t t t t t t t t u e D.",
"' ' ' ' ' ' [ [ 9 u t ; 3 k 1 g.1X8.i.i.i.i.i.i.i.i.i.i.i.i.i.i.i.i.i.i.i.i.i.i.i.i.i.i.i.i.f.<Xf.<Xs.d.f.f.<Xs.i.d.d.i.i.i.i.i.i.i.i.i.i.i.i.i.i.i.i.i.i.i.i.i.i.i.i.i.i.i.i.8.2Xg.1 k 3 ; ; ; 3 L.3 3 U.S.y.y.P.&.3 ; ; O @ m S.&.@ -.;.-.;.@ O X X X X X X X X X X X X X X X X X X X X X O : O @ k dXz @ X ; 3 ; ; ; e u t t t k ; T.D.R.D.A.Y.A.LXD.-.B /.A.e u t t t t t t t t t t t u e &./.R.A.A.^.P.t T.P.k Y.P.t u t t t t t t t t t t t t t u u t ^.D.D.sXY.x T.P.m R.A.-.R.D.sXR.=.e u t t t t t t t t t t t t t t sX",
"' ' ' ' ' ' [ [ 9 u t ; 3 k 1 g.1X8.i.i.i.i.i.i.i.i.i.i.i.i.i.i.i.i.i.i.i.i.i.i.i.i.i.i.i.i.f.<Xd.<Xs.<X<Xd.<Xi.i.p.f.i.i.i.i.i.i.i.i.i.i.i.i.i.i.i.i.i.i.i.i.i.i.i.i.i.i.i.i.8.2Xg.1 k 3 ; ; ; 3 L.5 e P.;.S.y.y.e ; ; ; @ j L.: S.&.E.-.E.&.@ O X X X X X X X X X X X X X X X X X X X X X O : X X y.E.L.: X ; 3 ; ; ; e u t t t k ; D.aXiXl *.iXR.Q.-.^.R.w.iXB t u t t t t t t t t t t u t l IXpX@ pXA.!.T.iXiXsX^.sXw.3 u t t t t t t t t t t t t t k ; T.-.D.R.U.P.sXm R./.pXpXT.=.iXA.^.; k t t t t t t t t t t t u e w.iX",
"' ' ' ' ' ' [ [ 9 u t ; 3 k 1 g.1X8.i.i.i.i.i.i.i.i.i.i.i.i.i.i.i.i.i.i.i.i.i.i.i.i.i.i.i.i.f.<Xp.<Xd.<X<Xd.<Xs.p.<Xp.i.i.i.i.i.i.i.i.i.i.i.i.i.i.i.i.i.i.i.i.i.i.i.i.i.i.i.i.8.2Xg.1 k 3 ; ; ; 3 L.: ; E.y.; y.I.&.; ; ; @ ;.;.# m -.y.j S.t X O X X X X X X X X X X X X X X X X X X X X X O : X O t ; t : X ; 3 ; ; ; e u t t t k ; P.Y.Q.A.^.iXQ.Y.&.^.^.k ^.&.e u t t t t t t t t t t u t B iX^.A.!.l R.Q.pXA./.iXD.B t u t t t t t t t t t t t t t k 3 R.w.D.A.A.R.Q.+ /.^.D.m Y./.T.x /.; k t t t t t t t t t t t k 3 Q.^.",
"' ' ' ' ' ' [ [ 9 u t ; 3 k 1 g.1X8.i.i.i.i.i.i.i.i.i.i.i.i.i.i.i.i.i.i.i.i.i.i.i.i.i.i.i.i.p.i.i.f.f.i.p.f.p.p.p.d.s.i.i.i.i.i.i.i.i.i.i.i.i.i.i.i.i.i.i.i.i.i.i.i.i.i.i.i.i.8.2Xg.1 k 3 ; ; ; ; Y.;.x L.+ X S.m X 3 ; ; @ x S.# A.&.y.3 S.; X O X X X X X X X X X X X X X X X X X X X X X O : O @ L.dXL.O X ; 3 ; ; ; e u t t t k 3 D.w.w.Q.Q.!.D.Q.T.D.w.pXT.t u t t t t t t t t t t t u t B T.x R.R.l T.=.R.I.&.Q.I.l t u t t t t t t t t t t t t t u 3 P.=.A.A.w.P.T.e =.^.D.D.^.T.P.m Y.3 k t t t t t t t t t t t t k R.3 ",
"' ' ' ' ' ' [ [ 9 u t ; 3 k 1 g.1X8.p.i.i.i.i.i.i.i.i.i.i.i.i.i.i.i.i.i.i.i.i.i.i.i.i.i.i.i.i.i.i.i.i.i.i.i.i.i.i.i.i.i.i.i.i.i.i.i.i.i.i.i.i.i.i.i.i.i.i.i.i.i.i.i.i.i.i.i.p.8.2Xg.1 k 3 ; ; ; ; &.A.m x 5 ; l j ; ; ; ; O X -.L.y.X -.; -.; X X X X X X X X X X X X X X X X X X X X X X X O : X X ; W.t @ X ; 3 ; ; ; e u t t t t u t t t t k k e t k t t k t t t t t t t t t t t t t t t t t t t t t t t t u x t k x u t t t t t t t t t t t t t t t t u t t t t t t t u t l l k l e t t t u t t t t t t t t t t t t t u t u ",
"' ' ' ' ' ' [ [ 5 u t ; 3 k 1 g.1X8.i.i.i.i.i.i.i.i.i.i.i.i.i.i.i.i.i.i.i.i.i.i.i.i.i.i.i.i.i.i.i.i.i.i.i.i.i.i.i.i.i.i.i.i.i.i.i.i.i.i.i.i.i.i.i.i.i.i.i.i.i.i.i.i.i.i.i.i.i.8.1Xg.1 k 3 ; ; ; ; : X ; ; ; ; ; ; ; ; ; ; O X @ : X X X X X X X X X X X X X X X X X X X X X X X X X X X X X O : X O X + X O X ; 3 ; ; ; e u t t t t t u u u u t t u t t u u t u u t t t t t t t t t t t t t t t u u t t t u u t t u t t t t t t t t t t t t t t t t t t t t u t u u u u u t u t t t t u u t u t t t t t t t t t t t t t t t u u ",
"[ [ [ [ [ [ [ 8X9 u t ; 3 k 1 g.3Xf.d.d.d.d.d.d.d.d.d.d.d.d.d.d.d.d.d.d.d.d.d.d.d.d.d.d.d.d.d.d.d.d.d.d.d.d.d.d.d.d.d.d.d.d.d.d.d.d.d.d.d.d.d.d.d.d.d.d.d.d.d.d.d.d.d.d.d.d.d.f.3Xg.1 k 3 ; ; ; ; 3 3 3 3 ; ; 3 ; ; ; ; ; X X X X X X X X X X X X X X X X X X X X X X X X X X X X X X X X X X : X X X X X X X ; 3 ; ; ; e u t t t t t t t t t t t t t t t t t t t t t t t t t t t t t t t t t t t t t t t t t t t t t t t t t t t t t t t t t t t t t t t t t t t t t t t t t t t t t t t t t t t t t t t t t t t t t t t t t t ",
"[ [ [ [ [ [ 8XX.j u t ; 3 k < 0.,X,X,X,X,X,X,X,X,X,X,X,X,X,X,X,X,X,X,X,X,X,X,X,X,X,X,X,X,X,X,X,X,X,X,X,X,X,X,X,X,X,X,X,X,X,X,X,X,X,X,X,X,X,X,X,X,X,X,X,X,X,X,X,X,X,X,X,X,X,X,X,X,X7.< k 3 ; ; ; ; ; ; ; ; ; ; ; ; ; ; ; ; + + + + + + + + + + + + + + + + + + + + + + + + + + + + + + + + + : ; + + + : + + + ; ; ; ; ; e u t t t t t t t t t t t t t t t t t t t t t t t t t t t t t t t t t t t t t t t t t t t t t t t t t t t t t t t t t t t t t t t t t t t u j j j j j j j j t t t t t t t t t t t t t t t t t t t t t t ",
"9 9 9 9 9 9 9 j t u t ; 3 u t t < < < < < < < < < < < < < < < < < < < < < < < < < < < < < < < < < < < < < < < < < < < < < < < < < < < < < < < < < < < < < < < < y < < < < < < < < t t u 3 ; ; ; ; ; ; ; ; ; ; ; ; ; ; ; ; ; ; ; ; ; ; ; ; ; ; ; ; ; ; ; ; ; ; ; ; ; ; ; ; ; ; ; ; ; ; ; ; ; ; ; ; ; ; ; ; ; ; ; ; ; ; ; e u t t t t t t t t t t t t t t t t t t t t t t t t t t t t t t t t t t t t t t t t t t t t t t t t t t t t t t t t t t t t t t t t t u j t 4 4 5 5 5 5 4 5 u u t t t t t t t t t t t t t t t t t t t t ",
"u u u u u u u u t u t ; 3 u t u u u u u u t t u u u u u u u u u u u u u u u u u u u u u u u u u u u u k t k u u u u u u u u u u u u u u u u u u u k u t u u u t t u u u u u u u u u t u 3 ; ; ; ; ; ; ; ; ; ; ; ; ; ; ; ; ; ; ; ; ; ; ; ; ; ; ; ; ; ; ; ; ; ; ; ; ; ; ; ; ; ; ; ; ; 3 ; ; ; ; ; ; ; ; ; ; ; ; ; ; ; ; ; e u t t t t t t t t t t t t t t t t t t t t t t t t t t t t t t t t t t t t t t t t t t t t t t t t t t t t t t t t t t t t t t t t j t 4 n 4.wXkXzXzXhX4.2.t t u u t t t t t t t t t t t t t t t t t t ",
"t t u t t t t t t u t ; 3 u t t t t t u t l l u t t t t u t t u t t t t t t t t t t t t t t t t t u t t l e t u t t t t t t t t t t t t t t t t u e u l u t t l *.t t t u t t t t t t u 3 ; ; ; ; ; ; ; ; ; ; ; ; t 3 ; ; ; ; ; ; ; ; ; ; ; ; ; ; ; ; ; ; ; ; ; ; ; ; ; ; ; ; ; ; ; ; 3 ; ; ; ; ; ; ; ; ; ; ; ; ; ; ; ; e u t t t t t t t t t u u u u u t t t t t t t t t t t t t t t t t t t t t t t u u k k u u t t t t t t t t t t t t t t t t t t t u j 5 :.wXNXBXBXBXBXBXBXBXBX5.n t t u t t t t t t t t t t t t t t t t t ",
"t k t u t t t t t u t ; 3 u t t t t k ; Y.pXD.e k t k k e k t t u t t t t t t t t t t t t t t t u t k Q.iXY.t u t t t t t t t t t t t t t t t u e -./.^.B k l t B e k t t u t t t t t u 3 ; ; ; ; ; ; ; ; ; ; e U.S.l : e ; e ; ; 5 ; ; ; ; ; ; ; ; ; ; ; ; ; ; ; ; ; ; ; ; ; ; 3 ; &.L.L.x ; 3 ; ; ; ; ; ; ; ; ; ; ; ; e u t t t t t t t u u t t t t t t u u t t t t t t t t t t t t t t t t t t u u t e e e e t k u t t t t t t t t t t t t t t t t u j 4 4.NXBXNXkX5.2.:.:.4.wXvXlXrX6.t t u t t t t t t t t t t t t t t t t ",
"iXiXw.e u t t t t u t ; 3 u t t t t k ; ^.A.; Q.!.*.Q.R.-.^.pXw.3 u t t t t t t t t t t t t t t k ; P.Q.X /.A.3 u t t t t t t t t t t t t t u t u pX&.k t A./.A.D.P.pX^.l t u t t t t u 3 ; ; ; ; ; ; ; ; ; ; j P.; k U.&.&.L.&.-.P.P.; ; ; ; ; ; ; ; ; ; ; ; ; ; ; ; ; ; ; ; ; ; 3 U.e l P.; 3 ; ; ; ; ; ; ; ; ; ; ; ; e u t t t t t t u t t k M %.%.M u t t u t t t t t t t t t t t t t t t t k t e M q.r.t.%.u e t u t t t t t t t t t t t t t t t j 4 5.BXBXhXn O   O O O @ . ; 2.rXlX6.t t u t t t t t t t t t t t t t t t ",
"R.*.Q.; k t t t t u t ; 3 u t t t t k ; Q.aXw.iXm P.pX/.aX&.P.P.; k t t t t t t t t t t t t t t k ; R.D.@ U.P.; k t t t t t t t t t t t t t u t B iX; iXP.*.iX^.T.Q.-.R.-.e u t t t t u 3 ; ; ; ; ; ; ; ; ; ; t E.A.;.L.O E.S.E.P.; U.3 ; ; ; ; ; ; ; ; ; ; ; ; ; ; ; ; ; ; ; ; ; j P.O ; I.; ; ; ; ; ; ; ; ; ; ; ; ; ; e u t t t t t u e u q.h.j.j.j.j.h.q.k t u t t t t t t t t t t t t t t u e M b.DXSXJXJXSXKXl.k e k t t t t t t t t t t t t t j 4 4.BXBX5.@ O ; ; ; ; ; ; aXP.. c 5.lX6.t t u t t t t t t t t t t t t t u ",
"T.*.^.; k t t t t u t ; 3 u t t t t k ; ^.=.O iXk D.pX=.R.P.R.D.; k t t t t t t t t t t t t t t u 3 A.iXl /.=.e u t t t t t t t t t t t t t t u t iX-.D.pXiX/.iXY.Q.&.R.w.3 u t t t t u 3 ; ; ; ; ; ; ; ; ; ; k P.@ m S.X I.y.x L.m U.3 ; ; ; ; ; ; ; ; ; ; ; ; ; ; ; ; ; ; ; ; ; ; I.m &.S.: 3 ; ; ; ; ; ; ; ; ; ; ; ; e u t t t t u e t.tXn.j.h.7.7.0.j.j.h.M t u t t t t t t t t t t t t u e r.ZXJXAXtXn.n.tXSXJXKX%.e k t t t t t t t t t t t j e 2.NXBX4.  ; ; ; ; ; ; @ A.UXP.X + < 5.lX2.e u t t t t t t t t t t t t u 5 ",
"w.m D.e u t t t t u t ; 3 u t t t t u e D.&.e D.l t I.T.B T.sXD.; k t t t t t t t t t t t t t t t u t D.aXiX3 k t t t t t t t t t t t t t t t u t B Q.^.-.P.T.A.A.A.m A.B t u t t t t u 3 ; ; ; ; ; ; ; ; ; ; t ;.; k *.O l S.m m S.U.3 ; ; ; ; ; ; ; ; ; ; ; ; ; ; ; ; ; ; ; ; ; ; k S.!.l ; 3 ; ; ; ; ; ; ; ; ; ; ; ; e u t t t u e q.AXSXh.: : ; + ; 5 7.j.j.M t u t t t t t t t t t t k e u.SXSXn.8 ; o o ; M tXJXDX%.e u t t t t t t t t t u u 5 kXBXqX  ; ; ; ; ; ; ; X LXIX; ; ; O n lXeXc t u t t t t t t t t t t u 5 1.",
"e t e u t t t t t u t ; 3 u t t t t t u e t u e t t 3 e t X D.D.; k t t t t t t t t t t t t t t t t u ; k P.k t u t t t t t t t t t t t t t t t u t ; 3 e 3 3 e e e t e t u t t t t t u 3 ; ; ; ; ; ; ; ; ; ; ; ; 3 ; ; 3 ; + ; ; O L.5 ; ; ; ; ; ; ; ; ; ; ; ; ; ; ; ; ; ; ; ; ; ; ; X &.m ; 3 ; ; ; ; ; ; ; ; ; ; ; ; e u t t u t l DXSXl.; -.l + ; ; ; + o.j.h.k t u t t t t t t t t u t M AXAXu.o + ; ; ; ; o + b.JXKXk t u t t t t t t t t j 5 2.BXNX< + ; ; ; ; ; ; X &.UXY.@ ; ; ; O 6.lX2.5 u t t t t t t t t t u t n &X",
"u u u t t t t t t u t ; 3 u t t t t t t u u t k u u k k u u l k t t t t t t t t t t t t t t t t t u u k u 5 u u t t t t t t t t t t t t t t t t t u k k u k k k u u u u u t t t t t t u 3 ; ; ; ; ; ; ; ; ; ; ; 3 ; 3 3 3 3 5 3 3 3 e ; ; ; ; ; ; ; ; ; ; ; ; ; ; ; ; ; ; ; ; ; ; ; 3 5 ; ; ; ; ; ; ; ; ; ; ; ; ; ; ; ; e u t t j e b.JXtXX t UXaX@ ; ; ; ; + 7.j.q.t u t t t t t t t t u e n.JXb.o ; ; ; ; ; ; 3 ; ; tXJXl.e k t t t t t t t t k 4 wXBXwX  ; ; ; ; ; ; ; X sXUXt + ; ; ; O c lX5.u t t t t t t t t t t u 5 >XMX",
"u t t t t t t t t u t ; 3 u t t t t t t t u t t y < < y t u t t u t t t t t t t t t t t t t t u u t y < < y t t u t t t t t t t t t t t t t t t t t u t t t y y t t u t t t t t t t t u 3 ; ; ; ; ; ; ; ; ; ; ; ; 3 ; ; : : : ; ; 3 ; ; ; ; ; ; ; ; ; ; ; ; ; ; ; ; ; ; ; ; ; ; ; ; ; ; ; ; ; ; ; ; ; ; ; ; ; ; ; ; ; ; e u t u t u KXSXM + X Y.UXS.X ; ; ; + 6 j.h.k t u t t t t t t u t M ZXZX8 + ; ; ; ; ; X @ ; o %.SXtXt t u t t t t t t u u t zXBX2.O ; ; ; ; ; ; ; ; UXiX@ ; ; ; ; ; ; 5.rXn t u t t t t t t t u t c &X&X",
"9 t u t t t t t t u t ; 3 u t t t t t u u y t q 0.0.0.7.k y t u t t t t t t t t t t t t t t u t y M 7.0.0.0.q t y u u t t t t t t t t t t t t t t t t u q q q q q u t t t t t t t t t u 3 ; ; ; ; ; ; ; ; ; ; 3 ; ; e x &.*.&.l ; ; ; ; ; ; ; ; ; ; ; ; ; ; ; ; ; ; ; ; ; ; ; ; ; t j k k t 3 ; ; ; ; ; ; ; ; ; ; ; ; ; e u t u t %.AXKX; ; ; O IXLX+ ; ; ; ; ; h.j.M t u t t t t t t u e q.SXtX+ ; ; ; ; ; ; -.iXIXiX: n.j.k t u t t t t t t u t x NXNX< + ; ; ; ; ; ; ; ; m l + ; ; ; ; ; + 6.lX:.t u t t t t t t t u 5 <.:X>X",
"] t t u t t t t t u t ; 3 u t t t t u t t _ f.1X1X4X4X1X<Xa.M y u t t t t t t t t t t t t u y k a.<X1X4X4X4X1Xf.7.y t u t t t t t t t t t t t t t t q ( 8.8.8.8.8.( q u t u t t t t t u 3 ; ; ; ; ; ; ; ; ; 3 ; 3 &.P.Y.R.R.R.Y.D.&.; ; ; ; ; ; ; ; ; ; ; ; ; ; ; ; ; ; ; ; ; t x &.&.*.&.&.B l 3 ; ; ; ; ; ; ; ; ; ; ; e u t j e q.JXtXo ; ; + j j ; ; ; ; ; + 7.j.M t u t t t t t t k , r.JXb.o ; ; ; ; + j UXUXIXL.X t.j.z t u t t t t t t u t n BXvX; ; ; ; ; ; ; ; ; ; O + ; ; ; ; ; ; O 6.lX2.5 u t t t t t t t u 5 1.MX3.",
"8XX.i t u t t t t u t ; 3 u t t t u t t a.1X1X<Xa.8.8.a.<X4X<X_ y u t t t t t t t t t t u y _ <X4X<Xs.8.8.8.d.1X1Xa.t t u t t t t t t t t t t t u ( 8.8.( w w w ( ( 8.( k t u t t t t u 3 ; ; ; ; ; ; ; ; 3 ; t D.Y.T.A.&.B &.A.Y.Y.A.5 ; ; ; ; ; ; ; ; ; ; ; ; ; ; ; ; ; ; l &.&.x j t t l B &.m e ; ; ; ; ; ; ; ; ; ; e u t u e q.JXtX+ ; ; ; + + ; ; ; ; ; + 7.j.M t u t t t t t t k , r.JXb.o ; ; ; ; ; ; *.t X X ; h.j.M t u t t t t t t u t n BXvX; ; ; ; ; ; ; ; ; ; ; ; ; ; ; ; ; ; O 6.lX2.5 u t t t t t t t u 5 1.MX>X",
"[ 8X[ u t u t t t u t ; 3 u t t t u t a.1X<X8.3 o o o o 7 a.1X1Xq y u t t t t t t t t u t q <X1Xs.7 + o o o ; ( <X1Xa.y u t t t t t t t t t t t ( 8.( 7 ; ; ; ; ; 7 ( 8.( u t t t t t u 3 ; ; ; ; ; ; ; ; ; t D.Y.A.t X @ @ @ X k D.R.A.; ; ; ; ; ; ; ; ; ; ; ; ; ; ; ; ; l &.B e O X X X X ; l &.B e ; ; ; ; ; ; ; ; ; e u t u e %.AXKX5 ; ; ; ; ; ; ; ; ; ; ; 0.j.M t u t t t t t t k e t.SXtX; ; ; ; ; ; ; X + ; ; 3 h.h.k t u t t t t t t u t c NXNXc + ; ; ; ; ; ; ; ; ; ; ; ; ; ; ; ; + 6.lX:.t u t t t t t t t u 5 <.MX>X",
"; X.8XX.j u t t t u t ; 3 u t t u y _ 1X<Xq o ; ; ; ; ; ; o 8.1X<Xk t u t t t t t t t t t d.1X8.; o ; ; ; ; ; o w <X1X7.y u t t t t t t t u t q 8.( 7 ; ; ; ; ; ; ; ; ( 8.( t t t t t u 3 ; ; ; ; ; ; ; 3 ; w.R.A.: @ O O O O O @ ; D.R.;.; 3 ; ; ; ; ; ; ; ; ; ; ; ; ; t &.m ; X X O O O O X X k &.x ; ; ; ; ; ; ; ; ; e u t u t t KXSX%.o ; ; ; ; ; ; ; ; ; 8 j.h.t t t t t t t t t u t l DXAX8 + ; ; ; ; ; ; ; ; + 0 j.t.t u t t t t t t t u u t zXBX2.X ; ; ; ; ; ; ; ; ; ; ; ; ; ; ; ; ; 5.rXn t u t t t t t t t u t l &X:X",
": = [ ' r j t t t u t ; 3 u t t t t f.1X8.o ; ; ; ; ; ; ; ; ; s.1X0.y u t t t t t t u y 7.1Xf.; ; ; ; ; ; ; ; 3 o ( 1Xd.u t t t t t t t t t u ( 8.7 ; ; ; ; ; ; ; ; ; 3 ( 8.q t u t t u 3 ; ; ; ; ; ; 3 ; l T.P.; X + X X X O O : X t U.P.t ; ; ; ; ; ; ; ; ; ; ; ; ; 3 m &.e X O X X X X X O X O x &.t ; ; ; ; ; ; ; ; e u t t k e l.JXtX; + ; ; ; ; ; ; ; ; t.j.q.t u t t t t t t t t u e b.JXn.o ; ; ; ; ; ; ; + ; 9.j.%.t u t t t t t t t t u 4 5.BXwX  ; ; ; ; ; ; ; ; ; ; ; ; ; ; ; O n lX5.u t t t t t t t t t t u 5 3.MX",
"IX; - ' - j t t t u t ; 3 u t u t M 1X<X3 ; ; ; ; ; ; X @ @ @ q 1Xd.u t u t t t t t u t s.1X( o ; ; ; ; ; O @ @ @ ; <X1X_ y u t t t t t u t q 8.( ; ; ; ; ; ; ; ; ; ; ; w 8.( t t t t u 3 ; ; ; ; ; ; 3 ; ;.R.&.@ + X X X X X @ @ @ @ w.R.&.; 3 ; ; ; ; ; ; ; ; ; ; ; t &.x X X X X X X X X X O X e &.x ; ; ; ; ; ; ; ; e u t t u t k KXJXn.; ; ; ; ; ; ; ; 7.j.h.k t u t t t t t t t t u t M DXSXl.; ; ; ; ; ; ; 3 7.j.r.t t t t t t t t t t t u e :.BXNXc O ; ; ; ; ; ; ; ; ; ; ; ; ; ; + 6.lX2.5 u t t t t t t t t t u t v &X",
"sX5 = ' - j t t t u t ; 3 u t u y 7.1Xa.+ ; ; ; ; ; ; -.I.aXE.O f.s.k t u t t t t u t k <X<X7 ; ; ; ; ; : x L.iXaXt ( d.( y u t t t t t u t ( 8.w ; ; ; ; ; ; ; ; ; ; ; 7 8.( t t t t u 3 ; ; ; ; ; ; ; ; A.Y.j X O X X X X ; x -.I.t l I.;.; 3 ; ; ; ; ; ; ; ; ; ; ; j &.t X O X X O O X X X X X ; B m ; ; ; ; ; ; ; ; e u t t t u e %.DXJXn.; ; ; ; ; ; 7.j.h.M t u t t t t t t t t t t k e q.ZXJXl.+ ; ; ; ; ; t.n.h.k t u t t t t t t t t t t j 4 jXBXjXO ; ; ; ; ; ; ; ; ; ; ; ; ; O n lX5.c t u t t t t t t t t t t u 5 Y ",
"@ : = ] ] j t t t u t ; 3 u t u < 0.4X8.o ; ; ; ; + j UXUXUXpXX ( ( k t t t t t t u t k 1X<X; ; ; ; ; ; @ pXUXUXIXx w 8.q y u t t t t t u t ( 8.7 ; ; X ; ; ; ; ; ; ; ; 3 ( ( t t t t u 3 ; ; ; ; ; ; ; ; D.T.; X O X X + @ y.LXaXaX@.O &.l ; ; ; ; ; ; ; ; ; ; ; ; ; l *.e X O X O @ @ O X X X X O B B 3 ; ; ; ; ; ; ; e u t t t t k e %.KXr.e t t t t t M h.M t u t t t t t t t t t t t t k e q.KXq.t t t t t t %.h.l t u t t t t t t t t t t t u t @.NXBX5.  ; ; ; ; ; ; ; ; ; ; ; O c eXlX2.5 u t t t t t t t t t t t t u 5 ",
"; : = ] ] j t t t u t ; 3 u t u < 0.4X8.o ; ; ; ; ; ; &.m ; X ; ( 8.k t t t t t t u t k <X<X3 ; ; ; ; ; : l &.t X + w 8.q y u t t t t t u t ( 8.w ; @ B IXaXX ; ; ; ; ; 5 ( ( t t t t u 3 ; ; ; ; ; ; ; ; D.T.e X O X X O X e x t ; X ; &.x ; ; ; ; ; ; ; ; ; ; ; ; ; k &.t X O O X @.t X X X X X + B B 3 ; ; ; ; ; ; ; e u t t t t t u t u t t u u u u t t u t u t t t t t t t t t t t t t t u t k t t u u u u t t t t u t t t t t t t t t t t t t j 4 2.BXBX5.; ; ; ; ; ; ; ; ; ; + n eXlX6.t u t t t t t t t t t t t t t t u ",
"; : = ' - j t t t u t ; 3 u t u y ( 1Xf.; ; ; ; ; ; ; X X ; ; 5 ( ( u t t t t t t u t k <X1Xq o ; ; ; ; ; O X + ; ; ( 8.q t u t t t t t u t q 8.( X Q.UXUXI.+ ; ; ; ; ; 7 8.( t t t t u 3 ; ; ; ; ; ; ; ; A.Y.x @ O X X X O X @ @ X X t &.k ; ; ; ; ; ; ; ; ; ; ; ; ; j &.l X O @ j aXL.@ + X X X ; &.x ; ; ; ; ; ; ; ; e u t t t t t t u t t t t t t t t t t u t t t t t t t t t t t t t t t t u t u t t t t t t t t u t t t t t t t t t t t t t t t k 4 4.BXBX5.O ; ; ; ; ; ; ; ; :.rXlX6.u t u t t t t t t t t t t t t t t t ",
"; ; - ' r j t t t u t ; 3 u t u t k <X1X6 + ; ; ; ; ; ; ; ; ; w 8.( t u t t t t t t u y a.4X8.o ; ; ; ; ; ; ; ; ; 5 ( ( u t t t t t t t t t 8 8.( @ R.sX; @ ; ; ; ; ; ; ( 8.q t u t t u 3 ; ; ; ; ; ; 3 ; B R.A.@ O X X X X O O O O O x &.t ; ; ; ; ; ; ; ; ; ; ; ; ; e B B : X X E.aX5 X O X O X u &.k ; ; ; ; ; ; ; ; e u t t t t t t t u t t t t t t t t t t t t t t t t t t t t t t t t t t t u t t t t t t t t t t t t t t t t t t t t t t t t t t j 4 2.vX2.5 t e 3 ; 3 e t t l 6.2.t t u t t t t t t t t t t t t t t t t ",
": = ' ] i t t t t u t ; 3 u t t u y a.1Xs.; ; ; ; ; ; ; ; ; 5 ( 8.q t u t t t t t t u t q 1X<Xw o ; ; ; ; ; ; ; ; ( 8.( t t t t t t t t t t t ( f.8.o X + ; ; ; ; ; o 7 8.( k t t t t u 3 ; ; ; ; ; ; ; ; e P.T.l @ O X X X X X X X t &.x ; ; ; ; ; ; ; ; ; ; ; ; ; ; ; l &.l @ j aXy.# + X O X ; B B e ; ; ; ; ; ; ; ; e u t t t t t t t t t t t t t t t t t t t t t t t t t t t t t t t t t t t t t t t t t t t t t t t t t t t t t t t t t t t t t t t j 5 j t t u u u u u u u u t j t t u t t t t t t t t t t t t t t t t t ",
"= ] ] r j t t t t u t ; 3 u t t u t k <X1Xa.3 ; ; ; ; ; ; 7 ( 8.( t t t t t t t t t t u y a.1X<Xw ; ; ; ; ; ; ; w 8.( k t t t t t t t t t u t q 1X1X8.; ; ; ; ; ; ; 7 ( 8.q t u t t t u 3 ; ; ; ; ; ; ; 3 ; B Y.P.l X X X X X X X t &.B t ; ; ; ; ; ; ; ; ; ; ; ; ; ; ; e B &.j : j ; X X X X ; m &.k ; ; ; ; ; ; ; ; ; e u t t t t t t t t t t t t t t t t t t t t t t t t t t t t t t t t t t t t t u t t t t t t u t t t t t t t t t t t t t t t t t t t j t t u t t t t t t t t t t u u t t t t t t t t t t t t t t t t t t ",
"] ' - j t t t t t u t ; 3 u t t t u t q <X4X0., ; ; ; ; e ( 8.( u t t t t t t t t t t u t t s.4X<Xe ; ; ; ; , q 8.( q t u t t t t t t t t t u y 7.1X1X( , ; ; ; ; 5 ( 8.( t t t t t t u 3 ; ; ; ; ; ; ; ; ; ; ;.Y.U.e O O X O O 3 &.&.j ; ; ; ; ; ; ; ; ; ; ; ; ; ; ; ; ; t B P.B @ O O O + ; m &.l ; ; ; ; ; ; ; ; ; ; e u t t t t t t t t t t t t t t t t t t t t t t t t t t t t t t t t t t t t u t t t u t t u t t u t t t t t t t t t t t t t t t t t t u u t t u t t t u t t u t t u t t t t t t t t t t t t t t t t t t ",
"- - j t t t t t t u t ; 3 u t t t t u y q s.M t t t t t t q ( u t t t t t t t t t t t t u t t a.0.y u t t t u u ( q t u t t t t t t t t t t t u y 7.a.u t t t t t t q ( t t t t t t t u 3 ; ; ; ; ; ; ; ; ; ; ; *.=.; ; ; ; ; ; ; l j ; ; ; ; ; ; ; ; ; ; ; ; ; ; ; ; ; ; ; k A.e ; ; ; ; ; ; j l ; ; ; ; ; ; ; ; ; ; ; e u t t t t t t t t t t t t t t t t t t t t t t t t t t t t t t t t t t t u e l x t t k k e l k t u t t t t t t t t t t t t t t t t t t t x u t m x t t l l e l l t u t t t t t t t t t t t t t t t t t ",
"t j t t t t t t t u t ; 3 u t t t t t u t t t t u u u t t t t t t t t t t t t t t t t t t u t t t t t u u u t t t t t t t t t t t t t t t t t t u t t t t u u u t t t t t t t t t t t u 3 ; ; ; ; ; ; ; ; ; ; ; ; ; ; ; ; ; ; ; ; ; ; ; ; ; ; ; ; ; ; ; ; ; ; ; ; ; ; ; ; ; ; ; ; ; ; ; ; ; ; ; ; ; ; ; ; ; ; ; ; ; ; ; e u t t t t t t t t t t t t t t t t t t t t t t t t t t t t t t t t t t k t =.^.A.e B iXQ.*.iXQ.k t u t t t t t t t t t t t t t t t k t *.iXY.D.iXD.t k R.iX-.R.iX&.t u t t t t t t t t t t t t t t t u ",
"t t t t t t t t t u t ; 3 u t t t t t t u u t t t t t t t t t t t t t t t t t t t t t t t t u u u t t t t t t t t t t t t t t t t t t t t t t t t u u t t t t t t t t t t t t t t t t u 3 ; ; ; ; ; ; ; ; ; ; ; ; ; ; ; ; ; ; ; ; ; ; ; ; ; ; ; ; ; ; ; ; ; ; ; ; ; ; ; ; ; ; ; ; ; ; ; ; ; ; ; ; ; ; ; ; ; ; ; ; ; ; ; e u t t t t t t t t u u t t u u t u u t t t t t t t t t t t t t t t t u e ; ^.^.*.; U.D.A.aX=.T.A.3 u t t t t t t t t t t t t t t u e ; l e Q.^.iX*.t l 3 D.Y.X T.P.; k t t t t t t t t t t t t t t t u ",
"t t t k u u u t t u t ; 3 u t t t t u t u u t t u t u u t t u t u u t t t t t t t t t t t t t t t u u t t u u t u u t t t t t t t t t t t t u t u u t t t t u u u u t t t u u t u u t u 3 ; ; ; ; ; ; ; ; ; ; ; ; ; ; ; ; ; ; ; ; ; ; ; ; ; ; ; ; ; ; ; ; ; ; ; ; ; ; ; ; ; ; ; ; ; ; ; ; ; ; ; ; ; ; ; ; ; ; ; ; ; ; ; e u t t t t t t t u t t t u t t k t t u t t t t t t t t t t t t t t t t P.D.iXA.iX; P.-.w.IXx D.D.; k t t t t t t t t t t t t t u e w.T.; w.R.t *.iXB ; k /.k l ^.l t u t t t t t t t t t t t t t t t t ",
"t t u e t e e u t u t ; 3 u t t t u t u t t u u t t e e t t t t t t u u t t t t t t t t t t t t u t t t u t t u e t u t t t t t t t t t t u t u t e u t t u t t e t t t u t e t e t u u 3 ; ; ; ; ; ; ; ; ; ; ; 3 ; ; 3 ; ; 3 ; ; 3 ; ; ; ; ; ; ; ; ; ; ; ; ; ; ; ; ; ; ; ; ; ; ; ; ; ; 3 ; ; 3 ; ; ; ; ; ; ; ; ; ; ; ; e u t t t t t t u e x B t t l m e x x t u t t t t t t t t t t t t t t t *.x !.A.^.A.D.R.Y./.P.^.-.e u t t t t t t t t t t t t t u t m B -.aX*.B B ^.P.&.iXP.l sXD.k t u t t t t t t t t t t t t t t t t ",
"u u 3 A.l B &.t t u t ; 3 u t t u t k t x m t t k u &.*.u t l u k k e e t t t t t t t t t t t u t u l t t B l e B l t u t t t t t t t t u t l t k B t t u t k B =.B u u e m A.t =.l t k ; ; ; ; ; ; ; ; e ; e k : t j : t t : t t ; ; e 3 3 3 ; ; ; ; ; ; ; ; ; ; ; ; ; ; ; t t ; ; 3 k ; 5 k ; e k ; ; ; ; ; ; ; ; ; ; e u t t t t t u e &.^.A.t l /.iXw./.iXB t u t t t t t t t t t t t t t u e 3 B ^.-.D.m U.P.t Y.D.e u t t t t t t t t t t t t t t t u t ; A.^.T.A.!.w.-.A.Q.R.P.Q.R.w.e u t t t t t t t t t t t t t t t t ",
"e k B iXA.pXQ.P.e k t ; 3 u t u t k aXA.^.iXB m aXA.pXD.l t ^.; A.U.B &.k t t t t t t t t t t k ; iXT.O w.pXR.A.pXR.t t u t t t t t t k e A.aXt R.iXD.e 3 D.sXw.Q.aXB e k D.Y.Y././.B t 3 ; ; ; ; ; ; y.U.; L.P.m S.P.m L.L.m L.L.t ; L.; m y.j l 3 ; ; ; ; ; ; ; ; ; ; ; l I.L.t ; S.U.&.A.I.&.S.I.x ; 3 ; ; ; ; ; ; ; e u t t t t t k 3 Y.pXA.3 D.U.&.LXA.A.T.; k t t t t t t t t t t t t t t u u t ; e e t 3 3 t ; 3 u t t t t t t t t t t t t t t t t t u k e ; 3 e ; t e e ; 3 3 ; ; e u t t t t t t t t t t t t t t t t t ",
"; Y./.pXD.R.D.Y.3 k t ; 3 u t k e D.pXR.D.A.T.D.pXD.sXA.t t pX=.Y.Y.P.LXm t u t t t t t t t k e *.pXD.O Q.=.P.aXx R.=.e u t t t t t t 3 e B iX=.^.x iXe k Q./.O x Q.3 m /.pXY.R.A.^.*.t 3 ; ; ; ; ; ; m S.x A.j R.;.l !.&.x !.x ;.-.X I.m y.A.;.!.j ; ; ; ; ; ; ; ; ; 3 + y.&.;.;.t S.e E.A.t E.-.l S.+ 3 ; ; ; ; ; ; ; e u t t t t t u e iXA./.x A.D.m IX-.-.Y.; k t t t t t t t t t t t t t t t t u k k e t t e u k k t t t t t t t t t t t t t t t t t t t t u k k k k e t e t k k k k u t t t t t t t t t t t t t t t t t t ",
"t iX; Q.D.pXQ.P.e k t ; 3 u u e A./.^.P.R.iXaXY.iX=.t /.A.; sXY.pXD.*.P.3 k t t t t t t t u t x iXR.R.@ R.B P.LXt Y.w.3 u t t t u t u Y.A.; ^.l T./.iXX Q.R.iXe Y.D.O D.P.m Y.R././.&.t 3 ; ; ; ; ; ; e S.m -.e !.&.j !.x l !.k &.y.@ U.A.I.-.k -.+ 3 ; ; ; ; ; ; ; ; 3 : y.x *.;.5 S.; E.y.; !.;.t S.+ 3 ; ; ; ; ; ; ; e u t t t t t k 3 T.U.R.P.A.Q.Y.Q.R.Q.A.3 u t t t t t t t t t t t t t t t t u u ; D.x =.=.t t t t t t t t t t t t t t t t t t t t t t t t t u t t D.k w.&.t u t t t t t t t t t t t t t t t t t t t t t ",
"; /.P.pXD.^.A.iXe k t ; 3 u u e -.Y.IXU.=./.T.Y.IXI.*.^.-.e pX; A.Q.sXA.k t u t t t t t t u t m T.sXsXA.P.Q.R.Q.Y./.m t u t t t t t u m x e iXl B ^.P.D.P.^.IX=.iXl e =.^.R.R.Q.A.^.D.3 3 ; ; ; ; ; ; t P.t L.A.S.S.A.S.S.A.S.A.S.m + I.+ m S.U.&.3 ; ; ; ; ; ; ; ; ; 3 : &.S.S.y.m S.A.S.S.A.S.S.S.-.: 3 ; ; ; ; ; ; ; e u t t t t t u t k T.-.-.B A.I.e D.P.t u t t t t t t t t t t t t t t t t u t k *.iXD.pXR.T.e u t t t t t t t t t t t t t t t t t t t t t u t l A.^.P.iX^.A.e u t t t t t t t t t t t t t t t t t t t t ",
"t B T.A.m Y.T.m t u t ; 3 u t u t + &.x P.w.3 ; *.B Y.A.e u w.k B A.I.U.l t u t t t t t t t u t ; x &.w.l P.w.t T.-.e u t t t t t t t t t t w.t D.D.k A.3 e *.x w.e k t A.U.&.-.Q.D.t u 3 ; ; ; ; ; ; 3 m ; &.-.; &.-.; *.-.; ;.;.; ; m 5 j B -.y.t ; ; ; ; ; ; ; ; ; ; ; ; -.&.k x l A.3 x y.; m y.3 ; ; ; ; ; ; ; ; ; e u t t t t t t u t ; e e t e ; u 3 ; u t t t t t t t t t t t t t t t t t k e Y.^.sXA.Q.P.Y.3 k t t t t t t t t t t t t t t t t t t t t t t t ^././.P.T.R.D.3 u t t t t t t t t t t t t t t t t t t t t ",
"u t ; 3 t ; ; t u u t ; 3 u t t u k t t ; e k k e t ; e u t e t t e ; ; t u t t t t t t t t t t k t t e t ; e u ; e u t t t t t t t t u t u e u 3 ; t 3 u k e t e u t u 3 ; t e ; 3 t u 3 ; ; ; ; ; ; ; ; 3 : O ; : + 3 : + 3 + : ; ; ; ; ; ; O O ; ; ; ; ; ; ; ; ; ; ; ; ; + : ; ; ; O ; ; O ; ; O ; ; ; ; ; ; ; ; ; ; e u t t t t t t t u k u u u u k t k k t t t t t t t t t t t t t t t t t u t k iX; Q.D.pXR.T.e u t t t t t t t t t t t t t t t t t t t t u e *.^.3 Q.P.iXQ.D.e u t t t t t t t t t t t t t t t t t t t t ",
"t u k k u k k u t u t ; 3 u t t t t u u k u t t u u k u t t u t u u k k u t t t t t t t t t t t t u u u u k u t k u t t t t t t t t t t t t u t k k u u t t u u u t t t k k u u k k t u 3 ; ; ; ; ; ; ; 3 ; 3 3 ; 3 3 ; 3 3 ; 3 3 ; ; 3 ; ; 3 3 3 ; ; ; ; ; ; ; ; ; ; ; ; ; 3 3 ; ; ; 3 ; 3 3 ; 3 3 ; ; ; ; ; ; ; ; ; ; e u t t t t t t t t t t t t t t t t t t t t t t t t t t t t t t t t t t t u e ^.T.sXD./.D.iXe u t t t t t t t t t t t t t t t t t t t t u t l iXY.iXP.Y.T.Y.; k t t t t t t t t t t t t t t t t t t t t ",
"t t t t t t t t t u t ; 3 u t t t t t t t t t t t t t t t t t t t t t t t t t t t t t t t t t t t t t t t t t t t t t t t t t t t t t t t t t t t t t t t t t t t t t t t t t t t t t u ; ; ; ; ; ; ; ; ; ; ; ; ; ; ; ; ; ; ; ; ; ; ; ; ; ; ; ; ; ; ; ; ; ; ; ; ; ; ; ; ; ; ; ; ; ; ; ; ; ; ; ; ; ; ; ; ; ; ; ; ; ; ; ; e u t t t t t t t t t t t t t t t t t t t t t t t t t t t t t t t t t t t u t m P.w.l P.P.x t u t t t t t t t t t t t t t t t t t t t t t u e *.P.*.B T.D.u t t t t t t t t t t t t t t t t t t t t t t ",
"u u u u u u u u u k t ; 3 k u u u u u u u u u u u u u u u u u u u u u u u u u u u u u u u u u u u u u u u u u u u u u u u u u u u u u u u u u u u u u u u u u u u u u u u u u u u u u k 3 ; ; ; ; ; ; ; ; ; ; ; ; ; ; ; ; ; ; ; ; ; ; ; ; ; ; ; ; ; ; ; ; ; ; ; ; ; ; ; ; ; ; ; ; ; ; ; ; ; ; ; ; ; ; ; ; ; ; ; ; ; ; ; t k u u u u u u u u u u u u u u u u u u u u u u u u u u u u u u u u u u u u u t ; e t ; ; t u u u u u u u u u u u u u u u u u u u u u u u u k t ; t t ; 3 u u u u u u u u u u u u u u u u u u u u u u u ",
"; ; ; ; ; ; ; ; ; ; ; ; ; ; ; ; ; ; ; ; ; ; ; ; ; ; ; ; ; ; ; ; ; ; ; ; ; ; ; ; ; ; ; ; ; ; ; ; ; ; ; ; ; ; ; ; ; ; ; ; ; ; ; ; ; ; ; ; ; ; ; ; ; ; ; ; ; ; ; ; ; ; ; ; ; ; ; ; ; ; ; ; ; ; ; ; ; ; ; ; ; ; ; ; ; ; ; ; ; ; ; ; ; ; ; ; ; ; ; ; ; ; ; ; ; ; ; ; ; ; ; ; ; ; ; ; ; ; ; ; ; ; ; ; ; ; ; ; ; ; ; ; ; ; ; ; ; ; ; ; ; ; ; ; ; ; ; ; ; ; ; ; ; ; ; ; ; ; ; ; ; ; ; ; ; ; ; ; ; ; ; ; ; ; ; 3 3 3 ; e e 3 ; ; ; ; ; ; ; ; ; ; ; ; ; ; ; ; ; ; ; ; ; ; ; ; ; 3 3 3 3 e 3 ; ; ; ; ; ; ; ; ; ; ; ; ; ; ; ; ; ; ; ; ; ; ; ",
"; ; ; ; ; ; ; ; ; ; ; ; ; ; ; ; ; ; ; ; ; ; ; ; ; ; ; ; ; ; ; ; ; ; ; ; ; ; ; ; ; ; ; ; ; ; ; ; ; ; ; ; ; ; ; ; ; ; ; ; ; ; ; ; ; ; ; ; ; ; ; ; ; ; ; ; ; ; ; ; ; ; ; ; ; ; ; ; ; ; ; ; ; ; ; ; ; ; ; ; ; ; ; ; ; ; ; ; ; ; ; ; ; ; ; ; ; ; ; ; ; ; ; ; ; ; ; ; ; ; ; ; ; ; ; ; ; ; ; ; ; ; ; ; ; ; ; ; ; ; ; ; ; ; ; ; ; ; ; ; ; ; ; ; ; ; ; ; ; ; ; ; ; ; ; ; ; ; ; ; ; ; ; ; ; ; ; ; ; ; ; ; ; ; ; ; ; ; ; ; ; ; ; ; ; ; ; ; ; ; ; ; ; ; ; ; ; ; ; ; ; ; ; ; ; ; ; ; ; ; ; ; ; ; ; ; ; ; ; ; ; ; ; ; ; ; ; ; ; ; ; ; ; ; ; ; ",
"t t t t t t t t t t t t t t t t t t t t t t t t t t t t t t t t t t t t t t t t t t t t t t t t t t t t t t t t t t t t t t t t t t t t t t t t t t t t t t t t t t t t t t t t t t t t t t t t t t t t t t t t t t t t t t t t t t t t t t t t t t t t t t t t t t t t t t t t t t t t t t t t t t t t t t t t t t t t t t t t t t t t t t t t t t t t t t t t t t t t t t t t t t t t t t t t t t t t t t t t t t t t t t t t t t t t t t t t t t t t t t t t t t t t t t t t t t t t t t t t t t t t t t t t t t t t t t t t ",
"u u u u u u u u u u u u u u u u u u u u u u u u u u u u u u u u u u u u u u u u u u u u u u u u u u u u u u u u u u u u u u u u u u u u u u u u u u u u u u u u u u u u u u u u u u u u u u u u u u u u u u u u u u u u u u u u u u u u u u u u u u u u u u u u u u u u u u u u u u u u u u u u u u u u u u u u u u u u u u u u u u u u u u u u u u u u u u u u u u u u u u u u u u u u u u u u u u u u u u u u u u u u u u u u u u u u u u u u u u u u u u u u u u u u u u u u u u u u u u u u u u u u u u u u u u u u u u u u ",
"t t t t t t t t t t t t t t t t t t t t t t t t t t t t t t t t t t t t t t t t t t t t t t t t t t t t t t t t t t t t t t t t t t t t t t t t t t t t t t t t t t t t t t t t t t t t t t t t t t t t t t t t t t t t t t t t t t t t t t t t t t t t t t t t t t t t t t t t t t t t t t t t t t t t t t t t t t t t t t t t t t t t t t t t t t t t t t t t t t t t t t t t t t t t t t t t t t t t t t t t t t t t t t t t t t t t t t t t t t t t t t t t t t t t t t t t t t t t t t t t t t t t t t t t t t t t t t t t ",
"t t t t t t t t t t t t t t t t t t t t t t t t t t t t t t t t t t t t t t t t t t t t t t t t t t t t t t t t t t t t t t t t t t t t t t t t t t t t t t t t t t t t t t t t t t t t t t t t t t t t t t t t t t t t t t t t t t t t t t t t t t t t t t t t t t t t t t t t t t t t t t t t t t t t t t t t t t t t t t t t t t t t t t t t t t t t t t t t t t t t t t t t t t t t t t t t t t t t t t t t t t t t t t t t t t t t t t t t t t t t t t t t t t t t t t t t t t t t t t t t t t t t t t t t t t t t t t t t ",
"t t t t t t t t t t t t t t t t t t t t t t t t t t t t t t t t t t t t t t t t t t t t t t t t t t t t t t t t t t t t t t t t t t t t t t t t t t t t t t t t t t t t t t t t t t t t t t t t t t t t t t t t t t t t t t t t t t t t t t t t t t t t t t t t t t t t t t t t t t t t t t t t t t t t t t t t t t t t t t t t t t t t t t t t t t t t t t t t t t t t t t t t t t t t t t t t t t t t t t t t t t t t t t t t t t t t t t t t t t t t t t t t t t t t t t t t t t t t t t t t t t t t t t t t t t t t t t t t ",
"t t t t t t t t t t t t t t t t t t t t t t t t t t t t t t t t t t t t t t t t t t t t t t t t t t t t t t t t t t t t t t t t t t t t t t t t t t t t t t t t t t t t t t t t t t t t t t t t t t t t t t t t t t t t t t t t t t t t t t t t t t t t t t t t t t t t t t t t t t t t t t t t t t t t t t t t t t t t t t t t t t t t t t t t t t t t t t t t t t t t t t t t t t t t t t t t t t t t t t t t t t t t t t t t t t t t t t t t t t t t t t t t t t t t t t t t t t t t t t t t t t t t t t t t t t t t t t t t ",
"t t t t t t t t t t t t t t t t t t t t t t t t t t t t t t t t t t t t t t t t t t t t t t t t t t t t t t t t t t t t t t t t t t t t t t t t t t t t t t t t t t t t t t t t t t t t t t t t t t t t t t t t t t t t t t t t t t t t t t t t t t t t t t t t t t t t t t t t t t t t t t t t t t t t t t t t t t t t t t t t t t t t t t t t t t t t t t t t t t t t t t t t t t t t t t t t t t t t t t t t t t t t t t t t t t t t t t t t t t t t t t t t t t t t t t t t t t t t t t t t t t t t t t t t t t t t t t t t ",
"t t t t t t t t t t t t t t t t t t t t t t t t t t t t t t t t t t t t t t t t t t t t t t t t t t t t t t t t t t t t t t t t t t t t t t t t t t t t t t t t t t t t t t t t t t t t t t t t t t t t t t t t t t t t t t t t t t t t t t t t t t t t t t t t t t t t t t t t t t t t t t t t t t t t t t t t t t t t t t t t t t t t t t t t t t t t t t t t t t t t t t t t t t t t t t t t t t t t t t t t t t t t t t t t t t t t t t t t t t t t t t t t t t t t t t t t t t t t t t t t t t t t t t t t t t t t t t t t ",
"t t t t t t t t t t t t t t t t t t t t t t t t t t t t t t t t t t t t t t t t t t t t t t t t t t t t t t t t t t t t t t t t t t t t t t t t t t t t t t t t t t t t t t t t t t t t t t t t t t t t t t t t t t t t t t t t t t t t t t t t t t t t t t t t t t t t t t t t t t t t t t t t t t t t t t t t t t t t t t t t t t t t t t t t t t t t t t t t t t t t t t t t t t t t t t t t t t t t t t t t t t t t t t t t t t t t t t t t t t t t t t t t t t t t t t t t t t t t t t t t t t t t t t t t t t t t t t t t ",
"t t t t t t t t t t t t t t t t t t t t t t t t t t t t t t t t t t t t t t t t t t t t t t t t t t t t t t t t t t t t t t t t t t t t t t t t t t t t t t t t t t t t t t t t t t t t t t t t t t t t t t t t t t t t t t t t t t t t t t t t t t t t t t t t t t t t t t t t t t t t t t t t t t t t t t t t t t t t t t t t t t t t t t t t t t t t t t t t t t t t t t t t t t t t t t t t t t t t t t t t t t t t t t t t t t t t t t t t t t t t t t t t t t t t t t t t t t t t t t t t t t t t t t t t t t t t t t t t "
};
